nimar13/UR3e_dataset_trayectorias/trayectorias_ejecutadas/trapezoidal/trayectoria_062_result.csv
timestamp,q1,q2,q3,q4,q5,q6,qd1,qd2,qd3,qd4,qd5,qd6,tau1,tau2,tau3,tau4,tau5,tau6
1749047917.1904092,-2.902957026158468,-1.2551332277110596,1.6536029020892542,5.649279820709982,3.365480661392212,-2.73155385652651,0.006765623576939106,-0.00036985529004596174,0.00010734274837886915,-0.0012091100215911865,-0.0020815301686525345,0.0026991984341293573,-0.07614721357822418,-1.3145475387573242,-0.7478234767913818,-0.004388496279716492,-0.06465312838554382,-0.02918773889541626
1749047917.1904905,-2.902976099644796,-1.255136863594391,1.653595272694723,5.649291741638937,3.365488052368164,-2.7315684000598353,0.006440464872866869,-0.00040786233148537576,0.00010131186718354002,-0.0011808987474069,-0.0015800819965079427,0.0030563250184059143,-0.06506246328353882,-1.3438061475753784,-0.7644284963607788,-0.0037093758583068848,-0.0947340726852417,-0.034064725041389465
1749047917.1905618,-2.902938191090719,-1.2551176112941285,1.653595272694723,5.649272668152609,3.365499973297119,-2.73155647913088,0.007144622970372438,-0.0003811354690697044,9.591218986315653e-05,-0.0012442799052223563,-0.0014421944506466389,0.003197192447260022,-0.08142618834972382,-1.3343665599822998,-0.7565269470214844,-0.006557568907737732,-0.09531956911087036,-0.041565343737602234
1749047917.190633,-2.90291411081423,-1.2551451486400147,1.6535990873919886,5.649276244431295,3.3654844760894775,-2.731549326573507,0.007368134334683418,-0.00041473880992271006,9.104757191380486e-05,-0.0013066116953268647,-0.0016318392008543015,0.003518793499097228,-0.07334808260202408,-1.3371254205703735,-0.7481897473335266,0.0072022974491119385,-0.10629451274871826,-0.039759352803230286
1749047917.1907043,-2.9028781096087855,-1.255145178442337,1.6536110083209437,5.64926432350234,3.365476131439209,-2.731560293828146,0.007060858886688948,-0.0003896606503985822,8.66717891767621e-05,-0.0013824694324284792,-0.001753625925630331,0.0036808515433222055,-0.05873493105173111,-1.3557676076889038,-0.7569826245307922,0.012006983160972595,-0.10368676483631134,-0.04060317575931549
1749047917.190774,-2.9028850237475794,-1.2551176708987732,1.653595272694723,5.649260747223654,3.365468978881836,-2.731525484715597,0.006708093918859959,-0.00036696685128845274,8.268968667834997e-05,-0.0013159592635929585,-0.002022702479735017,0.003335392102599144,-0.058789677917957306,-1.3306103944778442,-0.7579997181892395,0.008795961737632751,-0.09948340058326721,-0.015013322234153748
1749047917.1908448,-2.9028692881213587,-1.255145178442337,1.6536110083209437,5.649260747223654,3.365476131439209,-2.7315409819232386,0.00572784710675478,-0.00039126770570874214,7.904877566033974e-05,-0.0012334359344094992,-0.0021039664279669523,0.003020715666934848,-0.0531034916639328,-1.3122973442077637,-0.7530170679092407,0.011724546551704407,-0.1061439961194992,-0.03004838526248932
1749047917.190913,-2.9028645197497767,-1.2551295918277283,1.6535990873919886,5.649276244431295,3.365476131439209,-2.731525484715597,0.00526498444378376,-0.0003755764046218246,7.572967297164723e-05,-0.001163115375675261,-0.0020513259805738926,0.0027584685012698174,-0.04314740002155304,-1.3565418720245361,-0.7556127905845642,0.015220992267131805,-0.10763508081436157,-0.03676922619342804
1749047917.1909842,-2.902830187474386,-1.2551885408214112,1.6536181608783167,5.649271595269003,3.365457057952881,-2.73153263727297,0.004940394777804613,-0.00043885657214559615,7.267209730343893e-05,-0.0011391141451895237,-0.0019992757588624954,0.0025642202235758305,-0.048732079565525055,-1.3547025918960571,-0.7613317966461182,-0.0026683807373046875,-0.10172687470912933,-0.0008337944746017456
1749047917.1910524,-2.9028385321246546,-1.2551765602878113,1.6536148230182093,5.649260747223654,3.365440845489502,-2.731501642857687,0.004505018703639507,-0.0004821110633201897,6.984492210904136e-05,-0.0010835485300049186,-0.0016847094520926476,0.0022691600024700165,-0.05033296346664429,-1.3308807611465454,-0.7599651217460632,-0.00909513235092163,-0.11492392420768738,-0.024323061108589172
1749047917.191111,-2.9028335253344935,-1.2551765900901337,1.6536110083209437,5.64926432350234,3.365495204925537,-2.7315290609942835,0.0039249905385077,-0.000514776271302253,6.724114791722968e-05,-0.000988581101410091,-0.0014657313004136086,0.002104738960042596,-0.0340791791677475,-1.3446472883224487,-0.7604164481163025,-0.01861874759197235,-0.12452130019664764,-0.015986725687980652
1749047917.1911523,-2.9028454462634485,-1.2551451486400147,1.6536110083209437,5.649260747223654,3.3654606342315674,-2.731544558201925,0.0033983171451836824,-0.000543986156117171,6.481975287897512e-05,-0.0009058906580321491,-0.0014635893749073148,0.0019416644936427474,-0.04790623486042023,-1.363742470741272,-0.7511817812919617,0.002455301582813263,-0.10778476297855377,-0.012357145547866821
1749047917.1911902,-2.90283710161318,-1.25517292440448,1.6536262671100062,5.649252164154806,3.3654797077178955,-2.7315099875079554,0.002733782399445772,-0.0008762867073528469,4.723500751424581e-05,-0.0008205341291613877,-0.0015202711801975965,0.001808889559470117,-0.03936269134283066,-1.3555561304092407,-0.7720924019813538,0.015786446630954742,-0.11882267892360687,-0.013272151350975037
1749047917.1912277,-2.9028764406787317,-1.2551643413356324,1.6536262671100062,5.649252164154806,3.3654208183288574,-2.731513563786642,0.002343899104744196,-0.0009190489072352648,3.1273753847926855e-05,-0.000773644307628274,-0.0015973441768437624,0.0016844402998685837,-0.0028579775243997574,-1.3580528497695923,-0.7663664221763611,-0.010364189743995667,-0.10255084931850433,-0.019901469349861145
1749047917.1912646,-2.9028213659869593,-1.2551415127566834,1.6536110083209437,5.649267959385671,3.3654680252075195,-2.7315290609942835,0.0017456554342061281,-0.0009165481314994395,2.9317523512872867e-05,-0.0006874852697364986,-0.001878300216048956,0.0016588076250627637,-0.023306986317038536,-1.3453691005706787,-0.7564987540245056,-0.0011298507452011108,-0.11624141037464142,-0.01953299343585968
1749047917.1913018,-2.9028213659869593,-1.2551415127566834,1.6536110083209437,5.649267959385671,3.3654680252075195,-2.7315290609942835,0.0017456554342061281,-0.0009165481314994395,2.9317523512872867e-05,-0.0006874852697364986,-0.001878300216048956,0.0016588076250627637,-0.023306986317038536,-1.3453691005706787,-0.7564987540245056,-0.0011298507452011108,-0.11624141037464142,-0.01953299343585968
1749047917.1913388,-2.902867857609884,-1.255153403883316,1.6536110083209437,5.649271595269003,3.365447998046875,-2.7315052191363733,0.0015051652444526553,-0.000929058704059571,2.833108010236174e-05,-0.0006114947027526796,-0.0017686932114884257,0.0019862791523337364,-0.02352488972246647,-1.3754082918167114,-0.7574515342712402,-0.0013949275016784668,-0.10734806954860687,-0.013695329427719116
1749047917.191376,-2.902849022542135,-1.2551847857287903,1.6535990873919886,5.649267959385671,3.365455389022827,-2.7314932982074183,0.0012360650580376387,-0.001144432695582509,2.6650870495359413e-05,-0.0004985277773812413,-0.0013369813095778227,0.0024871884379535913,-0.04611358046531677,-1.3280352354049683,-0.7609623670578003,0.01201707124710083,-0.10272853076457977,-0.021070942282676697
1749047917.1914122,-2.9028144518481653,-1.2551655930331727,1.653595272694723,5.649267959385671,3.3654518127441406,-2.7315052191363733,0.0010926801478490233,-0.0011103899450972676,2.5882523914333433e-05,-0.00045628586667589843,-0.001141306827776134,0.002164870034903288,-0.014384005218744278,-1.3525265455245972,-0.7423620223999023,0.011618062853813171,-0.09881646931171417,-0.0302896648645401
1749047917.1914494,-2.902867857609884,-1.2551570695689698,1.6536262671100062,5.649252164154806,3.3654398918151855,-2.7314932982074183,0.0008295890293084085,-0.0012521009193733335,2.516050881240517e-05,-0.000420618976932019,-0.0008721144986338913,0.0018002435099333525,-0.01578143611550331,-1.3372000455856323,-0.7521995902061462,-0.00115232914686203,-0.11025319993495941,-0.015707150101661682
1749047917.1915643,-2.902809445058004,-1.25517292440448,1.6536110083209437,5.649267959385671,3.3654325008392334,-2.7315126101123255,0.0008236676803790033,-0.0011847213609144092,2.4476285034324974e-05,-0.00039018222014419734,-0.0007101540104486048,0.0014998361002653837,-0.03332143276929855,-1.3493164777755737,-0.7521438002586365,0.0012788474559783936,-0.11194978654384613,-0.02470579743385315
1749047917.1927657,-2.9027679602252405,-1.2551268500140687,1.6536148230182093,5.649255740433492,3.3654325008392334,-2.731497112904684,0.0008336197352036834,-0.0011379118077456951,2.382672391831875e-05,-0.00036384689155966043,-0.0007055625901557505,0.001250019995495677,-0.007641550153493881,-1.355900526046753,-0.7531872391700745,0.036964401602745056,-0.10443834960460663,-0.02120077610015869
1749047917.2342827,-2.9028285185443323,-1.2551533442786713,1.6536110083209437,5.649252164154806,3.3654870986938477,-2.7314770857440394,0.0008413869072683156,-0.0011050988687202334,2.3213482563733123e-05,-0.000340823782607913,-0.0006376962410286069,0.0010653298813849688,-0.04880199581384659,-1.3498189449310303,-0.7511762976646423,0.006863132119178772,-0.10805796086788177,-0.027302071452140808
1749047917.2343285,-2.9028406778918665,-1.2552003127387543,1.6536076704608362,5.649252164154806,3.3654518127441406,-2.7314770857440394,0.0007561853853985667,-0.0012222432997077703,2.2629845261690207e-05,-0.00032057714997790754,-0.0005726309027522802,0.0009272517054341733,-0.0508965402841568,-1.3550090789794922,-0.7545180916786194,0.019866399466991425,-0.10951893031597137,-0.028865724802017212
1749047917.2343695,-2.9027939478503626,-1.25517292440448,1.6535919348346155,5.649252164154806,3.3654470443725586,-2.7314770857440394,0.0006843159208074212,-0.0017221770249307156,2.2073500076658092e-05,-0.0003025937476195395,-0.0005179840372875333,0.0008208963554352522,-0.03351390361785889,-1.3566688299179077,-0.7335007786750793,0.029182597994804382,-0.10947546362876892,-0.024611160159111023
1749047917.2344084,-2.9028406778918665,-1.255169228916504,1.653595272694723,5.649252164154806,3.3654444217681885,-2.7314932982074183,0.0006249020807445049,-0.0019248089520260692,2.1546184143517166e-05,-0.0002865070418920368,-0.0004725587205030024,0.0007364970515482128,-0.06953299045562744,-1.3308048248291016,-0.7497571110725403,0.030397921800613403,-0.11779184639453888,-0.01589973270893097
1749047917.234447,-2.9028406778918665,-1.255215899353363,1.6536110083209437,5.649248528271475,3.365455389022827,-2.731501642857687,0.0005749834817834198,-0.0017408119747415185,3.9318474591709673e-05,-0.00027206819504499435,-0.0004929574206471443,0.0006678811041638255,-0.047669023275375366,-1.3548893928527832,-0.7643707394599915,0.01100185513496399,-0.10409198701381683,-0.030986040830612183
1749047917.234485,-2.902824942265646,-1.2552049917033692,1.6536148230182093,5.64926432350234,3.365455389022827,-2.7315171400653284,0.0005324527737684548,-0.0014283122727647424,4.0940576582215726e-05,-0.00025900930631905794,-0.0004665964806918055,0.0006110267713665962,-0.06550715118646622,-1.3479212522506714,-0.7335768342018127,0.030161365866661072,-0.10950158536434174,-0.03127647936344147
1749047917.2345228,-2.9028213659869593,-1.2552086871913453,1.6536148230182093,5.649240243225851,3.365455389022827,-2.7314897219287317,0.0004358357982710004,-0.0012993216514587402,4.019296102342196e-05,-0.00024713529273867607,-0.0004360361199360341,0.0005631095846183598,-0.06198956072330475,-1.3709615468978882,-0.7491576075553894,0.017300061881542206,-0.10086186230182648,-0.023510336875915527
1749047917.234565,-2.9028282801257532,-1.2551582616618653,1.6535833517657679,5.649232971459188,3.3654398918151855,-2.731473509465353,0.00040587648982182145,-0.0013383184559643269,3.9325666875811294e-05,-0.00023632061493117362,-0.0004080823273397982,0.0005221677711233497,-0.07471859455108643,-1.3543405532836914,-0.7399038076400757,0.04401395469903946,-0.09621316194534302,-0.03899519145488739
1749047917.2346046,-2.9028285185443323,-1.2552049917033692,1.6536229292498987,5.649267959385671,3.365464210510254,-2.7314770857440394,0.00017790150013752282,-0.001274626119993627,3.848359119729139e-05,-0.00022640750103164464,-0.0003832780639640987,0.0004868042597081512,-0.08754463493824005,-1.363426685333252,-0.739872932434082,0.026336997747421265,-0.09921424090862274,-0.040177121758461
1749047917.2346582,-2.902874771748678,-1.2551857394031067,1.6536148230182093,5.649268018990316,3.365471601486206,-2.731438700352804,8.31859142635949e-06,-0.0014368488918989897,3.767981252167374e-05,-0.00021728385763708502,-0.00036126721533946693,0.0004559278895612806,-0.10362117737531662,-1.377133846282959,-0.7389591932296753,0.02823546528816223,-0.0991583913564682,-0.03516604006290436
1749047917.234701,-2.9028714338885706,-1.2552049917033692,1.6536038557635706,5.649244892388143,3.3654398918151855,-2.7315126101123255,8.116121819057298e-08,-0.0027925879694521427,3.690730227390304e-05,-0.0002287705719936639,-0.00038135203067213297,0.00042873265920206904,-0.13288627564907074,-1.3698898553848267,-0.7590512037277222,0.00208842009305954,-0.11482106149196625,-0.031144514679908752
1749047917.2347388,-2.902867857609884,-1.2552482348731537,1.653595272694723,5.649271595269003,3.365436315536499,-2.7315006891833704,-0.0036112710367888212,-0.0035233544185757637,3.616403046180494e-05,-0.00023197858536150306,-0.0003263275430072099,0.00040461510070599616,-0.1100929006934166,-1.3930190801620483,-0.754040539264679,0.001785188913345337,-0.12240521609783173,-0.04175397753715515
1749047917.2347825,-2.9028216044055384,-1.2552364033511658,1.6536110083209437,5.649236666947164,3.365436315536499,-2.7314615885363978,-0.003960737027227879,-0.003915007226169109,3.545328218024224e-05,-0.0002441957767587155,-0.00039537198608741164,0.00038306540227495134,-0.14422358572483063,-1.394822597503662,-0.7678089737892151,-0.02646050602197647,-0.1517510563135147,-0.03910352289676666
1749047917.2348294,-2.902842108403341,-1.2552290719798584,1.6535800139056605,5.649255800038137,3.365436315536499,-2.7314770857440394,-0.002943520899862051,-0.004666585475206375,1.854169568105135e-05,-0.0002299350599059835,-0.0014757405733689666,0.0003636915353126824,-0.16536885499954224,-1.396705150604248,-0.7706728577613831,-0.05470631271600723,-0.16073788702487946,-0.05088821053504944
1749047917.2348688,-2.902879778538839,-1.2552919846824189,1.6536262671100062,5.649236666947164,3.3653621673583984,-2.7314932982074183,-0.0029824008233845234,-0.005591752007603645,1.7129703337559476e-05,-0.0014510799665004015,-0.0033771414309740067,0.00034619306097738445,-0.20201076567173004,-1.3668314218521118,-0.781997799873352,-0.056736625730991364,-0.15568484365940094,-0.06363116204738617
1749047917.2349067,-2.902869526539938,-1.255249248152115,1.6536110083209437,5.649240243225851,3.365412473678589,-2.7315126101123255,-0.0054004299454391,-0.005653823260217905,1.6742558727855794e-05,-0.004978691227734089,-0.00460413284599781,0.00033029995393007994,-0.20282593369483948,-1.3799197673797607,-0.7878454923629761,-0.06928081065416336,-0.16887296736240387,-0.06756852567195892
1749047917.2349436,-2.9029038588153284,-1.2552254062942048,1.6536262671100062,5.649228322296896,3.3654470443725586,-2.73150879541506,-0.007678412366658449,-0.0049856300465762615,1.6432384654763155e-05,-0.007289285771548748,-0.00550662400200963,0.0003157984756398946,-0.18409571051597595,-1.3844391107559204,-0.7985833287239075,-0.06422970443964005,-0.18466295301914215,-0.07026311010122299
1749047917.234981,-2.902872864400045,-1.2552687686732789,1.6536262671100062,5.649228322296896,3.3654232025146484,-2.7314654032336634,-0.008382883854210377,-0.004741862416267395,1.6136767953867093e-05,-0.00921038631349802,-0.007047933991998434,0.0002894842473324388,-0.22098809480667114,-1.3760346174240112,-0.8083880543708801,-0.06682240962982178,-0.21051736176013947,-0.051959916949272156
1749047917.2350192,-2.9028969446765345,-1.2553123992732544,1.6536110083209437,5.649192321091451,3.3653693199157715,-2.7314844767199915,-0.010142984800040722,-0.005229945294559002,1.0536156196394586e-06,-0.010802132077515125,-0.009784379042685032,0.00025840741000138223,-0.24805396795272827,-1.3605209589004517,-0.8142339587211609,-0.08227768540382385,-0.2000129669904709,-0.07405048608779907
1749047917.2350569,-2.902924362813131,-1.2552891236594697,1.6536229292498987,5.649157988816061,3.3653531074523926,-2.7314844767199915,-0.010214397683739662,-0.005660295020788908,6.87935752807789e-08,-0.012288971804082394,-0.0119179617613554,0.000244949187617749,-0.24431246519088745,-1.3518104553222656,-0.824993908405304,-0.10026286542415619,-0.2116365134716034,-0.09088869392871857
1749047917.235199,-2.9029246012317103,-1.2553242605975647,1.6535919348346155,5.64915286281661,3.365391254425049,-2.7314844767199915,-0.010194872505962849,-0.005647195503115654,4.491728766709002e-09,-0.014608926139771938,-0.014330988749861717,0.00023519933165516704,-0.2450658082962036,-1.352949857711792,-0.823505699634552,-0.08847005665302277,-0.2284022867679596,-0.06852936744689941
1749047917.2367835,-2.90291411081423,-1.255274460916855,1.6535919348346155,5.649156558304586,3.3652703762054443,-2.7314580122577112,-0.011188099160790443,-0.00506786722689867,2.932778186970353e-10,-0.015906892716884613,-0.016080090776085854,0.00013614546332973987,-0.27915412187576294,-1.3290588855743408,-0.8387126922607422,-0.11369794607162476,-0.24833452701568604,-0.07635143399238586
1749047917.2823038,-2.902945105229513,-1.2553407114795228,1.6536110083209437,5.64906661489562,3.3652541637420654,-2.731516186391012,-0.012990721501410007,-0.004762839060276747,-0.0009061982855200768,-0.017942490056157112,-0.018666883930563927,7.763269968563691e-05,-0.305059552192688,-1.361983299255371,-0.8646537065505981,-0.09552650898694992,-0.24081796407699585,-0.06262563169002533
1749047917.2823503,-2.9029811064349573,-1.2553287905505677,1.653595272694723,5.649084794312277,3.365229606628418,-2.7314770857440394,-0.013359669595956802,-0.004444214515388012,-0.0019164023688063025,-0.01912178285419941,-0.0222446471452713,6.542426126543432e-05,-0.31353119015693665,-1.344303846359253,-0.8538676500320435,-0.07593675702810287,-0.22012954950332642,-0.08416284620761871
1749047917.2823906,-2.903039518986837,-1.2553565961173554,1.6535990873919886,5.649057078152456,3.365217447280884,-2.731501642857687,-0.01476387120783329,-0.004054199438542128,-0.0019444199278950691,-0.017748000100255013,-0.02313380129635334,3.9499889680882916e-05,-0.30318689346313477,-1.337752342224121,-0.8548417091369629,-0.10436611622571945,-0.19599971175193787,-0.08925850689411163
1749047917.28243,-2.903041187916891,-1.255364791756012,1.6535833517657679,5.649024712830343,3.365161895751953,-2.731501642857687,-0.015526225790381432,-0.0038285828195512295,-0.001856823917478323,-0.016581282019615173,-0.023276031017303467,3.114611536148004e-05,-0.305301308631897,-1.3557991981506348,-0.8783062696456909,-0.10240128636360168,-0.1962243616580963,-0.09852564334869385
1749047917.2824688,-2.9030256907092493,-1.255338267689087,1.6535909811602991,5.648962306767263,3.365054130554199,-2.7314932982074183,-0.016551537439227104,-0.003685482544824481,-0.0017913848860189319,-0.015846630558371544,-0.021421732380986214,8.271655133285094e-06,-0.2782368063926697,-1.3340709209442139,-0.8851484060287476,-0.11437435448169708,-0.18745234608650208,-0.09189707785844803
1749047917.2825072,-2.9031341711627405,-1.2553539139083405,1.6535909811602991,5.648934113770284,3.365042209625244,-2.73150879541506,-0.016365988180041313,-0.0034454888664186,-0.002110125031322241,-0.01618872582912445,-0.01960187591612339,1.461688157178287e-06,-0.3118143677711487,-1.3494231700897217,-0.9008376598358154,-0.12759652733802795,-0.20921757817268372,-0.08202895522117615
1749047917.2825456,-2.9031596819507044,-1.2553813022426148,1.6535871664630335,5.648913609772482,3.365006685256958,-2.7314932982074183,-0.016491061076521873,-0.0030273674055933952,-0.0045580933801829815,-0.016527023166418076,-0.01879071071743965,2.582956426522287e-07,-0.3135354518890381,-1.3056739568710327,-0.8945112228393555,-0.12838593125343323,-0.20627669990062714,-0.10630951821804047
1749047917.2825832,-2.903180185948507,-1.255376712684967,1.653579060231344,5.64888613203124,3.36500883102417,-2.731497112904684,-0.016860149800777435,-0.0023680138401687145,-0.00545182079076767,-0.017126871272921562,-0.019082840532064438,4.5643549384521975e-08,-0.26812744140625,-1.3085905313491821,-0.8813855648040771,-0.12193478643894196,-0.20562206208705902,-0.09217056632041931
1749047917.2826216,-2.9031971136676233,-1.255350188618042,1.6536014715777796,5.648861992150106,3.364976644515991,-2.7315245310412806,-0.01608913019299507,-0.002139891032129526,-0.005726310890167952,-0.0176085215061903,-0.017107175663113594,8.065693890557668e-09,-0.28450918197631836,-1.3035253286361694,-0.8928846120834351,-0.13179002702236176,-0.2336050122976303,-0.1020752564072609
1749047917.2826595,-2.9031971136676233,-1.255350188618042,1.6536014715777796,5.648861992150106,3.364976644515991,-2.7315245310412806,-0.01608913019299507,-0.002139891032129526,-0.005726310890167952,-0.0176085215061903,-0.017107175663113594,8.065693890557668e-09,-0.28450918197631836,-1.3035253286361694,-0.8928846120834351,-0.13179002702236176,-0.2336050122976303,-0.1020752564072609
1749047917.2827122,-2.903236691151754,-1.2554319661906739,1.653586212788717,5.648822355061331,3.3649373054504395,-2.731473509465353,-0.016944628208875656,-0.001860803342424333,-0.005359585862606764,-0.017889034003019333,-0.016264481469988823,1.4252927726943199e-09,-0.29067522287368774,-1.3407585620880127,-0.9078489542007446,-0.1316072940826416,-0.22805635631084442,-0.10513199865818024
1749047917.2827594,-2.9033241907702845,-1.2553813022426148,1.6534960905658167,5.648809420853414,3.3648667335510254,-2.7315171400653284,-0.017352867871522903,-0.0014643734320998192,-0.005904489662498236,-0.020328909158706665,-0.015908610075712204,-0.00020286539802327752,-0.30169570446014404,-1.3159326314926147,-0.9136163592338562,-0.1633438616991043,-0.2499087154865265,-0.1230844110250473
1749047917.2827988,-2.9033480326281946,-1.2553813022426148,1.6535308996783655,5.648754286556997,3.3648693561553955,-2.73153263727297,-0.017667559906840324,-0.0013572777388617396,-0.006754615344107151,-0.02169695682823658,-0.01682431437075138,-0.0008526661549694836,-0.2706634998321533,-1.3240448236465454,-0.9170602560043335,-0.15202313661575317,-0.26803573966026306,-0.12151755392551422
1749047917.2828362,-2.9033878485309046,-1.255397157078125,1.6535232702838343,5.648752915650167,3.3648455142974854,-2.731501642857687,-0.017420539632439613,-0.0011460757814347744,-0.007255081087350845,-0.023640118539333344,-0.018558980897068977,-0.0009034679387696087,-0.2679874002933502,-1.3274967670440674,-0.9196707606315613,-0.16089363396167755,-0.2580582797527313,-0.1153813898563385
1749047917.2828736,-2.90342885652651,-1.2554319661906739,1.6535032431231897,5.648690807610311,3.364790201187134,-2.731501642857687,-0.017871255055069923,-0.0009886104380711913,-0.006956898141652346,-0.025167182087898254,-0.019344432279467583,-0.0009547345107421279,-0.2656737267971039,-1.3174949884414673,-0.9330478310585022,-0.1623818278312683,-0.27385538816452026,-0.11706605553627014
1749047917.282911,-2.903426710759298,-1.2553886336139222,1.653475586568014,5.648674237519064,3.364722728729248,-2.7315052191363733,-0.017975889146327972,-0.0008691754192113876,-0.006615965627133846,-0.027532808482646942,-0.02073768526315689,-0.0011167519260197878,-0.2647407650947571,-1.354453444480896,-0.943539023399353,-0.18120141327381134,-0.2822708487510681,-0.11597976088523865
1749047917.2829478,-2.9034767786609095,-1.2553898853114625,1.6534603277789515,5.6486191032226465,3.3647027015686035,-2.731486145650045,-0.017475245520472527,-0.0007754983380436897,-0.006657653953880072,-0.026794319972395897,-0.022114906460046768,-0.0013582468964159489,-0.2576892375946045,-1.3397890329360962,-0.9578905701637268,-0.19687479734420776,-0.2800056040287018,-0.11939792335033417
1749047917.2829852,-2.903555695210592,-1.2553849977305909,1.6534636656390589,5.648558962136068,3.364689588546753,-2.731544558201925,-0.017651570960879326,-0.000700067903380841,-0.006718247197568417,-0.027290552854537964,-0.021424511447548866,-0.0022817596327513456,-0.2777852714061737,-1.326243281364441,-0.977100670337677,-0.1954471468925476,-0.3046421706676483,-0.10133655369281769
1749047917.283023,-2.9035797754870813,-1.2553621393493195,1.6534636656390589,5.648542332440176,3.364614963531494,-2.7315219084369105,-0.01771940104663372,-0.0006380120175890625,-0.0068746767938137054,-0.02912657894194126,-0.022945541888475418,-0.0024678625632077456,-0.292329341173172,-1.3181238174438477,-0.9694873690605164,-0.21143358945846558,-0.3150104880332947,-0.12094907462596893
1749047917.2830603,-2.90359336534609,-1.2553584736636658,1.6534512678729456,5.648463117867269,3.364586591720581,-2.731513563786642,-0.019068844616413116,-0.0005860583623871207,-0.007653484120965004,-0.031584661453962326,-0.025003593415021896,-0.0021285719703882933,-0.27285242080688477,-1.3253248929977417,-0.9827947020530701,-0.2177095264196396,-0.31846845149993896,-0.13283342123031616
1749047917.283097,-2.903639856969015,-1.2553584736636658,1.6534274260150355,5.648387896805563,3.3645501136779785,-2.7315362135516565,-0.020255880430340767,-0.0005419401568360627,-0.009251154027879238,-0.0330696664750576,-0.027821337804198265,-0.0018710511503741145,-0.2997596561908722,-1.3064767122268677,-1.0044729709625244,-0.22909483313560486,-0.3144072890281677,-0.14017879962921143
1749047917.283134,-2.9036999384509485,-1.2553694409183045,1.653412167225973,5.648331510811605,3.3644943237304688,-2.731525484715597,-0.020550424233078957,-0.0005039958050474524,-0.010557280853390694,-0.03513461351394653,-0.030392948538064957,-0.0015269926516339183,-0.2839435935020447,-1.3180018663406372,-0.9861359000205994,-0.244314506649971,-0.29806509613990784,-0.13585379719734192
1749047917.2833707,-2.903727356587545,-1.2553849977305909,1.6533883253680628,5.648271667748251,3.364396333694458,-2.731513563786642,-0.02115692012012005,-0.00047101674135774374,-0.010666145011782646,-0.036747485399246216,-0.03239527717232704,-0.0014239544980227947,-0.2920742928981781,-1.3220030069351196,-1.0101475715637207,-0.2516601085662842,-0.315267413854599,-0.11745060235261917
1749047917.2847543,-2.9037254492389124,-1.2554008525661011,1.6533764044391077,5.6481724856193445,3.364351749420166,-2.731571976338522,-0.022208185866475105,-0.0004420944314915687,-0.011617018841207027,-0.039561592042446136,-0.034021444618701935,-0.0018327224534004927,-0.2932372987270355,-1.3245500326156616,-1.0171875953674316,-0.25612297654151917,-0.3366280794143677,-0.14977753162384033
1749047917.3262916,-2.9037891069995325,-1.2553935211947937,1.6533992926227015,5.648100363999166,3.364255666732788,-2.7315219084369105,-0.02330171875655651,-0.0004165148129686713,-0.012606436386704445,-0.04377220198512077,-0.03686455637216568,-0.0021285214461386204,-0.30469292402267456,-1.3227726221084595,-1.005845069885254,-0.26030081510543823,-0.3331298232078552,-0.13821005821228027
1749047917.326338,-2.903825108204977,-1.2554008525661011,1.6533597151385706,5.6480323550994775,3.364180088043213,-2.7315684000598353,-0.02324320748448372,-0.00039373309118673205,-0.013437452726066113,-0.04389242082834244,-0.03825819864869118,-0.0028959873598068953,-0.31371766328811646,-1.3160040378570557,-0.9828460812568665,-0.26263168454170227,-0.3382505178451538,-0.1376948058605194
1749047917.3263812,-2.9038763681994837,-1.2553740304759522,1.653304402028219,5.647920954018392,3.3641278743743896,-2.731549326573507,-0.02409634180366993,-0.00037331879138946533,-0.01318664476275444,-0.045097727328538895,-0.04024074226617813,-0.0032758305314928293,-0.34251779317855835,-1.3134311437606812,-0.9948627352714539,-0.2505694627761841,-0.34793218970298767,-0.13386879861354828
1749047917.326421,-2.9039796034442347,-1.2554164093783875,1.6532958189593714,5.647835957794943,3.364109992980957,-2.731537405644552,-0.02623808942735195,-0.0003549135581124574,-0.01318125519901514,-0.047894418239593506,-0.04152686893939972,-0.0032597638200968504,-0.31999659538269043,-1.3307952880859375,-1.0104769468307495,-0.2671688199043274,-0.37141352891921997,-0.1262216418981552
1749047917.32646,-2.903996531163351,-1.2553886336139222,1.653259579335348,5.64772121885375,3.3639414310455322,-2.731541935597555,-0.02710590325295925,-0.0003382385184522718,-0.013938842341303825,-0.04996725544333458,-0.04457321763038635,-0.002889561001211405,-0.32384809851646423,-1.3094788789749146,-1.0042961835861206,-0.2571110129356384,-0.3598526418209076,-0.15118058025836945
1749047917.3264992,-2.9040444532977503,-1.2554090780070801,1.6532519499408167,5.647628950863638,3.3638529777526855,-2.731572214757101,-0.028366316109895706,-0.00032306203502230346,-0.014561436139047146,-0.05070079490542412,-0.04652786627411842,-0.0030920894350856543,-0.31399795413017273,-1.312953233718872,-0.994901180267334,-0.25243085622787476,-0.36119210720062256,-0.14867500960826874
1749047917.3265376,-2.9041441122638147,-1.2554246348193665,1.6532004515277308,5.647510039597311,3.3637771606445312,-2.7315927187549036,-0.030040854588150978,-0.00030918835545890033,-0.015413396060466766,-0.05049979314208031,-0.04788849502801895,-0.0035463927779346704,-0.3685901165008545,-1.322323203086853,-1.0049601793289185,-0.2908130884170532,-0.38296353816986084,-0.15552712976932526
1749047917.3265755,-2.9042111078845423,-1.2553935211947937,1.6531761328326624,5.647402572422781,3.363650321960449,-2.731589142476217,-0.03242593631148338,-0.00021425077284220606,-0.016900677233934402,-0.05359439179301262,-0.05020017921924591,-0.00445228535681963,-0.36463016271591187,-1.3095066547393799,-1.0159589052200317,-0.29940739274024963,-0.402829647064209,-0.15802614390850067
1749047917.326613,-2.9042332808123987,-1.2554365557483216,1.6531174818622034,5.647286224156179,3.3635969161987305,-2.7315927187549036,-0.033465366810560226,-0.00019616627832874656,-0.017331423237919807,-0.05663106590509415,-0.053162962198257446,-0.004582925233989954,-0.3476414680480957,-1.3009064197540283,-1.011114478111267,-0.2872604429721832,-0.3945845663547516,-0.15163472294807434
1749047917.3266513,-2.904346768056051,-1.2553935211947937,1.653111759816305,5.647178876190939,3.363490104675293,-2.7316046396838587,-0.03403552994132042,-0.00018789010937325656,-0.01717466674745083,-0.059524886310100555,-0.054954443126916885,-0.003992006648331881,-0.35613957047462463,-1.319416880607605,-0.9959003329277039,-0.29988476634025574,-0.40010809898376465,-0.16868118941783905
1749047917.3266993,-2.904396359120504,-1.2554090780070801,1.6530802885638636,5.647027957230367,3.3633735179901123,-2.731628481541769,-0.036289870738983154,-0.00018035790708381683,-0.01624264195561409,-0.06130935251712799,-0.05616466701030731,-0.003521204926073551,-0.3573113977909088,-1.3150502443313599,-1.030478596687317,-0.2800999581813812,-0.4287753999233246,-0.15746194124221802
1749047917.326759,-2.904480282460348,-1.2554127138904114,1.6530564467059534,5.646927344589987,3.363250255584717,-2.731621328984396,-0.03697299584746361,-0.0001734076940920204,-0.017019938677549362,-0.06284229457378387,-0.05752401426434517,-0.003226949367672205,-0.3552233874797821,-1.3128498792648315,-1.0276628732681274,-0.28937673568725586,-0.43383723497390747,-0.15377987921237946
1749047917.3267996,-2.904529873524801,-1.2554008525661011,1.653013054524557,5.646760868817129,3.363111972808838,-2.731605831776754,-0.037458062171936035,-0.00019700675329659134,-0.017893744632601738,-0.06531158089637756,-0.05800967663526535,-0.0028940208721905947,-0.35788828134536743,-1.3163892030715942,-1.0298731327056885,-0.2849080264568329,-0.4551742374897003,-0.17436036467552185
1749047917.3268373,-2.9046347776996058,-1.2553935211947937,1.6529620329486292,5.646620917111196,3.3630425930023193,-2.731621328984396,-0.038746923208236694,-0.0001931656152009964,-0.017674576491117477,-0.06840413063764572,-0.06237871199846268,-0.00287768617272377,-0.3510432839393616,-1.3227485418319702,-1.0311126708984375,-0.2804454565048218,-0.4502869248390198,-0.17342111468315125
1749047917.3268905,-2.904684368764059,-1.2554127138904114,1.6529524962054651,5.646489429264822,3.3628287315368652,-2.7316368261920374,-0.0393153540790081,-0.00021662190556526184,-0.017975637689232826,-0.07043348997831345,-0.06620857864618301,-0.0036468396428972483,-0.402309387922287,-1.3472329378128052,-1.020865797996521,-0.28718119859695435,-0.47059470415115356,-0.1599453240633011
1749047917.326931,-2.9047613779651087,-1.2553971272758027,1.6529091040240687,5.6463333843048,3.3627448081970215,-2.7316368261920374,-0.04105954244732857,-0.00023736788716632873,-0.018241582438349724,-0.07331423461437225,-0.06957924365997314,-0.005627162288874388,-0.37492960691452026,-1.3065603971481323,-1.0486412048339844,-0.30166512727737427,-0.47231534123420715,-0.16908937692642212
1749047917.326971,-2.904856030141012,-1.255397157078125,1.652888600026266,5.646162497788229,3.362565755844116,-2.7316768805133265,-0.043436769396066666,-0.00023261016758624464,-0.019286789000034332,-0.07607113569974899,-0.07276052236557007,-0.005906041245907545,-0.3678678274154663,-1.3181263208389282,-1.043655276298523,-0.2833321690559387,-0.468977689743042,-0.16354769468307495
1749047917.3270142,-2.904940191899435,-1.2554164093783875,1.6528804937945765,5.646010207920828,3.362421751022339,-2.731692377720968,-0.04507298022508621,-0.0004278534324839711,-0.019874207675457,-0.07754132151603699,-0.07857734709978104,-0.005771384574472904,-0.37180063128471375,-1.3262317180633545,-1.0533145666122437,-0.2908261716365814,-0.45649147033691406,-0.15601611137390137
1749047917.3270528,-2.905032459889547,-1.2554044884494324,1.6528285185443323,5.645878481655874,3.3622376918792725,-2.731684986745016,-0.04747730493545532,-0.00039264914812520146,-0.020235195755958557,-0.0832260400056839,-0.08071697503328323,-0.005264726467430592,-0.34022659063339233,-1.3330007791519165,-1.0797380208969116,-0.2683183550834656,-0.4407125413417816,-0.175918310880661
1749047917.3270907,-2.9051666895495813,-1.2554008525661011,1.652773682271139,5.645683455258169,3.362074613571167,-2.7317119280444544,-0.04929012060165405,-0.00043260763050056994,-0.021108590066432953,-0.08564436435699463,-0.08232512325048447,-0.004706259351223707,-0.4094265103340149,-1.3420289754867554,-1.0593746900558472,-0.2418622374534607,-0.44939666986465454,-0.1712782084941864
1749047917.3272033,-2.9051969687091272,-1.2554090780070801,1.6527569929706019,5.645512270718374,3.3619067668914795,-2.731696907673971,-0.051080815494060516,-0.0004611661424860358,-0.022241761907935143,-0.08490674197673798,-0.08715259283781052,-0.0052382149733603,-0.3604370951652527,-1.3133972883224487,-1.0602202415466309,-0.24703606963157654,-0.4354778528213501,-0.1796025037765503
1749047917.328764,-2.9053621927844446,-1.2553776663592835,1.6527016798602503,5.645344066410818,3.361727237701416,-2.731708351765768,-0.05226593092083931,-0.00047792919212952256,-0.022838663309812546,-0.08573584258556366,-0.09004323184490204,-0.006524841301143169,-0.38616353273391724,-1.375369668006897,-1.0651488304138184,-0.26457589864730835,-0.4292025566101074,-0.17962458729743958
1749047917.374314,-2.905409876500265,-1.2554438275149842,1.6526621023761194,5.645157682686605,3.361521005630493,-2.731751267110006,-0.053367555141448975,-0.00046668460709042847,-0.02331952378153801,-0.08752355724573135,-0.09570131450891495,-0.007159693632274866,-0.397687703371048,-1.347629427909851,-1.0663597583770752,-0.25362685322761536,-0.3789270222187042,-0.16276998817920685
1749047917.37436,-2.9055472056018274,-1.255397157078125,1.652609650288717,5.644982027798452,3.361368417739868,-2.731732193623678,-0.054623961448669434,-0.0007390073733404279,-0.023604536429047585,-0.09117140620946884,-0.09430740028619766,-0.007313925307244062,-0.3901112973690033,-1.3634461164474487,-1.0746612548828125,-0.2700638175010681,-0.3955095708370209,-0.16089321672916412
1749047917.3744001,-2.9056950251208704,-1.2554560464671631,1.6525738875018519,5.64480613449172,3.3611764907836914,-2.7317639032946985,-0.0553593784570694,-0.0007866297382861376,-0.024810370057821274,-0.09416336566209793,-0.09306037425994873,-0.006249960046261549,-0.3821069002151489,-1.3319995403289795,-1.0759363174438477,-0.2298220694065094,-0.42449307441711426,-0.15216100215911865
1749047917.3744395,-2.90577203432192,-1.2554282409003754,1.6525452772723597,5.644605743675985,3.360966205596924,-2.7317402998553675,-0.05640346184372902,-0.0007996816420927644,-0.025303037837147713,-0.08965567499399185,-0.09507017582654953,-0.0061981771141290665,-0.3675343990325928,-1.3630919456481934,-1.0686098337173462,-0.2722962498664856,-0.4182382822036743,-0.16368764638900757
1749047917.374478,-2.9058731237994593,-1.2553666991046448,1.6524623076068323,5.644426333695211,3.3607864379882812,-2.731783930455343,-0.05771530792117119,-0.0009972836123779416,-0.02550058625638485,-0.09044823050498962,-0.09609032422304153,-0.006544364616274834,-0.4057716727256775,-1.3679295778274536,-1.0890932083129883,-0.2881292402744293,-0.41055721044540405,-0.1692308634519577
1749047917.3745165,-2.9060619513141077,-1.25540183604274,1.6524141470538538,5.644238459854879,3.3605360984802246,-2.7318041960345667,-0.059805069118738174,-0.0010724770836532116,-0.026408551260828972,-0.09281279146671295,-0.09578728675842285,-0.006712502799928188,-0.36759886145591736,-1.3732707500457764,-1.0826480388641357,-0.27084365487098694,-0.3988843560218811,-0.15733127295970917
1749047917.3745546,-2.9061406294452112,-1.2553980511477967,1.6523736158954065,5.644034850388326,3.3603289127349854,-2.73177677789797,-0.05921701714396477,-0.0011941613629460335,-0.027099160477519035,-0.09365418553352356,-0.09704795479774475,-0.006281157955527306,-0.36207515001296997,-1.3433250188827515,-1.090907335281372,-0.26942136883735657,-0.39778006076812744,-0.14454491436481476
1749047917.3745925,-2.906283203755514,-1.2554246348193665,1.6522911230670374,5.643832731037893,3.360163688659668,-2.7318125406848353,-0.06323990970849991,-0.0015170254046097398,-0.02721286565065384,-0.09420549124479294,-0.0955241397023201,-0.006152147892862558,-0.32187825441360474,-1.3417471647262573,-1.0673320293426514,-0.2823794484138489,-0.38712769746780396,-0.16343602538108826
1749047917.3746302,-2.906416718159811,-1.2554292243770142,1.6522348562823694,5.643632459431448,3.359999895095825,-2.731828037892477,-0.061705946922302246,-0.0016122044762596488,-0.02762642502784729,-0.09522921591997147,-0.09457216411828995,-0.006803648080676794,-0.3206002712249756,-1.355027675628662,-1.086887001991272,-0.28146958351135254,-0.4080697298049927,-0.1619659662246704
1749047917.3746715,-2.9065592924701136,-1.255431906586029,1.6521747748004358,5.643428969174185,3.359811782836914,-2.731863323842184,-0.06320798397064209,-0.0016340638976544142,-0.028423115611076355,-0.09673450887203217,-0.0924021452665329,-0.007266775704920292,-0.34589341282844543,-1.352485179901123,-1.0760893821716309,-0.2873212695121765,-0.42458921670913696,-0.13952690362930298
1749047917.3747187,-2.9066689650165003,-1.2554255586913605,1.6521146933185022,5.643241035729208,3.359616994857788,-2.731867853795187,-0.06254877895116806,-0.001701662316918373,-0.029684005305171013,-0.09884873032569885,-0.09279103577136993,-0.0070495279505848885,-0.32687079906463623,-1.3500609397888184,-1.062798261642456,-0.2867468595504761,-0.4330332279205322,-0.15322156250476837
1749047917.3747654,-2.906816307698385,-1.2554127138904114,1.652067009602682,5.643045651703634,3.3593990802764893,-2.7318642775165003,-0.06467568129301071,-0.0015859146369621158,-0.029427217319607735,-0.09989321976900101,-0.09430582821369171,-0.006288645323365927,-0.2763613164424896,-1.3650307655334473,-1.055567979812622,-0.26579177379608154,-0.4566030204296112,-0.14595814049243927
1749047917.3748047,-2.9069603125201624,-1.2554524105838318,1.6519916693316858,5.642842340260305,3.359246253967285,-2.7318761984454554,-0.061739351600408554,-0.0015771740581840277,-0.02826409786939621,-0.10218418389558792,-0.09696432948112488,-0.005973695311695337,-0.3249179422855377,-1.3610780239105225,-1.0762171745300293,-0.27983200550079346,-0.4574020206928253,-0.14634911715984344
1749047917.3748562,-2.9070923964129847,-1.2554256182960053,1.6519630591021937,5.642634796887197,3.359070062637329,-2.7318761984454554,-0.06320678442716599,-0.0014256149297580123,-0.02781555987894535,-0.10398910939693451,-0.09516054391860962,-0.006279482506215572,-0.31470218300819397,-1.3607028722763062,-1.0736650228500366,-0.27435028553009033,-0.45935776829719543,-0.16210684180259705
1749047917.3748958,-2.9071934858905237,-1.2554414433291932,1.651891056691305,5.642412292748251,3.35884428024292,-2.7318809668170374,-0.06310815364122391,-0.001930113066919148,-0.02839897945523262,-0.10594385117292404,-0.09592219442129135,-0.006556457839906216,-0.30048805475234985,-1.344754695892334,-1.088383436203003,-0.2743862271308899,-0.47820568084716797,-0.1537252515554428
1749047917.3749335,-2.9073601404773157,-1.2554606658271332,1.6518586317645472,5.6422003386314294,3.3586554527282715,-2.7318807283984583,-0.06299884617328644,-0.0026285976637154818,-0.02920462191104889,-0.10759489238262177,-0.0978040099143982,-0.005999572575092316,-0.2948688864707947,-1.3387272357940674,-1.06902277469635,-0.25827646255493164,-0.47321444749832153,-0.1401389092206955
1749047917.3749778,-2.9074681440936487,-1.2554533642581482,1.6518262068377894,5.642000365048208,3.3584792613983154,-2.731931273137228,-0.0626102015376091,-0.0024875225499272346,-0.028287943452596664,-0.10679102689027786,-0.10343696177005768,-0.004461468663066626,-0.32335469126701355,-1.3480992317199707,-1.0733062028884888,-0.24355757236480713,-0.45873257517814636,-0.17901264131069183
1749047917.3750188,-2.9075382391559046,-1.2554810804179688,1.6517437140094202,5.641804325371542,3.3582451343536377,-2.7319310347186487,-0.0631563663482666,-0.002113573718816042,-0.028712324798107147,-0.10898734629154205,-0.10460232943296432,-0.003731193020939827,-0.2971005439758301,-1.3409006595611572,-1.0824371576309204,-0.2659420371055603,-0.4396885633468628,-0.17883716523647308
1749047917.3750563,-2.9077118078814905,-1.2554761928370972,1.6517074743853968,5.641554283886709,3.3580172061920166,-2.731948200856344,-0.06366503983736038,-0.00182120013050735,-0.0287836454808712,-0.11055026948451996,-0.10402000695466995,-0.005078060086816549,-0.31061068177223206,-1.3361129760742188,-1.0772302150726318,-0.2075004279613495,-0.457436740398407,-0.17468781769275665
1749047917.375093,-2.907836977635519,-1.2554533642581482,1.6516597906695765,5.641369747906484,3.3577985763549805,-2.731972042714254,-0.06450708210468292,-0.0016121331136673689,-0.02803570218384266,-0.10568743199110031,-0.10607454925775528,-0.005882043857127428,-0.3360140323638916,-1.3491566181182861,-1.112671136856079,-0.23826901614665985,-0.4473995566368103,-0.15981703996658325
1749047917.37513,-2.9079535643206995,-1.2554606360248108,1.6515877882586878,5.641114759236135,3.357614278793335,-2.7320104281054896,-0.0651601254940033,-0.0012231955770403147,-0.028732173144817352,-0.10497128963470459,-0.10679839551448822,-0.00628663832321763,-0.3009345233440399,-1.3714888095855713,-1.1076462268829346,-0.25667768716812134,-0.44337013363838196,-0.14957165718078613
1749047917.3751664,-2.9080925623523157,-1.2554533642581482,1.651524845753805,5.640926885395803,3.357386589050293,-2.731972042714254,-0.06355969607830048,-0.0012728204019367695,-0.029643578454852104,-0.10633192956447601,-0.10949449986219406,-0.005537699442356825,-0.3535934388637543,-1.3746423721313477,-1.1115424633026123,-0.2543720006942749,-0.4316721260547638,-0.1487915813922882
1749047917.3752744,-2.9082019964801233,-1.2554689210704346,1.651499096547262,5.640714752465048,3.3571486473083496,-2.731972042714254,-0.06426788866519928,-0.0012435984099283814,-0.03155360370874405,-0.10783407092094421,-0.11050712317228317,-0.00477283401414752,-0.32738634943962097,-1.3872795104980469,-1.1058282852172852,-0.23981907963752747,-0.4218970537185669,-0.16220436990261078
1749047917.376751,-2.908365313206808,-1.2554496389678498,1.651388947163717,5.640464293747701,3.3569283485412598,-2.732004229222433,-0.06685835868120193,-0.0014498212840408087,-0.031851984560489655,-0.10310935974121094,-0.11147142201662064,-0.003977877553552389,-0.3084835112094879,-1.3675222396850586,-1.0802110433578491,-0.2520241439342499,-0.3948444724082947,-0.17006094753742218
1749047917.4183085,-2.908473316823141,-1.2554606360248108,1.6513832251178187,5.640260922699728,3.356720209121704,-2.732011381779806,-0.06279020756483078,-0.001529916189610958,-0.03089427761733532,-0.10446266829967499,-0.11060397326946259,-0.004037604667246342,-0.3804488778114319,-1.3592777252197266,-1.1000113487243652,-0.2799310088157654,-0.3941640853881836,-0.18505384027957916
1749047917.4183543,-2.9085779825793665,-1.2554615598968049,1.6512849966632288,5.640088546067037,3.356520652770996,-2.7319958845721644,-0.0648876428604126,-0.001538937445729971,-0.031240470707416534,-0.10532592236995697,-0.10996543616056442,-0.00514757027849555,-0.3657720386981964,-1.3838932514190674,-1.105767011642456,-0.2857564091682434,-0.39411047101020813,-0.15702448785305023
1749047917.4183943,-2.9085779825793665,-1.2554615598968049,1.6512849966632288,5.640088546067037,3.356520652770996,-2.7319958845721644,-0.0648876428604126,-0.001538937445729971,-0.031240470707416534,-0.10532592236995697,-0.10996543616056442,-0.00514757027849555,-0.3657720386981964,-1.3838932514190674,-1.105767011642456,-0.2857564091682434,-0.39411047101020813,-0.15702448785305023
1749047917.4184327,-2.908865992222921,-1.2554689210704346,1.6511686483966272,5.63963012674407,3.3561205863952637,-2.7320476214038294,-0.06698418408632278,-0.0015136307338252664,-0.030505986884236336,-0.10906296968460083,-0.10725181549787521,-0.006627921015024185,-0.3739148676395416,-1.3808064460754395,-1.1023846864700317,-0.2734212279319763,-0.4305242598056793,-0.15219753980636597
1749047917.4184704,-2.908989493046896,-1.2555085879615326,1.6510971228228968,5.639399039536276,3.3558859825134277,-2.732062641774313,-0.06858748197555542,-0.0015980382449924946,-0.032310083508491516,-0.11186261475086212,-0.10772697627544403,-0.006110701244324446,-0.3732587993144989,-1.3931547403335571,-1.1194654703140259,-0.2816084027290344,-0.4482424259185791,-0.14640629291534424
1749047917.4185092,-2.909133497868673,-1.2554966372302552,1.6510489622699183,5.63920276144103,3.3556859493255615,-2.7320554892169397,-0.06981509923934937,-0.0016486160457134247,-0.03332159295678139,-0.11539287120103836,-0.1061411127448082,-0.005950057879090309,-0.36534878611564636,-1.3617998361587524,-1.1091022491455078,-0.27780085802078247,-0.4555304944515228,-0.16155502200126648
1749047917.4185474,-2.9092963377581995,-1.2555159491351624,1.6509769598590296,5.638912844448843,3.355466842651367,-2.7320709864245813,-0.07113586366176605,-0.002173203742131591,-0.03303416073322296,-0.11710342764854431,-0.10803689062595367,-0.00682773906737566,-0.33891764283180237,-1.3721798658370972,-1.1274046897888184,-0.2579144835472107,-0.4769488573074341,-0.16464883089065552
1749047917.4185853,-2.909433666859762,-1.2555241149714966,1.6509173552142542,5.638711797982015,3.355260133743286,-2.7320948282824915,-0.07221122831106186,-0.002588778967037797,-0.032691847532987595,-0.12003018707036972,-0.11159137636423111,-0.0075737168081104755,-0.3700973689556122,-1.3572837114334106,-1.1397007703781128,-0.2430616319179535,-0.4625970721244812,-0.1635454297065735
1749047917.418623,-2.909546677266256,-1.255504922275879,1.6508224646197718,5.638449597149648,3.3550238609313965,-2.7321422735797327,-0.07196596264839172,-0.002517301356419921,-0.0331137478351593,-0.12042666971683502,-0.11160576343536377,-0.007046891842037439,-0.3589439392089844,-1.348793864250183,-1.1271193027496338,-0.23607785999774933,-0.46364670991897583,-0.1615021675825119
1749047917.418661,-2.9097285906421106,-1.255485699777939,1.650785271321432,5.638201820641317,3.3547606468200684,-2.732131067906515,-0.07365292310714722,-0.0025977594777941704,-0.03345074504613876,-0.11959264427423477,-0.11440101265907288,-0.006733247544616461,-0.36894509196281433,-1.3660286664962769,-1.1253963708877563,-0.25726914405822754,-0.46978089213371277,-0.17256352305412292
1749047917.4186988,-2.909924570714132,-1.2555204790881653,1.6507328192340296,5.6379814622695825,3.354517698287964,-2.732150379811422,-0.07242749631404877,-0.0027025609742850065,-0.033394962549209595,-0.11952749639749527,-0.12074166536331177,-0.006698711775243282,-0.3580115735530853,-1.3564146757125854,-1.1202486753463745,-0.26450487971305847,-0.4361841380596161,-0.16722267866134644
1749047917.418736,-2.910018269215719,-1.2554857295802613,1.6506813208209437,5.63768349865035,3.354262590408325,-2.732154909764425,-0.07325795292854309,-0.0025219102390110493,-0.03370233625173569,-0.12290867418050766,-0.12240296602249146,-0.007778580766171217,-0.3482730984687805,-1.3647242784500122,-1.143653154373169,-0.24551531672477722,-0.4044836461544037,-0.16677087545394897
1749047917.4187727,-2.9102211634265345,-1.2555094820312043,1.6506007353412073,5.637459563999929,3.353973388671875,-2.73216683069338,-0.07450030744075775,-0.0025006167124956846,-0.034637488424777985,-0.11930244415998459,-0.12239014357328415,-0.007280935067683458,-0.35395827889442444,-1.3894654512405396,-1.138395071029663,-0.24395623803138733,-0.39662957191467285,-0.15201601386070251
1749047917.4188104,-2.9103878180133265,-1.2555290025523682,1.6504948774920862,5.637251186161794,3.353783369064331,-2.7321632544146937,-0.07612524181604385,-0.0024004701990634203,-0.03528034687042236,-0.11946781724691391,-0.12183550000190735,-0.007849570363759995,-0.3630181849002838,-1.3785609006881714,-1.1324477195739746,-0.2678796052932739,-0.4118630290031433,-0.15520097315311432
1749047917.4188478,-2.9105213324176233,-1.2555252772620697,1.6504419485675257,5.636973488121786,3.3534817695617676,-2.7321787516223353,-0.0771326944231987,-0.002524533774703741,-0.0358404703438282,-0.12060625851154327,-0.12375286966562271,-0.007227075751870871,-0.35599833726882935,-1.3646284341812134,-1.1399949789047241,-0.28350499272346497,-0.4055231213569641,-0.17082644999027252
1749047917.4188845,-2.9106271902667444,-1.2555641394904633,1.6503852049456995,5.636725771218099,3.3532443046569824,-2.732187096272604,-0.07925733923912048,-0.0027429480105638504,-0.0360039547085762,-0.12308598309755325,-0.12278379499912262,-0.008027431555092335,-0.2895575761795044,-1.3738230466842651,-1.1455222368240356,-0.24522240459918976,-0.41161131858825684,-0.15964718163013458
1749047917.4189212,-2.910821501408712,-1.2555603843978425,1.6502793470965784,5.636489617615499,3.35302472114563,-2.732246224080221,-0.0777641236782074,-0.00255872355774045,-0.036242809146642685,-0.12538442015647888,-0.12045486271381378,-0.008130357600748539,-0.36815696954727173,-1.3686680793762207,-1.138515591621399,-0.27556300163269043,-0.42267054319381714,-0.16126462817192078
1749047917.4189577,-2.910966698323385,-1.2555290025523682,1.6502264181720179,5.636222529202261,3.352797508239746,-2.7322543303119105,-0.08110525459051132,-0.0026922780089080334,-0.03672555461525917,-0.12839007377624512,-0.11952315270900726,-0.008088762871921062,-0.35533949732780457,-1.3689981698989868,-1.146889567375183,-0.27220454812049866,-0.455904483795166,-0.1671326756477356
1749047917.418994,-2.9111574331866663,-1.2555411618999024,1.6501472632037562,5.635978567391195,3.352522611618042,-2.7322543303119105,-0.07944785803556442,-0.0027777517680078745,-0.03639689087867737,-0.12977324426174164,-0.12260612845420837,-0.008199893869459629,-0.37983107566833496,-1.3576401472091675,-1.1437946557998657,-0.249778613448143,-0.470664918422699,-0.16535690426826477
1749047917.4190307,-2.911337677632467,-1.2555411618999024,1.650078598652975,5.6357197044189355,3.352280378341675,-2.732250754033224,-0.08046220988035202,-0.0027184763457626104,-0.03620330989360809,-0.13456006348133087,-0.12462242692708969,-0.008256270550191402,-0.385383278131485,-1.3652912378311157,-1.1540393829345703,-0.24065275490283966,-0.4401482939720154,-0.1597157120704651
1749047917.419192,-2.911478106175558,-1.2555723053267975,1.65001088777651,5.635432469635763,3.3520750999450684,-2.732286516820089,-0.08400239795446396,-0.002627897309139371,-0.03762243688106537,-0.13766328990459442,-0.1237366572022438,-0.007997213862836361,-0.37140536308288574,-1.3637908697128296,-1.163301706314087,-0.2510606050491333,-0.4916363060474396,-0.16764208674430847
1749047917.420794,-2.9116271177874964,-1.255537526016571,1.6499198118792933,5.635150122433462,3.3518362045288086,-2.732295338307516,-0.08345389366149902,-0.002767956117168069,-0.03800734505057335,-0.1383209377527237,-0.12738610804080963,-0.007715390995144844,-0.382276713848114,-1.3833163976669312,-1.1734981536865234,-0.24201901257038116,-0.5062578916549683,-0.16036802530288696
1749047917.462278,-2.9118056933032435,-1.2555890542319794,1.6498907248126429,5.634847330838003,3.351541519165039,-2.7323301474200647,-0.08559301495552063,-0.0029942691326141357,-0.036450956016778946,-0.14350903034210205,-0.13419541716575623,-0.007629441563040018,-0.3593233823776245,-1.3750454187393188,-1.1799662113189697,-0.22145584225654602,-0.49724018573760986,-0.1660325527191162
1749047917.4623234,-2.91200834909548,-1.2555576425841828,1.6498034636126917,5.634556460171499,3.351243019104004,-2.7323227564441126,-0.08716186881065369,-0.0032405699603259563,-0.03667933866381645,-0.14294713735580444,-0.1340797245502472,-0.008089815266430378,-0.36583244800567627,-1.3664400577545166,-1.2050684690475464,-0.2222723811864853,-0.49789756536483765,-0.16577312350273132
1749047917.462364,-2.9122124353991907,-1.2555540067008515,1.649719540272848,5.634315717011251,3.3510043621063232,-2.73236591020693,-0.085976243019104,-0.003148084506392479,-0.038026172667741776,-0.1418406218290329,-0.1379973590373993,-0.007839366793632507,-0.3662455976009369,-1.3679136037826538,-1.1998385190963745,-0.22952532768249512,-0.5002132654190063,-0.1555185168981552
1749047917.4624069,-2.9123650232898157,-1.255584494476654,1.6496713797198694,5.634013163834371,3.350700616836548,-2.732377831135885,-0.0859605222940445,-0.0027935781981796026,-0.038590990006923676,-0.1441488116979599,-0.142170712351799,-0.00782614853233099,-0.3983049988746643,-1.3658015727996826,-1.2006213665008545,-0.24841290712356567,-0.4947398900985718,-0.16975945234298706
1749047917.462448,-2.912502113972799,-1.2555576425841828,1.6495683828936976,5.633763718395986,3.3504207134246826,-2.732382361088888,-0.0906984880566597,-0.0026354105211794376,-0.04133263975381851,-0.14300140738487244,-0.14498765766620636,-0.008156487718224525,-0.33921942114830017,-1.3814135789871216,-1.2046095132827759,-0.23799793422222137,-0.49019232392311096,-0.1534210443496704
1749047917.4624896,-2.91270620027651,-1.2555936735919495,1.6495006720172327,5.6334653971488855,3.350130081176758,-2.73236328760256,-0.08770862221717834,-0.00271890708245337,-0.04185337945818901,-0.1419684886932373,-0.14726650714874268,-0.007896820083260536,-0.41687649488449097,-1.3765839338302612,-1.185438632965088,-0.2652737498283386,-0.4836251139640808,-0.16616812348365784
1749047917.4625278,-2.9128862063037317,-1.2556046408465882,1.6493848005877894,5.633150744229116,3.3498151302337646,-2.7324371973620813,-0.09085443615913391,-0.002539882669225335,-0.04054423049092293,-0.1439828723669052,-0.14816953241825104,-0.008355850353837013,-0.4040800631046295,-1.3960235118865967,-1.2236275672912598,-0.30361998081207275,-0.4786643981933594,-0.17186468839645386
1749047917.4625654,-2.913093868886129,-1.2556165617755433,1.6492980162249964,5.6328672645385645,3.349491834640503,-2.7323911825763147,-0.09326663613319397,-0.002690352965146303,-0.044079139828681946,-0.14740407466888428,-0.14947526156902313,-0.00846219900995493,-0.41005590558052063,-1.375503420829773,-1.2228261232376099,-0.29216310381889343,-0.48037204146385193,-0.16966384649276733
1749047917.4626029,-2.9133322874652308,-1.2556165617755433,1.6492403189288538,5.632543730526724,3.3492202758789062,-2.732445780430929,-0.09473074227571487,-0.0026703369803726673,-0.044126104563474655,-0.15084894001483917,-0.14929383993148804,-0.009306337684392929,-0.39782610535621643,-1.3931282758712769,-1.1936156749725342,-0.28540462255477905,-0.5062054991722107,-0.1614728718996048
1749047917.4626412,-2.913443628941671,-1.2556055945209046,1.6491411367999476,5.632232355862417,3.348928213119507,-2.732438389454977,-0.09528754651546478,-0.0024876452516764402,-0.04616078361868858,-0.15653954446315765,-0.15105557441711426,-0.009488057345151901,-0.40491652488708496,-1.388939380645752,-1.2027697563171387,-0.28041452169418335,-0.5007860064506531,-0.14527711272239685
1749047917.462696,-2.91366154352297,-1.2556525331786652,1.649022404347555,5.631909358292379,3.34859037399292,-2.7324658075915735,-0.09471719712018967,-0.002593536162748933,-0.046296387910842896,-0.15833163261413574,-0.15137465298175812,-0.00964434165507555,-0.3919903039932251,-1.3846899271011353,-1.166695475578308,-0.25233137607574463,-0.4973100423812866,-0.16799119114875793
1749047917.4627535,-2.913795296345846,-1.2556369763663788,1.6489647070514124,5.631566691189565,3.3482866287231445,-2.7324984709369105,-0.09688162058591843,-0.00310957757756114,-0.04602676257491112,-0.16597484052181244,-0.15539109706878662,-0.00960446335375309,-0.3952880799770355,-1.3779139518737793,-1.1756582260131836,-0.23339535295963287,-0.4927065074443817,-0.1428508162498474
1749047917.4627948,-2.914037291203634,-1.2556599539569397,1.648853603993551,5.631234752922811,3.347947835922241,-2.7325103918658655,-0.09861874580383301,-0.0031439608428627253,-0.04666118696331978,-0.16319897770881653,-0.15631309151649475,-0.009550550021231174,-0.41546812653541565,-1.3766621351242065,-1.1751161813735962,-0.2353687584400177,-0.5084286332130432,-0.1530897617340088
1749047917.462834,-2.914234224949972,-1.2556720536998291,1.6487653891192835,5.6309271333511255,3.347686767578125,-2.732518736516134,-0.101096510887146,-0.0029992463532835245,-0.04663943871855736,-0.16425731778144836,-0.15927104651927948,-0.008482367731630802,-0.3855350911617279,-1.3817933797836304,-1.183158040046692,-0.24677619338035583,-0.49884194135665894,-0.157547265291214
1749047917.4628818,-2.9144230524646204,-1.2556406420520325,1.6486581007586878,5.630572426110067,3.347262144088745,-2.732565466557638,-0.10208095610141754,-0.002997347852215171,-0.047350335866212845,-0.1664399802684784,-0.16781194508075714,-0.008675413206219673,-0.3847019374370575,-1.3859866857528687,-1.1980546712875366,-0.20741702616214752,-0.45963579416275024,-0.15875977277755737
1749047917.4629242,-2.9145925680743616,-1.25563337028537,1.6485665480243128,5.630234050541677,3.3470160961151123,-2.7325742880450647,-0.10334715247154236,-0.0032352088019251823,-0.04838615283370018,-0.16287896037101746,-0.16706137359142303,-0.008889636024832726,-0.38832491636276245,-1.3850642442703247,-1.1810235977172852,-0.2725249230861664,-0.46428197622299194,-0.14845749735832214
1749047917.4629645,-2.9148741404162806,-1.2556803983500977,1.6484740416156214,5.629902291088857,3.346658945083618,-2.7326210180865687,-0.1072559803724289,-0.0032654781825840473,-0.048096299171447754,-0.16421136260032654,-0.16856880486011505,-0.009230225346982479,-0.3761187493801117,-1.3841191530227661,-1.1863689422607422,-0.27048882842063904,-0.4698546230792999,-0.15136584639549255
1749047917.463002,-2.9150317350970667,-1.2556766432574769,1.6483553091632288,5.629594850331106,3.346315860748291,-2.7326255480395716,-0.10354378819465637,-0.003667885670438409,-0.04942993074655533,-0.16512452065944672,-0.17002585530281067,-0.009322749450802803,-0.4276033639907837,-1.3721309900283813,-1.1876684427261353,-0.2691706717014313,-0.45830053091049194,-0.164005845785141
1749047917.4630513,-2.9150317350970667,-1.2556766432574769,1.6483553091632288,5.629594850331106,3.346315860748291,-2.7326255480395716,-0.10354378819465637,-0.003667885670438409,-0.04942993074655533,-0.16512452065944672,-0.17002585530281067,-0.009322749450802803,-0.4276033639907837,-1.3721309900283813,-1.1876684427261353,-0.2691706717014313,-0.45830053091049194,-0.164005845785141
1749047917.4630935,-2.915285889302389,-1.255688564186432,1.6482942740069788,5.629259454994955,3.345998764038086,-2.7326181570636194,-0.10892528295516968,-0.0036400831304490566,-0.049901850521564484,-0.1671585589647293,-0.1681109517812729,-0.008709988556802273,-0.4044550061225891,-1.3836671113967896,-1.1911604404449463,-0.2985542416572571,-0.4561895728111267,-0.16639667749404907
1749047917.4632041,-2.915705744420187,-1.2557041209987183,1.648071591054098,5.6285230992134,3.3453516960144043,-2.7326701323138636,-0.11084263771772385,-0.003395342966541648,-0.05066985264420509,-0.17494359612464905,-0.16826893389225006,-0.00929123442620039,-0.400667667388916,-1.397911548614502,-1.1816972494125366,-0.3118748068809509,-0.49383753538131714,-0.1579761803150177
1749047917.4647732,-2.915952746068136,-1.255712704067566,1.647963825856344,5.628202247410574,3.344977617263794,-2.732666317616598,-0.11209327727556229,-0.0037491440307348967,-0.05276457965373993,-0.17950433492660522,-0.16992534697055817,-0.009481863118708134,-0.37807339429855347,-1.3683310747146606,-1.16721773147583,-0.3050077259540558,-0.5142339468002319,-0.13700804114341736
1749047917.5062914,-2.916189495717184,-1.2556812924197693,1.647890869771139,5.627839672356405,3.3446269035339355,-2.732690159474508,-0.11480320245027542,-0.0033425334841012955,-0.0519116073846817,-0.18346956372261047,-0.17369982600212097,-0.009829416871070862,-0.37370431423187256,-1.368604063987732,-1.1697272062301636,-0.26836609840393066,-0.5181090831756592,-0.1522495448589325
1749047917.506337,-2.9163556734668177,-1.25570900857959,1.6477673689471644,5.627476501255789,3.3442673683166504,-2.7326911131488245,-0.11373434215784073,-0.00336286798119545,-0.05160299688577652,-0.18263055384159088,-0.17600302398204803,-0.010167337022721767,-0.37953856587409973,-1.3811705112457275,-1.1835448741912842,-0.28869250416755676,-0.5137879848480225,-0.1455685943365097
1749047917.506384,-2.9165926615344446,-1.2556931239417572,1.6476877371417444,5.627102005272665,3.3439478874206543,-2.7327540556537073,-0.11662576347589493,-0.003465907648205757,-0.05234536901116371,-0.186721533536911,-0.17937269806861877,-0.010177891701459885,-0.4133625626564026,-1.3634681701660156,-1.1794425249099731,-0.2880953848361969,-0.5107355117797852,-0.16562053561210632
1749047917.5064244,-2.9167915026294153,-1.2557401222041626,1.6475637594806116,5.626753556519308,3.343588352203369,-2.7327616850482386,-0.11504439264535904,-0.0034177538473159075,-0.053940802812576294,-0.18394383788108826,-0.18409590423107147,-0.010059980675578117,-0.43086883425712585,-1.384797215461731,-1.176721453666687,-0.30823320150375366,-0.520321786403656,-0.14904358983039856
1749047917.5064664,-2.9170623461352747,-1.255731926565506,1.6474488417254847,5.626378822117605,3.3431661128997803,-2.732792917882101,-0.11832212656736374,-0.003506407840177417,-0.0551878921687603,-0.18518927693367004,-0.18786336481571198,-0.010437731631100178,-0.40961772203445435,-1.3909716606140137,-1.151620864868164,-0.31708014011383057,-0.5071947574615479,-0.15716421604156494
1749047917.5065055,-2.917290751134054,-1.2557292145541687,1.6473410765277308,5.6259957430656335,3.342836380004883,-2.7328129450427454,-0.11960545927286148,-0.0036533598322421312,-0.053364790976047516,-0.18591521680355072,-0.19040201604366302,-0.010575474239885807,-0.4321683347225189,-1.379561185836792,-1.187227725982666,-0.3485228419303894,-0.49363577365875244,-0.1479737013578415
1749047917.5065439,-2.9175615946399134,-1.255748377447464,1.6472252050982874,5.625608968525686,3.342410087585449,-2.7328248659717005,-0.1197853684425354,-0.003229027148336172,-0.054840028285980225,-0.18984737992286682,-0.19336716830730438,-0.010553947649896145,-0.4251020550727844,-1.411630630493164,-1.1762487888336182,-0.34308409690856934,-0.4792063236236572,-0.14026038348674774
1749047917.5065823,-2.917755667363302,-1.2557172638228913,1.6471293608294886,5.625241267472067,3.342003345489502,-2.7328057924853724,-0.1200445368885994,-0.0029097364749759436,-0.05574952811002731,-0.1939377337694168,-0.1949155628681183,-0.01012276392430067,-0.4254530668258667,-1.3806707859039307,-1.157768726348877,-0.3510521650314331,-0.463494211435318,-0.14934302866458893
1749047917.506644,-2.917964522038595,-1.2557292145541687,1.6469858328448694,5.624827194004812,3.3415896892547607,-2.7329042593585413,-0.12171253561973572,-0.002682803198695183,-0.05545534938573837,-0.1974642127752304,-0.19387103617191315,-0.009381300769746304,-0.4082682132720947,-1.3932864665985107,-1.16538405418396,-0.35345080494880676,-0.4828539490699768,-0.14598552882671356
1749047917.506716,-2.9182663599597376,-1.2557606560042878,1.6468551794635218,5.624420153885641,3.3412837982177734,-2.732896153126852,-0.1240730881690979,-0.0030128711368888617,-0.05597923696041107,-0.2022562175989151,-0.19961194694042206,-0.008829513564705849,-0.45356470346450806,-1.396590232849121,-1.1720951795578003,-0.3168463706970215,-0.47889024019241333,-0.15769276022911072
1749047917.5067737,-2.9185648600207728,-1.255753294830658,1.646766487752096,5.624040472298422,3.3408567905426025,-2.732919756566183,-0.12669232487678528,-0.0033328928984701633,-0.05686517432332039,-0.20278410613536835,-0.19699978828430176,-0.009271836839616299,-0.4089359641075134,-1.3949244022369385,-1.167215347290039,-0.33127057552337646,-0.488243967294693,-0.1548999845981598
1749047917.5068324,-2.9187899271594446,-1.2557762128165741,1.6466506163226526,5.623614358692922,3.3405046463012695,-2.7329207102404993,-0.12771417200565338,-0.0035505867563188076,-0.05714418739080429,-0.2041008025407791,-0.20334872603416443,-0.01030451338738203,-0.3869816064834595,-1.3991124629974365,-1.1682703495025635,-0.3160199224948883,-0.4871954619884491,-0.16495506465435028
1749047917.5068738,-2.9189732710467737,-1.2557688516429444,1.6465509573565882,5.6232348559196375,3.340066432952881,-2.7329488436328333,-0.13054439425468445,-0.0032798312604427338,-0.05757620930671692,-0.2021310031414032,-0.20230212807655334,-0.01086285337805748,-0.3996022343635559,-1.4130488634109497,-1.1625713109970093,-0.3484514355659485,-0.478971928358078,-0.15275496244430542
1749047917.5069125,-2.9193058649646204,-1.2557807725718995,1.6464150587665003,5.622827875405111,3.3396830558776855,-2.7329533735858362,-0.12862347066402435,-0.003479789476841688,-0.057941097766160965,-0.2025463879108429,-0.20316541194915771,-0.010869011282920837,-0.44043534994125366,-1.4014294147491455,-1.165112853050232,-0.3860534429550171,-0.49757230281829834,-0.14357823133468628
1749047917.5069542,-2.919572893773214,-1.2557688516429444,1.646327320729391,5.622467505722799,3.339244842529297,-2.732945982609884,-0.13320103287696838,-0.004201550502330065,-0.05860404297709465,-0.20499935746192932,-0.20146092772483826,-0.010350667871534824,-0.36610549688339233,-1.3915579319000244,-1.15653395652771,-0.3900218605995178,-0.486397385597229,-0.15640659630298615
1749047917.5069928,-2.919816319142477,-1.255800263290741,1.6461957136737269,5.622009920864858,3.3388288021087646,-2.7330010573016565,-0.13144734501838684,-0.003676183521747589,-0.058779630810022354,-0.21122896671295166,-0.20559068024158478,-0.010518000461161137,-0.40105772018432617,-1.3735620975494385,-1.1430003643035889,-0.38184669613838196,-0.5086737275123596,-0.15061654150485992
1749047917.507035,-2.9200735727893274,-1.2558206480792542,1.6461065451251429,5.621629106789388,3.3383827209472656,-2.7330129782306116,-0.13128547370433807,-0.0035941048990935087,-0.057723186910152435,-0.21564030647277832,-0.20251768827438354,-0.010791866108775139,-0.42051470279693604,-1.3967373371124268,-1.1738288402557373,-0.3907213807106018,-0.5397924184799194,-0.15238572657108307
1749047917.5070736,-2.9203155676471155,-1.2558050614646454,1.6459677855121058,5.621159958630361,3.3380093574523926,-2.7330408732043665,-0.1336660087108612,-0.0037486213259398937,-0.0592777319252491,-0.21988733112812042,-0.20893193781375885,-0.010894211009144783,-0.41782498359680176,-1.4025051593780518,-1.1848633289337158,-0.388568252325058,-0.5197679400444031,-0.1443312168121338
1749047917.5071108,-2.920637909566061,-1.2558125120452424,1.6458171049701136,5.620728719025411,3.3375675678253174,-2.733049217854635,-0.13533979654312134,-0.003961970563977957,-0.062780000269413,-0.22227810323238373,-0.2095060646533966,-0.010892003774642944,-0.42114871740341187,-1.3999912738800049,-1.1401393413543701,-0.3568001687526703,-0.5169708132743835,-0.15392976999282837
1749047917.507149,-2.920816485081808,-1.2558206480792542,1.6456969420062464,5.620301592140951,3.3371639251708984,-2.733053747807638,-0.1346246302127838,-0.004347508307546377,-0.06065414845943451,-0.2242034375667572,-0.21230033040046692,-0.010855899192392826,-0.4151656925678253,-1.4003465175628662,-1.1396968364715576,-0.3663966953754425,-0.5215606093406677,-0.16340427100658417
1749047917.5072641,-2.9211557547198694,-1.2558133763125916,1.6456087271319788,5.619858670025625,3.336735963821411,-2.7331436316119593,-0.13664063811302185,-0.004348548129200935,-0.05885550007224083,-0.21997833251953125,-0.21669018268585205,-0.011082018725574017,-0.4195117950439453,-1.3974227905273438,-1.1744470596313477,-0.40050843358039856,-0.4967941343784332,-0.15001066029071808
1749047917.5087936,-2.921421829854147,-1.2558567982963105,1.6454537550555628,5.619408297329702,3.336245536804199,-2.7331207434283655,-0.13804475963115692,-0.0040710242465138435,-0.060004591941833496,-0.22030213475227356,-0.22016428411006927,-0.011269710958003998,-0.42616569995880127,-1.413442611694336,-1.176483392715454,-0.40333685278892517,-0.4792422950267792,-0.14484280347824097
1749047917.5502856,-2.9217098394977015,-1.2558603447726746,1.6453412214862269,5.618945050030508,3.3358490467071533,-2.7331326643573206,-0.13984742760658264,-0.004245092160999775,-0.06278906017541885,-0.2236166149377823,-0.22051109373569489,-0.012495099566876888,-0.4299544095993042,-1.3974862098693848,-1.1541129350662231,-0.44034343957901,-0.4931090474128723,-0.16795171797275543
1749047917.5503318,-2.921967093144552,-1.255837158565857,1.6451976935016077,5.618501889496603,3.3353748321533203,-2.7332032362567347,-0.14178408682346344,-0.003922326024621725,-0.06082592532038689,-0.22857141494750977,-0.22014999389648438,-0.012676890939474106,-0.4107091724872589,-1.400678277015686,-1.16618013381958,-0.42751413583755493,-0.4832984507083893,-0.15229915082454681
1749047917.550376,-2.9222705999957483,-1.255861298446991,1.6451128164874476,5.61804352977828,3.3349621295928955,-2.7331884543048304,-0.14248882234096527,-0.003471506992354989,-0.06145540252327919,-0.2357732504606247,-0.22086630761623383,-0.01186687033623457,-0.3985553979873657,-1.4188324213027954,-1.1798049211502075,-0.40657058358192444,-0.49838584661483765,-0.1468985676765442
1749047917.5504165,-2.9225125948535364,-1.2558649343303223,1.6449702421771448,5.617576527386465,3.334460973739624,-2.733220163975851,-0.14218661189079285,-0.003348841331899166,-0.062499988824129105,-0.23807336390018463,-0.22163435816764832,-0.012171518988907337,-0.41246849298477173,-1.3935822248458862,-1.1693705320358276,-0.3674907088279724,-0.503186821937561,-0.16407069563865662
1749047917.5504556,-2.9228318373309534,-1.2558649343303223,1.6448076407061976,5.617094146996298,3.334019422531128,-2.7332752386676233,-0.1426253318786621,-0.003958492074161768,-0.06260146200656891,-0.2427438199520111,-0.22357623279094696,-0.01229613833129406,-0.4339399039745331,-1.4213539361953735,-1.1742819547653198,-0.35484740138053894,-0.5091070532798767,-0.14638248085975647
1749047917.5504994,-2.9231043497668665,-1.2559238237193604,1.6447222868548792,5.616623449116506,3.33354115486145,-2.733236853276388,-0.14534762501716614,-0.004704296123236418,-0.06342311203479767,-0.23846571147441864,-0.2282295972108841,-0.01251449529081583,-0.4570828080177307,-1.4106239080429077,-1.1697964668273926,-0.36882662773132324,-0.4782969057559967,-0.1511765718460083
1749047917.550539,-2.9234283606158655,-1.2558731597713013,1.6446097532855433,5.616164433747091,3.33309268951416,-2.7333160082446497,-0.1442873626947403,-0.0046526119112968445,-0.06432683765888214,-0.23758640885353088,-0.228582963347435,-0.012262975797057152,-0.4364699125289917,-1.402474284172058,-1.1686266660690308,-0.378938764333725,-0.46994686126708984,-0.1539793461561203
1749047917.5505772,-2.9237056414233606,-1.2559009355357666,1.6444709936725062,5.615678477078237,3.332676887512207,-2.7333436647998255,-0.14756745100021362,-0.004710347391664982,-0.06454458087682724,-0.2361181229352951,-0.22866541147232056,-0.012280301190912724,-0.4186917245388031,-1.3826392889022827,-1.1895779371261597,-0.436453640460968,-0.49202483892440796,-0.15793655812740326
1749047917.5506334,-2.9240129629718226,-1.2559128564647217,1.644320313130514,5.615234303265371,3.332174301147461,-2.7333481947528284,-0.1490478515625,-0.0050413962453603745,-0.06583463400602341,-0.2379399985074997,-0.2268339991569519,-0.012838548049330711,-0.4288475513458252,-1.3784350156784058,-1.161710500717163,-0.42309001088142395,-0.48723047971725464,-0.16227592527866364
1749047917.5507061,-2.9242926279651087,-1.255916492348053,1.6442230383502405,5.614762532501974,3.331714391708374,-2.7333882490741175,-0.1488131433725357,-0.004285719245672226,-0.06511247903108597,-0.2425106167793274,-0.22910133004188538,-0.013363758102059364,-0.41955024003982544,-1.394808292388916,-1.1653023958206177,-0.42658817768096924,-0.5029217004776001,-0.15836907923221588
1749047917.5507686,-2.924582306538717,-1.2559598249248047,1.6440756956683558,5.614217626839437,3.331247568130493,-2.733384434376852,-0.1498570740222931,-0.0035097908694297075,-0.0646846815943718,-0.24523892998695374,-0.22414948046207428,-0.013632849790155888,-0.4280540347099304,-1.4297244548797607,-1.18099045753479,-0.44389399886131287,-0.5405253767967224,-0.1450778990983963
1749047917.5508108,-2.9248979727374476,-1.255916492348053,1.6439712683307093,5.613714325218954,3.3307876586914062,-2.7334514299975794,-0.15406863391399384,-0.0034135638270527124,-0.06460405141115189,-0.2471790462732315,-0.23078666627407074,-0.01259305328130722,-0.37808212637901306,-1.3889915943145752,-1.1903629302978516,-0.4108514189720154,-0.5558776259422302,-0.1656365543603897
1749047917.550849,-2.9251635710345667,-1.2559644144824524,1.6437934080706995,5.613184320717611,3.330414295196533,-2.7334476153003138,-0.15207886695861816,-0.004518731497228146,-0.06683618575334549,-0.24958594143390656,-0.23288081586360931,-0.012479261495172977,-0.42464596033096313,-1.4374845027923584,-1.1752910614013672,-0.4101411700248718,-0.5834391117095947,-0.14652521908283234
1749047917.5508866,-2.925513807927267,-1.2559259992888947,1.643653694783346,5.61269228437499,3.329923629760742,-2.7334678808795374,-0.15180882811546326,-0.004719152115285397,-0.06429706513881683,-0.2478417456150055,-0.24129965901374817,-0.012515920214354992,-0.4553891122341156,-1.394369125366211,-1.2216908931732178,-0.4007290005683899,-0.5476444363594055,-0.17404292523860931
1749047917.5509286,-2.9258413950549524,-1.2559800308993836,1.6435330549823206,5.612182366638937,3.3294289112091064,-2.7335036436664026,-0.15215152502059937,-0.0043623438104987144,-0.06485995650291443,-0.24973520636558533,-0.24553276598453522,-0.012882734648883343,-0.4664373993873596,-1.4122769832611084,-1.2274854183197021,-0.4063752293586731,-0.5211559534072876,-0.15873633325099945
1749047917.550966,-2.9261603991137903,-1.2559763354114075,1.643386189137594,5.6117069003875635,3.3289413452148438,-2.733582083378927,-0.15475788712501526,-0.004481935873627663,-0.06848230957984924,-0.25190067291259766,-0.2474328577518463,-0.01290963776409626,-0.45417746901512146,-1.418749451637268,-1.1874995231628418,-0.39881253242492676,-0.5173152685165405,-0.14085246622562408
1749047917.551003,-2.926403586064474,-1.2559726995280762,1.64325458208193,5.611212420254507,3.3284192085266113,-2.7335358301745813,-0.15748730301856995,-0.004320220090448856,-0.06599312275648117,-0.2571764588356018,-0.2447088211774826,-0.012661470100283623,-0.42488569021224976,-1.3849858045578003,-1.22002112865448,-0.4004729986190796,-0.5296363830566406,-0.15452758967876434
1749047917.55104,-2.926753822957174,-1.255934165125229,1.643106762562887,5.610685813217916,3.327911853790283,-2.733591143284933,-0.1591496616601944,-0.004084596410393715,-0.06668160110712051,-0.2568742334842682,-0.24344667792320251,-0.013263619504868984,-0.43146592378616333,-1.421775221824646,-1.2343248128890991,-0.39342832565307617,-0.5637882947921753,-0.1692490428686142
1749047917.5510802,-2.927066151295797,-1.2560196679881592,1.6430099646197718,5.610131370812216,3.327399969100952,-2.7336414496051233,-0.15857695043087006,-0.004111753311008215,-0.0672854408621788,-0.26106950640678406,-0.25080758333206177,-0.013569346629083157,-0.40437182784080505,-1.4023158550262451,-1.2302254438400269,-0.36776649951934814,-0.5551201701164246,-0.18122492730617523
1749047917.5511181,-2.9273677507983606,-1.2560004156878968,1.6428521315204065,5.609600591450491,3.3268656730651855,-2.733626906071798,-0.16066013276576996,-0.004597142804414034,-0.06690610945224762,-0.258871465921402,-0.2524445652961731,-0.013875847682356834,-0.3966512382030487,-1.4085749387741089,-1.2671316862106323,-0.38106629252433777,-0.5643354058265686,-0.17175626754760742
1749047917.551224,-2.9277177492724817,-1.2560290855220337,1.6427071730243128,5.609070050507345,3.3263540267944336,-2.73364764848818,-0.16401952505111694,-0.004826500080525875,-0.06876791268587112,-0.2582334280014038,-0.25983303785324097,-0.013465824536979198,-0.38217246532440186,-1.4031826257705688,-1.2512516975402832,-0.38647812604904175,-0.4633781909942627,-0.16386693716049194
1749047917.5527334,-2.9280040899859827,-1.2560364764979859,1.6426180044757288,5.608562576561727,3.3257925510406494,-2.7337146441089075,-0.1616736352443695,-0.004829404875636101,-0.07065635919570923,-0.2582627236843109,-0.26184147596359253,-0.013679075054824352,-0.41557782888412476,-1.4004539251327515,-1.231384515762329,-0.398248553276062,-0.4700908660888672,-0.164824441075325
1749047917.598297,-2.928366009389059,-1.2560290855220337,1.642447296773092,5.608035671501913,3.325303316116333,-2.7336953322040003,-0.16305860877037048,-0.004581456538289785,-0.07217598706483841,-0.2598712146282196,-0.25926658511161804,-0.013709431514143944,-0.4541008472442627,-1.3971418142318726,-1.2224361896514893,-0.4079517722129822,-0.4710715711116791,-0.16490137577056885
1749047917.5983424,-2.928685490285055,-1.2560206216624756,1.6422880331622522,5.607481646328726,3.3248205184936523,-2.733762804661886,-0.1658313274383545,-0.0039020776748657227,-0.0731334313750267,-0.26452159881591797,-0.2587242126464844,-0.014946108683943748,-0.4086597263813019,-1.4140574932098389,-1.2171469926834106,-0.3911682367324829,-0.47816991806030273,-0.16768908500671387
1749047917.5983872,-2.9289799372302454,-1.2559895080379029,1.6420977751361292,5.606911706715383,3.3242926597595215,-2.7338057200061243,-0.1670033037662506,-0.0033522259909659624,-0.07425151765346527,-0.27134379744529724,-0.2531833052635193,-0.014702687039971352,-0.45022404193878174,-1.4271047115325928,-1.2110685110092163,-0.3553677201271057,-0.5294758677482605,-0.1553996056318283
1749047917.5984273,-2.9293158690081995,-1.256044940357544,1.6419733206378382,5.606414961605825,3.323759078979492,-2.733791176472799,-0.16654564440250397,-0.0030374513007700443,-0.07459882646799088,-0.26964855194091797,-0.25673720240592957,-0.014676941558718681,-0.4483621120452881,-1.4534846544265747,-1.2037845849990845,-0.3504737913608551,-0.5233458280563354,-0.16467885673046112
1749047917.5984662,-2.9296677748309534,-1.2560327810100098,1.641801659260885,5.605857002526083,3.3232672214508057,-2.7338388601886194,-0.16806788742542267,-0.0036107790656387806,-0.07468216866254807,-0.27184873819351196,-0.25660577416419983,-0.014960844069719315,-0.4357874095439911,-1.4275965690612793,-1.207473874092102,-0.3248630166053772,-0.5556233525276184,-0.17324873805046082
1749047917.5985067,-2.9296677748309534,-1.2560327810100098,1.641801659260885,5.605857002526083,3.3232672214508057,-2.7338388601886194,-0.16806788742542267,-0.0036107790656387806,-0.07468216866254807,-0.27184873819351196,-0.25660577416419983,-0.014960844069719315,-0.4357874095439911,-1.4275965690612793,-1.207473874092102,-0.3248630166053772,-0.5556233525276184,-0.17324873805046082
1749047917.5985448,-2.9303351084338587,-1.2560882729342957,1.6415370146380823,5.604752170830526,3.3222084045410156,-2.733924929295675,-0.1705394983291626,-0.004798274952918291,-0.07618215680122375,-0.2722115218639374,-0.26577991247177124,-0.013835413381457329,-0.41748160123825073,-1.4068772792816162,-1.203889012336731,-0.363630473613739,-0.5190986394882202,-0.17124512791633606
1749047917.5985827,-2.930722777043478,-1.2560763520053406,1.6413705984698694,5.604229438095846,3.3216423988342285,-2.733926598225729,-0.16997626423835754,-0.0052385106682777405,-0.07386048138141632,-0.27548331022262573,-0.2669426202774048,-0.013906384818255901,-0.44989731907844543,-1.4054105281829834,-1.2460672855377197,-0.3636278510093689,-0.5129740238189697,-0.16887155175209045
1749047917.5986204,-2.931039873753683,-1.256077305679657,1.6412223021136683,5.6036590216453455,3.3211333751678467,-2.7339659372912806,-0.1715877205133438,-0.005091578233987093,-0.07445782423019409,-0.27353304624557495,-0.26679742336273193,-0.014221777208149433,-0.5081521272659302,-1.4345552921295166,-1.2571487426757812,-0.3937276601791382,-0.5396047234535217,-0.16393274068832397
1749047917.598658,-2.9313793818103235,-1.2560964983752747,1.641059700642721,5.60309665182189,3.320582866668701,-2.7339897791491907,-0.17646074295043945,-0.004699817858636379,-0.08087687194347382,-0.27778953313827515,-0.2709667682647705,-0.014789099805057049,-0.494698703289032,-1.4158504009246826,-1.200281023979187,-0.3658915162086487,-0.545497477054596,-0.17486676573753357
1749047917.5986958,-2.9317238966571253,-1.2560736995986481,1.6408923308001917,5.60255782583312,3.3200390338897705,-2.7340295950519007,-0.1798778772354126,-0.0044764187186956406,-0.07926658540964127,-0.2793457508087158,-0.2754649519920349,-0.014352361671626568,-0.4166901707649231,-1.4249666929244995,-1.2114571332931519,-0.35143643617630005,-0.5299195051193237,-0.18182894587516785
1749047917.5987334,-2.9321187178241175,-1.2561169427684327,1.6407588163958948,5.601995217591085,3.319437265396118,-2.7340379397021692,-0.17826484143733978,-0.004705691710114479,-0.07932817190885544,-0.2806951403617859,-0.28362882137298584,-0.014801246114075184,-0.40892839431762695,-1.4385967254638672,-1.1956334114074707,-0.3513849675655365,-0.47436678409576416,-0.17784056067466736
1749047917.598771,-2.932432238255636,-1.2561047834208985,1.6405876318561,5.6014360068138025,3.31892991065979,-2.7340663115130823,-0.17745272815227509,-0.004690264817327261,-0.07903048396110535,-0.27994081377983093,-0.2855991721153259,-0.01620018109679222,-0.4228512942790985,-1.436131477355957,-1.1898140907287598,-0.37230801582336426,-0.44841066002845764,-0.18712005019187927
1749047917.5988083,-2.932795826588766,-1.256132499580719,1.6404202620135706,5.600857603340902,3.318338632583618,-2.7340973059283655,-0.18085479736328125,-0.005946366582065821,-0.0796014741063118,-0.28299447894096375,-0.284676730632782,-0.016294270753860474,-0.45905014872550964,-1.4441180229187012,-1.2133711576461792,-0.3921257555484772,-0.46909117698669434,-0.16991865634918213
1749047917.5988462,-2.933192316685812,-1.2561133068851014,1.6402486006366175,5.600256311684408,3.3177716732025146,-2.7341373602496546,-0.17893898487091064,-0.006041854154318571,-0.08110734075307846,-0.286685585975647,-0.279550164937973,-0.015854578465223312,-0.447141170501709,-1.4210740327835083,-1.1866062879562378,-0.3948449492454529,-0.4857170283794403,-0.17023906111717224
1749047917.5988839,-2.9335404078113,-1.25610967100177,1.6400931517230433,5.599700021534719,3.3172552585601807,-2.7341466585742396,-0.17795082926750183,-0.005687262862920761,-0.08054857701063156,-0.2914775013923645,-0.27543437480926514,-0.016029290854930878,-0.4437072277069092,-1.4245755672454834,-1.1666722297668457,-0.3403843641281128,-0.5242641568183899,-0.17874804139137268
1749047917.5989223,-2.933873001729147,-1.2561563414386292,1.6399253050433558,5.59910939910964,3.316653251647949,-2.7341771761523646,-0.17949837446212769,-0.004490599036216736,-0.08000393956899643,-0.2928238809108734,-0.2795554995536804,-0.01587773486971855,-0.44209882616996765,-1.4339388608932495,-1.1801221370697021,-0.34797757863998413,-0.5342987775802612,-0.16110414266586304
1749047917.5989647,-2.9342520872699183,-1.2561685603908082,1.6397579352008265,5.598534571915426,3.3160431385040283,-2.7342098394977015,-0.18257735669612885,-0.004592190962284803,-0.08053739368915558,-0.29034358263015747,-0.28385597467422485,-0.01559041254222393,-0.46980178356170654,-1.4341152906417847,-1.2119380235671997,-0.371376633644104,-0.5637968182563782,-0.17922475934028625
1749047917.599003,-2.934629265462057,-1.2562078696540375,1.6396172682391565,5.597919392376699,3.3155059814453125,-2.7342804113971155,-0.18497374653816223,-0.0053465343080461025,-0.0828033834695816,-0.2907443642616272,-0.2926377058029175,-0.015476200729608536,-0.40952831506729126,-1.4349985122680664,-1.1770838499069214,-0.36423224210739136,-0.4703317880630493,-0.188218355178833
1749047917.5990536,-2.934998099003927,-1.2562127870372315,1.639399830495016,5.597339558392324,3.314923048019409,-2.7342892328845423,-0.18504087626934052,-0.00616925535723567,-0.08144044131040573,-0.2961808443069458,-0.2942410707473755,-0.015347056090831757,-0.4065883457660675,-1.4196536540985107,-1.1798291206359863,-0.35670343041419983,-0.46484142541885376,-0.18389315903186798
1749047917.5990946,-2.9353774229632776,-1.25621651232753,1.639235798512594,5.596717762738027,3.3143327236175537,-2.734293762837545,-0.18502482771873474,-0.006416698452085257,-0.08316946774721146,-0.29825320839881897,-0.2919732332229614,-0.016349265351891518,-0.45212098956108093,-1.4096142053604126,-1.160271406173706,-0.37293171882629395,-0.49070799350738525,-0.17792050540447235
1749047917.5991328,-2.9357531706439417,-1.2562201184085389,1.6390875021563929,5.596135365753927,3.313765525817871,-2.7343605200396937,-0.1815498322248459,-0.005538068246096373,-0.08246153593063354,-0.3015490472316742,-0.2922886908054352,-0.016079392284154892,-0.46430081129074097,-1.4187859296798706,-1.1631462574005127,-0.33324870467185974,-0.4875803291797638,-0.1882322132587433
1749047917.5992446,-2.9361282030688685,-1.2562438708594819,1.6388924757586878,5.5955362794692896,3.3131515979766846,-2.7343931833850306,-0.18241062760353088,-0.0047454084269702435,-0.08485821634531021,-0.30209171772003174,-0.2906489670276642,-0.01684102602303028,-0.44820889830589294,-1.4362621307373047,-1.146880865097046,-0.32527923583984375,-0.5167255401611328,-0.17903393507003784
1749047917.6007626,-2.9365060965167444,-1.2562173765948792,1.6387484709369105,5.5949681279952905,3.3125996589660645,-2.7343979517566126,-0.18536382913589478,-0.004531409591436386,-0.08519094437360764,-0.3006307780742645,-0.29615747928619385,-0.017090393230319023,-0.43512511253356934,-1.44575834274292,-1.1395598649978638,-0.3643396198749542,-0.5187124013900757,-0.19151893258094788
1749047917.6422856,-2.936896864567892,-1.2562524539283295,1.6385377089129847,5.594346272736349,3.3119962215423584,-2.734476391469137,-0.18474657833576202,-0.0046161627396941185,-0.08474340289831161,-0.29849937558174133,-0.29984426498413086,-0.016348572447896004,-0.48929542303085327,-1.464876413345337,-1.1437373161315918,-0.3960045576095581,-0.4938180446624756,-0.1856245994567871
1749047917.6423326,-2.9372385183917444,-1.256252483730652,1.6383855978595179,5.593735325127401,3.3114216327667236,-2.734485451375143,-0.1875452846288681,-0.005223569460213184,-0.08385548740625381,-0.2998843193054199,-0.2995767593383789,-0.015646519139409065,-0.45383453369140625,-1.434535264968872,-1.1397604942321777,-0.4172590672969818,-0.4966043531894684,-0.18890953063964844
1749047917.6423733,-2.9376378695117396,-1.2562953990748902,1.6382177511798304,5.593103575497427,3.3108222484588623,-2.734504524861471,-0.1914900243282318,-0.005668913014233112,-0.08296769857406616,-0.3037770986557007,-0.29611656069755554,-0.016427496448159218,-0.38498902320861816,-1.4246734380722046,-1.1635496616363525,-0.4156455993652344,-0.5310120582580566,-0.18961858749389648
1749047917.642413,-2.9380067030536097,-1.256295458679535,1.6380227247821253,5.59248976686553,3.3102216720581055,-2.7345643679248255,-0.19151003658771515,-0.005480736959725618,-0.08241668343544006,-0.30615895986557007,-0.29580041766166687,-0.01717391610145569,-0.4233141243457794,-1.4333102703094482,-1.180037260055542,-0.3840363323688507,-0.5243741273880005,-0.1840970814228058
1749047917.642452,-2.9384027163134974,-1.2562415462783356,1.6378620306598108,5.591890620976248,3.309583902359009,-2.7345882097827356,-0.19081877171993256,-0.0049317278899252415,-0.08237287402153015,-0.30816230177879333,-0.30185309052467346,-0.016736112534999847,-0.42146724462509155,-1.441085934638977,-1.1904335021972656,-0.3758983612060547,-0.5288174748420715,-0.20634853839874268
1749047917.6424925,-2.9387992064105433,-1.2563162308982392,1.6377032438861292,5.591268050461569,3.3090078830718994,-2.7346275488482874,-0.1899319589138031,-0.0047445050440728664,-0.08351339399814606,-0.30512896180152893,-0.30757567286491394,-0.017268957570195198,-0.4679817259311676,-1.4282193183898926,-1.1911362409591675,-0.42419159412384033,-0.5298728346824646,-0.2012883871793747
1749047917.6425333,-2.939202133809225,-1.256308839922287,1.6375387350665491,5.5906453607376,3.3084208965301514,-2.734675709401266,-0.1910785585641861,-0.005818983539938927,-0.08451487869024277,-0.3066350221633911,-0.31160929799079895,-0.01778150536119938,-0.5121135115623474,-1.4331026077270508,-1.1847686767578125,-0.4346284866333008,-0.4983120858669281,-0.20444415509700775
1749047917.6425712,-2.939617697392599,-1.2563015681556244,1.6373589674579065,5.590061950474539,3.3077969551086426,-2.734652821217672,-0.1953914761543274,-0.006096780765801668,-0.08508219569921494,-0.31149592995643616,-0.3096429407596588,-0.01726938784122467,-0.45828720927238464,-1.434779405593872,-1.1850652694702148,-0.453296959400177,-0.49775397777557373,-0.19580155611038208
1749047917.6426098,-2.940010372792379,-1.2563485664180298,1.6371954123126429,5.589439618378439,3.3071563243865967,-2.7347233931170862,-0.1951197385787964,-0.006151494570076466,-0.08646717667579651,-0.31937241554260254,-0.30634835362434387,-0.017595447599887848,-0.47351232171058655,-1.4293383359909058,-1.1614506244659424,-0.42560598254203796,-0.5474127531051636,-0.19709835946559906
1749047917.6426518,-2.940347973500387,-1.2563253802112122,1.6370394865619105,5.588803636818685,3.306551694869995,-2.7347679773913782,-0.19644199311733246,-0.005657262168824673,-0.08314070105552673,-0.32009679079055786,-0.30254507064819336,-0.018350809812545776,-0.499667227268219,-1.4273616075515747,-1.2406556606292725,-0.44012773036956787,-0.5951961278915405,-0.19617585837841034
1749047917.642691,-2.9407714048968714,-1.2563363474658509,1.6368868986712855,5.588129210263052,3.3058886528015137,-2.73480731645693,-0.19828766584396362,-0.004996973555535078,-0.08631659299135208,-0.3202953636646271,-0.30961334705352783,-0.017882654443383217,-0.4276261031627655,-1.4330261945724487,-1.1956589221954346,-0.4296417832374573,-0.5563158392906189,-0.2082625925540924
1749047917.6427293,-2.9411640802966517,-1.2563485962203522,1.636700455342428,5.5875099180038355,3.3052256107330322,-2.734817091618673,-0.1963183730840683,-0.005291996523737907,-0.08435162156820297,-0.3217255175113678,-0.31486228108406067,-0.01715509034693241,-0.40366512537002563,-1.4346877336502075,-1.2001112699508667,-0.4530714154243469,-0.5272626876831055,-0.17984925210475922
1749047917.642766,-2.9416120688067835,-1.2564421159080048,1.636517349873678,5.586858916073599,3.3046576976776123,-2.7348905245410364,-0.19538356363773346,-0.006429815199226141,-0.0828208476305008,-0.32469305396080017,-0.3201999366283417,-0.018499091267585754,-0.4451608955860138,-1.442175269126892,-1.2296526432037354,-0.4546583294868469,-0.4888419508934021,-0.19019223749637604
1749047917.642803,-2.9420152346240442,-1.2563842696002503,1.6363375822650355,5.586208152561941,3.3039941787719727,-2.73488694826235,-0.197691410779953,-0.006585993338376284,-0.08490680158138275,-0.3305966258049011,-0.3155536353588104,-0.018807241693139076,-0.420779824256897,-1.4377185106277466,-1.2318764925003052,-0.45985931158065796,-0.5037307143211365,-0.18358197808265686
1749047917.6428404,-2.942411486302511,-1.2563927930644532,1.6361702124225062,5.585549580841818,3.303359031677246,-2.7349234263049524,-0.20054203271865845,-0.005433350335806608,-0.08660051226615906,-0.3328130841255188,-0.3147241473197937,-0.018072625622153282,-0.4344039559364319,-1.4377424716949463,-1.2355607748031616,-0.4203898310661316,-0.5250397324562073,-0.18652847409248352
1749047917.6428769,-2.942838493977682,-1.2563732725432892,1.6359666029559534,5.584937798767843,3.302713394165039,-2.734955374394552,-0.20202262699604034,-0.004320077132433653,-0.08793581277132034,-0.3351985812187195,-0.3167865574359894,-0.018613619729876518,-0.4490511119365692,-1.4656107425689697,-1.2185873985290527,-0.4024278521537781,-0.546493411064148,-0.20287784934043884
1749047917.642914,-2.9431734720813196,-1.2564397019198914,1.635805908833639,5.584244298725881,3.302093744277954,-2.735007349644796,-0.20421373844146729,-0.00393831729888916,-0.0889228954911232,-0.33353278040885925,-0.3203354775905609,-0.01938941702246666,-0.47109463810920715,-1.493733525276184,-1.2374926805496216,-0.4532696008682251,-0.5763082504272461,-0.19702455401420593
1749047917.6429517,-2.9436193148242396,-1.2564324897578736,1.6356189886676233,5.583564746170797,3.3014705181121826,-2.735016647969381,-0.20466309785842896,-0.004513753578066826,-0.09039054811000824,-0.3349955677986145,-0.32475507259368896,-0.018781116232275963,-0.40427839756011963,-1.4638121128082275,-1.2126333713531494,-0.48020562529563904,-0.5529692769050598,-0.18311753869056702
1749047917.6429896,-2.944049898778097,-1.2564406853965302,1.6354549566852015,5.582869696408071,3.300804376602173,-2.735110584889547,-0.2033388614654541,-0.005976034328341484,-0.09231020510196686,-0.33777523040771484,-0.3241235613822937,-0.018866607919335365,-0.4555184245109558,-1.4341601133346558,-1.1865925788879395,-0.4565332531929016,-0.5513116121292114,-0.1844828724861145
1749047917.6430275,-2.944446865712301,-1.2564443212798615,1.6352794806109827,5.582183885365286,3.30012583732605,-2.735127035771505,-0.20196764171123505,-0.00641811266541481,-0.08923589438199997,-0.34395453333854675,-0.32238441705703735,-0.01859338767826557,-0.46460312604904175,-1.4660111665725708,-1.2284727096557617,-0.39779335260391235,-0.5819786787033081,-0.19252222776412964
1749047917.643134,-2.944873873387472,-1.2564370793155213,1.6351078192340296,5.581493186741628,3.2995212078094482,-2.735158983861105,-0.20680230855941772,-0.006207567639648914,-0.09117031842470169,-0.34159454703330994,-0.3214397728443146,-0.017739109694957733,-0.4693916440010071,-1.4556620121002197,-1.2435566186904907,-0.4275369942188263,-0.6063718795776367,-0.19479994475841522
1749047917.6447678,-2.94533354440798,-1.256459967499115,1.634939972554342,5.580801117211141,3.298858642578125,-2.7351954619037073,-0.2088257074356079,-0.006155791692435741,-0.08796416223049164,-0.3384794592857361,-0.3313058614730835,-0.018391558900475502,-0.43452250957489014,-1.4448301792144775,-1.2607446908950806,-0.4445563554763794,-0.5684061050415039,-0.17651616036891937
1749047917.6862762,-2.945679012929098,-1.2565078002265473,1.6347172896014612,5.580102789192953,3.2981529235839844,-2.7351961771594446,-0.20952406525611877,-0.0059594823978841305,-0.08962414413690567,-0.33966320753097534,-0.33891743421554565,-0.019016912207007408,-0.4336932897567749,-1.4545207023620605,-1.2588344812393188,-0.4628068804740906,-0.5379800796508789,-0.17842797935009003
1749047917.6863205,-2.9461491743670862,-1.256468192940094,1.6345379988299769,5.579419362335958,3.2974817752838135,-2.7352944056140345,-0.21000035107135773,-0.005827755201607943,-0.09158573299646378,-0.3464619219303131,-0.3406696617603302,-0.01857837662100792,-0.43024778366088867,-1.449191689491272,-1.2557696104049683,-0.4499714970588684,-0.5065593123435974,-0.1887003779411316
1749047917.6863647,-2.946527067814962,-1.2564850014499207,1.634369198475973,5.578764068871298,3.296778440475464,-2.7352798620807093,-0.20897121727466583,-0.00598728796467185,-0.0936613529920578,-0.34760454297065735,-0.3382939398288727,-0.01963154971599579,-0.4654409885406494,-1.4402881860733032,-1.253345012664795,-0.41702204942703247,-0.507342517375946,-0.18509960174560547
1749047917.6864057,-2.9469855467425745,-1.2565041941455384,1.634169880543844,5.5780412433441064,3.296112060546875,-2.735338274632589,-0.21106931567192078,-0.005921120289713144,-0.09602335095405579,-0.34740781784057617,-0.33383908867836,-0.020378412678837776,-0.4691256880760193,-1.474599838256836,-1.2244772911071777,-0.3933629095554352,-0.5643882751464844,-0.1828325092792511
1749047917.6864448,-2.947348419819967,-1.2565161150744935,1.633974854146139,5.57733832576827,3.295475482940674,-2.7353783289538782,-0.21418814361095428,-0.005770175252109766,-0.09673968702554703,-0.34629756212234497,-0.3337268531322479,-0.019134916365146637,-0.4400818943977356,-1.4510459899902344,-1.202514886856079,-0.4433448612689972,-0.593463122844696,-0.18410995602607727
1749047917.6864831,-2.9478147665606897,-1.2565401655486603,1.6338256041156214,5.576616036682882,3.294746160507202,-2.7354257742511194,-0.21714015305042267,-0.0054132030345499516,-0.09780636429786682,-0.3483489751815796,-0.33801400661468506,-0.019808465614914894,-0.4540953040122986,-1.462430715560913,-1.1918390989303589,-0.449884295463562,-0.5783989429473877,-0.16743692755699158
1749047917.686521,-2.9482763449298304,-1.2565521162799378,1.6335833708392542,5.575963187008657,3.2940709590911865,-2.7354934851275843,-0.21962599456310272,-0.005942010786384344,-0.09847448021173477,-0.3532896637916565,-0.3414771258831024,-0.020129496231675148,-0.43601736426353455,-1.4787678718566895,-1.1848300695419312,-0.4325975775718689,-0.554665207862854,-0.16643354296684265
1749047917.6865613,-2.9486287275897425,-1.2565173965743561,1.6334078947650355,5.575194048672476,3.2934305667877197,-2.735490624104635,-0.2190006971359253,-0.0066484189592301846,-0.099365234375,-0.35733968019485474,-0.3440108299255371,-0.019304070621728897,-0.4470629096031189,-1.4660007953643799,-1.2094721794128418,-0.3832560181617737,-0.5596317648887634,-0.1626976579427719
1749047917.6865993,-2.949108902608053,-1.2565643352321167,1.6332276503192347,5.5744895217712305,3.2926619052886963,-2.735577408467428,-0.21911945939064026,-0.006339567247778177,-0.09838701039552689,-0.3559611141681671,-0.34787243604660034,-0.01984890177845955,-0.4311915934085846,-1.4491114616394043,-1.1910382509231567,-0.3888130187988281,-0.5308008193969727,-0.1771804839372635
1749047917.6866374,-2.9494977633105677,-1.2565883261016388,1.6329620520221155,5.573782789498129,3.292022705078125,-2.7355931440936487,-0.21789804100990295,-0.006152428686618805,-0.10025208443403244,-0.35601383447647095,-0.35067349672317505,-0.019605759531259537,-0.483511745929718,-1.4628677368164062,-1.1718734502792358,-0.410216748714447,-0.5505239367485046,-0.1752927005290985
1749047917.686685,-2.949948851262228,-1.2566002768329163,1.6327779928790491,5.573085415154257,3.2913193702697754,-2.7356489340411585,-0.21926066279411316,-0.005609691608697176,-0.0976637601852417,-0.35819825530052185,-0.3520243465900421,-0.018355492502450943,-0.6188174486160278,-1.475630760192871,-1.247721552848816,-0.46463602781295776,-0.5972152352333069,-0.19241467118263245
1749047917.6867335,-2.9503961245166224,-1.2565929752639313,1.632601563130514,5.572338866978445,3.290600061416626,-2.735649649296896,-0.22840197384357452,-0.00621073367074132,-0.10285897552967072,-0.365530401468277,-0.3535471260547638,-0.019318297505378723,-0.4300774335861206,-1.4624238014221191,-1.1843844652175903,-0.3946824073791504,-0.5384103059768677,-0.17229324579238892
