nimar13/UR3e_dataset_trayectorias/trayectorias_ejecutadas/trapezoidal/trayectoria_170_result.csv
timestamp,q1,q2,q3,q4,q5,q6,qd1,qd2,qd3,qd4,qd5,qd6,tau1,tau2,tau3,tau4,tau5,tau6
1749051208.5623248,-3.0531845728503626,0.41472498952832026,-1.0383719205856323,3.201845808620117,0.719716489315033,-3.423882786427633,-0.00036911710049025714,0.0003811542992480099,7.108355202944949e-05,-9.965441131498665e-05,-0.0007911855354905128,0.00011440346133895218,-0.1349521279335022,-1.3229119777679443,-0.5940172076225281,0.562580406665802,-0.4413158595561981,0.002407379448413849
1749051208.562377,-3.0531845728503626,0.41472498952832026,-1.0383719205856323,3.201845808620117,0.719716489315033,-3.423882786427633,-0.00036911710049025714,0.0003811542992480099,7.108355202944949e-05,-9.965441131498665e-05,-0.0007911855354905128,0.00011440346133895218,-0.1349521279335022,-1.3229119777679443,-0.5940172076225281,0.562580406665802,-0.4413158595561981,0.002407379448413849
1749051208.5624194,-3.0531845728503626,0.4148183304020385,-1.0383530855178833,3.2018372255512695,0.7196391224861145,-3.4238982836352747,-0.000324878201354295,0.0004398623714223504,6.838299304945394e-05,-9.659825445851311e-05,-0.0007331936503760517,0.00011039401579182595,-0.11850201338529587,-1.2995285987854004,-0.5910544395446777,0.5642013549804688,-0.4366335868835449,-0.003183029592037201
1749051208.5624595,-3.0531845728503626,0.4148183304020385,-1.0383530855178833,3.2018372255512695,0.7196391224861145,-3.4238982836352747,-0.000324878201354295,0.0004398623714223504,6.838299304945394e-05,-9.659825445851311e-05,-0.0007331936503760517,0.00011039401579182595,-0.11850201338529587,-1.2995285987854004,-0.5910544395446777,0.5642013549804688,-0.4366335868835449,-0.003183029592037201
1749051208.5625,-3.0531652609454554,0.4147600370594482,-1.0383635759353638,3.2018186289020996,0.7196891903877258,-3.423858944569723,-0.0003064399934373796,0.00041952356696128845,6.710821617161855e-05,-9.513937402516603e-05,-0.0007402508636005223,0.00010849307727767155,-0.13242778182029724,-1.2944228649139404,-0.5872259140014648,0.5587289333343506,-0.4495534896850586,-0.023013994097709656
1749051208.562538,-3.0531376043902796,0.41476015626873775,-1.0383411645889282,3.2018372255512695,0.7196047902107239,-3.423878018056051,-0.0002752023283392191,0.0006054465193301439,6.46961125312373e-05,-9.235001925844699e-05,-0.0008955224766395986,0.0001181100815301761,-0.16760846972465515,-1.2952033281326294,-0.5842341184616089,0.5691927671432495,-0.44621193408966064,-0.012075826525688171
1749051208.562578,-3.0531376043902796,0.41476015626873775,-1.0383411645889282,3.2018372255512695,0.7196047902107239,-3.423878018056051,-0.0002752023283392191,0.0006054465193301439,6.46961125312373e-05,-9.235001925844699e-05,-0.0008955224766395986,0.0001181100815301761,-0.16760846972465515,-1.2952033281326294,-0.5842341184616089,0.5691927671432495,-0.44621193408966064,-0.012075826525688171
1749051208.5626194,-3.053168837224142,0.4147791105457763,-1.0383411645889282,3.201821966762207,0.7196272611618042,-3.423836056386129,-0.00024973941617645323,0.0005699294852092862,6.245145777938887e-05,-8.971955685410649e-05,-0.0009309959132224321,0.00011594442185014486,-0.14102131128311157,-1.2950811386108398,-0.5866031646728516,0.5650538802146912,-0.42481833696365356,-0.017034173011779785
1749051208.5626674,-3.0531650225268763,0.4147791105457763,-1.0383719205856323,3.2018186289020996,0.7196201682090759,-3.4238982836352747,-0.0002744678931776434,0.0005181027809157968,6.138654862297699e-05,-8.84597102412954e-05,-0.0009078236180357635,0.000114151589514222,-0.14651426672935486,-1.289708137512207,-0.5827555656433105,0.5590822100639343,-0.42534947395324707,-0.02095615863800049
1749051208.5627055,-3.0531650225268763,0.4147791105457763,-1.0383719205856323,3.2018186289020996,0.7196201682090759,-3.4238982836352747,-0.0002744678931776434,0.0005181027809157968,6.138654862297699e-05,-8.84597102412954e-05,-0.0009078236180357635,0.000114151589514222,-0.14651426672935486,-1.289708137512207,-0.5827555656433105,0.5590822100639343,-0.42534947395324707,-0.02095615863800049
1749051208.562751,-3.0532036463366907,0.4147685009190063,-1.0383565425872803,3.201833887691162,0.7196738123893738,-3.423858944569723,-0.00026665927725844085,0.0005489310133270919,6.0357324400683865e-05,-8.723478094907477e-05,-0.0008457995136268437,0.0001123778783949092,-0.14518305659294128,-1.288608431816101,-0.5954280495643616,0.556437611579895,-0.44027459621429443,-0.019389018416404724
1749051208.5627887,-3.0532036463366907,0.4147685009190063,-1.0383565425872803,3.201833887691162,0.7196738123893738,-3.423858944569723,-0.00026665927725844085,0.0005489310133270919,6.0357324400683865e-05,-8.723478094907477e-05,-0.0008457995136268437,0.0001123778783949092,-0.14518305659294128,-1.288608431816101,-0.5954280495643616,0.556437611579895,-0.44027459621429443,-0.019389018416404724
1749051208.5628252,-3.0531845728503626,0.4147791105457763,-1.0383480787277222,3.201833887691162,0.71966153383255,-3.4238672892199915,-0.00023664401669520885,0.0004991775495000184,5.746683382312767e-05,-8.375542529392987e-05,-0.0008340831263922155,7.870497211115435e-05,-0.15950965881347656,-1.285683274269104,-0.5887241959571838,0.5652130246162415,-0.41876524686813354,-0.0022844523191452026
1749051208.562862,-3.053173605595724,0.4147755342670898,-1.0383411645889282,3.201841040248535,0.7196426391601562,-3.423882786427633,-0.0002573745441623032,0.0004894040175713599,5.656394932884723e-05,-8.26565083116293e-05,-0.0008417550125159323,7.239170372486115e-05,-0.15371671319007874,-1.2750775814056396,-0.6000108122825623,0.5656570792198181,-0.42954230308532715,-0.0007525533437728882
1749051208.5628989,-3.053173605595724,0.4147755342670898,-1.0383411645889282,3.201841040248535,0.7196426391601562,-3.423882786427633,-0.0002573745441623032,0.0004894040175713599,5.656394932884723e-05,-8.26565083116293e-05,-0.0008417550125159323,7.239170372486115e-05,-0.15371671319007874,-1.2750775814056396,-0.6000108122825623,0.5656570792198181,-0.42954230308532715,-0.0007525533437728882
1749051208.5629401,-3.0531614462481897,0.4147600370594482,-1.0383719205856323,3.2018024164387207,0.7195772528648376,-3.4238672892199915,-0.00024305890838149935,0.0004823860072065145,5.484059875016101e-05,-8.054299541981891e-05,-0.0009111185208894312,7.913828449090943e-05,-0.1316068172454834,-1.2831683158874512,-0.5926936268806458,0.5457499623298645,-0.4415925145149231,0.00029754638671875
1749051208.5629776,-3.0531917254077356,0.4147804218479614,-1.0383719205856323,3.2018372255512695,0.7196237444877625,-3.4238744417773646,-0.00023512248299084604,0.00044505702680908144,5.4017695219954476e-05,-7.952628948260099e-05,-0.0008608330972492695,8.099164551822469e-05,-0.1787397861480713,-1.2604453563690186,-0.5835040807723999,0.5611125826835632,-0.43528276681900024,-0.015369072556495667
1749051208.5630138,-3.0531917254077356,0.4147804218479614,-1.0383719205856323,3.2018372255512695,0.7196237444877625,-3.4238744417773646,-0.00023512248299084604,0.00044505702680908144,5.4017695219954476e-05,-7.952628948260099e-05,-0.0008608330972492695,8.099164551822469e-05,-0.1787397861480713,-1.2604453563690186,-0.5835040807723999,0.5611125826835632,-0.43528276681900024,-0.015369072556495667
1749051208.5630665,-3.0531533400165003,0.4147804218479614,-1.0383377075195312,3.2018186289020996,0.7195821404457092,-3.4238863627063196,-0.00019171948952134699,0.0004436759918462485,5.2443876484176144e-05,-7.756790000712499e-05,-0.0007345731719397008,7.924185047158971e-05,-0.18512481451034546,-1.2903101444244385,-0.5978215932846069,0.545814573764801,-0.4483373165130615,-0.025300413370132446
1749051208.5631034,-3.053188149129049,0.4147530037113647,-1.0383446216583252,3.2018372255512695,0.7196307182312012,-3.4239090124713343,-0.00024078032583929598,0.00041628279723227024,5.169088035472669e-05,-7.662443385925144e-05,-0.0007119818474166095,7.811130490154028e-05,-0.18568086624145508,-1.2787140607833862,-0.5655249357223511,0.5460122227668762,-0.4391898810863495,-0.02358284592628479
1749051208.5633988,-3.0532119909869593,0.41478268682446284,-1.0383411645889282,3.201821966762207,0.7196307182312012,-3.42385179201235,-0.00027845651493407786,0.0003904951736330986,5.095917731523514e-05,-7.570368325104937e-05,-0.0006750808679498732,7.700127025600523e-05,-0.20680812001228333,-1.277774691581726,-0.5520301461219788,0.5506633520126343,-0.4216758608818054,0.007607180625200272
1749051208.5654538,-3.053200070058004,0.4147874551960449,-1.0383530855178833,3.2018186289020996,0.7196118235588074,-3.423870865498678,-0.0019943215884268284,0.0003677014319691807,1.8594901121105067e-05,-7.480479689547792e-05,-0.0006219593342393637,8.508708560839295e-05,-0.21116790175437927,-1.2831391096115112,-0.5581332445144653,0.5460649728775024,-0.4214361310005188,-0.006151124835014343
1749051208.6062791,-3.053200070058004,0.4147874551960449,-1.0383530855178833,3.2018186289020996,0.7196118235588074,-3.423870865498678,-0.0019943215884268284,0.0003677014319691807,1.8594901121105067e-05,-7.480479689547792e-05,-0.0006219593342393637,8.508708560839295e-05,-0.21116790175437927,-1.2831391096115112,-0.5581332445144653,0.5460649728775024,-0.4214361310005188,-0.006151124835014343
1749051208.6063237,-3.0531845728503626,0.41479234277691646,-1.0383565425872803,3.2018372255512695,0.7196531295776367,-3.423878018056051,-0.003252636408433318,0.00034742115531116724,1.3936027244199067e-05,-7.392699626507238e-05,-0.000541423971299082,8.672762487549335e-05,-0.176987886428833,-1.3028297424316406,-0.5296996831893921,0.5489731431007385,-0.4377638101577759,-0.0012428387999534607
1749051208.6063628,-3.053180996571676,0.41480640947308345,-1.0383565425872803,3.2018372255512695,0.7196377515792847,-3.4238863627063196,-0.003664465853944421,0.0003292621695436537,2.511105230951216e-05,-7.306951010832563e-05,-0.0005324952653609216,8.60411673784256e-05,-0.21462741494178772,-1.3333220481872559,-0.516277551651001,0.5185384154319763,-0.4470577836036682,-0.025199972093105316
1749051208.6064005,-3.053192917500631,0.4147719579884033,-1.0383411645889282,3.201821966762207,0.7195926308631897,-3.4238625208484095,-0.006468131206929684,0.00019257212989032269,0.0013733240775763988,-8.090369374258444e-05,-0.0008120464626699686,8.385228284168988e-05,-0.2239713966846466,-1.3959856033325195,-0.4796183705329895,0.5245882868766785,-0.4667770564556122,0.0025926530361175537
1749051208.6064374,-3.053215805684225,0.4147719579884033,-1.0383292436599731,3.2018095689960937,0.7196272015571594,-3.423870865498678,-0.007813247852027416,7.352937245741487e-05,0.005672212690114975,-7.160662062233314e-05,-0.0013865071814507246,8.275433356175199e-05,-0.2792634963989258,-1.4136772155761719,-0.5034621953964233,0.5117699503898621,-0.4859692454338074,-0.006525933742523193
1749051208.6064744,-3.053215805684225,0.4147719579884033,-1.0383292436599731,3.2018095689960937,0.7196272015571594,-3.423870865498678,-0.007813247852027416,7.352937245741487e-05,0.005672212690114975,-7.160662062233314e-05,-0.0013865071814507246,8.275433356175199e-05,-0.2792634963989258,-1.4136772155761719,-0.5034621953964233,0.5117699503898621,-0.4859692454338074,-0.006525933742523193
1749051208.6065109,-3.0532360712634485,0.41479579984631343,-1.0383292436599731,3.2018095689960937,0.7196117639541626,-3.4238434473620813,-0.008490054868161678,6.382775609381497e-06,0.0069998386316001415,-8.34455422591418e-05,-0.0036295109894126654,8.576059190090746e-05,-0.28297263383865356,-1.4290452003479004,-0.49511903524398804,0.5067287683486938,-0.49257874488830566,-0.0012945905327796936
1749051208.6065483,-3.0532553831683558,0.4147874551960449,-1.0382894277572632,3.2018253046223144,0.7196066379547119,-3.423878018056051,-0.01173092145472765,6.075852598819154e-10,0.00815529003739357,-0.002360706450417638,-0.006977202836424112,0.00020604544261004776,-0.30253908038139343,-1.447827696800232,-0.4466494023799896,0.49034440517425537,-0.5042855739593506,0.009543292224407196
1749051208.6065853,-3.0532553831683558,0.4147874551960449,-1.0382894277572632,3.2018253046223144,0.7196066379547119,-3.423878018056051,-0.01173092145472765,6.075852598819154e-10,0.00815529003739357,-0.002360706450417638,-0.006977202836424112,0.00020604544261004776,-0.30253908038139343,-1.447827696800232,-0.4466494023799896,0.49034440517425537,-0.5042855739593506,0.009543292224407196
1749051208.6066282,-3.0532384554492396,0.4147440630146484,-1.0382418632507324,3.201782389278076,0.7195327281951904,-3.423858944569723,-0.014072456397116184,-0.0023715009447187185,0.013625863008201122,-0.00278138997964561,-0.011207743547856808,0.0007920085336081684,-0.378348708152771,-1.4896780252456665,-0.4313674569129944,0.48415714502334595,-0.526296079158783,0.02130584418773651
1749051208.606667,-3.0532384554492396,0.4147440630146484,-1.0382418632507324,3.201782389278076,0.7195327281951904,-3.423858944569723,-0.014072456397116184,-0.0023715009447187185,0.013625863008201122,-0.00278138997964561,-0.011207743547856808,0.0007920085336081684,-0.378348708152771,-1.4896780252456665,-0.4313674569129944,0.48415714502334595,-0.526296079158783,0.02130584418773651
1749051208.6067045,-3.0533512274371546,0.41473202287640376,-1.0382095575332642,3.2017857271381835,0.7194918394088745,-3.423858944569723,-0.01993435248732567,-0.0025670244358479977,0.017135292291641235,-0.004775001667439938,-0.016977690160274506,0.002632139017805457,-0.40553659200668335,-1.539914846420288,-0.4355027675628662,0.46086618304252625,-0.5310536026954651,0.025050636380910873
1749051208.6067402,-3.053391997014181,0.41477899133648677,-1.0381882190704346,3.201784296626709,0.7194869518280029,-3.4238315264331263,-0.02235160954296589,-0.002717231400310993,0.018708260729908943,-0.006595844868570566,-0.019168773666024208,0.0034629113506525755,-0.3670315146446228,-1.5804946422576904,-0.4303397536277771,0.43251854181289673,-0.5512588620185852,0.01916249841451645
1749051208.6067853,-3.053391997014181,0.41477899133648677,-1.0381882190704346,3.201784296626709,0.7194869518280029,-3.4238315264331263,-0.02235160954296589,-0.002717231400310993,0.018708260729908943,-0.006595844868570566,-0.019168773666024208,0.0034629113506525755,-0.3670315146446228,-1.5804946422576904,-0.4303397536277771,0.43251854181289673,-0.5512588620185852,0.01916249841451645
1749051208.6068227,-3.0534639994250696,0.4147273737141113,-1.0381125211715698,3.201726122493408,0.7193670272827148,-3.4238386789904993,-0.021739596500992775,-0.0060565052554011345,0.01806475594639778,-0.008219719864428043,-0.02463853918015957,0.0048930831253528595,-0.36728769540786743,-1.6190770864486694,-0.4186255931854248,0.42270925641059875,-0.5155315399169922,0.04000056907534599
1749051208.6068668,-3.0535276571856897,0.4147203403660278,-1.0380889177322388,3.2017380434223632,0.7193310260772705,-3.423819605504171,-0.022440440952777863,-0.006667965091764927,0.01796092838048935,-0.009868456982076168,-0.02589268982410431,0.005512264557182789,-0.370625376701355,-1.6575376987457275,-0.4017482399940491,0.41499191522598267,-0.48724472522735596,0.05127233639359474
1749051208.606905,-3.0535276571856897,0.4147203403660278,-1.0380889177322388,3.2017380434223632,0.7193310260772705,-3.423819605504171,-0.022440440952777863,-0.006667965091764927,0.01796092838048935,-0.009868456982076168,-0.02589268982410431,0.005512264557182789,-0.370625376701355,-1.6575376987457275,-0.4017482399940491,0.41499191522598267,-0.48724472522735596,0.05127233639359474
1749051208.606941,-3.0535994211779993,0.4146811205097656,-1.0380167961120605,3.2016779619404296,0.7191802263259888,-3.4237878958331507,-0.025124873965978622,-0.010142944753170013,0.02035033330321312,-0.013732608407735825,-0.024999849498271942,0.007578032556921244,-0.3713267147541046,-1.6712560653686523,-0.3834752142429352,0.40418145060539246,-0.4754745364189148,0.058819498866796494
1749051208.6069772,-3.0536749998675745,0.41464821874584956,-1.0379537343978882,3.2016231256672363,0.7191705107688904,-3.4237988630877894,-0.026274636387825012,-0.012175784446299076,0.02231045998632908,-0.015623638406395912,-0.024711523205041885,0.008128324523568153,-0.350877046585083,-1.6502087116241455,-0.3821459412574768,0.41197505593299866,-0.4649887681007385,0.06463151425123215
1749051208.6070132,-3.0536964575396937,0.4146643119999389,-1.0379173755645752,3.2016030985065917,0.7190878987312317,-3.4237402121173304,-0.02672641910612583,-0.014514515176415443,0.02412164770066738,-0.016323374584317207,-0.022384468466043472,0.008410206064581871,-0.3877835273742676,-1.6523877382278442,-0.3827214241027832,0.4151781499385834,-0.4718472957611084,0.06741596758365631
1749051208.607392,-3.0537553469287317,0.41464702665295405,-1.037873387336731,3.2015601831623535,0.719040036201477,-3.423732105885641,-0.028308944776654243,-0.01453867182135582,0.025533732026815414,-0.01637466996908188,-0.02256954461336136,0.008600836619734764,-0.3569338917732239,-1.6655312776565552,-0.38845372200012207,0.4255475699901581,-0.4612892270088196,0.0722760409116745
1749051208.6095762,-3.0538693110095423,0.4146006542393188,-1.0377907752990723,3.2015392023273925,0.719043493270874,-3.4237237612353724,-0.02902408130466938,-0.014406911097466946,0.027284687384963036,-0.015797695145010948,-0.020375292748212814,0.009798876009881496,-0.3693455159664154,-1.6599324941635132,-0.37620809674263,0.411766916513443,-0.4753381013870239,0.06741471588611603
1749051208.6503115,-3.0538693110095423,0.4146006542393188,-1.0377907752990723,3.2015392023273925,0.719043493270874,-3.4237237612353724,-0.02902408130466938,-0.014406911097466946,0.027284687384963036,-0.015797695145010948,-0.020375292748212814,0.009798876009881496,-0.3693455159664154,-1.6599324941635132,-0.37620809674263,0.411766916513443,-0.4753381013870239,0.06741471588611603
1749051208.650358,-3.0539518038379114,0.4145560699650268,-1.0377328395843506,3.20148675023999,0.7189476490020752,-3.423687521611349,-0.032040879130363464,-0.013920959085226059,0.029818255454301834,-0.014412733726203442,-0.017861444503068924,0.01086985319852829,-0.35633647441864014,-1.7099634408950806,-0.3595326244831085,0.3992435336112976,-0.4758577346801758,0.0662134438753128
1749051208.6504061,-3.0539518038379114,0.4145560699650268,-1.0377328395843506,3.20148675023999,0.7189476490020752,-3.423687521611349,-0.032040879130363464,-0.013920959085226059,0.029818255454301834,-0.014412733726203442,-0.017861444503068924,0.01086985319852829,-0.35633647441864014,-1.7099634408950806,-0.3595326244831085,0.3992435336112976,-0.4758577346801758,0.0662134438753128
1749051208.6504462,-3.054040495549337,0.4145083862492065,-1.0376216173171997,3.2014385896870117,0.7188496589660645,-3.423640314732687,-0.03393616899847984,-0.016492730006575584,0.032743796706199646,-0.014187388122081757,-0.016534944996237755,0.011833220720291138,-0.3526231050491333,-1.7375166416168213,-0.32284894585609436,0.39685311913490295,-0.5095434188842773,0.07076703011989594
1749051208.6504843,-3.054173771535055,0.41448156415905757,-1.037542462348938,3.2014147478291015,0.7188171148300171,-3.4236319700824183,-0.03530716150999069,-0.017638791352510452,0.03487228974699974,-0.014552656561136246,-0.01765119843184948,0.012446536682546139,-0.3772396147251129,-1.7392634153366089,-0.32619279623031616,0.38548412919044495,-0.5303165912628174,0.09243641793727875
1749051208.6505218,-3.054173771535055,0.41448156415905757,-1.037542462348938,3.2014147478291015,0.7188171148300171,-3.4236319700824183,-0.03530716150999069,-0.017638791352510452,0.03487228974699974,-0.014552656561136246,-0.01765119843184948,0.012446536682546139,-0.3772396147251129,-1.7392634153366089,-0.32619279623031616,0.38548412919044495,-0.5303165912628174,0.09243641793727875
1749051208.6505592,-3.0542829672442835,0.41439752160992427,-1.0374109745025635,3.201355143184326,0.7187846302986145,-3.423568312321798,-0.03737839683890343,-0.0189849641174078,0.038707807660102844,-0.01676229014992714,-0.021081112325191498,0.01204344816505909,-0.3334367275238037,-1.7361884117126465,-0.30014875531196594,0.3647875487804413,-0.550389289855957,0.09805947542190552
1749051208.6505966,-3.0543630758868616,0.41434578477825923,-1.0373390913009644,3.201312227840088,0.7187367081642151,-3.423537079487936,-0.037996213883161545,-0.018976539373397827,0.04118821769952774,-0.01822970248758793,-0.023983733728528023,0.011399476788938046,-0.3466948866844177,-1.758746862411499,-0.3028576076030731,0.3728415071964264,-0.5686103701591492,0.08957399427890778
1749051208.650634,-3.0544589201556605,0.41435639440502925,-1.0372581481933594,3.201268358821533,0.7186698913574219,-3.4235356489764612,-0.038487281650304794,-0.019967705011367798,0.04308926686644554,-0.019587667658925056,-0.027274882420897484,0.01095297560095787,-0.3768911361694336,-1.763431429862976,-0.3151612877845764,0.365767240524292,-0.5640191435813904,0.09496361017227173
1749051208.6506777,-3.0545454660998743,0.414273663158081,-1.0371670722961426,3.2012321191975097,0.7185859680175781,-3.423499886189596,-0.03963603079319,-0.021340496838092804,0.04459117725491524,-0.01975763402879238,-0.03131236508488655,0.011130675673484802,-0.3829384744167328,-1.7722551822662354,-0.2887919843196869,0.34556546807289124,-0.5552507638931274,0.07949751615524292
1749051208.6507149,-3.0545454660998743,0.414273663158081,-1.0371670722961426,3.2012321191975097,0.7185859680175781,-3.423499886189596,-0.03963603079319,-0.021340496838092804,0.04459117725491524,-0.01975763402879238,-0.03131236508488655,0.011130675673484802,-0.3829384744167328,-1.7722551822662354,-0.2887919843196869,0.34556546807289124,-0.5552507638931274,0.07949751615524292
1749051208.6507518,-3.0546892325030726,0.41416244089093013,-1.0370147228240967,3.2011567789265136,0.7184026837348938,-3.423468891774313,-0.041346583515405655,-0.02247743122279644,0.0494241826236248,-0.021858446300029755,-0.03897102177143097,0.011354821734130383,-0.4128352105617523,-1.7847520112991333,-0.2649347186088562,0.34079980850219727,-0.5484484434127808,0.09411346912384033
1749051208.650793,-3.0547974745379847,0.4141266781040649,-1.0368914604187012,3.2010933595844726,0.7183582782745361,-3.423441235219137,-0.04323584958910942,-0.02352999709546566,0.05132315307855606,-0.023820910602808,-0.042718786746263504,0.011598551645874977,-0.4034796953201294,-1.764672875404358,-0.2687128484249115,0.3280693590641022,-0.526881992816925,0.11625991016626358
1749051208.6508315,-3.0547974745379847,0.4141266781040649,-1.0368914604187012,3.2010933595844726,0.7183582782745361,-3.423441235219137,-0.04323584958910942,-0.02352999709546566,0.05132315307855606,-0.023820910602808,-0.042718786746263504,0.011598551645874977,-0.4034796953201294,-1.764672875404358,-0.2687128484249115,0.3280693590641022,-0.526881992816925,0.11625991016626358
1749051208.650869,-3.054965082799093,0.4140499073215942,-1.0366915464401245,3.201000853175781,0.7181854844093323,-3.42338473001589,-0.04590844735503197,-0.025572078302502632,0.05676931515336037,-0.025901468470692635,-0.04744425415992737,0.014163713902235031,-0.41649329662323,-1.7976958751678467,-0.25873833894729614,0.33583754301071167,-0.5124010443687439,0.09476318210363388
1749051208.6509063,-3.054965082799093,0.4140499073215942,-1.0366915464401245,3.201000853175781,0.7181854844093323,-3.42338473001589,-0.04590844735503197,-0.025572078302502632,0.05676931515336037,-0.025901468470692635,-0.04744425415992737,0.014163713902235031,-0.41649329662323,-1.7976958751678467,-0.25873833894729614,0.33583754301071167,-0.5124010443687439,0.09476318210363388
1749051208.650954,-3.05511719385256,0.41392139970745845,-1.0364439487457275,3.2008864122578125,0.7179797887802124,-3.4233179728137415,-0.049321893602609634,-0.02662002295255661,0.060885027050971985,-0.02858421579003334,-0.048971500247716904,0.014681161381304264,-0.4241965413093567,-1.8162587881088257,-0.24620267748832703,0.3318710923194885,-0.5157299041748047,0.1316012144088745
1749051208.6509924,-3.055213276539938,0.41389398157086177,-1.0363364219665527,3.2008420664020996,0.7178598046302795,-3.423317019139425,-0.05121878534555435,-0.02646535448729992,0.06545413285493851,-0.029825154691934586,-0.051569413393735886,0.01578446477651596,-0.4402461051940918,-1.8261698484420776,-0.27362048625946045,0.3171864449977875,-0.49758589267730713,0.11887387931346893
1749051208.651029,-3.055213276539938,0.41389398157086177,-1.0363364219665527,3.2008420664020996,0.7178598046302795,-3.423317019139425,-0.05121878534555435,-0.02646535448729992,0.06545413285493851,-0.029825154691934586,-0.051569413393735886,0.01578446477651596,-0.4402461051940918,-1.8261698484420776,-0.27362048625946045,0.3171864449977875,-0.49758589267730713,0.11887387931346893
1749051208.651069,-3.0553017298327845,0.4138337808796386,-1.0361888408660889,3.200782461757324,0.7177745699882507,-3.423258368168966,-0.05307208374142647,-0.02723636105656624,0.06567627191543579,-0.03109104000031948,-0.05453445762395859,0.017030959948897362,-0.45462504029273987,-1.8329464197158813,-0.26471030712127686,0.3066568970680237,-0.4911925196647644,0.13348136842250824
1749051208.6514833,-3.0553017298327845,0.4138337808796386,-1.0361888408660889,3.200782461757324,0.7177745699882507,-3.423258368168966,-0.05307208374142647,-0.02723636105656624,0.06567627191543579,-0.03109104000031948,-0.05453445762395859,0.017030959948897362,-0.45462504029273987,-1.8329464197158813,-0.26471030712127686,0.3066568970680237,-0.4911925196647644,0.13348136842250824
1749051208.6533825,-3.05568772951235,0.4136504369923095,-1.0358004570007324,3.200575037593506,0.7174424529075623,-3.4232056776629847,-0.06032007187604904,-0.02976454421877861,0.07131163775920868,-0.035844314843416214,-0.05637350305914879,0.01945844478905201,-0.4229589104652405,-1.8629469871520996,-0.26245298981666565,0.3180438280105591,-0.4952843189239502,0.1456652283668518
1749051208.698293,-3.055800501500265,0.41357914983715816,-1.035637617111206,3.2004949289509277,0.717339277267456,-3.423157278691427,-0.05905219912528992,-0.029902640730142593,0.07385371625423431,-0.03751438483595848,-0.05658319592475891,0.02058415859937668,-0.4499492049217224,-1.883301854133606,-0.23796217143535614,0.32353824377059937,-0.5035766959190369,0.13384707272052765
1749051208.6983383,-3.055800501500265,0.41357914983715816,-1.035637617111206,3.2004949289509277,0.717339277267456,-3.423157278691427,-0.05905219912528992,-0.029902640730142593,0.07385371625423431,-0.03751438483595848,-0.05658319592475891,0.02058415859937668,-0.4499492049217224,-1.883301854133606,-0.23796217143535614,0.32353824377059937,-0.5035766959190369,0.13384707272052765
1749051208.6983786,-3.055967156087057,0.4135463672825317,-1.0354747772216797,3.2004195886799316,0.7172147035598755,-3.423133675252096,-0.06131887435913086,-0.029991475865244865,0.07576936483383179,-0.0366070382297039,-0.05820504575967789,0.020227903500199318,-0.43395206332206726,-1.9044017791748047,-0.24414759874343872,0.3113119900226593,-0.5066086053848267,0.1629975289106369
1749051208.6984735,-3.0561686197863978,0.413439078921936,-1.0351630449295044,3.2002760606953125,0.7169833183288574,-3.4230573813067835,-0.06712109595537186,-0.032948315143585205,0.08108501881361008,-0.03762131184339523,-0.06128696724772453,0.02299504168331623,-0.3472346067428589,-1.9298187494277954,-0.24925456941127777,0.28920841217041016,-0.49485543370246887,0.14815543591976166
1749051208.6985126,-3.0561686197863978,0.413439078921936,-1.0351630449295044,3.2002760606953125,0.7169833183288574,-3.4230573813067835,-0.06712109595537186,-0.032948315143585205,0.08108501881361008,-0.03762131184339523,-0.06128696724772453,0.02299504168331623,-0.3472346067428589,-1.9298187494277954,-0.24925456941127777,0.28920841217041016,-0.49485543370246887,0.14815543591976166
1749051208.6985502,-3.056510035191671,0.4132605034061889,-1.0348585844039917,3.200124426479004,0.7167076468467712,-3.4230132738696497,-0.0684143602848053,-0.03413518890738487,0.08406839519739151,-0.041516900062561035,-0.06307932734489441,0.02508804202079773,-0.4296882748603821,-1.9031165838241577,-0.23312251269817352,0.29719194769859314,-0.5114783048629761,0.15684817731380463
1749051208.6985874,-3.056510035191671,0.4132605034061889,-1.0348585844039917,3.200124426479004,0.7167076468467712,-3.4230132738696497,-0.0684143602848053,-0.03413518890738487,0.08406839519739151,-0.041516900062561035,-0.06307932734489441,0.02508804202079773,-0.4296882748603821,-1.9031165838241577,-0.23312251269817352,0.29719194769859314,-0.5114783048629761,0.15684817731380463
1749051208.6986258,-3.056770626698629,0.4131634670444946,-1.0344915390014648,3.1999685007282714,0.7164095640182495,-3.422886673604147,-0.07419759035110474,-0.035889867693185806,0.09139718115329742,-0.04306469485163689,-0.065623939037323,0.027656314894557,-0.3975260853767395,-1.9753600358963013,-0.2821215093135834,0.31267398595809937,-0.5275555849075317,0.17402322590351105
1749051208.6986635,-3.056917969380514,0.4130498605915527,-1.0342804193496704,3.199862166041992,0.7162674069404602,-3.422858540211813,-0.07493311166763306,-0.03804482892155647,0.09049107879400253,-0.04377695173025131,-0.06790313869714737,0.029400095343589783,-0.4013054072856903,-1.9763002395629883,-0.24152204394340515,0.29773181676864624,-0.5395734310150146,0.17206566035747528
1749051208.698706,-3.056917969380514,0.4130498605915527,-1.0342804193496704,3.199862166041992,0.7162674069404602,-3.422858540211813,-0.07493311166763306,-0.03804482892155647,0.09049107879400253,-0.04377695173025131,-0.06790313869714737,0.029400095343589783,-0.4013054072856903,-1.9763002395629883,-0.24152204394340515,0.29773181676864624,-0.5395734310150146,0.17206566035747528
1749051208.6987453,-3.057061735783712,0.4130278068729858,-1.0341508388519287,3.1997544008442382,0.7161577939987183,-3.4228113333331507,-0.07535839825868607,-0.038845669478178024,0.09521082788705826,-0.045338429510593414,-0.06959044933319092,0.03139067068696022,-0.4361204504966736,-1.983136534690857,-0.26173681020736694,0.3121068775653839,-0.5351132750511169,0.14884154498577118
1749051208.6987877,-3.0571866671191614,0.41293541967358394,-1.0339243412017822,3.199681444759033,0.7160329818725586,-3.4227786699878138,-0.08081305772066116,-0.04248712956905365,0.09612249583005905,-0.04629725590348244,-0.07180895656347275,0.031012916937470436,-0.4111984074115753,-1.9638444185256958,-0.2917003333568573,0.29524198174476624,-0.5404432415962219,0.1591411828994751
1749051208.6988275,-3.0575414339648646,0.41274015485729976,-1.0335133075714111,3.1994830805012207,0.7157455682754517,-3.4226515928851526,-0.07870960980653763,-0.04219263419508934,0.09978411346673965,-0.0487707145512104,-0.07479353994131088,0.03137633576989174,-0.46469199657440186,-1.9927030801773071,-0.2785666584968567,0.29502686858177185,-0.5438491106033325,0.18213137984275818
1749051208.6988652,-3.057662550603048,0.412656231517456,-1.0333130359649658,3.1993905740925292,0.7155945897102356,-3.4225876967059534,-0.08208829909563065,-0.04546486958861351,0.10113372653722763,-0.048825860023498535,-0.07729263603687286,0.031537123024463654,-0.42658233642578125,-1.968134880065918,-0.2756550908088684,0.294546514749527,-0.5453207492828369,0.18804369866847992
1749051208.6989024,-3.057662550603048,0.412656231517456,-1.0333130359649658,3.1993905740925292,0.7155945897102356,-3.4225876967059534,-0.08208829909563065,-0.04546486958861351,0.10113372653722763,-0.048825860023498535,-0.07729263603687286,0.031537123024463654,-0.42658233642578125,-1.968134880065918,-0.2756550908088684,0.294546514749527,-0.5453207492828369,0.18804369866847992
1749051208.6989386,-3.058056894932882,0.41248850404705806,-1.0328774452209473,3.1991869646259765,0.7152624726295471,-3.422480646763937,-0.08713675290346146,-0.047746676951646805,0.10543371737003326,-0.05261334031820297,-0.08248952031135559,0.032183997333049774,-0.4329686760902405,-1.962282419204712,-0.29683026671409607,0.2991095781326294,-0.5352122783660889,0.20546680688858032
1749051208.6989753,-3.058056894932882,0.41248850404705806,-1.0328774452209473,3.1991869646259765,0.7152624726295471,-3.422480646763937,-0.08713675290346146,-0.047746676951646805,0.10543371737003326,-0.05261334031820297,-0.08248952031135559,0.032183997333049774,-0.4329686760902405,-1.962282419204712,-0.29683026671409607,0.2991095781326294,-0.5352122783660889,0.20546680688858032
1749051208.699012,-3.0583494345294397,0.41223566114392085,-1.0324339866638184,3.1989680963703613,0.7148770689964294,-3.422340218220846,-0.08957411348819733,-0.05011696368455887,0.10810710489749908,-0.05363281071186066,-0.08963775634765625,0.035870857536792755,-0.41961440443992615,-1.9446250200271606,-0.3262518346309662,0.3091210126876831,-0.5379397869110107,0.17606160044670105
1749051208.6990516,-3.0585485140429896,0.4121362405964355,-1.0322184562683105,3.1988569933125,0.7147166132926941,-3.422311846409933,-0.09134357422590256,-0.0515403151512146,0.11105109006166458,-0.053732242435216904,-0.09317141026258469,0.036320868879556656,-0.4544585943222046,-1.993361473083496,-0.28893017768859863,0.31106993556022644,-0.4930156469345093,0.1835477352142334
1749051208.6991127,-3.0585485140429896,0.4121362405964355,-1.0322184562683105,3.1988569933125,0.7147166132926941,-3.422311846409933,-0.09134357422590256,-0.0515403151512146,0.11105109006166458,-0.053732242435216904,-0.09317141026258469,0.036320868879556656,-0.4544585943222046,-1.993361473083496,-0.28893017768859863,0.31106993556022644,-0.4930156469345093,0.1835477352142334
1749051208.699154,-3.0588935057269495,0.4119587379642944,-1.0317535400390625,3.1986605364033203,0.7143208384513855,-3.42212158838381,-0.09419272840023041,-0.05482326075434685,0.11371663212776184,-0.05546456575393677,-0.09163733571767807,0.0352669358253479,-0.41916608810424805,-1.9445784091949463,-0.3068787455558777,0.3060511350631714,-0.5182717442512512,0.17254601418972015
1749051208.6991916,-3.0590975920306605,0.41184334337200923,-1.0315109491348267,3.1985527712055664,0.7141134738922119,-3.422049347554342,-0.09542860090732574,-0.055367063730955124,0.11156634241342545,-0.056027233600616455,-0.09294959157705307,0.03542392700910568,-0.4315716326236725,-1.9396919012069702,-0.2822093963623047,0.3020484447479248,-0.5223032832145691,0.1935087889432907
1749051208.6994514,-3.059324089680807,0.41175798952069087,-1.031286358833313,3.198410673732422,0.7139149308204651,-3.422009293233053,-0.09605272859334946,-0.05654339864850044,0.11298684775829315,-0.05581171065568924,-0.09843580424785614,0.034509990364313126,-0.46192827820777893,-1.9598640203475952,-0.27616599202156067,0.28379327058792114,-0.4631243646144867,0.17781400680541992
1749051208.7013865,-3.0595389048205774,0.41166214525189204,-1.031058430671692,3.1983296114155273,0.7137490510940552,-3.4219184557544153,-0.09887509047985077,-0.05688300356268883,0.11427437514066696,-0.05588873475790024,-0.09912986308336258,0.034591469913721085,-0.43342673778533936,-1.9622184038162231,-0.27831774950027466,0.3084709346294403,-0.4324723184108734,0.18654382228851318
1749051208.7422612,-3.0595389048205774,0.41166214525189204,-1.031058430671692,3.1983296114155273,0.7137490510940552,-3.4219184557544153,-0.09887509047985077,-0.05688300356268883,0.11427437514066696,-0.05588873475790024,-0.09912986308336258,0.034591469913721085,-0.43342673778533936,-1.9622184038162231,-0.27831774950027466,0.3084709346294403,-0.4324723184108734,0.18654382228851318
1749051208.7423077,-3.059922758732931,0.41139547407116694,-1.0305631160736084,3.1980830866047363,0.7133312225341797,-3.421750609074728,-0.09889356046915054,-0.05729709938168526,0.11911022663116455,-0.05887272208929062,-0.09718984365463257,0.03458259627223015,-0.4520637094974518,-1.9752572774887085,-0.3001944422721863,0.3075547218322754,-0.4823067784309387,0.19897669553756714
1749051208.7423503,-3.060155216847555,0.41125671445812984,-1.0303353071212769,3.197971983546875,0.7131311297416687,-3.421718422566549,-0.10038722306489944,-0.05779796838760376,0.11927729099988937,-0.060128796845674515,-0.09795284271240234,0.03475010022521019,-0.5072898864746094,-1.9857429265975952,-0.2742149233818054,0.2992464303970337,-0.460425466299057,0.1850302815437317
1749051208.7423894,-3.060155216847555,0.41125671445812984,-1.0303353071212769,3.197971983546875,0.7131311297416687,-3.421718422566549,-0.10038722306489944,-0.05779796838760376,0.11927729099988937,-0.060128796845674515,-0.09795284271240234,0.03475010022521019,-0.5072898864746094,-1.9857429265975952,-0.2742149233818054,0.2992464303970337,-0.460425466299057,0.1850302815437317
1749051208.7424278,-3.060535256062643,0.4110169845768432,-1.0298750400543213,3.1977669435688476,0.7127405405044556,-3.4215830008136194,-0.10550788044929504,-0.05866212770342827,0.12342792749404907,-0.05829664692282677,-0.09538991749286652,0.034889306873083115,-0.46727699041366577,-1.9999445676803589,-0.2497861385345459,0.2605541944503784,-0.5041933059692383,0.20460957288742065
1749051208.7424653,-3.060535256062643,0.4110169845768432,-1.0298750400543213,3.1977669435688476,0.7127405405044556,-3.4215830008136194,-0.10550788044929504,-0.05866212770342827,0.12342792749404907,-0.05829664692282677,-0.09538991749286652,0.034889306873083115,-0.46727699041366577,-1.9999445676803589,-0.2497861385345459,0.2605541944503784,-0.5041933059692383,0.20460957288742065
1749051208.7425027,-3.0610135237323206,0.41079310953106685,-1.0293521881103516,3.1974846559711914,0.7123536467552185,-3.421408716832296,-0.11057734489440918,-0.06013675779104233,0.12736007571220398,-0.060938429087400436,-0.09419182687997818,0.036082059144973755,-0.4541780352592468,-2.0118582248687744,-0.26245081424713135,0.27520841360092163,-0.5446281433105469,0.1868491768836975
1749051208.74254,-3.0612645784961146,0.41066090642895503,-1.0291038751602173,3.1973530489155273,0.7121618390083313,-3.4213629404651087,-0.11103584617376328,-0.061029642820358276,0.129950150847435,-0.06282132118940353,-0.09581385552883148,0.03789697214961052,-0.4436699151992798,-2.0398833751678467,-0.2706325054168701,0.27996551990509033,-0.5744975805282593,0.196711465716362
1749051208.7425773,-3.0612645784961146,0.41066090642895503,-1.0291038751602173,3.1973530489155273,0.7121618390083313,-3.4213629404651087,-0.11103584617376328,-0.061029642820358276,0.129950150847435,-0.06282132118940353,-0.09581385552883148,0.03789697214961052,-0.4436699151992798,-2.0398833751678467,-0.2706325054168701,0.27996551990509033,-0.5744975805282593,0.196711465716362
1749051208.7426152,-3.061476771031515,0.4105531412312011,-1.0288361310958862,3.197218103999756,0.7120231986045837,-3.4212759176837366,-0.11552689969539642,-0.06320880353450775,0.13206003606319427,-0.06569772213697433,-0.10104623436927795,0.03896884620189667,-0.4512867331504822,-2.037116289138794,-0.2833794355392456,0.3040006160736084,-0.542992353439331,0.18760916590690613
1749051208.742653,-3.061697069798605,0.41041044771160884,-1.0285528898239136,3.1971017557331542,0.711808979511261,-3.421215836201803,-0.11359742283821106,-0.06595176458358765,0.13321739435195923,-0.06572698801755905,-0.10203450918197632,0.038332026451826096,-0.49206194281578064,-1.9819810390472412,-0.2594856917858124,0.2992023229598999,-0.5711274743080139,0.18981829285621643
1749051208.7426903,-3.0621803442584437,0.41014306127514644,-1.02804696559906,3.196847124690674,0.7114207148551941,-3.421032969151632,-0.11778143793344498,-0.06681378930807114,0.13577686250209808,-0.0631234422326088,-0.10783247649669647,0.039218366146087646,-0.45715567469596863,-1.989215612411499,-0.266577810049057,0.25427931547164917,-0.5984699726104736,0.19749809801578522
1749051208.7427278,-3.0624237696277063,0.41002623617138667,-1.0277284383773804,3.196694536800049,0.7111548185348511,-3.4209490458117884,-0.1184363141655922,-0.06854119896888733,0.13761144876480103,-0.06607577204704285,-0.11578504741191864,0.03956274688243866,-0.4563811421394348,-1.9790596961975098,-0.2409418523311615,0.2752035856246948,-0.5706288814544678,0.19415010511875153
1749051208.7427728,-3.0626407305346888,0.4098948675343017,-1.0274486541748047,3.1965595918842773,0.7108997106552124,-3.4208739439593714,-0.11948525905609131,-0.06929972022771835,0.13914988934993744,-0.06812746077775955,-0.11677653342485428,0.03913455456495285,-0.49074921011924744,-2.0042531490325928,-0.2563658654689789,0.28108450770378113,-0.5784932971000671,0.1864914894104004
1749051208.742811,-3.0626407305346888,0.4098948675343017,-1.0274486541748047,3.1965595918842773,0.7108997106552124,-3.4208739439593714,-0.11948525905609131,-0.06929972022771835,0.13914988934993744,-0.06812746077775955,-0.11677653342485428,0.03913455456495285,-0.49074921011924744,-2.0042531490325928,-0.2563658654689789,0.28108450770378113,-0.5784932971000671,0.1864914894104004
1749051208.742848,-3.0631476084338587,0.40959541379895015,-1.0268564224243164,3.1962448793598632,0.7105063199996948,-3.4207213560687464,-0.1238410472869873,-0.07312202453613281,0.14464408159255981,-0.06954561173915863,-0.12598682940006256,0.040558237582445145,-0.45627036690711975,-1.9559160470962524,-0.26156094670295715,0.2714640498161316,-0.5423198342323303,0.18576207756996155
1749051208.7428846,-3.0631476084338587,0.40959541379895015,-1.0268564224243164,3.1962448793598632,0.7105063199996948,-3.4207213560687464,-0.1238410472869873,-0.07312202453613281,0.14464408159255981,-0.06954561173915863,-0.12598682940006256,0.040558237582445145,-0.45627036690711975,-1.9559160470962524,-0.26156094670295715,0.2714640498161316,-0.5423198342323303,0.18576207756996155
1749051208.7429225,-3.0634031931506556,0.4094323354908447,-1.026548147201538,3.19612900793042,0.7102234363555908,-3.4206417242633265,-0.12418942153453827,-0.07354556769132614,0.1458783596754074,-0.07061167806386948,-0.12838171422481537,0.04035647213459015,-0.4441809356212616,-1.9358991384506226,-0.2665095329284668,0.30653735995292664,-0.5157271027565002,0.18988370895385742
1749051208.7429595,-3.063631836568014,0.40933363019909663,-1.026260256767273,3.19596974431958,0.7099443078041077,-3.4205859343158167,-0.12583166360855103,-0.07557941228151321,0.14641757309436798,-0.07203491032123566,-0.12916749715805054,0.041108954697847366,-0.5068041682243347,-1.9681581258773804,-0.22002439200878143,0.29082295298576355,-0.5048530697822571,0.18168407678604126
1749051208.742996,-3.0642171541797083,0.4089619356342773,-1.025620698928833,3.195706530208252,0.7093778252601624,-3.420398775731222,-0.1287349909543991,-0.07519590854644775,0.1532759666442871,-0.07099249958992004,-0.12845535576343536,0.041432712227106094,-0.4657827317714691,-1.9392434358596802,-0.2782492935657501,0.2715570330619812,-0.5143154859542847,0.18102769553661346
1749051208.7433887,-3.0644376913653772,0.408836765880249,-1.025339961051941,3.1955391603657226,0.7091140747070312,-3.420299832020895,-0.13161802291870117,-0.07769408822059631,0.1534702181816101,-0.07290087640285492,-0.12627187371253967,0.041972145438194275,-0.3756692111492157,-1.941368818283081,-0.30898046493530273,0.2724103629589081,-0.4939499497413635,0.19314390420913696
1749051208.7453606,-3.0644376913653772,0.408836765880249,-1.025339961051941,3.1955391603657226,0.7091140747070312,-3.420299832020895,-0.13161802291870117,-0.07769408822059631,0.1534702181816101,-0.07290087640285492,-0.12627187371253967,0.041972145438194275,-0.3756692111492157,-1.941368818283081,-0.30898046493530273,0.2724103629589081,-0.4939499497413635,0.19314390420913696
1749051208.786265,-3.0650203863727015,0.40849046289410396,-1.0246843099594116,3.1952707010456542,0.7086055874824524,-3.4201749006854456,-0.13224607706069946,-0.07542508095502853,0.15397626161575317,-0.07348353415727615,-0.1256941556930542,0.04428780451416969,-0.529904842376709,-1.9972556829452515,-0.2578945755958557,0.28101250529289246,-0.5107883810997009,0.19466060400009155
1749051208.7863095,-3.0652735869037073,0.4083701807209472,-1.0243686437606812,3.1950999933430175,0.708338737487793,-3.4200900236712855,-0.1345897763967514,-0.07658793032169342,0.1546681523323059,-0.07279162853956223,-0.12554176151752472,0.04608927667140961,-0.47325313091278076,-1.9722472429275513,-0.26861804723739624,0.2524847388267517,-0.5120057463645935,0.166413813829422
1749051208.7863493,-3.0652735869037073,0.4083701807209472,-1.0243686437606812,3.1950999933430175,0.708338737487793,-3.4200900236712855,-0.1345897763967514,-0.07658793032169342,0.1546681523323059,-0.07279162853956223,-0.12554176151752472,0.04608927667140961,-0.47325313091278076,-1.9722472429275513,-0.26861804723739624,0.2524847388267517,-0.5120057463645935,0.166413813829422
1749051208.7863882,-3.065556351338522,0.4082295137592773,-1.024091362953186,3.1949526506611328,0.7080987691879272,-3.4199727217303675,-0.13503287732601166,-0.07656004279851913,0.15799279510974884,-0.0735878124833107,-0.12625564634799957,0.046129487454891205,-0.47055280208587646,-1.962734341621399,-0.25643330812454224,0.25046277046203613,-0.5234819054603577,0.18119177222251892
1749051208.7864256,-3.065805737172262,0.40807895242657466,-1.0237445831298828,3.1947972017475585,0.7078576683998108,-3.4198685328113,-0.1383117437362671,-0.07734427601099014,0.16173864901065826,-0.0746099054813385,-0.13137850165367126,0.04640723392367363,-0.48894694447517395,-2.00016188621521,-0.26725658774375916,0.23154419660568237,-0.4967048168182373,0.18194898962974548
1749051208.7864633,-3.066423002873556,0.4077741342731933,-1.0231478214263916,3.194497748012207,0.707338809967041,-3.4196975866900843,-0.14321140944957733,-0.07734803110361099,0.16373202204704285,-0.076750747859478,-0.1310310959815979,0.0460335910320282,-0.4520820379257202,-2.0033276081085205,-0.2508227229118347,0.22320182621479034,-0.5206800699234009,0.18919387459754944
1749051208.7865007,-3.0667389074908655,0.40756837903942866,-1.0228090286254883,3.1943341928669433,0.7070765495300293,-3.419617239628927,-0.1450200229883194,-0.07847563177347183,0.16591617465019226,-0.0808541402220726,-0.13745065033435822,0.04690676927566528,-0.420613169670105,-2.0050160884857178,-0.24334870278835297,0.24373799562454224,-0.5130332112312317,0.19344663619995117
1749051208.786538,-3.0667389074908655,0.40756837903942866,-1.0228090286254883,3.1943341928669433,0.7070765495300293,-3.419617239628927,-0.1450200229883194,-0.07847563177347183,0.16591617465019226,-0.0808541402220726,-0.13745065033435822,0.04690676927566528,-0.420613169670105,-2.0050160884857178,-0.24334870278835297,0.24373799562454224,-0.5130332112312317,0.19344663619995117
1749051208.786575,-3.0672977606402796,0.4072386461445312,-1.0221601724624634,3.1940266328999023,0.706549346446991,-3.4194298426257532,-0.1480874866247177,-0.08273857086896896,0.16904465854167938,-0.08083824813365936,-0.13793247938156128,0.04835691675543785,-0.45763394236564636,-1.9698954820632935,-0.22634737193584442,0.2305718958377838,-0.5245691537857056,0.19473029673099518
1749051208.7866127,-3.0676286856280726,0.40713100015606685,-1.0217963457107544,3.193859263057373,0.706266462802887,-3.4193337599383753,-0.1496407687664032,-0.08455220609903336,0.17183956503868103,-0.08294941484928131,-0.13924653828144073,0.04790830984711647,-0.4477657377719879,-1.9516206979751587,-0.2705443799495697,0.2281528115272522,-0.5299625992774963,0.17799551784992218
1749051208.7866497,-3.067897144948141,0.4069288212009887,-1.0214484930038452,3.1936604219624023,0.7059963941574097,-3.419226948414938,-0.14764463901519775,-0.08667652308940887,0.1743445098400116,-0.08482007682323456,-0.14023399353027344,0.05060022696852684,-0.4350777566432953,-1.9189960956573486,-0.2435479611158371,0.24150192737579346,-0.5329424142837524,0.1816720962524414
1749051208.7866862,-3.067897144948141,0.4069288212009887,-1.0214484930038452,3.1936604219624023,0.7059963941574097,-3.419226948414938,-0.14764463901519775,-0.08667652308940887,0.1743445098400116,-0.08482007682323456,-0.14023399353027344,0.05060022696852684,-0.4350777566432953,-1.9189960956573486,-0.2435479611158371,0.24150192737579346,-0.5329424142837524,0.1816720962524414
1749051208.7867224,-3.068193260823385,0.4067266422459106,-1.021092176437378,3.193481131190918,0.7056673765182495,-3.4191153685199183,-0.14961925148963928,-0.08718707412481308,0.17413805425167084,-0.08893228322267532,-0.14255982637405396,0.0516374334692955,-0.46974724531173706,-1.954298496246338,-0.22999060153961182,0.2616930603981018,-0.5243412852287292,0.17806848883628845
1749051208.7867587,-3.068777147923605,0.406386061305664,-1.0203568935394287,3.1931769090839843,0.7050989270210266,-3.418943468724386,-0.14878948032855988,-0.08711559325456619,0.18046244978904724,-0.08300801366567612,-0.14170914888381958,0.049134112894535065,-0.49459540843963623,-1.9229060411453247,-0.2513708472251892,0.23942849040031433,-0.5456612706184387,0.20376300811767578
1749051208.7867947,-3.069104258214132,0.4062102276035766,-1.0199767351150513,3.193002386684082,0.704799234867096,-3.418847386037008,-0.15416653454303741,-0.09025537222623825,0.1821393370628357,-0.08501160144805908,-0.14483068883419037,0.04805590212345123,-0.48605865240097046,-1.890222430229187,-0.26775339245796204,0.2236965447664261,-0.5359405875205994,0.2053776979446411
1749051208.7868316,-3.069104258214132,0.4062102276035766,-1.0199767351150513,3.193002386684082,0.704799234867096,-3.418847386037008,-0.15416653454303741,-0.09025537222623825,0.1821393370628357,-0.08501160144805908,-0.14483068883419037,0.04805590212345123,-0.48605865240097046,-1.890222430229187,-0.26775339245796204,0.2236965447664261,-0.5359405875205994,0.2053776979446411
1749051208.7868679,-3.069439951573507,0.40603892385449214,-1.019627332687378,3.1928159433552246,0.7044603228569031,-3.418731753026144,-0.15602584183216095,-0.08596450835466385,0.18503808975219727,-0.08784124255180359,-0.14480814337730408,0.04823976010084152,-0.5157595872879028,-1.972421646118164,-0.23171313107013702,0.20801052451133728,-0.5449129939079285,0.21812006831169128
1749051208.786904,-3.07007867494692,0.40572278081860347,-1.0188766717910767,3.1924564081379394,0.7038732171058655,-3.4185360113727015,-0.1618914157152176,-0.08795444667339325,0.18756511807441711,-0.08996035903692245,-0.15427124500274658,0.05190958455204964,-0.4126734733581543,-1.9574512243270874,-0.26428863406181335,0.21853697299957275,-0.4824913740158081,0.20085948705673218
1749051208.78694,-3.0703988710986536,0.4055393177219848,-1.0185198783874512,3.1922499376484375,0.7035819292068481,-3.4184208551989954,-0.1607303023338318,-0.08922536671161652,0.18972310423851013,-0.09189022332429886,-0.1537674069404602,0.05261281505227089,-0.49114686250686646,-1.996489405632019,-0.28652819991111755,0.22527866065502167,-0.5145881175994873,0.2033325880765915
1749051208.7869763,-3.07075006166567,0.40534905969586177,-1.018183708190918,3.1920506197163085,0.7032907605171204,-3.4182892481433313,-0.15949010848999023,-0.08729994297027588,0.1906135231256485,-0.09436973929405212,-0.15540093183517456,0.05245381221175194,-0.5143836140632629,-2.0062289237976074,-0.2622782588005066,0.21727481484413147,-0.49626079201698303,0.19941110908985138
1749051208.7874038,-3.07075006166567,0.40534905969586177,-1.018183708190918,3.1920506197163085,0.7032907605171204,-3.4182892481433313,-0.15949010848999023,-0.08729994297027588,0.1906135231256485,-0.09436973929405212,-0.15540093183517456,0.05245381221175194,-0.5143836140632629,-2.0062289237976074,-0.2622782588005066,0.21727481484413147,-0.49626079201698303,0.19941110908985138
1749051208.7893798,-3.071331564580099,0.4050019222446899,-1.0174397230148315,3.191654844875,0.7027058005332947,-3.4180741945849817,-0.16558292508125305,-0.08904606103897095,0.1943020522594452,-0.09687339514493942,-0.15572136640548706,0.052656568586826324,-0.4730376601219177,-1.9636915922164917,-0.25769150257110596,0.25952062010765076,-0.5215433239936829,0.22544144093990326
1749051208.8302834,-3.071721855794088,0.40483753263439937,-1.017067790031433,3.191443606013916,0.7024093866348267,-3.41799766222109,-0.16804005205631256,-0.08867888897657394,0.19411256909370422,-0.09745729714632034,-0.15381811559200287,0.05336920544505119,-0.4714020788669586,-2.0437190532684326,-0.24066194891929626,0.2760556936264038,-0.5348522067070007,0.20712532103061676
1749051208.830329,-3.071721855794088,0.40483753263439937,-1.017067790031433,3.191443606013916,0.7024093866348267,-3.41799766222109,-0.16804005205631256,-0.08867888897657394,0.19411256909370422,-0.09745729714632034,-0.15381811559200287,0.05336920544505119,-0.4714020788669586,-2.0437190532684326,-0.24066194891929626,0.2760556936264038,-0.5348522067070007,0.20712532103061676
1749051208.8303695,-3.072404925023214,0.4044765669056396,-1.0162997245788574,3.191032572383545,0.7017555236816406,-3.417779032384054,-0.17097562551498413,-0.09409815818071365,0.19766353070735931,-0.09933004528284073,-0.15474790334701538,0.053897686302661896,-0.4296109080314636,-1.989108920097351,-0.23602448403835297,0.28560706973075867,-0.5798223614692688,0.22004646062850952
1749051208.830409,-3.0727441946612757,0.4042505460926513,-1.015860676765442,3.190845175380371,0.7013868093490601,-3.4176951090442103,-0.17348916828632355,-0.09696803987026215,0.19962120056152344,-0.09451894462108612,-0.15726253390312195,0.05410565063357353,-0.4372476637363434,-1.9545485973358154,-0.2247406542301178,0.2861713767051697,-0.5678869485855103,0.22564111649990082
1749051208.8304553,-3.073064390813009,0.40404336034741206,-1.0154643058776855,3.190668745631836,0.7011135816574097,-3.417544428502218,-0.17257161438465118,-0.09992621839046478,0.20278076827526093,-0.09379502385854721,-0.16272319853305817,0.05483826622366905,-0.47061216831207275,-1.9176427125930786,-0.22474172711372375,0.26238831877708435,-0.5568755269050598,0.23565629124641418
1749051208.830494,-3.0734079519854944,0.4038826662250976,-1.015040636062622,3.190474196071289,0.7007501721382141,-3.417412583027975,-0.17331863939762115,-0.1004595160484314,0.20562350749969482,-0.09272271394729614,-0.16253896057605743,0.057283978909254074,-0.48318275809288025,-1.8975250720977783,-0.23574045300483704,0.252130925655365,-0.5738891363143921,0.22579944133758545
1749051208.8305311,-3.0734079519854944,0.4038826662250976,-1.015040636062622,3.190474196071289,0.7007501721382141,-3.417412583027975,-0.17331863939762115,-0.1004595160484314,0.20562350749969482,-0.09272271394729614,-0.16253896057605743,0.057283978909254074,-0.48318275809288025,-1.8975250720977783,-0.23574045300483704,0.252130925655365,-0.5738891363143921,0.22579944133758545
1749051208.830568,-3.074075762425558,0.4035181242176513,-1.014231562614441,3.1900946336933593,0.7000671625137329,-3.4172526041613978,-0.17674002051353455,-0.09972652792930603,0.20863962173461914,-0.09413730353116989,-0.17365382611751556,0.05832579731941223,-0.5113552808761597,-1.9217514991760254,-0.2385605275630951,0.24381686747074127,-0.5164464712142944,0.2090815007686615
1749051208.8306048,-3.0744510332690638,0.40324096261944575,-1.013819694519043,3.1898881632038574,0.6997349262237549,-3.4171012083636683,-0.1779520958662033,-0.09871740639209747,0.21152473986148834,-0.09296632558107376,-0.17401772737503052,0.05881998687982559,-0.509558379650116,-1.9540647268295288,-0.2524641752243042,0.2188168168067932,-0.5213605165481567,0.19991329312324524
1749051208.8306415,-3.0744510332690638,0.40324096261944575,-1.013819694519043,3.1898881632038574,0.6997349262237549,-3.4171012083636683,-0.1779520958662033,-0.09871740639209747,0.21152473986148834,-0.09296632558107376,-0.17401772737503052,0.05881998687982559,-0.509558379650116,-1.9540647268295288,-0.2524641752243042,0.2188168168067932,-0.5213605165481567,0.19991329312324524
1749051208.830678,-3.0748563448535364,0.4030729967304687,-1.01339590549469,3.1897236543842773,0.6994030475616455,-3.4169893900500696,-0.18045344948768616,-0.09933005273342133,0.21522550284862518,-0.09417475014925003,-0.1748763769865036,0.05771304666996002,-0.4874188303947449,-1.969174861907959,-0.24923574924468994,0.19458994269371033,-0.49236923456192017,0.2196294069290161
1749051208.830725,-3.0751617590533655,0.4028610426136474,-1.0129995346069336,3.1895481783100585,0.6990002393722534,-3.4168852011310022,-0.1822764277458191,-0.0981982871890068,0.21323421597480774,-0.09682165086269379,-0.17439447343349457,0.05934862419962883,-0.5172337293624878,-1.9831063747406006,-0.24998442828655243,0.20611324906349182,-0.4991278350353241,0.22410976886749268
1749051208.830761,-3.0758689085589808,0.4024587112614135,-1.0121783018112183,3.18913380681958,0.6982660889625549,-3.416567866002218,-0.18474633991718292,-0.10409099608659744,0.21701207756996155,-0.10102032870054245,-0.1698535829782486,0.06397755444049835,-0.519927978515625,-1.9648960828781128,-0.2486429512500763,0.202188640832901,-0.5278156399726868,0.19908981025218964
1749051208.8307972,-3.0762251059161585,0.40226678430523677,-1.0117310285568237,3.1889187532612304,0.6979405879974365,-3.41651422182192,-0.18668755888938904,-0.10220272094011307,0.22140344977378845,-0.10286357253789902,-0.17007189989089966,0.061876628547906876,-0.5899287462234497,-1.9671987295150757,-0.24663521349430084,0.21456052362918854,-0.5349483489990234,0.18505068123340607
1749051208.8308337,-3.0762251059161585,0.40226678430523677,-1.0117310285568237,3.1889187532612304,0.6979405879974365,-3.41651422182192,-0.18668755888938904,-0.10220272094011307,0.22140344977378845,-0.10286357253789902,-0.17007189989089966,0.061876628547906876,-0.5899287462234497,-1.9671987295150757,-0.24663521349430084,0.21456052362918854,-0.5349483489990234,0.18505068123340607
1749051208.8308704,-3.0769673029529017,0.4018619495579223,-1.010804533958435,3.1885086733051757,0.6972230672836304,-3.4162161985980433,-0.19359378516674042,-0.10644412040710449,0.22525998950004578,-0.10812639445066452,-0.17267489433288574,0.0608871765434742,-0.48708561062812805,-1.9295990467071533,-0.2586350739002228,0.20626729726791382,-0.531046986579895,0.20182877779006958
1749051208.8309062,-3.0769673029529017,0.4018619495579223,-1.010804533958435,3.1885086733051757,0.6972230672836304,-3.4162161985980433,-0.19359378516674042,-0.10644412040710449,0.22525998950004578,-0.10812639445066452,-0.17267489433288574,0.0608871765434742,-0.48708561062812805,-1.9295990467071533,-0.2586350739002228,0.20626729726791382,-0.531046986579895,0.20182877779006958
1749051208.8309426,-3.077362600957052,0.4016353326984863,-1.0103707313537598,3.188305063838623,0.6968942880630493,-3.4160738627063196,-0.19381508231163025,-0.11006136983633041,0.22552113234996796,-0.10872714221477509,-0.17924723029136658,0.06155824288725853,-0.47589781880378723,-1.87065589427948,-0.27129480242729187,0.19811059534549713,-0.533579409122467,0.19900020956993103
1749051208.8309858,-3.078117911015646,0.4012085634418945,-1.0094242095947266,3.187838240260742,0.6961610317230225,-3.4158769289599817,-0.1919456124305725,-0.10906436294317245,0.22595332562923431,-0.11089339107275009,-0.1811058074235916,0.06261402368545532,-0.557207465171814,-1.9032319784164429,-0.21924765408039093,0.19703616201877594,-0.5364435315132141,0.19696259498596191
1749051208.8310218,-3.078117911015646,0.4012085634418945,-1.0094242095947266,3.187838240260742,0.6961610317230225,-3.4158769289599817,-0.1919456124305725,-0.10906436294317245,0.22595332562923431,-0.11089339107275009,-0.1811058074235916,0.06261402368545532,-0.557207465171814,-1.9032319784164429,-0.21924765408039093,0.19703616201877594,-0.5364435315132141,0.19696259498596191
1749051208.8314047,-3.078501288090841,0.40097205221142573,-1.0090028047561646,3.18763176977124,0.6958174109458923,-3.4157255331622522,-0.19394777715206146,-0.11162541061639786,0.23045794665813446,-0.10981212556362152,-0.18218739330768585,0.06317084282636642,-0.513870120048523,-1.8458542823791504,-0.24674464762210846,0.18107067048549652,-0.5263170599937439,0.18960610032081604
1749051208.8334146,-3.079285446797506,0.40053705751385493,-1.0080626010894775,3.1871611314960937,0.6950620412826538,-3.4154778162585657,-0.20030014216899872,-0.11060743033885956,0.23320725560188293,-0.11650454998016357,-0.1810406595468521,0.061418723315000534,-0.6071604490280151,-1.9259785413742065,-0.22650480270385742,0.1989324688911438,-0.578373372554779,0.216223806142807
1749051208.874274,-3.079285446797506,0.40053705751385493,-1.0080626010894775,3.1871611314960937,0.6950620412826538,-3.4154778162585657,-0.20030014216899872,-0.11060743033885956,0.23320725560188293,-0.11650454998016357,-0.1810406595468521,0.061418723315000534,-0.6071604490280151,-1.9259785413742065,-0.22650480270385742,0.1989324688911438,-0.578373372554779,0.216223806142807
1749051208.8743196,-3.080118481312887,0.40011362611737056,-1.0071226358413696,3.1866671282001953,0.6942948698997498,-3.415239159260885,-0.2083248794078827,-0.11042539030313492,0.23696407675743103,-0.1155889555811882,-0.18571537733078003,0.06479882448911667,-0.4703969359397888,-1.9255502223968506,-0.2366945743560791,0.21050409972667694,-0.5874099135398865,0.22348611056804657
1749051208.8743596,-3.080118481312887,0.40011362611737056,-1.0071226358413696,3.1866671282001953,0.6942948698997498,-3.415239159260885,-0.2083248794078827,-0.11042539030313492,0.23696407675743103,-0.1155889555811882,-0.18571537733078003,0.06479882448911667,-0.4703969359397888,-1.9255502223968506,-0.2366945743560791,0.21050409972667694,-0.5874099135398865,0.22348611056804657
1749051208.874398,-3.080902401600973,0.3996749359318237,-1.0061265230178833,3.1862351137348632,0.6935362815856934,-3.4149442354785364,-0.21137899160385132,-0.11352578550577164,0.24227939546108246,-0.12023640424013138,-0.19426393508911133,0.0663318932056427,-0.4782976806163788,-1.935776948928833,-0.23273830115795135,0.24147534370422363,-0.5576770901679993,0.2174961268901825
1749051208.8744352,-3.081333939229147,0.3994125562855224,-1.0056465864181519,3.1859804826923828,0.6931945085525513,-3.4148085753070276,-0.20961900055408478,-0.1144457533955574,0.24418145418167114,-0.1178455650806427,-0.20134685933589935,0.06659498065710068,-0.5439388751983643,-1.9335891008377075,-0.22656382620334625,0.20964813232421875,-0.5058300495147705,0.19996726512908936
1749051208.8744724,-3.081333939229147,0.3994125562855224,-1.0056465864181519,3.1859804826923828,0.6931945085525513,-3.4148085753070276,-0.20961900055408478,-0.1144457533955574,0.24418145418167114,-0.1178455650806427,-0.20134685933589935,0.06659498065710068,-0.5439388751983643,-1.9335891008377075,-0.22656382620334625,0.20964813232421875,-0.5058300495147705,0.19996726512908936
1749051208.8745136,-3.0821970144854944,0.39898864805187984,-1.0046470165252686,3.1855169969746093,0.6923463940620422,-3.414553705845968,-0.2097456306219101,-0.11689746379852295,0.24588942527770996,-0.11824288964271545,-0.20110313594341278,0.06753183156251907,-0.5597302317619324,-1.9215059280395508,-0.25912678241729736,0.20318520069122314,-0.5092794895172119,0.2120101898908615
1749051208.874552,-3.0821970144854944,0.39898864805187984,-1.0046470165252686,3.1855169969746093,0.6923463940620422,-3.414553705845968,-0.2097456306219101,-0.11689746379852295,0.24588942527770996,-0.11824288964271545,-0.20110313594341278,0.06753183156251907,-0.5597302317619324,-1.9215059280395508,-0.25912678241729736,0.20318520069122314,-0.5092794895172119,0.2120101898908615
1749051208.8745892,-3.083083216344015,0.39855699121441646,-1.0036439895629883,3.1850263315388183,0.691535234451294,-3.4142630735980433,-0.21301794052124023,-0.11745345592498779,0.2471247762441635,-0.12276110053062439,-0.19496318697929382,0.06888792663812637,-0.5095600485801697,-1.9307727813720703,-0.24603094160556793,0.21943581104278564,-0.5428981781005859,0.21099616587162018
1749051208.8746254,-3.0834954420672815,0.398302360171936,-1.0031746625900269,3.184783621425293,0.691174328327179,-3.4141343275653284,-0.2155771404504776,-0.11960682272911072,0.24915064871311188,-0.12332339584827423,-0.192219540476799,0.06982170790433884,-0.5235946178436279,-1.9238718748092651,-0.24296632409095764,0.24479657411575317,-0.5812479257583618,0.2128596305847168
1749051208.8746648,-3.0834954420672815,0.398302360171936,-1.0031746625900269,3.184783621425293,0.691174328327179,-3.4141343275653284,-0.2155771404504776,-0.11960682272911072,0.24915064871311188,-0.12332339584827423,-0.192219540476799,0.06982170790433884,-0.5235946178436279,-1.9238718748092651,-0.24296632409095764,0.24479657411575317,-0.5812479257583618,0.2128596305847168
1749051208.8747013,-3.084351364766256,0.39782290040936275,-1.0020897388458252,3.1842686372944335,0.6904035806655884,-3.4138944784747522,-0.22174659371376038,-0.11955872923135757,0.2556007504463196,-0.12539981305599213,-0.1969730257987976,0.07008906453847885,-0.49687492847442627,-1.959102988243103,-0.2958400547504425,0.25332707166671753,-0.5935627222061157,0.22650110721588135
1749051208.8747377,-3.0848103205310267,0.3975992637821655,-1.0015766620635986,3.184002085322998,0.6899804472923279,-3.413724724446432,-0.22393400967121124,-0.11734279990196228,0.25698861479759216,-0.12070572376251221,-0.20523056387901306,0.07033498585224152,-0.5052758455276489,-2.0052571296691895,-0.28055107593536377,0.22450685501098633,-0.5915913581848145,0.21616914868354797
1749051208.874774,-3.0848103205310267,0.3975992637821655,-1.0015766620635986,3.184002085322998,0.6899804472923279,-3.413724724446432,-0.22393400967121124,-0.11734279990196228,0.25698861479759216,-0.12070572376251221,-0.20523056387901306,0.07033498585224152,-0.5052758455276489,-2.0052571296691895,-0.28055107593536377,0.22450685501098633,-0.5915913581848145,0.21616914868354797
1749051208.8748107,-3.085257116948263,0.3973476129719238,-1.001060128211975,3.1837784486958007,0.6895468831062317,-3.4135411421405237,-0.2267409861087799,-0.11925530433654785,0.25961190462112427,-0.1196940466761589,-0.20827797055244446,0.07114050537347794,-0.4489021897315979,-2.0083835124969482,-0.3073703646659851,0.20450396835803986,-0.5958155989646912,0.194148987531662
1749051208.8748565,-3.0857201258288782,0.39713959276165767,-1.0005937814712524,3.1835428911396484,0.6891549825668335,-3.41344124475588,-0.22785118222236633,-0.11655442416667938,0.25902149081230164,-0.12286391109228134,-0.21301482617855072,0.07143697142601013,-0.4871751666069031,-2.043333053588867,-0.3075302243232727,0.21329616010189056,-0.5688934922218323,0.22353634238243103
1749051208.8748937,-3.08661920229067,0.39666466295208735,-0.9995222687721252,3.183072252864502,0.6883768439292908,-3.413079563771383,-0.22477248311042786,-0.12160787731409073,0.25987622141838074,-0.12045684456825256,-0.2167118489742279,0.07357724756002426,-0.5174158811569214,-2.0503478050231934,-0.2662510573863983,0.17031316459178925,-0.5552936792373657,0.18793481588363647
1749051208.8749297,-3.0870891253100794,0.3964288669773559,-0.9989748001098633,3.182832880611084,0.687906801700592,-3.4129863421069544,-0.22881679236888885,-0.12302305549383163,0.26041436195373535,-0.12315297871828079,-0.21471047401428223,0.07461205124855042,-0.514121949672699,-2.0202174186706543,-0.24475473165512085,0.182355135679245,-0.5736023783683777,0.17743360996246338
1749051208.8749666,-3.0870891253100794,0.3964288669773559,-0.9989748001098633,3.182832880611084,0.687906801700592,-3.4129863421069544,-0.22881679236888885,-0.12302305549383163,0.26041436195373535,-0.12315297871828079,-0.21471047401428223,0.07461205124855042,-0.514121949672699,-2.0202174186706543,-0.24475473165512085,0.182355135679245,-0.5736023783683777,0.17743360996246338
1749051208.8750029,-3.08751351038088,0.3961581426807861,-0.9984930753707886,3.1825782495686035,0.6874945163726807,-3.4128575960742396,-0.23169152438640594,-0.12535856664180756,0.26332518458366394,-0.12551581859588623,-0.2119096964597702,0.07212534546852112,-0.5472574830055237,-2.0018107891082764,-0.24944563210010529,0.18045377731323242,-0.6108960509300232,0.18913830816745758
1749051208.8753865,-3.0880122820483606,0.39591388284649653,-0.9979115724563599,3.182342215175293,0.6870099902153015,-3.412689749394552,-0.23421752452850342,-0.12699922919273376,0.26618871092796326,-0.12739306688308716,-0.2144564837217331,0.0710558295249939,-0.4795275330543518,-1.992234706878662,-0.2717655301094055,0.1998724490404129,-0.5996717214584351,0.2250474989414215
1749051208.8773696,-3.088417116795675,0.3956313568302612,-0.9973787665367126,3.1820756632038574,0.6865581274032593,-3.4124954382525843,-0.233855202794075,-0.1259651631116867,0.26969051361083984,-0.1292908489704132,-0.2197614163160324,0.0731312483549118,-0.4898219108581543,-2.0054709911346436,-0.29103991389274597,0.17163528501987457,-0.59742671251297,0.19436205923557281
1749051208.9182818,-3.0893641153918665,0.39510027944531245,-0.9962176084518433,3.181564970607422,0.6857020854949951,-3.4122119585620325,-0.2340383380651474,-0.12609998881816864,0.2694569230079651,-0.13194051384925842,-0.23222127556800842,0.07522948086261749,-0.5178306102752686,-2.029909610748291,-0.2806548476219177,0.17766901850700378,-0.5115077495574951,0.18462498486042023
1749051208.9183316,-3.089858118687765,0.39485256254162593,-0.9956841468811035,3.1812712389179687,0.6852157711982727,-3.4120720068561,-0.23646892607212067,-0.1260404884815216,0.2712520658969879,-0.13501645624637604,-0.2309795767068863,0.07601282000541687,-0.6155905723571777,-2.0678374767303467,-0.23831459879875183,0.192450150847435,-0.5136246085166931,0.19401027262210846
1749051208.918373,-3.0903688112842005,0.39460138856854243,-0.9951472878456116,3.1809956270405273,0.6847327351570129,-3.411931578313009,-0.24113677442073822,-0.12784244120121002,0.27360543608665466,-0.13818132877349854,-0.22595201432704926,0.07453456521034241,-0.559638500213623,-2.0510993003845215,-0.24464306235313416,0.18995144963264465,-0.5071496963500977,0.18751753866672516
1749051208.9184122,-3.0908103624926966,0.3943411546894531,-0.9946376085281372,3.180736227626465,0.6842619180679321,-3.4117911497699183,-0.2446572482585907,-0.1295345425605774,0.27415692806243896,-0.13934257626533508,-0.22167392075061798,0.07340151071548462,-0.5038907527923584,-2.0212972164154053,-0.2731153964996338,0.2211221307516098,-0.549588680267334,0.2149169147014618
1749051208.9184506,-3.0908103624926966,0.3943411546894531,-0.9946376085281372,3.180736227626465,0.6842619180679321,-3.4117911497699183,-0.2446572482585907,-0.1295345425605774,0.27415692806243896,-0.13934257626533508,-0.22167392075061798,0.07340151071548462,-0.5038907527923584,-2.0212972164154053,-0.2731153964996338,0.2211221307516098,-0.549588680267334,0.2149169147014618
1749051208.9184887,-3.0918126741992396,0.3938177066990356,-0.9934935569763184,3.180182619685791,0.6833736896514893,-3.411499802266256,-0.23885898292064667,-0.13134029507637024,0.2756640613079071,-0.14248709380626678,-0.22411294281482697,0.07644286751747131,-0.5601028800010681,-2.01340913772583,-0.2475731074810028,0.22427138686180115,-0.5686033964157104,0.20312851667404175
1749051208.9185266,-3.0918126741992396,0.3938177066990356,-0.9934935569763184,3.180182619685791,0.6833736896514893,-3.411499802266256,-0.23885898292064667,-0.13134029507637024,0.2756640613079071,-0.14248709380626678,-0.22411294281482697,0.07644286751747131,-0.5601028800010681,-2.01340913772583,-0.2475731074810028,0.22427138686180115,-0.5686033964157104,0.20312851667404175
1749051208.9185643,-3.092811171208517,0.3932719665714721,-0.9923449754714966,3.179617090816162,0.6825038194656372,-3.4111650625811976,-0.24416956305503845,-0.13594460487365723,0.2799217402935028,-0.1389046460390091,-0.2290409803390503,0.07783050090074539,-0.5179582834243774,-1.9592851400375366,-0.2503618001937866,0.2321920096874237,-0.5657649636268616,0.20993824303150177
1749051208.9186015,-3.093357865010397,0.39299361288037105,-0.9917465448379517,3.179349108333252,0.6820640563964844,-3.4109934012042444,-0.2456628382205963,-0.13354910910129547,0.283291757106781,-0.14332346618175507,-0.22811663150787354,0.07789725065231323,-0.49717074632644653,-2.01737642288208,-0.26629236340522766,0.23232555389404297,-0.5736527442932129,0.21717028319835663
1749051208.9186387,-3.093357865010397,0.39299361288037105,-0.9917465448379517,3.179349108333252,0.6820640563964844,-3.4109934012042444,-0.2456628382205963,-0.13354910910129547,0.283291757106781,-0.14332346618175507,-0.22811663150787354,0.07789725065231323,-0.49717074632644653,-2.01737642288208,-0.26629236340522766,0.23232555389404297,-0.5736527442932129,0.21717028319835663
1749051208.9186761,-3.094337050114767,0.3924848276325683,-0.9906641840934753,3.178783579463623,0.6811413764953613,-3.4107208887683313,-0.24822071194648743,-0.1371881067752838,0.2870537042617798,-0.14312925934791565,-0.22518466413021088,0.07950503379106522,-0.5356979370117188,-2.032050132751465,-0.2743479311466217,0.23435348272323608,-0.6248814463615417,0.2129952758550644
1749051208.9187133,-3.094865147267477,0.3922279316135864,-0.9901031851768494,3.178487940425537,0.6806825399398804,-3.4105411211596888,-0.25159525871276855,-0.13269901275634766,0.28701499104499817,-0.14461550116539001,-0.22751814126968384,0.0798303484916687,-0.4720380902290344,-2.054151773452759,-0.27265670895576477,0.24578337371349335,-0.6294835805892944,0.2055380642414093
1749051208.91875,-3.094865147267477,0.3922279316135864,-0.9901031851768494,3.178487940425537,0.6806825399398804,-3.4105411211596888,-0.25159525871276855,-0.13269901275634766,0.28701499104499817,-0.14461550116539001,-0.22751814126968384,0.0798303484916687,-0.4720380902290344,-2.054151773452759,-0.27265670895576477,0.24578337371349335,-0.6294835805892944,0.2055380642414093
1749051208.9187863,-3.095872465764181,0.3916514354893188,-0.9889350533485413,3.1779023843952636,0.679739236831665,-3.4102447668658655,-0.25295594334602356,-0.1360962688922882,0.28895312547683716,-0.14422567188739777,-0.24124154448509216,0.08137975633144379,-0.4821716547012329,-2.06559157371521,-0.210633784532547,0.27103620767593384,-0.5823246240615845,0.204779714345932
1749051208.918823,-3.0963831583606165,0.39137248575176997,-0.9883437156677246,3.1775995927998046,0.6792992949485779,-3.410064999257223,-0.25397801399230957,-0.13785788416862488,0.2913915514945984,-0.1454412192106247,-0.2497442215681076,0.0807136744260788,-0.47852277755737305,-2.044490098953247,-0.23062679171562195,0.26815807819366455,-0.5385189056396484,0.19131433963775635
1749051208.9188595,-3.0963831583606165,0.39137248575176997,-0.9883437156677246,3.1775995927998046,0.6792992949485779,-3.410064999257223,-0.25397801399230957,-0.13785788416862488,0.2913915514945984,-0.1454412192106247,-0.2497442215681076,0.0807136744260788,-0.47852277755737305,-2.044490098953247,-0.23062679171562195,0.26815807819366455,-0.5385189056396484,0.19131433963775635
1749051208.918896,-3.097433392201559,0.390797420138977,-0.9871837496757507,3.1770378786274414,0.678216278553009,-3.4097135702716272,-0.2547808587551117,-0.14100486040115356,0.29632368683815,-0.13832011818885803,-0.2496946007013321,0.08673965185880661,-0.5390846729278564,-1.9776700735092163,-0.2583490014076233,0.23084884881973267,-0.5202186107635498,0.1577294021844864
1749051208.918932,-3.097433392201559,0.390797420138977,-0.9871837496757507,3.1770378786274414,0.678216278553009,-3.4097135702716272,-0.2547808587551117,-0.14100486040115356,0.29632368683815,-0.13832011818885803,-0.2496946007013321,0.08673965185880661,-0.5390846729278564,-1.9776700735092163,-0.2583490014076233,0.23084884881973267,-0.5202186107635498,0.1577294021844864
1749051208.9189687,-3.0984373728381556,0.39028088628735347,-0.9860157370567322,3.1764446932026367,0.6772408485412598,-3.409374777470724,-0.2597784399986267,-0.14030158519744873,0.2978191077709198,-0.14158177375793457,-0.24188293516635895,0.08197220414876938,-0.46191301941871643,-2.026944398880005,-0.2660338282585144,0.23559749126434326,-0.5511108040809631,0.18549983203411102
1749051208.919005,-3.0984373728381556,0.39028088628735347,-0.9860157370567322,3.1764446932026367,0.6772408485412598,-3.409374777470724,-0.2597784399986267,-0.14030158519744873,0.2978191077709198,-0.14158177375793457,-0.24188293516635895,0.08197220414876938,-0.46191301941871643,-2.026944398880005,-0.2660338282585144,0.23559749126434326,-0.5511108040809631,0.18549983203411102
1749051208.919379,-3.0989578405963343,0.38997475683178706,-0.9854472279548645,3.176168127650879,0.6767942309379578,-3.4091997782336634,-0.2593771815299988,-0.14038141071796417,0.2998434901237488,-0.14227451384067535,-0.2386530488729477,0.08172369748353958,-0.4616314768791199,-2.087254285812378,-0.2506055235862732,0.2116614729166031,-0.5867956876754761,0.20626682043075562
1749051208.9214025,-3.1000192801104944,0.38940994321789546,-0.9842171669006348,3.175633593196533,0.6757583618164062,-3.408886973057882,-0.259468674659729,-0.14000330865383148,0.30309760570526123,-0.14365968108177185,-0.24752211570739746,0.08496313542127609,-0.5628795027732849,-2.0898945331573486,-0.22953227162361145,0.21322961151599884,-0.5731579661369324,0.18536974489688873
1749051208.9622881,-3.1000192801104944,0.38940994321789546,-0.9842171669006348,3.175633593196533,0.6757583618164062,-3.408886973057882,-0.259468674659729,-0.14000330865383148,0.30309760570526123,-0.14365968108177185,-0.24752211570739746,0.08496313542127609,-0.5628795027732849,-2.0898945331573486,-0.22953227162361145,0.21322961151599884,-0.5731579661369324,0.18536974489688873
1749051208.9623344,-3.1011279265033167,0.3888273674198608,-0.9830121994018555,3.1750528055378417,0.6748146414756775,-3.408555332814352,-0.26363322138786316,-0.14461933076381683,0.3080713152885437,-0.1463461071252823,-0.251224547624588,0.08103714138269424,-0.5740906596183777,-2.063657760620117,-0.231084406375885,0.21335503458976746,-0.543063759803772,0.21861505508422852
1749051208.9623828,-3.101585928593771,0.38853900014843745,-0.9824141263961792,3.1747609811970214,0.6743117570877075,-3.4083438555346888,-0.26769372820854187,-0.14779776334762573,0.3101491332054138,-0.1485595852136612,-0.24867162108421326,0.08332546800374985,-0.41824737191200256,-1.9793603420257568,-0.29525861144065857,0.20598529279232025,-0.557155966758728,0.17466798424720764
1749051208.9624238,-3.101585928593771,0.38853900014843745,-0.9824141263961792,3.1747609811970214,0.6743117570877075,-3.4083438555346888,-0.26769372820854187,-0.14779776334762573,0.3101491332054138,-0.1485595852136612,-0.24867162108421326,0.08332546800374985,-0.41824737191200256,-1.9793603420257568,-0.29525861144065857,0.20598529279232025,-0.557155966758728,0.17466798424720764
1749051208.9624624,-3.102129046116964,0.38823597013439937,-0.981770932674408,3.1744395929523925,0.6737651228904724,-3.4081957975970667,-0.2627834975719452,-0.15026573836803436,0.30935120582580566,-0.15211620926856995,-0.2480723261833191,0.08329641073942184,-0.44083911180496216,-1.9810479879379272,-0.2708939015865326,0.2314501851797104,-0.5630371570587158,0.19946733117103577
1749051208.9625015,-3.103269640599386,0.38766173898663325,-0.9805474877357483,3.173833056087158,0.6728438138961792,-3.407837216054098,-0.26342517137527466,-0.1482887715101242,0.31198474764823914,-0.1526305377483368,-0.25037816166877747,0.08311276137828827,-0.45625585317611694,-2.0224416255950928,-0.24742132425308228,0.229911208152771,-0.5713636875152588,0.205813467502594
1749051208.9625387,-3.103269640599386,0.38766173898663325,-0.9805474877357483,3.173833056087158,0.6728438138961792,-3.407837216054098,-0.26342517137527466,-0.1482887715101242,0.31198474764823914,-0.1526305377483368,-0.25037816166877747,0.08311276137828827,-0.45625585317611694,-2.0224416255950928,-0.24742132425308228,0.229911208152771,-0.5713636875152588,0.205813467502594
1749051208.9625757,-3.104340140019552,0.38705257951702876,-0.9792787432670593,3.173219843501709,0.6718146204948425,-3.4075289408313196,-0.26511886715888977,-0.14611618220806122,0.31350335478782654,-0.15075287222862244,-0.2584058344364166,0.08357831090688705,-0.5027581453323364,-2.036875009536743,-0.2700304388999939,0.19538389146327972,-0.5276598334312439,0.20451977849006653
1749051208.962612,-3.104340140019552,0.38705257951702876,-0.9792787432670593,3.173219843501709,0.6718146204948425,-3.4075289408313196,-0.26511886715888977,-0.14611618220806122,0.31350335478782654,-0.15075287222862244,-0.2584058344364166,0.08357831090688705,-0.5027581453323364,-2.036875009536743,-0.2700304388999939,0.19538389146327972,-0.5276598334312439,0.20451977849006653
1749051208.9626486,-3.105337206517355,0.3864287573048095,-0.9780486226081848,3.172609968776367,0.6707966327667236,-3.4072094599353235,-0.2693183124065399,-0.14647893607616425,0.3166655898094177,-0.1491895616054535,-0.25663167238235474,0.08542931079864502,-0.4581974446773529,-2.0188210010528564,-0.306710809469223,0.22012130916118622,-0.5326709151268005,0.20832636952400208
1749051208.9626846,-3.1058908144580286,0.38613633691754146,-0.9773977398872375,3.1723028856464843,0.6702772378921509,-3.407017771397726,-0.27171754837036133,-0.1472250521183014,0.313951700925827,-0.15578265488147736,-0.2538619041442871,0.08626516908407211,-0.4007326662540436,-2.0203957557678223,-0.3221830725669861,0.23004001379013062,-0.527360200881958,0.2096300721168518
1749051208.9627209,-3.1058908144580286,0.38613633691754146,-0.9773977398872375,3.1723028856464843,0.6702772378921509,-3.407017771397726,-0.27171754837036133,-0.1472250521183014,0.313951700925827,-0.15578265488147736,-0.2538619041442871,0.08626516908407211,-0.4007326662540436,-2.0203957557678223,-0.3221830725669861,0.23004001379013062,-0.527360200881958,0.2096300721168518
1749051208.962757,-3.106942955647604,0.3855185943790893,-0.9761015176773071,3.1717168527790527,0.6692732572555542,-3.4066582361804407,-0.26727184653282166,-0.14792363345623016,0.3124091327190399,-0.15268778800964355,-0.25469037890434265,0.08589666336774826,-0.4690536856651306,-2.0460572242736816,-0.2622081935405731,0.23129846155643463,-0.5554747581481934,0.21384914219379425
1749051208.9628022,-3.106942955647604,0.3855185943790893,-0.9761015176773071,3.1717168527790527,0.6692732572555542,-3.4066582361804407,-0.26727184653282166,-0.14792363345623016,0.3124091327190399,-0.15268778800964355,-0.25469037890434265,0.08589666336774826,-0.4690536856651306,-2.0460572242736816,-0.2622081935405731,0.23129846155643463,-0.5554747581481934,0.21384914219379425
1749051208.9628396,-3.108023468648092,0.38495056211437984,-0.9748343229293823,3.1711460787006835,0.6682353615760803,-3.406266991292135,-0.26608559489250183,-0.1479494869709015,0.3142104744911194,-0.15201807022094727,-0.25794535875320435,0.08755365014076233,-0.47585737705230713,-2.0050389766693115,-0.27623486518859863,0.22977766394615173,-0.5254750847816467,0.20216041803359985
1749051208.9628756,-3.108516518269674,0.38468603670086665,-0.9741703271865845,3.1708080011555175,0.6677079200744629,-3.406095329915182,-0.269235223531723,-0.1467544287443161,0.313690185546875,-0.15514320135116577,-0.2559380829334259,0.08745317906141281,-0.49749261140823364,-2.020585060119629,-0.27750229835510254,0.21281874179840088,-0.5274184346199036,0.18473714590072632
1749051208.9629116,-3.108516518269674,0.38468603670086665,-0.9741703271865845,3.1708080011555175,0.6677079200744629,-3.406095329915182,-0.269235223531723,-0.1467544287443161,0.313690185546875,-0.15514320135116577,-0.2559380829334259,0.08745317906141281,-0.49749261140823364,-2.020585060119629,-0.27750229835510254,0.21281874179840088,-0.5274184346199036,0.18473714590072632
1749051208.962952,-3.109605137501852,0.38407234727825923,-0.9729533195495605,3.170221968288086,0.6666810512542725,-3.4057794252978724,-0.27226048707962036,-0.1442640721797943,0.317143052816391,-0.15151478350162506,-0.25064197182655334,0.08857031911611557,-0.41668587923049927,-2.0761988162994385,-0.31904298067092896,0.16608022153377533,-0.5463777780532837,0.15187150239944458
1749051208.96299,-3.1101799646960657,0.3838271337696533,-0.9723441004753113,3.169919176692627,0.6661690473556519,-3.405583922063009,-0.2681633234024048,-0.14448674023151398,0.31533288955688477,-0.15606427192687988,-0.25650274753570557,0.08644142746925354,-0.45178067684173584,-2.067876100540161,-0.3097471594810486,0.21248981356620789,-0.5451434254646301,0.22700119018554688
1749051208.9630272,-3.1101799646960657,0.3838271337696533,-0.9723441004753113,3.169919176692627,0.6661690473556519,-3.405583922063009,-0.2681633234024048,-0.14448674023151398,0.31533288955688477,-0.15606427192687988,-0.25650274753570557,0.08644142746925354,-0.45178067684173584,-2.067876100540161,-0.3097471594810486,0.21248981356620789,-0.5451434254646301,0.22700119018554688
1749051208.9634707,-3.111198965703146,0.3831978279301147,-0.9710921049118042,3.169301672572754,0.6650761365890503,-3.4052401224719446,-0.2710818350315094,-0.15065400302410126,0.3148098587989807,-0.1554466336965561,-0.26246747374534607,0.08738423138856888,-0.5012812614440918,-2.000659704208374,-0.29148900508880615,0.22477330267429352,-0.4860413074493408,0.19221602380275726
1749051208.9654593,-3.111198965703146,0.3831978279301147,-0.9710921049118042,3.169301672572754,0.6650761365890503,-3.4052401224719446,-0.2710818350315094,-0.15065400302410126,0.3148098587989807,-0.1554466336965561,-0.26246747374534607,0.08738423138856888,-0.5012812614440918,-2.000659704208374,-0.29148900508880615,0.22477330267429352,-0.4860413074493408,0.19221602380275726
1749051209.0062788,-3.112249199544088,0.3825993972965698,-0.96977299451828,3.168649359340332,0.6641238331794739,-3.4048731962787073,-0.27033892273902893,-0.1502532958984375,0.3176415264606476,-0.157006174325943,-0.2505547106266022,0.08877870440483093,-0.47592511773109436,-1.983276605606079,-0.3035704791545868,0.22469419240951538,-0.5118420124053955,0.1940191686153412
1749051209.0063245,-3.112249199544088,0.3825993972965698,-0.96977299451828,3.168649359340332,0.6641238331794739,-3.4048731962787073,-0.27033892273902893,-0.1502532958984375,0.3176415264606476,-0.157006174325943,-0.2505547106266022,0.08877870440483093,-0.47592511773109436,-1.983276605606079,-0.3035704791545868,0.22469419240951538,-0.5118420124053955,0.1940191686153412
1749051209.0063653,-3.1128206888781946,0.38229457914318843,-0.9691593647003174,3.168348475093506,0.6636462807655334,-3.404693667088644,-0.26953253149986267,-0.1497660130262375,0.31743520498275757,-0.15633566677570343,-0.2467290312051773,0.08573301881551743,-0.4867812991142273,-2.0005416870117188,-0.3422391712665558,0.2494979202747345,-0.5580861568450928,0.1985066533088684
1749051209.006404,-3.1138725916491907,0.3816966253468017,-0.9678906798362732,3.167762442226074,0.6626605987548828,-3.4043577353106897,-0.2720196545124054,-0.14925584197044373,0.3140876293182373,-0.15364886820316315,-0.24339188635349274,0.08622460067272186,-0.524857223033905,-2.047947406768799,-0.29302728176116943,0.23332877457141876,-0.6326906085014343,0.21123044192790985
1749051209.0064409,-3.1138725916491907,0.3816966253468017,-0.9678906798362732,3.167762442226074,0.6626605987548828,-3.4043577353106897,-0.2720196545124054,-0.14925584197044373,0.3140876293182373,-0.15364886820316315,-0.24339188635349274,0.08622460067272186,-0.524857223033905,-2.047947406768799,-0.29302728176116943,0.23332877457141876,-0.6326906085014343,0.21123044192790985
1749051209.0064795,-3.114985767995016,0.38111619531597896,-0.9666338562965393,3.16716115056958,0.6616313457489014,-3.4039936701404017,-0.2675594985485077,-0.14490023255348206,0.3139336109161377,-0.15179191529750824,-0.25556251406669617,0.08565972745418549,-0.22832868993282318,-1.9701462984085083,-0.396592915058136,0.21701721847057343,-0.5438732504844666,0.16973958909511566
1749051209.0065181,-3.114985767995016,0.38111619531597896,-0.9666338562965393,3.16716115056958,0.6616313457489014,-3.4039936701404017,-0.2675594985485077,-0.14490023255348206,0.3139336109161377,-0.15179191529750824,-0.25556251406669617,0.08565972745418549,-0.22832868993282318,-1.9701462984085083,-0.396592915058136,0.21701721847057343,-0.5438732504844666,0.16973958909511566
1749051209.0065582,-3.1154595057116907,0.3808292585560302,-0.9659907817840576,3.1668588358112792,0.6611121296882629,-3.4038575331317347,-0.25932350754737854,-0.1453365534543991,0.3085249066352844,-0.15122298896312714,-0.25871628522872925,0.08452006429433823,-0.6221033334732056,-2.072829246520996,-0.2677658200263977,0.18609316647052765,-0.5407431721687317,0.19441267848014832
1749051209.006595,-3.1165605227099817,0.3802071052738647,-0.9647314548492432,3.16622178136792,0.6600881814956665,-3.403506342564718,-0.2769564688205719,-0.15050296485424042,0.3139335811138153,-0.15360353887081146,-0.2557397484779358,0.08442192524671555,-0.5349529981613159,-2.013686418533325,-0.30362266302108765,0.18595972657203674,-0.5564032196998596,0.21227803826332092
1749051209.0066354,-3.1171088854419153,0.3798840480991821,-0.9640806913375854,3.1659366327473144,0.6595686674118042,-3.4033189455615442,-0.2807871699333191,-0.14586405456066132,0.3142085075378418,-0.1511884182691574,-0.25535836815834045,0.08456128090620041,-0.3841090798377991,-2.040980339050293,-0.3175443410873413,0.1965872049331665,-0.5553401708602905,0.21250057220458984
1749051209.0066726,-3.1171088854419153,0.3798840480991821,-0.9640806913375854,3.1659366327473144,0.6595686674118042,-3.4033189455615442,-0.2807871699333191,-0.14586405456066132,0.3142085075378418,-0.1511884182691574,-0.25535836815834045,0.08456128090620041,-0.3841090798377991,-2.040980339050293,-0.3175443410873413,0.1965872049331665,-0.5553401708602905,0.21250057220458984
1749051209.0067086,-3.1181798616992396,0.3792695242115478,-0.962780773639679,3.1653353410908203,0.6585595011711121,-3.4029632250415247,-0.27885469794273376,-0.14684225618839264,0.31598013639450073,-0.15257421135902405,-0.25913122296333313,0.0862860232591629,-0.4638318717479706,-2.06072998046875,-0.30718478560447693,0.20672918856143951,-0.554963231086731,0.20319193601608276
1749051209.0067532,-3.1187928358661097,0.37899760782208247,-0.9621607065200806,3.1650397020527343,0.6580438017845154,-3.402795378361837,-0.2802676260471344,-0.14664167165756226,0.31572484970092773,-0.1470974087715149,-0.25862830877304077,0.08657766133546829,-0.4095603823661804,-2.0350754261016846,-0.3239994943141937,0.14305195212364197,-0.5100043416023254,0.177788645029068
1749051209.0067906,-3.1187928358661097,0.37899760782208247,-0.9621607065200806,3.1650397020527343,0.6580438017845154,-3.402795378361837,-0.2802676260471344,-0.14664167165756226,0.31572484970092773,-0.1470974087715149,-0.25862830877304077,0.08657766133546829,-0.4095603823661804,-2.0350754261016846,-0.3239994943141937,0.14305195212364197,-0.5100043416023254,0.177788645029068
1749051209.0068429,-3.1193249861346644,0.37872974454846187,-0.9615558981895447,3.1647206979938964,0.6574958562850952,-3.4026036898242396,-0.2742973268032074,-0.14625532925128937,0.3131634593009949,-0.1481681615114212,-0.25880563259124756,0.08338145166635513,-0.3501242399215698,-2.0665578842163086,-0.31153786182403564,0.15862472355365753,-0.5250109434127808,0.20545582473278046
1749051209.0068839,-3.11985952058901,0.37844543039288325,-0.960955798625946,3.1644064623066406,0.6570389270782471,-3.4024441877948206,-0.26834625005722046,-0.14834076166152954,0.31160062551498413,-0.15193019807338715,-0.25339701771736145,0.08409818261861801,-0.5199531316757202,-2.0381686687469482,-0.2953614592552185,0.14961177110671997,-0.5416560769081116,0.22618836164474487
1749051209.00692,-3.1209898630725306,0.37785450994458003,-0.9596965909004211,3.1637846666523437,0.6560125350952148,-3.402112070714132,-0.2718343734741211,-0.15076413750648499,0.3120107054710388,-0.1567002683877945,-0.25115615129470825,0.08733093738555908,-0.5226972103118896,-1.9847183227539062,-0.2637765407562256,0.19382986426353455,-0.5662704706192017,0.20996087789535522
1749051209.0069566,-3.1215065161334437,0.37750129281964107,-0.9590381979942322,3.163473291988037,0.6554589867591858,-3.401935879384176,-0.2738800048828125,-0.15268754959106445,0.31539517641067505,-0.15453000366687775,-0.25080034136772156,0.08837469667196274,-0.5279963612556458,-1.9656424522399902,-0.26870501041412354,0.20246924459934235,-0.5876315236091614,0.2007189393043518
1749051209.0069923,-3.1215065161334437,0.37750129281964107,-0.9590381979942322,3.163473291988037,0.6554589867591858,-3.401935879384176,-0.2738800048828125,-0.15268754959106445,0.31539517641067505,-0.15453000366687775,-0.25080034136772156,0.08837469667196274,-0.5279963612556458,-1.9656424522399902,-0.26870501041412354,0.20246924459934235,-0.5876315236091614,0.2007189393043518
1749051209.0070577,-3.1226065794574183,0.37692515432324214,-0.9577860236167908,3.162839575404785,0.6545141339302063,-3.4015935103045862,-0.2784034013748169,-0.14870738983154297,0.3183497488498688,-0.15587031841278076,-0.2573937177658081,0.08608020097017288,-0.40207532048225403,-2.011186361312866,-0.3386087119579315,0.1994515359401703,-0.5598525404930115,0.23413434624671936
1749051209.007452,-3.1231375376330774,0.37666766225781245,-0.9571608901023865,3.162547751063965,0.6539916396141052,-3.4014459292041224,-0.27269554138183594,-0.14649541676044464,0.3183719217777252,-0.15223053097724915,-0.2579202651977539,0.08811099082231522,-0.433981716632843,-2.0676674842834473,-0.35126301646232605,0.21871566772460938,-0.5453006029129028,0.2158702313899994
1749051209.009407,-3.1231375376330774,0.37666766225781245,-0.9571608901023865,3.162547751063965,0.6539916396141052,-3.4014459292041224,-0.27269554138183594,-0.14649541676044464,0.3183719217777252,-0.15223053097724915,-0.2579202651977539,0.08811099082231522,-0.433981716632843,-2.0676674842834473,-0.35126301646232605,0.21871566772460938,-0.5453006029129028,0.2158702313899994
1749051209.0502896,-3.124291721974508,0.3760778146931152,-0.9559730291366577,3.161918802852295,0.6529174447059631,-3.401062552128927,-0.2731632590293884,-0.14545872807502747,0.3124437928199768,-0.1516922116279602,-0.24985933303833008,0.0888492539525032,-0.49526864290237427,-2.0732192993164062,-0.29682764410972595,0.19268184900283813,-0.5960466861724854,0.22024841606616974
1749051209.0503373,-3.124291721974508,0.3760778146931152,-0.9559730291366577,3.161918802852295,0.6529174447059631,-3.401062552128927,-0.2731632590293884,-0.14545872807502747,0.3124437928199768,-0.1516922116279602,-0.24985933303833008,0.0888492539525032,-0.49526864290237427,-2.0732192993164062,-0.29682764410972595,0.19268184900283813,-0.5960466861724854,0.22024841606616974
1749051209.050379,-3.125413958226339,0.3754642444797973,-0.9547033309936523,3.1613051134296875,0.6519084572792053,-3.4007540384875696,-0.26976269483566284,-0.15026916563510895,0.3111231327056885,-0.15007786452770233,-0.25617608428001404,0.08823525160551071,-0.4748692214488983,-2.01442551612854,-0.2705491781234741,0.17824308574199677,-0.5584793090820312,0.2308853566646576
1749051209.0504189,-3.125930372868673,0.375175877208374,-0.9541153907775879,3.161040945644043,0.6513935327529907,-3.4005747477160853,-0.27011626958847046,-0.15077613294124603,0.31298649311065674,-0.15077440440654755,-0.26614704728126526,0.08836174011230469,-0.5067631602287292,-2.0047173500061035,-0.2565576136112213,0.18402038514614105,-0.5085015892982483,0.23518307507038116
1749051209.0504584,-3.125930372868673,0.375175877208374,-0.9541153907775879,3.161040945644043,0.6513935327529907,-3.4005747477160853,-0.27011626958847046,-0.15077613294124603,0.31298649311065674,-0.15077440440654755,-0.26614704728126526,0.08836174011230469,-0.5067631602287292,-2.0047173500061035,-0.2565576136112213,0.18402038514614105,-0.5085015892982483,0.23518307507038116
1749051209.0504973,-3.127057139073507,0.3745625454136352,-0.9528714418411255,3.160419149989746,0.6503182053565979,-3.400210205708639,-0.2753411829471588,-0.15062712132930756,0.3163043260574341,-0.15144366025924683,-0.26142898201942444,0.08942190557718277,-0.40112918615341187,-1.9849923849105835,-0.30462443828582764,0.1904899775981903,-0.4699968993663788,0.20137111842632294
1749051209.0505357,-3.127057139073507,0.3745625454136352,-0.9528714418411255,3.160419149989746,0.6503182053565979,-3.400210205708639,-0.2753411829471588,-0.15062712132930756,0.3163043260574341,-0.15144366025924683,-0.26142898201942444,0.08942190557718277,-0.40112918615341187,-1.9849923849105835,-0.30462443828582764,0.1904899775981903,-0.4699968993663788,0.20137111842632294
1749051209.0505738,-3.127615992222921,0.37429360925640864,-0.952228844165802,3.160132570857666,0.6498265862464905,-3.400059525166647,-0.27469688653945923,-0.14879202842712402,0.31540894508361816,-0.1517103910446167,-0.2537890076637268,0.08925553411245346,-0.37706267833709717,-2.007228374481201,-0.28618741035461426,0.17613305151462555,-0.5103856921195984,0.2367173433303833
1749051209.0506117,-3.1287267843829554,0.37370113908734126,-0.9510083794593811,3.1594912248798828,0.6488163471221924,-3.39966851869692,-0.26992350816726685,-0.1452869027853012,0.3172897398471832,-0.15095776319503784,-0.25026750564575195,0.08940595388412476,-0.48249131441116333,-2.062016487121582,-0.26519423723220825,0.16760241985321045,-0.5702382326126099,0.24672891199588776
1749051209.0506501,-3.1287267843829554,0.37370113908734126,-0.9510083794593811,3.1594912248798828,0.6488163471221924,-3.39966851869692,-0.26992350816726685,-0.1452869027853012,0.3172897398471832,-0.15095776319503784,-0.25026750564575195,0.08940595388412476,-0.48249131441116333,-2.062016487121582,-0.26519423723220825,0.16760241985321045,-0.5702382326126099,0.24672891199588776
1749051209.050687,-3.1298444906817835,0.373056097621582,-0.9497485160827637,3.1588966089436035,0.6478480696678162,-3.399331871663229,-0.2742031216621399,-0.15372981131076813,0.3152492940425873,-0.1486622542142868,-0.2564126253128052,0.08988547325134277,-0.381827175617218,-1.9861929416656494,-0.28617918491363525,0.1663152426481247,-0.5484986305236816,0.2160717248916626
1749051209.0507238,-3.1298444906817835,0.373056097621582,-0.9497485160827637,3.1588966089436035,0.6478480696678162,-3.399331871663229,-0.2742031216621399,-0.15372981131076813,0.3152492940425873,-0.1486622542142868,-0.2564126253128052,0.08988547325134277,-0.381827175617218,-1.9861929416656494,-0.28617918491363525,0.1663152426481247,-0.5484986305236816,0.2160717248916626
1749051209.050765,-3.1303723494159144,0.37276844560589595,-0.9490853548049927,3.1585823732563476,0.6473567485809326,-3.3991521040545862,-0.272885799407959,-0.1521948128938675,0.31725725531578064,-0.15123975276947021,-0.25695502758026123,0.08988497406244278,-0.45408499240875244,-1.9651200771331787,-0.27900195121765137,0.18164700269699097,-0.5410128235816956,0.1997779905796051
1749051209.0508027,-3.131504837666647,0.37215761720623775,-0.9478774666786194,3.158001108760498,0.6463302969932556,-3.398780647908346,-0.26995140314102173,-0.15458881855010986,0.3168541193008423,-0.14901521801948547,-0.2510262727737427,0.09067836403846741,-0.4346907138824463,-1.9059412479400635,-0.3264674246311188,0.1538841724395752,-0.5760735869407654,0.18180468678474426
1749051209.050839,-3.1320279280291956,0.37185458719219966,-0.9472529292106628,3.1576735216328125,0.6457959413528442,-3.39860445657839,-0.27008405327796936,-0.15050414204597473,0.31304413080215454,-0.14978282153606415,-0.24727018177509308,0.0863591879606247,-0.4028138220310211,-1.9942021369934082,-0.2841328978538513,0.16818279027938843,-0.6027384400367737,0.21107444167137146
1749051209.0508757,-3.132547680531637,0.37155525266613765,-0.9466263651847839,3.1573664385029296,0.645316481590271,-3.3984018007861536,-0.2673691213130951,-0.14619199931621552,0.3149862289428711,-0.15279529988765717,-0.2509961724281311,0.08546961098909378,-0.39877980947494507,-2.006371021270752,-0.2747386693954468,0.18166041374206543,-0.6050885319709778,0.22163288295269012
1749051209.0509121,-3.1330934206592005,0.3712642627903442,-0.945982038974762,3.1570612627216796,0.6447958946228027,-3.3982301394092005,-0.2687384784221649,-0.14812757074832916,0.3135862350463867,-0.15321829915046692,-0.25940802693367004,0.08473441004753113,-0.4390149712562561,-1.980047345161438,-0.2576163411140442,0.17713972926139832,-0.5952696800231934,0.23139221966266632
1749051209.050949,-3.1330934206592005,0.3712642627903442,-0.945982038974762,3.1570612627216796,0.6447958946228027,-3.3982301394092005,-0.2687384784221649,-0.14812757074832916,0.3135862350463867,-0.15321829915046692,-0.25940802693367004,0.08473441004753113,-0.4390149712562561,-1.980047345161438,-0.2576163411140442,0.17713972926139832,-0.5952696800231934,0.23139221966266632
1749051209.050985,-3.134206835423605,0.37072209894146724,-0.9446736574172974,3.1564666467854003,0.6437685489654541,-3.3978942076312464,-0.26865890622138977,-0.15102200210094452,0.3163405954837799,-0.1535770148038864,-0.2614278495311737,0.08663831651210785,-0.4332578182220459,-1.9673585891723633,-0.31035032868385315,0.18012654781341553,-0.5156965255737305,0.20893068611621857
