nimar13/UR3e_dataset_trayectorias/trayectorias_ejecutadas/trapezoidal/trayectoria_071_result.csv
timestamp,q1,q2,q3,q4,q5,q6,qd1,qd2,qd3,qd4,qd5,qd6,tau1,tau2,tau3,tau4,tau5,tau6
1749048192.2142973,4.255017280578613,-1.2258200508407135,-1.5402778387069702,-4.1207972965636195,4.38922119140625,-2.6310275236712855,0.03053944744169712,0.0021926483605057,-0.02304770238697529,-0.03505609184503555,0.020348388701677322,-0.02040434069931507,0.2039281278848648,0.58326655626297,0.7438308000564575,-0.0557384192943573,0.1593848168849945,-0.1362021118402481
1749048192.214343,4.255141258239746,-1.2257922154716034,-1.540369987487793,-4.120942016641134,4.3893351554870605,-2.631080691014425,0.025117676705121994,0.0014439054066315293,-0.01895400881767273,-0.029868008568882942,0.017880426719784737,-0.016902709379792213,0.2252686768770218,0.5770565271377563,0.7249453663825989,-0.05353744328022003,0.1417362093925476,-0.13759341835975647
1749048192.2143838,4.255165100097656,-1.2257768970778962,-1.5403938293457031,-4.120985885659689,4.3893046379089355,-2.631138865147726,0.022498367354273796,0.0013090359279885888,-0.01814868673682213,-0.027541637420654297,0.015051964670419693,-0.015063085593283176,0.20097216963768005,0.5829730033874512,0.7519088387489319,-0.050035908818244934,0.15321084856987,-0.15833055973052979
1749048192.214422,4.255165100097656,-1.2257768970778962,-1.5403938293457031,-4.120985885659689,4.3893046379089355,-2.631138865147726,0.022498367354273796,0.0013090359279885888,-0.01814868673682213,-0.027541637420654297,0.015051964670419693,-0.015063085593283176,0.20097216963768005,0.5829730033874512,0.7519088387489319,-0.050035908818244934,0.15321084856987,-0.15833055973052979
1749048192.2144601,4.255214214324951,-1.2257922154716034,-1.540481448173523,-4.121078630486959,4.389345169067383,-2.6311641375171106,0.018545929342508316,0.0008823020616546273,-0.014931585639715195,-0.02216528169810772,0.013459308072924614,-0.012492573820054531,0.221379354596138,0.5908899903297424,0.7594984769821167,-0.04768885672092438,0.14402396976947784,-0.1457991898059845
1749048192.2145007,4.255320072174072,-1.2257887882045289,-1.5404703617095947,-4.121145864526266,4.389388561248779,-2.631167713795797,0.016457535326480865,0.0007582752150483429,-0.013738798908889294,-0.020617451518774033,0.011701364070177078,-0.012232272885739803,0.23029187321662903,0.5780083537101746,0.755916178226471,-0.03254389762878418,0.1595131903886795,-0.15229257941246033
1749048192.214539,4.255369186401367,-1.2258304220489045,-1.5405104160308838,-4.121191402474874,4.389405250549316,-2.6312158743487757,0.015252194367349148,0.0007744109025225043,-0.012473002076148987,-0.018552975729107857,0.009970162063837051,-0.009886383078992367,0.23590418696403503,0.5791231393814087,0.7610804438591003,-0.03267116844654083,0.15024684369564056,-0.13542722165584564
1749048192.214577,4.255341529846191,-1.2257769268802186,-1.540534257888794,-4.121187587777609,4.389386177062988,-2.6312244574176233,0.012553171254694462,0.0006905596237629652,-0.011250823736190796,-0.016801584511995316,0.008984283544123173,-0.00870265532284975,0.231379434466362,0.5506463050842285,0.7696049213409424,-0.02988836169242859,0.1395832747220993,-0.12255389988422394
1749048192.2146146,4.255341529846191,-1.2257769268802186,-1.540534257888794,-4.121187587777609,4.389386177062988,-2.6312244574176233,0.012553171254694462,0.0006905596237629652,-0.011250823736190796,-0.016801584511995316,0.008984283544123173,-0.00870265532284975,0.231379434466362,0.5506463050842285,0.7696049213409424,-0.02988836169242859,0.1395832747220993,-0.12255389988422394
1749048192.214652,4.255364418029785,-1.225783721809723,-1.5405898094177246,-4.121231456796163,4.389375686645508,-2.631225649510519,0.01138242892920971,0.0006223230739124119,-0.01021455880254507,-0.014907892793416977,0.007578853517770767,-0.006496451795101166,0.24251796305179596,0.5752739906311035,0.8006818890571594,-0.03506536781787872,0.11216919124126434,-0.11343719065189362
1749048192.2146902,4.255433082580566,-1.2257837516120453,-1.540562629699707,-4.121283432046408,4.389427185058594,-2.631251398717062,0.00871356576681137,0.0005196297424845397,-0.004203224554657936,-0.00947406142950058,0.0026384834200143814,-0.00238303211517632,0.19432228803634644,0.5778164267539978,0.8047723174095154,-0.01824784278869629,0.07361182570457458,-0.10184924304485321
1749048192.214728,4.255433082580566,-1.2257837516120453,-1.540562629699707,-4.121283432046408,4.389427185058594,-2.631251398717062,0.00871356576681137,0.0005196297424845397,-0.004203224554657936,-0.00947406142950058,0.0026384834200143814,-0.00238303211517632,0.19432228803634644,0.5778164267539978,0.8047723174095154,-0.01824784278869629,0.07361182570457458,-0.10184924304485321
1749048192.214766,4.255472660064697,-1.2258269053748627,-1.5405943393707275,-4.121272464791769,4.389441013336182,-2.6312599817859095,0.0034875432029366493,0.0004893604782409966,-0.0018671004800125957,-0.004016329068690538,0.0005799999344162643,-0.001060898182913661,0.120916448533535,0.5701518058776855,0.8258072733879089,0.036322131752967834,0.05229867994785309,-0.08777163922786713
1749048192.2148032,4.255472660064697,-1.2258269053748627,-1.5405943393707275,-4.121272464791769,4.389441013336182,-2.6312599817859095,0.0034875432029366493,0.0004893604782409966,-0.0018671004800125957,-0.004016329068690538,0.0005799999344162643,-0.001060898182913661,0.120916448533535,0.5701518058776855,0.8258072733879089,0.036322131752967834,0.05229867994785309,-0.08777163922786713
1749048192.2148407,4.255429267883301,-1.225811318760254,-1.540562629699707,-4.1212951145567835,4.389441013336182,-2.6312103907214563,0.0007498489576391876,0.00047584474668838084,-0.0014612164814025164,-0.0021325484849512577,0.00028041680343449116,-0.000845673494040966,0.1483938992023468,0.5665571093559265,0.8473159074783325,0.05194949358701706,0.04908113181591034,-0.08498010039329529
1749048192.2148783,4.255429267883301,-1.2257922452739258,-1.540578842163086,-4.121256967584127,4.389466762542725,-2.631232563649313,-0.006235511042177677,0.0004204391152597964,-0.00032433978049084544,-9.166435484075919e-05,8.756464012549259e-06,-0.00018728937720879912,0.17254216969013214,0.5977447628974915,0.866594672203064,0.05472928285598755,0.029109463095664978,-0.07344989478588104
1749048192.2149153,4.255429267883301,-1.2257922452739258,-1.540578842163086,-4.121256967584127,4.389466762542725,-2.631232563649313,-0.006235511042177677,0.0004204391152597964,-0.00032433978049084544,-9.166435484075919e-05,8.756464012549259e-06,-0.00018728937720879912,0.17254216969013214,0.5977447628974915,0.866594672203064,0.05472928285598755,0.029109463095664978,-0.07344989478588104
1749048192.214952,4.255409240722656,-1.2258147162250062,-1.540550708770752,-4.121239801446432,4.389401912689209,-2.631185833607809,-0.0035539502277970314,0.00037646738928742707,-1.820808211050462e-05,0.004115641582757235,-0.0023185277823358774,0.0011338598560541868,0.11282932758331299,0.5859599113464355,0.8783645629882812,0.0737333595752716,0.002871498465538025,-0.046248599886894226
1749048192.2149882,4.255377292633057,-1.2258112591556092,-1.5405662059783936,-4.121215959588522,4.389456272125244,-2.6312480608569544,-0.0030374503694474697,0.0002854003105312586,-1.1888575954799308e-06,0.006352265831083059,-0.002086093183606863,0.0020950897596776485,0.05340968817472458,0.5967321395874023,0.8925026655197144,0.054928019642829895,0.007766261696815491,-0.04630357027053833
1749048192.215025,4.255377292633057,-1.2258112591556092,-1.5405662059783936,-4.121215959588522,4.389456272125244,-2.6312480608569544,-0.0030374503694474697,0.0002854003105312586,-1.1888575954799308e-06,0.006352265831083059,-0.002086093183606863,0.0020950897596776485,0.05340968817472458,0.5967321395874023,0.8925026655197144,0.054928019642829895,0.007766261696815491,-0.04630357027053833
1749048192.2150614,4.255357265472412,-1.2257803243449708,-1.5405389070510864,-4.12120046238088,4.389401912689209,-2.6312018076526087,-0.006098564248532057,0.00035597660462372005,0.002744926605373621,0.005952158942818642,-0.0011681098258122802,0.002265940885990858,0.08698105067014694,0.6111605167388916,0.8794437050819397,0.06084851920604706,-0.02513211965560913,-0.04628753662109375
1749048192.2150974,4.255357265472412,-1.2257803243449708,-1.5405389070510864,-4.12120046238088,4.389401912689209,-2.6312018076526087,-0.006098564248532057,0.00035597660462372005,0.002744926605373621,0.005952158942818642,-0.0011681098258122802,0.002265940885990858,0.08698105067014694,0.6111605167388916,0.8794437050819397,0.06084851920604706,-0.02513211965560913,-0.04628753662109375
1749048192.215208,4.2553534507751465,-1.2257374388030549,-1.5405616760253906,-4.1211730442442835,4.389401912689209,-2.6311894098864954,-0.006308994255959988,0.002761692740023136,0.0026051674503833055,0.003965531475841999,-0.0009465190814808011,0.0016861817566677928,0.08241375535726547,0.5391693711280823,0.917238175868988,0.08382795006036758,-0.05508621782064438,-0.011408798396587372
1749048192.216757,4.255321025848389,-1.2257650059512635,-1.5405150651931763,-4.121192117730612,4.3893842697143555,-2.631185833607809,-0.005710811819881201,0.002455910202115774,0.0020275611896067858,0.0037683923728764057,-0.000984530313871801,0.00155102857388556,0.06891773641109467,0.5611661672592163,0.8990184664726257,0.07745330780744553,-0.041824959218502045,-0.04629294574260712
1749048192.2582872,4.255321025848389,-1.2257650059512635,-1.5405150651931763,-4.121192117730612,4.3893842697143555,-2.631185833607809,-0.005710811819881201,0.002455910202115774,0.0020275611896067858,0.0037683923728764057,-0.000984530313871801,0.00155102857388556,0.06891773641109467,0.5611661672592163,0.8990184664726257,0.07745330780744553,-0.041824959218502045,-0.04629294574260712
1749048192.258334,4.25528621673584,-1.225740836267807,-1.540534257888794,-4.121195694009298,4.3894171714782715,-2.6312089602099817,-0.005873752757906914,0.0017689552623778582,0.0015869379276409745,0.004137083888053894,-0.0009176440653391182,0.0014244538033381104,0.08492760360240936,0.5556020140647888,0.9137341976165771,0.09487415850162506,-0.052817314863204956,-0.03724534809589386
1749048192.2583737,4.255305290222168,-1.2257255178740998,-1.540546178817749,-4.121152063409323,4.389425754547119,-2.631205383931295,-0.0057646967470645905,0.0014844032702967525,0.0010590857127681375,0.005194245371967554,-0.0019685353618115187,0.0022288516629487276,0.049935244023799896,0.5522321462631226,0.9186739325523376,0.05959191918373108,-0.057749949395656586,-0.011448957026004791
1749048192.2584124,4.255312919616699,-1.2257324022105713,-1.540546178817749,-4.121155878106588,4.389398097991943,-2.6311655680285853,-0.005109365563839674,0.001511179842054844,0.0010714628733694553,0.005057710688561201,-0.001726982300169766,0.003495587036013603,0.06469377875328064,0.5608251690864563,0.9360044002532959,0.07619751989841461,-0.06067858636379242,-0.023015744984149933
1749048192.2584503,4.255304336547852,-1.2257477206042786,-1.540546178817749,-4.1211048565306605,4.3894171714782715,-2.63115364709963,-0.004585268907248974,0.0015815839869901538,0.0012937136925756931,0.0040061636827886105,-0.0015491896774619818,0.004097668454051018,0.04980660229921341,0.5600271821022034,0.9199966788291931,0.10736076533794403,-0.04790438711643219,-0.041178904473781586
1749048192.2584922,4.255304336547852,-1.2257477206042786,-1.540546178817749,-4.1211048565306605,4.3894171714782715,-2.63115364709963,-0.004585268907248974,0.0015815839869901538,0.0012937136925756931,0.0040061636827886105,-0.0015491896774619818,0.004097668454051018,0.04980660229921341,0.5600271821022034,0.9199966788291931,0.10736076533794403,-0.04790438711643219,-0.041178904473781586
1749048192.2585309,4.255304336547852,-1.2257255178740998,-1.540534257888794,-4.121139665643209,4.389393329620361,-2.631172482167379,-0.004286064300686121,0.0017658406868577003,0.0012526913778856397,0.0022163104731589556,-0.001195632736198604,0.002805663738399744,0.04350217431783676,0.5495103001594543,0.9428436756134033,0.10848993062973022,-0.0689270868897438,-0.04612547904253006
1749048192.258568,4.255238056182861,-1.2257324022105713,-1.5405306816101074,-4.121123214761251,4.389408588409424,-2.631172482167379,-0.003933744039386511,0.0013970445143058896,0.0010973038151860237,0.0020042299292981625,-0.0014102470595389605,0.002217056229710579,0.025815315544605255,0.5799462795257568,0.9294227957725525,0.12149045616388321,-0.03743918240070343,-0.050320811569690704
1749048192.2586067,4.255238056182861,-1.2257324022105713,-1.5405306816101074,-4.121123214761251,4.389408588409424,-2.631172482167379,-0.003933744039386511,0.0013970445143058896,0.0010973038151860237,0.0020042299292981625,-0.0014102470595389605,0.002217056229710579,0.025815315544605255,0.5799462795257568,0.9294227957725525,0.12149045616388321,-0.03743918240070343,-0.050320811569690704
1749048192.2586443,4.255257606506348,-1.2257443231395264,-1.5405150651931763,-4.121100564996237,4.3894171714782715,-2.631181065236227,-0.002822312992066145,0.0010283638257533312,0.0008061694679781795,0.002323281718418002,-0.0014626379124820232,0.001444830559194088,0.04236549884080887,0.5728256106376648,0.9522015452384949,0.09895023703575134,-0.06629157811403275,-0.04350419342517853
1749048192.2586806,4.2552337646484375,-1.2257290047458191,-1.540534257888794,-4.121104141274923,4.389374256134033,-2.6311658064471644,-0.0024933884851634502,0.0009621586068533361,0.0008003583061508834,0.002603801665827632,-0.0012347012525424361,0.0012242781231179833,0.04220416396856308,0.5782266855239868,0.9367028474807739,0.10060151666402817,-0.04989588260650635,-0.032201893627643585
1749048192.258722,4.2552337646484375,-1.2257290047458191,-1.540534257888794,-4.121104141274923,4.389374256134033,-2.6311658064471644,-0.0024933884851634502,0.0009621586068533361,0.0008003583061508834,0.002603801665827632,-0.0012347012525424361,0.0012242781231179833,0.04220416396856308,0.5782266855239868,0.9367028474807739,0.10060151666402817,-0.04989588260650635,-0.032201893627643585
1749048192.2587707,4.2552266120910645,-1.2257443231395264,-1.5405497550964355,-4.121119638482565,4.389386177062988,-2.631162230168478,-0.002190376864746213,0.000962180842179805,0.0007105974364094436,0.002873013261705637,-0.0010395109420642257,0.0008583662565797567,0.03431937098503113,0.5975529551506042,0.9469930529594421,0.07396050542593002,-0.05881296098232269,-0.023128770291805267
1749048192.2588124,4.255256175994873,-1.2257358592799683,-1.5405306816101074,-4.121092220345968,4.389366149902344,-2.631181065236227,-0.0021834627259522676,0.0015478210989385843,0.0006789623876102269,0.0025845773052424192,-0.000962406222242862,0.0006279912195168436,0.01933310553431511,0.5636584758758545,0.9441251158714294,0.11000131070613861,-0.042183488607406616,-0.03184065967798233
1749048192.2588499,4.2552490234375,-1.2257204812816163,-1.5405306816101074,-4.121111293832296,4.389374256134033,-2.631187979375021,-0.0015225564129650593,0.0024838692042976618,0.0005946038872934878,0.001902847201563418,-0.0007921052165329456,0.0005636769928969443,0.03613392263650894,0.5632960796356201,0.9482355713844299,0.09839001297950745,-0.04308624565601349,-0.02573247253894806
1749048192.258886,4.2552924156188965,-1.2257205110839386,-1.5405306816101074,-4.121111293832296,4.389427661895752,-2.631169144307272,-0.0012564362259581685,0.0021411245688796043,0.0006155396113172174,0.001517161843366921,-0.0007144033443182707,0.0005807261331938207,0.08069424331188202,0.5744965672492981,0.952198326587677,0.08594411611557007,-0.04198311269283295,-0.024513669312000275
1749048192.2589228,4.2552924156188965,-1.2257205110839386,-1.5405306816101074,-4.121111293832296,4.389427661895752,-2.631169144307272,-0.0012564362259581685,0.0021411245688796043,0.0006155396113172174,0.001517161843366921,-0.0007144033443182707,0.0005807261331938207,0.08069424331188202,0.5744965672492981,0.952198326587677,0.08594411611557007,-0.04198311269283295,-0.024513669312000275
1749048192.258959,4.255241870880127,-1.2256861192039032,-1.5405150651931763,-4.12110771755361,4.389374256134033,-2.6311538855182093,-0.0008149771019816399,0.0018209501868113875,0.00045849394518882036,0.0008994396193884313,-0.0005959778209216893,0.000501732574775815,0.07710595428943634,0.5723810195922852,0.9477759003639221,0.09178261458873749,-0.03043263405561447,-0.024393685162067413
1749048192.258996,4.255241870880127,-1.2256861192039032,-1.5405150651931763,-4.12110771755361,4.389374256134033,-2.6311538855182093,-0.0008149771019816399,0.0018209501868113875,0.00045849394518882036,0.0008994396193884313,-0.0005959778209216893,0.000501732574775815,0.07710595428943634,0.5723810195922852,0.9477759003639221,0.09178261458873749,-0.03043263405561447,-0.024393685162067413
1749048192.259038,4.255252838134766,-1.225662277345993,-1.540534257888794,-4.121092220345968,4.389386177062988,-2.6311503092395228,-0.0006473725661635399,0.0025296853855252266,0.0005176634876988828,0.0007285334868356586,-0.0005111629725433886,0.000433048524428159,0.05869525298476219,0.5717311501502991,0.9473307728767395,0.10387135297060013,-0.04304051399230957,-0.05144236981868744
1749048192.2591434,4.255277156829834,-1.2257085305503388,-1.5405259132385254,-4.121092220345968,4.389396667480469,-2.631172482167379,-0.0005870260647498071,0.00257654651068151,0.0005520103732123971,0.0006643126253038645,-0.0004772201646119356,0.0004051634459756315,0.05238847807049751,0.5611313581466675,0.9523332715034485,0.09639213979244232,-0.019470445811748505,-0.04241648316383362
1749048192.260766,4.255277156829834,-1.2257085305503388,-1.5405259132385254,-4.121092220345968,4.389396667480469,-2.631172482167379,-0.0005870260647498071,0.00257654651068151,0.0005520103732123971,0.0006643126253038645,-0.0004772201646119356,0.0004051634459756315,0.05238847807049751,0.5611313581466675,0.9523332715034485,0.09639213979244232,-0.019470445811748505,-0.04241648316383362
1749048192.3022778,4.255261421203613,-1.225684480076172,-1.5405378341674805,-4.121095796624655,4.3894362449646,-2.6311503092395228,-0.0004947895649820566,0.0031003037001937628,0.0009223730303347111,0.0006087354267947376,-0.00031652202596887946,0.0003595421148929745,0.06296002864837646,0.560381293296814,0.9511387944221497,0.10476928949356079,-0.02910679578781128,-0.051534801721572876
1749048192.3023238,4.255266189575195,-1.2256572407535096,-1.5405223369598389,-4.1210838756957,4.389362335205078,-2.6311572233783167,-0.0004587522416841239,0.003355278167873621,0.0007935178000479937,0.00056644988944754,-0.0002857026120182127,0.0001826875377446413,0.05145621672272682,0.5745535492897034,0.9460647106170654,0.08358777314424515,-0.023744218051433563,-0.09827325493097305
1749048192.3023636,4.2552337646484375,-1.225696401005127,-1.5405259132385254,-4.121092220345968,4.3894243240356445,-2.631169144307272,-0.0004275468527339399,0.003670019330456853,0.0006919993320479989,0.0005819446523673832,-0.000266835413640365,7.096989429555833e-05,0.0575820654630661,0.5944892168045044,0.9442902207374573,0.09685303270816803,-0.017523497343063354,-0.1042640283703804
1749048192.3024015,4.2552337646484375,-1.225696401005127,-1.5405259132385254,-4.121092220345968,4.3894243240356445,-2.631169144307272,-0.0004275468527339399,0.003670019330456853,0.0006919993320479989,0.0005819446523673832,-0.000266835413640365,7.096989429555833e-05,0.0575820654630661,0.5944892168045044,0.9442902207374573,0.09685303270816803,-0.017523497343063354,-0.1042640283703804
1749048192.3024395,4.2552337646484375,-1.225696401005127,-1.5405259132385254,-4.121092220345968,4.3894243240356445,-2.631169144307272,-0.0004275468527339399,0.003670019330456853,0.0006919993320479989,0.0005819446523673832,-0.000266835413640365,7.096989429555833e-05,0.0575820654630661,0.5944892168045044,0.9442902207374573,0.09685303270816803,-0.017523497343063354,-0.1042640283703804
1749048192.3024774,4.255261421203613,-1.2256484788707276,-1.5405187606811523,-4.121080299417013,4.3894243240356445,-2.6312125364886683,-0.0003319466777611524,0.0037851808592677116,0.0004996037459932268,0.0004466347163543105,-0.00018197696772404015,-0.0046375589445233345,-0.00022153183817863464,0.5765840411186218,0.9364151358604431,0.08172963559627533,0.025370702147483826,-0.13016930222511292
1749048192.3025138,4.255261421203613,-1.2256484788707276,-1.5405187606811523,-4.121080299417013,4.3894243240356445,-2.6312125364886683,-0.0003319466777611524,0.0037851808592677116,0.0004996037459932268,0.0004466347163543105,-0.00018197696772404015,-0.0046375589445233345,-0.00022153183817863464,0.5765840411186218,0.9364151358604431,0.08172963559627533,0.025370702147483826,-0.13016930222511292
1749048192.3025508,4.255276203155518,-1.2256365579417725,-1.5405223369598389,-4.121095796624655,4.389372825622559,-2.6311777273761194,-0.00042488283361308277,0.00345630687661469,0.000457250775070861,0.00047418830217793584,-0.0001479381026001647,-0.005951781291514635,-0.05345772206783295,0.5856948494911194,0.9246345162391663,0.11236041784286499,0.029611125588417053,-0.14838480949401855
1749048192.3025882,4.255241394042969,-1.2256212395480652,-1.5405187606811523,-4.1210767231383265,4.389408588409424,-2.631232802067892,-0.007521344348788261,0.003084635129198432,0.00039097998524084687,0.0010831312974914908,0.00011028155131498352,-0.008441424928605556,-0.03272062540054321,0.5743601322174072,0.9169566035270691,0.13862358033657074,0.06020545959472656,-0.1897021383047104
1749048192.302625,4.255241394042969,-1.2256212395480652,-1.5405187606811523,-4.1210767231383265,4.389408588409424,-2.631232802067892,-0.007521344348788261,0.003084635129198432,0.00039097998524084687,0.0010831312974914908,0.00011028155131498352,-0.008441424928605556,-0.03272062540054321,0.5743601322174072,0.9169566035270691,0.13862358033657074,0.06020545959472656,-0.1897021383047104
1749048192.302666,4.255181789398193,-1.2256246370128174,-1.5405259132385254,-4.121071477929586,4.389381408691406,-2.6312719027148646,-0.010436375625431538,0.002110835863277316,0.0003414965467527509,0.003234806703403592,0.00080319051630795,-0.01286229956895113,-0.0938330739736557,0.5454226136207581,0.8979248404502869,0.1312102973461151,0.11192242801189423,-0.20006906986236572
1749048192.3027132,4.2551774978637695,-1.2256005567363282,-1.5405187606811523,-4.12104405979299,4.389393329620361,-2.631350342427389,-0.012214439921081066,0.0022025101352483034,0.00029510847525671124,0.004214897286146879,0.001725157257169485,-0.016565661877393723,-0.09203622490167618,0.5633634328842163,0.8716682195663452,0.13539178669452667,0.12923143804073334,-0.19193485379219055
1749048192.3027546,4.2551774978637695,-1.2256005567363282,-1.5405187606811523,-4.12104405979299,4.389393329620361,-2.631350342427389,-0.012214439921081066,0.0022025101352483034,0.00029510847525671124,0.004214897286146879,0.001725157257169485,-0.016565661877393723,-0.09203622490167618,0.5633634328842163,0.8716682195663452,0.13539178669452667,0.12923143804073334,-0.19193485379219055
1749048192.3027918,4.255195617675781,-1.225631521349289,-1.5405223369598389,-4.121059557000631,4.389451503753662,-2.6313722769366663,-0.017253896221518517,0.0022911999840289354,0.00020401972869876772,0.006375070661306381,0.005399423651397228,-0.02028024010360241,-0.12447039783000946,0.5505046248435974,0.849973738193512,0.14018292725086212,0.1528937667608261,-0.169081911444664
1749048192.3028286,4.255195617675781,-1.225631521349289,-1.5405223369598389,-4.121059557000631,4.389451503753662,-2.6313722769366663,-0.017253896221518517,0.0022911999840289354,0.00020401972869876772,0.006375070661306381,0.005399423651397228,-0.02028024010360241,-0.12447039783000946,0.5505046248435974,0.849973738193512,0.14018292725086212,0.1528937667608261,-0.169081911444664
1749048192.3028648,4.255038261413574,-1.2256005567363282,-1.540534257888794,-4.121015449563497,4.389432430267334,-2.6314359346972864,-0.020360276103019714,0.0021686789114028215,-7.044536323519424e-05,0.009744931943714619,0.007366394158452749,-0.020220661535859108,-0.09271461516618729,0.5663380026817322,0.8126358389854431,0.1519821435213089,0.2070215791463852,-0.16660308837890625
1749048192.3029015,4.255013942718506,-1.2255733174136658,-1.5405031442642212,-4.120999952355856,4.389452934265137,-2.6314988772021692,-0.020541880279779434,0.0021256946492940187,-0.00021481415024027228,0.011774750426411629,0.009529034607112408,-0.020717402920126915,-0.09828054159879684,0.5544767379760742,0.7863876223564148,0.16709361970424652,0.22498565912246704,-0.18286916613578796
1749048192.3029382,4.255013942718506,-1.2255733174136658,-1.5405031442642212,-4.120999952355856,4.389452934265137,-2.6314988772021692,-0.020541880279779434,0.0021256946492940187,-0.00021481415024027228,0.011774750426411629,0.009529034607112408,-0.020717402920126915,-0.09828054159879684,0.5544767379760742,0.7863876223564148,0.16709361970424652,0.22498565912246704,-0.18286916613578796
1749048192.302975,4.25496244430542,-1.2256039542010804,-1.540534257888794,-4.120959659615988,4.389495849609375,-2.6315465609179896,-0.021075399592518806,0.0018025272293016315,-0.0021935913246124983,0.013146715238690376,0.01235603354871273,-0.022401127964258194,-0.11626847088336945,0.5686981678009033,0.8135926127433777,0.16078488528728485,0.23783323168754578,-0.17628325521945953
1749048192.3030114,4.254882335662842,-1.2255576711944123,-1.5405497550964355,-4.120915552178854,4.389575481414795,-2.6316571871386927,-0.02248190902173519,0.0013908158289268613,-0.0028081825003027916,0.015119683928787708,0.019678648561239243,-0.02349812723696232,-0.120404914021492,0.5712661743164062,0.7793272137641907,0.15870442986488342,0.1965792030096054,-0.1639346182346344
1749048192.3031137,4.254882335662842,-1.2255576711944123,-1.5405497550964355,-4.120915552178854,4.389575481414795,-2.6316571871386927,-0.02248190902173519,0.0013908158289268613,-0.0028081825003027916,0.015119683928787708,0.019678648561239243,-0.02349812723696232,-0.120404914021492,0.5712661743164062,0.7793272137641907,0.15870442986488342,0.1965792030096054,-0.1639346182346344
1749048192.3047783,4.254789352416992,-1.2255576711944123,-1.5405426025390625,-4.120851894418234,4.389620304107666,-2.6317504088031214,-0.023940034210681915,0.001448491238988936,-0.003218573983758688,0.017107276245951653,0.019676338881254196,-0.025364728644490242,-0.14454615116119385,0.5672957301139832,0.7466376423835754,0.18933555483818054,0.18769420683383942,-0.18142913281917572
1749048192.3465362,4.254789352416992,-1.2255576711944123,-1.5405426025390625,-4.120851894418234,4.389620304107666,-2.6317504088031214,-0.023940034210681915,0.001448491238988936,-0.003218573983758688,0.017107276245951653,0.019676338881254196,-0.025364728644490242,-0.14454615116119385,0.5672957301139832,0.7466376423835754,0.18933555483818054,0.18769420683383942,-0.18142913281917572
1749048192.3466098,4.254721641540527,-1.2255576711944123,-1.540562629699707,-4.120782991448873,4.38974142074585,-2.6318798700915735,-0.0265570729970932,0.001513748662546277,-0.005997234024107456,0.016320720314979553,0.02116963639855385,-0.028466839343309402,-0.16280709207057953,0.570243239402771,0.7304003238677979,0.1777244359254837,0.18587373197078705,-0.17524316906929016
1749048192.346655,4.254647254943848,-1.2255818408778687,-1.540586233139038,-4.120716234246725,4.389751434326172,-2.6319051424609583,-0.027835289016366005,0.0016553968889638782,-0.007196770049631596,0.016231006011366844,0.02145681343972683,-0.029904769733548164,-0.1911577582359314,0.5531784296035767,0.7282496690750122,0.16370101273059845,0.1903262883424759,-0.178928941488266
1749048192.3466954,4.254647254943848,-1.2255818408778687,-1.540586233139038,-4.120716234246725,4.389751434326172,-2.6319051424609583,-0.027835289016366005,0.0016553968889638782,-0.007196770049631596,0.016231006011366844,0.02145681343972683,-0.029904769733548164,-0.1911577582359314,0.5531784296035767,0.7282496690750122,0.16370101273059845,0.1903262883424759,-0.178928941488266
1749048192.3467355,4.2545342445373535,-1.2255733174136658,-1.5405943393707275,-4.120671649972433,4.3898539543151855,-2.6320486704455774,-0.03096023015677929,0.0013727439800277352,-0.007427199278026819,0.016303775832057,0.022595494985580444,-0.03239214047789574,-0.18836767971515656,0.5854179859161377,0.6933528184890747,0.17924626171588898,0.17674636840820312,-0.17229512333869934
1749048192.3467865,4.2545013427734375,-1.2255870562842865,-1.5406373739242554,-4.1206470928587855,4.389917373657227,-2.632101837788717,-0.03291485086083412,0.0011038172524422407,-0.00787281896919012,0.01737424172461033,0.02290608361363411,-0.03460368141531944,-0.216110497713089,0.5807653665542603,0.6637541055679321,0.16629424691200256,0.16863618791103363,-0.17854008078575134
1749048192.3468287,4.2545013427734375,-1.2255870562842865,-1.5406373739242554,-4.1206470928587855,4.389917373657227,-2.632101837788717,-0.03291485086083412,0.0011038172524422407,-0.00787281896919012,0.01737424172461033,0.02290608361363411,-0.03460368141531944,-0.216110497713089,0.5807653665542603,0.6637541055679321,0.16629424691200256,0.16863618791103363,-0.17854008078575134
1749048192.3468668,4.254366397857666,-1.2255217295936127,-1.5406575202941895,-4.120566984216207,4.38998556137085,-2.632251803074972,-0.03695100545883179,0.0012157713063061237,-0.012287624180316925,0.016883688047528267,0.022027771919965744,-0.037955764681100845,-0.2191949486732483,0.581788182258606,0.6961876153945923,0.1719662845134735,0.18844656646251678,-0.16564533114433289
1749048192.3469155,4.254366397857666,-1.2255217295936127,-1.5406575202941895,-4.120566984216207,4.38998556137085,-2.632251803074972,-0.03695100545883179,0.0012157713063061237,-0.012287624180316925,0.016883688047528267,0.022027771919965744,-0.037955764681100845,-0.2191949486732483,0.581788182258606,0.6961876153945923,0.1719662845134735,0.18844656646251678,-0.16564533114433289
1749048192.3469553,4.254278659820557,-1.2255336207202454,-1.540697455406189,-4.120539566079611,4.3900532722473145,-2.6323540846454065,-0.039688270539045334,0.0016425015637651086,-0.012482061982154846,0.016660291701555252,0.022882526740431786,-0.03932333365082741,-0.1920977532863617,0.555405855178833,0.6815435886383057,0.1965116411447525,0.18851201236248016,-0.1959742307662964
1749048192.346993,4.254126071929932,-1.2255457502654572,-1.5407533645629883,-4.120479007760519,4.390137195587158,-2.6325095335589808,-0.04096220061182976,0.0021924085449427366,-0.013058213517069817,0.01728730835020542,0.02420523203909397,-0.04319613054394722,-0.27053582668304443,0.5800349712371826,0.6914725303649902,0.20025871694087982,0.19973276555538177,-0.18347662687301636
1749048192.347029,4.254126071929932,-1.2255457502654572,-1.5407533645629883,-4.120479007760519,4.390137195587158,-2.6325095335589808,-0.04096220061182976,0.0021924085449427366,-0.013058213517069817,0.01728730835020542,0.02420523203909397,-0.04319613054394722,-0.27053582668304443,0.5800349712371826,0.6914725303649902,0.20025871694087982,0.19973276555538177,-0.18347662687301636
1749048192.3470654,4.254042148590088,-1.2255285543254395,-1.5407776832580566,-4.120458742181295,4.390192031860352,-2.6326053778277796,-0.044511642307043076,0.002244459930807352,-0.013614005409181118,0.017467249184846878,0.025411877781152725,-0.045830484479665756,-0.2525064945220947,0.5667028427124023,0.6923362016677856,0.2100985050201416,0.20633704960346222,-0.20399250090122223
1749048192.3471014,4.253931999206543,-1.2255560916713257,-1.5408332347869873,-4.120399614373678,4.390254974365234,-2.6326921621905726,-0.04682759940624237,0.0019479653565213084,-0.013618235476315022,0.019061895087361336,0.026320595294237137,-0.048414867371320724,-0.28963375091552734,0.5666472911834717,0.7044989466667175,0.199456125497818,0.20862802863121033,-0.19533444941043854
1749048192.3471384,4.253727912902832,-1.2255404752543946,-1.5408620834350586,-4.120318790475363,4.39036226272583,-2.6328731218921106,-0.05001562833786011,0.0015287307323887944,-0.014443631283938885,0.020932825282216072,0.030719412490725517,-0.05185917764902115,-0.29371869564056396,0.5632351040840149,0.7132684588432312,0.2233600616455078,0.21345315873622894,-0.2007429599761963
1749048192.347175,4.253635406494141,-1.2255369883826752,-1.540909767150879,-4.120295187036032,4.390399932861328,-2.6330066362964075,-0.05234309285879135,0.0015269540017470717,-0.015112963505089283,0.0220256969332695,0.031889237463474274,-0.05343817546963692,-0.2977827787399292,0.581244945526123,0.7176816463470459,0.22859331965446472,0.20559817552566528,-0.21529161930084229
1749048192.3472111,4.253635406494141,-1.2255369883826752,-1.540909767150879,-4.120295187036032,4.390399932861328,-2.6330066362964075,-0.05234309285879135,0.0015269540017470717,-0.015112963505089283,0.0220256969332695,0.031889237463474274,-0.05343817546963692,-0.2977827787399292,0.581244945526123,0.7176816463470459,0.22859331965446472,0.20559817552566528,-0.21529161930084229
1749048192.3472471,4.253443717956543,-1.2255438429168244,-1.540961742401123,-4.120195766488546,4.3905110359191895,-2.6332386175738733,-0.056284621357917786,0.0012946801725775003,-0.015294325537979603,0.024406857788562775,0.034849632531404495,-0.05723204463720322,-0.2984588146209717,0.5646349191665649,0.7196347117424011,0.25203463435173035,0.20832952857017517,-0.20629292726516724
1749048192.3472831,4.253443717956543,-1.2255438429168244,-1.540961742401123,-4.120195766488546,4.3905110359191895,-2.6332386175738733,-0.056284621357917786,0.0012946801725775003,-0.015294325537979603,0.024406857788562775,0.034849632531404495,-0.05723204463720322,-0.2984588146209717,0.5646349191665649,0.7196347117424011,0.25203463435173035,0.20832952857017517,-0.20629292726516724
1749048192.3473191,4.253327369689941,-1.2255506974509736,-1.5410164594650269,-4.120150466958517,4.390608310699463,-2.6333499590503138,-0.05839933827519417,0.0013779447181150317,-0.01497083343565464,0.02626902051270008,0.03740568086504936,-0.05847681686282158,-0.28392547369003296,0.5710409283638,0.7104855179786682,0.2452189326286316,0.1887197345495224,-0.2296718955039978
1749048192.347528,4.253110408782959,-1.2255438727191468,-1.5410501956939697,-4.120054622689718,4.390789031982422,-2.6336007753955286,-0.0612182654440403,0.0014391716104000807,-0.014774714596569538,0.029724741354584694,0.03861990198493004,-0.06196661666035652,-0.32016226649284363,0.5992258787155151,0.6991428732872009,0.2391965687274933,0.1864011287689209,-0.23628215491771698
1749048192.348811,4.253110408782959,-1.2255438727191468,-1.5410501956939697,-4.120054622689718,4.390789031982422,-2.6336007753955286,-0.0612182654440403,0.0014391716104000807,-0.014774714596569538,0.029724741354584694,0.03861990198493004,-0.06196661666035652,-0.32016226649284363,0.5992258787155151,0.6991428732872009,0.2391965687274933,0.1864011287689209,-0.23628215491771698
1749048192.3942976,4.252879619598389,-1.2255163949779053,-1.5411133766174316,-4.11991085628652,4.390951633453369,-2.6338675657855433,-0.06486950069665909,0.0017089562024921179,-0.015222176909446716,0.03229968249797821,0.04189819097518921,-0.0658641904592514,-0.36039942502975464,0.5747854709625244,0.6824085712432861,0.25014162063598633,0.199745312333107,-0.2296420931816101
1749048192.3943424,4.252723693847656,-1.2255197924426575,-1.5411376953125,-4.119826456109518,4.39104700088501,-2.6340180079089563,-0.06783778965473175,0.001609044848009944,-0.01597314327955246,0.03345826640725136,0.042439285665750504,-0.06730469316244125,-0.349929541349411,0.5787596106529236,0.6873470544815063,0.23312315344810486,0.18869158625602722,-0.21790798008441925
1749048192.394382,4.252723693847656,-1.2255197924426575,-1.5411376953125,-4.119826456109518,4.39104700088501,-2.6340180079089563,-0.06783778965473175,0.001609044848009944,-0.01597314327955246,0.03345826640725136,0.042439285665750504,-0.06730469316244125,-0.349929541349411,0.5787596106529236,0.6873470544815063,0.23312315344810486,0.18869158625602722,-0.21790798008441925
1749048192.394421,4.252401351928711,-1.225497619514801,-1.5411937236785889,-4.119709631005758,4.391202449798584,-2.6342855135547083,-0.07180182635784149,0.001744261011481285,-0.01622025854885578,0.03488462418317795,0.04222350940108299,-0.07000160962343216,-0.3699122369289398,0.59498530626297,0.6840107440948486,0.24662348628044128,0.221483513712883,-0.2289467602968216
1749048192.394458,4.252401351928711,-1.225497619514801,-1.5411937236785889,-4.119709631005758,4.391202449798584,-2.6342855135547083,-0.07180182635784149,0.001744261011481285,-0.01622025854885578,0.03488462418317795,0.04222350940108299,-0.07000160962343216,-0.3699122369289398,0.59498530626297,0.6840107440948486,0.24662348628044128,0.221483513712883,-0.2289467602968216
1749048192.3944957,4.2521443367004395,-1.225501076584198,-1.5412729978561401,-4.119558473626608,4.391312599182129,-2.6345844904529017,-0.07437850534915924,0.0018992028199136257,-0.016720052808523178,0.03746126964688301,0.04440318048000336,-0.07456956803798676,-0.3692024350166321,0.5919171571731567,0.675122082233429,0.23395228385925293,0.20967794954776764,-0.2265150547027588
1749048192.394533,4.2521443367004395,-1.225501076584198,-1.5412729978561401,-4.119558473626608,4.391312599182129,-2.6345844904529017,-0.07437850534915924,0.0018992028199136257,-0.016720052808523178,0.03746126964688301,0.04440318048000336,-0.07456956803798676,-0.3692024350166321,0.5919171571731567,0.675122082233429,0.23395228385925293,0.20967794954776764,-0.2265150547027588
1749048192.3945706,4.251984596252441,-1.225501076584198,-1.541301965713501,-4.119474073449606,4.391476631164551,-2.634723965321676,-0.07525251060724258,0.002325132954865694,-0.01748497225344181,0.03899344429373741,0.046646129339933395,-0.07475075125694275,-0.4069634974002838,0.5899392366409302,0.6693301796913147,0.2336200475692749,0.20875106751918793,-0.22725766897201538
1749048192.3946218,4.251676559448242,-1.2254959505847474,-1.5413932800292969,-4.119348665276998,4.391704559326172,-2.6350417772876185,-0.07938652485609055,0.0025689455214887857,-0.018005825579166412,0.03780878335237503,0.04742627218365669,-0.08062422275543213,-0.41171038150787354,0.6064936518669128,0.6649889349937439,0.24440965056419373,0.22896775603294373,-0.2203814834356308
1749048192.3946946,4.251676559448242,-1.2254959505847474,-1.5413932800292969,-4.119348665276998,4.391704559326172,-2.6350417772876185,-0.07938652485609055,0.0025689455214887857,-0.018005825579166412,0.03780878335237503,0.04742627218365669,-0.08062422275543213,-0.41171038150787354,0.6064936518669128,0.6649889349937439,0.24440965056419373,0.22896775603294373,-0.2203814834356308
1749048192.3947544,4.251513481140137,-1.2254857879928132,-1.5414252281188965,-4.11925806621694,4.39177131652832,-2.63518196741213,-0.08532463759183884,0.0027158670127391815,-0.019242629408836365,0.03827232867479324,0.049245722591876984,-0.08073074370622635,-0.3826840817928314,0.5720929503440857,0.6687648296356201,0.2671703100204468,0.2150537669658661,-0.2247089296579361
1749048192.3947954,4.251367568969727,-1.2254959505847474,-1.5414419174194336,-4.1191774807372035,4.391877174377441,-2.6353681723224085,-0.08420390635728836,0.003142494475468993,-0.019391853362321854,0.0401923768222332,0.05127821862697601,-0.08182284235954285,-0.367236465215683,0.5736573934555054,0.6517279148101807,0.27116522192955017,0.21650995314121246,-0.2482907623052597
1749048192.394833,4.251118183135986,-1.225437806253769,-1.5415016412734985,-4.119101663629049,4.39201545715332,-2.6355469862567347,-0.08706540614366531,0.0031390066724270582,-0.01963353157043457,0.04074862599372864,0.05131023749709129,-0.08488241583108902,-0.4069620966911316,0.5666132569313049,0.6588639616966248,0.25859755277633667,0.21423625946044922,-0.24063198268413544
1749048192.3948705,4.2508087158203125,-1.2254412335208436,-1.5415817499160767,-4.118914266625875,4.392127990722656,-2.6359053293811243,-0.09104526042938232,0.0032954702619463205,-0.02117444947361946,0.042285189032554626,0.05057356134057045,-0.09373410791158676,-0.3910098075866699,0.5634021162986755,0.6479129195213318,0.27118176221847534,0.24788019061088562,-0.19758284091949463
1749048192.394907,4.250640869140625,-1.225459949379303,-1.54163658618927,-4.1188489399352015,4.392292022705078,-2.6360726992236536,-0.09202385693788528,0.002882871776819229,-0.021669544279575348,0.043817680329084396,0.05202340707182884,-0.09198136627674103,-0.422322154045105,0.5836868286132812,0.6616376638412476,0.26666414737701416,0.2386786937713623,-0.22834321856498718
1749048192.394948,4.250640869140625,-1.225459949379303,-1.54163658618927,-4.1188489399352015,4.392292022705078,-2.6360726992236536,-0.09202385693788528,0.002882871776819229,-0.021669544279575348,0.043817680329084396,0.05202340707182884,-0.09198136627674103,-0.422322154045105,0.5836868286132812,0.6616376638412476,0.26666414737701416,0.2386786937713623,-0.22834321856498718
1749048192.3949895,4.250268936157227,-1.225490854387619,-1.5417288541793823,-4.118644853631491,4.392537593841553,-2.6364594141589563,-0.09795265644788742,0.0027068459894508123,-0.02248912677168846,0.047171223908662796,0.058324139565229416,-0.0971088707447052,-0.39857715368270874,0.5857651829719543,0.6368391513824463,0.2716057300567627,0.230708509683609,-0.23896057903766632
1749048192.395031,4.250268936157227,-1.225490854387619,-1.5417288541793823,-4.118644853631491,4.392537593841553,-2.6364594141589563,-0.09795265644788742,0.0027068459894508123,-0.02248912677168846,0.047171223908662796,0.058324139565229416,-0.0971088707447052,-0.39857715368270874,0.5857651829719543,0.6368391513824463,0.2716057300567627,0.230708509683609,-0.23896057903766632
1749048192.3950708,4.2500457763671875,-1.2254289847663422,-1.541752576828003,-4.118556638757223,4.392580032348633,-2.6366778055774134,-0.09715735912322998,0.0025885840877890587,-0.022493334487080574,0.0479833260178566,0.05749877914786339,-0.09973176568746567,-0.4026188552379608,0.5745205879211426,0.6450030207633972,0.27646753191947937,0.24062398076057434,-0.22182314097881317
1749048192.3951106,4.249637603759766,-1.225413666372635,-1.5418329238891602,-4.118376394311422,4.392853260040283,-2.637099568043844,-0.10061715543270111,0.0029524224810302258,-0.02416904829442501,0.047950319945812225,0.059600576758384705,-0.10091041028499603,-0.4253646731376648,0.5646461844444275,0.6415402293205261,0.2920078635215759,0.26365864276885986,-0.2210143655538559
1749048192.3951511,4.249637603759766,-1.225413666372635,-1.5418329238891602,-4.118376394311422,4.392853260040283,-2.637099568043844,-0.10061715543270111,0.0029524224810302258,-0.02416904829442501,0.047950319945812225,0.059600576758384705,-0.10091041028499603,-0.4253646731376648,0.5646461844444275,0.6415402293205261,0.2920078635215759,0.26365864276885986,-0.2210143655538559
1749048192.3951907,4.249177932739258,-1.2254239481738587,-1.541964054107666,-4.118156572381491,4.39308500289917,-2.63749343553652,-0.1055237203836441,0.0031922059133648872,-0.025300052016973495,0.0524466447532177,0.0625593513250351,-0.10449336469173431,-0.42839881777763367,0.5722621083259583,0.6599000096321106,0.2778190076351166,0.24160665273666382,-0.2100963294506073
1749048192.3952951,4.249040126800537,-1.225401834850647,-1.5420199632644653,-4.11807980159902,4.393278121948242,-2.637693230305807,-0.10644153505563736,0.0029998302925378084,-0.02678469382226467,0.05267076566815376,0.06495249271392822,-0.10368917137384415,-0.41366443037986755,0.5809314250946045,0.6533983945846558,0.28624677658081055,0.25549688935279846,-0.23195450007915497
1749048192.3967915,4.248794078826904,-1.2254426938346406,-1.5420453548431396,-4.117967983285421,4.393301963806152,-2.6379311720477503,-0.10921798646450043,0.003136557526886463,-0.027362391352653503,0.053614117205142975,0.06685672700405121,-0.10380969941616058,-0.4319731593132019,0.5663683414459229,0.6491526365280151,0.27647340297698975,0.24474948644638062,-0.24695727229118347
1749048192.4382734,4.248585224151611,-1.2254273754409333,-1.5421085357666016,-4.117875238458151,4.3935065269470215,-2.638089958821432,-0.11157241463661194,0.003402300411835313,-0.026765599846839905,0.05364665389060974,0.06882412731647491,-0.1053851842880249,-0.41653889417648315,0.5693038702011108,0.6501145958900452,0.28972968459129333,0.23676040768623352,-0.2242894470691681
1749048192.4383192,4.248585224151611,-1.2254273754409333,-1.5421085357666016,-4.117875238458151,4.3935065269470215,-2.638089958821432,-0.11157241463661194,0.003402300411835313,-0.026765599846839905,0.05364665389060974,0.06882412731647491,-0.1053851842880249,-0.41653889417648315,0.5693038702011108,0.6501145958900452,0.28972968459129333,0.23676040768623352,-0.2242894470691681
1749048192.4383595,4.2481513023376465,-1.225403593187668,-1.5422520637512207,-4.117608448068136,4.393769264221191,-2.6385772863971155,-0.11524080485105515,0.003229660913348198,-0.02802101895213127,0.05470159649848938,0.07050488144159317,-0.11106229573488235,-0.4058762192726135,0.5524555444717407,0.6349598169326782,0.28563445806503296,0.2246152013540268,-0.23541565239429474
1749048192.4383984,4.2481513023376465,-1.225403593187668,-1.5422520637512207,-4.117608448068136,4.393769264221191,-2.6385772863971155,-0.11524080485105515,0.003229660913348198,-0.02802101895213127,0.05470159649848938,0.07050488144159317,-0.11106229573488235,-0.4058762192726135,0.5524555444717407,0.6349598169326782,0.28563445806503296,0.2246152013540268,-0.23541565239429474
1749048192.4384363,4.247838973999023,-1.2253913444331666,-1.5422649383544922,-4.117526670495504,4.393904209136963,-2.6387959162341517,-0.11669300496578217,0.0033775041811168194,-0.029263397678732872,0.05589301884174347,0.06897839903831482,-0.11422418802976608,-0.38540685176849365,0.5843837261199951,0.651140034198761,0.29507899284362793,0.24509014189243317,-0.2309204787015915
1749048192.4384744,4.247421741485596,-1.2253760558417817,-1.5423853397369385,-4.117275854150289,4.394186973571777,-2.639270846043722,-0.11994004249572754,0.003562076250091195,-0.02992311865091324,0.05781048908829689,0.07060728222131729,-0.12003182619810104,-0.42683225870132446,0.5743271112442017,0.6494486927986145,0.2931334972381592,0.25705865025520325,-0.24106603860855103
1749048192.4385111,4.247421741485596,-1.2253760558417817,-1.5423853397369385,-4.117275854150289,4.394186973571777,-2.639270846043722,-0.11994004249572754,0.003562076250091195,-0.02992311865091324,0.05781048908829689,0.07060728222131729,-0.12003182619810104,-0.42683225870132446,0.5743271112442017,0.6494486927986145,0.2931334972381592,0.25705865025520325,-0.24106603860855103
1749048192.4385571,4.246870994567871,-1.225333110695221,-1.5425084829330444,-4.117050548593038,4.394520282745361,-2.639763895665304,-0.12307329475879669,0.0033079073764383793,-0.030597863718867302,0.059001486748456955,0.07468221336603165,-0.12433554232120514,-0.47630953788757324,0.5625036358833313,0.6451548337936401,0.30332475900650024,0.26064711809158325,-0.2323107123374939
1749048192.4385967,4.246705532073975,-1.2253557604602356,-1.5425806045532227,-4.1169146500029505,4.394652843475342,-2.6399760882007044,-0.12602846324443817,0.0034515641164034605,-0.030475134029984474,0.061290569603443146,0.07588665187358856,-0.12554654479026794,-0.44499272108078003,0.5670729279518127,0.6513608694076538,0.2910841405391693,0.24084123969078064,-0.223574697971344
1749048192.4386337,4.246705532073975,-1.2253557604602356,-1.5425806045532227,-4.1169146500029505,4.394652843475342,-2.6399760882007044,-0.12602846324443817,0.0034515641164034605,-0.030475134029984474,0.061290569603443146,0.07588665187358856,-0.12554654479026794,-0.44499272108078003,0.5670729279518127,0.6513608694076538,0.2910841405391693,0.24084123969078064,-0.223574697971344
1749048192.438675,4.246150970458984,-1.2253247064403077,-1.5427156686782837,-4.11666264156484,4.3949737548828125,-2.640496079121725,-0.13137458264827728,0.003464037785306573,-0.031888969242572784,0.06217923387885094,0.07786016166210175,-0.12774431705474854,-0.44793620705604553,0.5854036808013916,0.652930498123169,0.2945705056190491,0.23542410135269165,-0.2201392501592636
1749048192.4387197,4.246150970458984,-1.2253247064403077,-1.5427156686782837,-4.11666264156484,4.3949737548828125,-2.640496079121725,-0.13137458264827728,0.003464037785306573,-0.031888969242572784,0.06217923387885094,0.07786016166210175,-0.12774431705474854,-0.44793620705604553,0.5854036808013916,0.652930498123169,0.2945705056190491,0.23542410135269165,-0.2201392501592636
1749048192.4387577,4.24564266204834,-1.2253212493709107,-1.54282808303833,-4.116421838799948,4.395266056060791,-2.6410189310656946,-0.13679414987564087,0.0031798812560737133,-0.03247043117880821,0.0647503137588501,0.07888545840978622,-0.12952734529972076,-0.39601022005081177,0.5974507331848145,0.6408342719078064,0.28311580419540405,0.23904386162757874,-0.2471032738685608
1749048192.4387953,4.245331287384033,-1.2252939504436036,-1.542892336845398,-4.116277595559591,4.395421028137207,-2.6412697474109095,-0.1351553499698639,0.003445816459134221,-0.0322805717587471,0.06462211161851883,0.08012165129184723,-0.12962551414966583,-0.4643687307834625,0.5713587999343872,0.6447948217391968,0.2963663339614868,0.2628340721130371,-0.2525128722190857
1749048192.4388323,4.245331287384033,-1.2252939504436036,-1.542892336845398,-4.116277595559591,4.395421028137207,-2.6412697474109095,-0.1351553499698639,0.003445816459134221,-0.0322805717587471,0.06462211161851883,0.08012165129184723,-0.12962551414966583,-0.4643687307834625,0.5713587999343872,0.6447948217391968,0.2963663339614868,0.2628340721130371,-0.2525128722190857
1749048192.4388688,4.2450714111328125,-1.2252848905375977,-1.5429524183273315,-4.11616124729299,4.3955793380737305,-2.6415587107287806,-0.1380738466978073,0.003683290909975767,-0.03260519355535507,0.06487403810024261,0.08245225250720978,-0.13067634403705597,-0.43960440158843994,0.5596835017204285,0.6280615329742432,0.2917338013648987,0.2577480673789978,-0.25914084911346436
1749048192.438905,4.244463920593262,-1.2252974075130005,-1.5431032180786133,-4.115909238854879,4.395931243896484,-2.6421013514148157,-0.1418774425983429,0.0038629735354334116,-0.0342596136033535,0.0675235390663147,0.0807315930724144,-0.13588127493858337,-0.4220142960548401,0.583512008190155,0.6438326239585876,0.29506635665893555,0.2627429962158203,-0.25880011916160583
1749048192.4389417,4.244224548339844,-1.2252848905375977,-1.5431715250015259,-4.115760942498678,4.396115779876709,-2.6423657576190394,-0.14371460676193237,0.003950558602809906,-0.03413120284676552,0.06673896312713623,0.08283689618110657,-0.1360459178686142,-0.43295755982398987,0.5766505599021912,0.6381872892379761,0.31104776263237,0.26657044887542725,-0.2798946797847748
1749048192.438978,4.244224548339844,-1.2252848905375977,-1.5431715250015259,-4.115760942498678,4.396115779876709,-2.6423657576190394,-0.14371460676193237,0.003950558602809906,-0.03413120284676552,0.06673896312713623,0.08283689618110657,-0.1360459178686142,-0.43295755982398987,0.5766505599021912,0.6381872892379761,0.31104776263237,0.26657044887542725,-0.2798946797847748
1749048192.4390152,4.243675708770752,-1.225261167888977,-1.5433348417282104,-4.115520616570944,4.396482467651367,-2.642911736165182,-0.14554229378700256,0.0034698722884058952,-0.03525073453783989,0.06807199120521545,0.09035533666610718,-0.1457480639219284,-0.45178449153900146,0.5852885842323303,0.6398450136184692,0.31234997510910034,0.2471185177564621,-0.257345587015152
1749048192.4391253,4.243675708770752,-1.225261167888977,-1.5433348417282104,-4.115520616570944,4.396482467651367,-2.642911736165182,-0.14554229378700256,0.0034698722884058952,-0.03525073453783989,0.06807199120521545,0.09035533666610718,-0.1457480639219284,-0.45178449153900146,0.5852885842323303,0.6398450136184692,0.31234997510910034,0.2471185177564621,-0.257345587015152
1749048192.4408083,4.243079662322998,-1.2252800029567261,-1.5434709787368774,-4.115212102929586,4.396801948547363,-2.6435630957232874,-0.15249519050121307,0.004216250032186508,-0.03619451820850372,0.07350017875432968,0.08772430568933487,-0.14802701771259308,-0.4399721920490265,0.5454427599906921,0.6299933791160583,0.30813246965408325,0.2763103246688843,-0.27967044711112976
1749048192.4863117,4.24277925491333,-1.2252423924258729,-1.5435280799865723,-4.115063806573385,4.396949768066406,-2.643867079411642,-0.15230798721313477,0.004117223434150219,-0.03646164759993553,0.0725722536444664,0.09036043286323547,-0.14975619316101074,-0.4499581754207611,0.5830196142196655,0.6258828043937683,0.3247604966163635,0.2772221565246582,-0.27050474286079407
1749048192.4863586,4.24277925491333,-1.2252423924258729,-1.5435280799865723,-4.115063806573385,4.396949768066406,-2.643867079411642,-0.15230798721313477,0.004117223434150219,-0.03646164759993553,0.0725722536444664,0.09036043286323547,-0.14975619316101074,-0.4499581754207611,0.5830196142196655,0.6258828043937683,0.3247604966163635,0.2772221565246582,-0.27050474286079407
1749048192.4863997,4.242483615875244,-1.2252251666835328,-1.5435999631881714,-4.114919801751608,4.397164821624756,-2.6441431681262415,-0.1559593230485916,0.003922784700989723,-0.038864415138959885,0.07270489633083344,0.09177221357822418,-0.15155009925365448,-0.417795866727829,0.5804024338722229,0.6384216547012329,0.30862435698509216,0.2689652144908905,-0.24163176119327545
1749048192.486438,4.241848468780518,-1.2252405744842072,-1.5437560081481934,-4.114591499368185,4.397575855255127,-2.644783322011129,-0.15611177682876587,0.0041411686688661575,-0.0377948135137558,0.07692922651767731,0.09435775130987167,-0.15124376118183136,-0.45702803134918213,0.5676729083061218,0.6314570903778076,0.3218812942504883,0.2614062428474426,-0.25424790382385254
1749048192.4864757,4.241848468780518,-1.2252405744842072,-1.5437560081481934,-4.114591499368185,4.397575855255127,-2.644783322011129,-0.15611177682876587,0.0041411686688661575,-0.0377948135137558,0.07692922651767731,0.09435775130987167,-0.15124376118183136,-0.45702803134918213,0.5676729083061218,0.6314570903778076,0.3218812942504883,0.2614062428474426,-0.25424790382385254
1749048192.4865134,4.241541862487793,-1.2252167028239747,-1.5438627004623413,-4.114447732964987,4.397721290588379,-2.6451097170459192,-0.15947836637496948,0.004538514651358128,-0.038404688239097595,0.07973042130470276,0.09418494254350662,-0.14908476173877716,-0.4296359419822693,0.5774186849594116,0.6338558197021484,0.2921713590621948,0.24835970997810364,-0.28430747985839844
1749048192.4865508,4.241216659545898,-1.2252202493003388,-1.5439430475234985,-4.114302774468893,4.397927761077881,-2.645405117665426,-0.15986613929271698,0.004398572724312544,-0.0395636148750782,0.08000005781650543,0.09766187518835068,-0.15405163168907166,-0.5041134357452393,0.5871416330337524,0.6413938999176025,0.2826310396194458,0.2561977505683899,-0.30351996421813965
1749048192.4865882,4.240560054779053,-1.2252202194980164,-1.5441107749938965,-4.113981863061422,4.398318290710449,-2.6460159460650843,-0.16641201078891754,0.003912085201591253,-0.04276926815509796,0.07747657597064972,0.09840605407953262,-0.15873603522777557,-0.43903809785842896,0.5867254137992859,0.6776742339134216,0.30628615617752075,0.26089489459991455,-0.29499688744544983
1749048192.4866314,4.240560054779053,-1.2252202194980164,-1.5441107749938965,-4.113981863061422,4.398318290710449,-2.6460159460650843,-0.16641201078891754,0.003912085201591253,-0.04276926815509796,0.07747657597064972,0.09840605407953262,-0.15873603522777557,-0.43903809785842896,0.5867254137992859,0.6776742339134216,0.30628615617752075,0.26089489459991455,-0.29499688744544983
1749048192.48667,4.240560054779053,-1.2252202194980164,-1.5441107749938965,-4.113981863061422,4.398318290710449,-2.6460159460650843,-0.16641201078891754,0.003912085201591253,-0.04276926815509796,0.07747657597064972,0.09840605407953262,-0.15873603522777557,-0.43903809785842896,0.5867254137992859,0.6776742339134216,0.30628615617752075,0.26089489459991455,-0.29499688744544983
1749048192.4867067,4.239510536193848,-1.2251841586879273,-1.5443744659423828,-4.113481899301046,4.398923873901367,-2.647050444279806,-0.17232351005077362,0.00411219010129571,-0.04282490536570549,0.07942844927310944,0.10647809505462646,-0.17333869636058807,-0.44497063755989075,0.5881608128547668,0.6618717908859253,0.28973105549812317,0.2235298603773117,-0.20859503746032715
1749048192.4867432,4.2392144203186035,-1.225156621342041,-1.5444655418395996,-4.113332887689108,4.399145603179932,-2.647393528615133,-0.17367805540561676,0.00445924187079072,-0.04317609220743179,0.07802118360996246,0.10228213667869568,-0.17334936559200287,-0.4028129279613495,0.594332218170166,0.664736270904541,0.3111032247543335,0.24643629789352417,-0.19726169109344482
1749048192.4867797,4.2392144203186035,-1.225156621342041,-1.5444655418395996,-4.113332887689108,4.399145603179932,-2.647393528615133,-0.17367805540561676,0.00445924187079072,-0.04317609220743179,0.07802118360996246,0.10228213667869568,-0.17334936559200287,-0.4028129279613495,0.594332218170166,0.664736270904541,0.3111032247543335,0.24643629789352417,-0.19726169109344482
1749048192.4868212,4.238494873046875,-1.2251565915397187,-1.544626235961914,-4.113013168374533,4.399531364440918,-2.648085657750265,-0.17418523132801056,0.004429119639098644,-0.043232511729002,0.07934538275003433,0.10314425081014633,-0.1708509773015976,-0.5019643306732178,0.5890920162200928,0.6537590622901917,0.32649606466293335,0.28796160221099854,-0.22802171111106873
1749048192.4868588,4.238494873046875,-1.2251565915397187,-1.544626235961914,-4.113013168374533,4.399531364440918,-2.648085657750265,-0.17418523132801056,0.004429119639098644,-0.043232511729002,0.07934538275003433,0.10314425081014633,-0.1708509773015976,-0.5019643306732178,0.5890920162200928,0.6537590622901917,0.32649606466293335,0.28796160221099854,-0.22802171111106873
1749048192.4868953,4.237771034240723,-1.225101725464203,-1.544805884361267,-4.112683912316793,4.399939060211182,-2.648762051259176,-0.17845655977725983,0.004512351471930742,-0.04359214007854462,0.08483603596687317,0.10455833375453949,-0.1686091274023056,-0.4146198630332947,0.5568949580192566,0.6745723485946655,0.3219696581363678,0.2815707325935364,-0.26336783170700073
1749048192.4869318,4.237439155578613,-1.2251243454268952,-1.544886827468872,-4.112480779687399,4.400161266326904,-2.6490827242480677,-0.18048448860645294,0.004034008830785751,-0.043905872851610184,0.08373360335826874,0.10567633807659149,-0.1697336733341217,-0.43357381224632263,0.5974962115287781,0.6655009984970093,0.31807827949523926,0.27312350273132324,-0.28615203499794006
1749048192.4869678,4.237439155578613,-1.2251243454268952,-1.544886827468872,-4.112480779687399,4.400161266326904,-2.6490827242480677,-0.18048448860645294,0.004034008830785751,-0.043905872851610184,0.08373360335826874,0.10567633807659149,-0.1697336733341217,-0.43357381224632263,0.5974962115287781,0.6655009984970093,0.31807827949523926,0.27312350273132324,-0.28615203499794006
1749048192.4870038,4.236703395843506,-1.2250779432109375,-1.545066475868225,-4.112207551995748,4.400572299957275,-2.6497398058520716,-0.1849590688943863,0.005336473695933819,-0.044696129858493805,0.08433075994253159,0.11086966842412949,-0.17988327145576477,-0.4372507631778717,0.5856096148490906,0.678260326385498,0.3488961458206177,0.2875995934009552,-0.3037096858024597
1749048192.48704,4.236354351043701,-1.2251121562770386,-1.545162320137024,-4.112035652200216,4.400790691375732,-2.6501291433917444,-0.1851108968257904,0.005873177200555801,-0.04469472914934158,0.08678319305181503,0.11294778436422348,-0.18135157227516174,-0.4375377297401428,0.5595769882202148,0.6701573133468628,0.3524949848651886,0.2972317934036255,-0.29563990235328674
1749048192.4870758,4.236354351043701,-1.2251121562770386,-1.545162320137024,-4.112035652200216,4.400790691375732,-2.6501291433917444,-0.1851108968257904,0.005873177200555801,-0.04469472914934158,0.08678319305181503,0.11294778436422348,-0.18135157227516174,-0.4375377297401428,0.5595769882202148,0.6701573133468628,0.3524949848651886,0.2972317934036255,-0.29563990235328674
1749048192.487112,4.235568523406982,-1.2250468891910096,-1.545345664024353,-4.111690422097677,4.401275634765625,-2.650904957448141,-0.18888141214847565,0.004911674652248621,-0.04579747095704079,0.09007550030946732,0.11640344560146332,-0.18852737545967102,-0.46297359466552734,0.5812196731567383,0.6851532459259033,0.34285640716552734,0.2593618631362915,-0.2651272118091583
1749048192.4872172,4.235568523406982,-1.2250468891910096,-1.545345664024353,-4.111690422097677,4.401275634765625,-2.650904957448141,-0.18888141214847565,0.004911674652248621,-0.04579747095704079,0.09007550030946732,0.11640344560146332,-0.18852737545967102,-0.46297359466552734,0.5812196731567383,0.6851532459259033,0.34285640716552734,0.2593618631362915,-0.2651272118091583
1749048192.4887571,4.234854698181152,-1.2250572603992005,-1.5455374717712402,-4.111313959161276,4.401775360107422,-2.65165883699526,-0.19111520051956177,0.005092510487884283,-0.04687514528632164,0.09270220249891281,0.1179133951663971,-0.1918909102678299,-0.4534577429294586,0.5926194787025452,0.6721543669700623,0.34623438119888306,0.2581462860107422,-0.2571227252483368
1749048192.5343046,4.234401702880859,-1.2250488561442872,-1.545602560043335,-4.111106296578878,4.401938438415527,-2.6520448366748255,-0.19467410445213318,0.005186018534004688,-0.04682184010744095,0.0953783243894577,0.1178167387843132,-0.1868385672569275,-0.44463929533958435,0.5791459679603577,0.6857306361198425,0.3275879919528961,0.26380330324172974,-0.2924010753631592
1749048192.5343502,4.234401702880859,-1.2250488561442872,-1.545602560043335,-4.111106296578878,4.401938438415527,-2.6520448366748255,-0.19467410445213318,0.005186018534004688,-0.04682184010744095,0.0953783243894577,0.1178167387843132,-0.1868385672569275,-0.44463929533958435,0.5791459679603577,0.6857306361198425,0.3275879919528961,0.26380330324172974,-0.2924010753631592
1749048192.53439,4.233625411987305,-1.2250245374492188,-1.5458097457885742,-4.110695501367086,4.402410507202148,-2.6528402010547083,-0.1951342672109604,0.005525297485291958,-0.04790540412068367,0.09691149741411209,0.11912236362695694,-0.19015735387802124,-0.4234796166419983,0.5836843848228455,0.6830645799636841,0.32597512006759644,0.2815128564834595,-0.2929439842700958
1749048192.5344336,4.233217716217041,-1.2250160735896607,-1.5459253787994385,-4.110525270501608,4.402676105499268,-2.653250757847921,-0.19684666395187378,0.005222236271947622,-0.04837510734796524,0.09596392512321472,0.11637482047080994,-0.19392429292201996,-0.43054720759391785,0.5736247301101685,0.6822512149810791,0.33767199516296387,0.3080887198448181,-0.300136923789978
1749048192.5344725,4.232860088348389,-1.2250126165202637,-1.5460177659988403,-4.1103297672667445,4.4029130935668945,-2.65358812013735,-0.19952891767024994,0.004499322734773159,-0.0486748106777668,0.0964721143245697,0.11754190921783447,-0.19996143877506256,-0.45118004083633423,0.5849401950836182,0.6774351596832275,0.33666300773620605,0.30957600474357605,-0.26351743936538696
1749048192.5345118,4.2324538230896,-1.2250195008567353,-1.5461134910583496,-4.110140939752096,4.403188228607178,-2.653989617024557,-0.20181089639663696,0.0045413910411298275,-0.04860701039433479,0.0973881259560585,0.12371902912855148,-0.20634420216083527,-0.47389447689056396,0.5950431823730469,0.6720058917999268,0.3370722830295563,0.28534841537475586,-0.26321038603782654
1749048192.5345497,4.2324538230896,-1.2250195008567353,-1.5461134910583496,-4.110140939752096,4.403188228607178,-2.653989617024557,-0.20181089639663696,0.0045413910411298275,-0.04860701039433479,0.0973881259560585,0.12371902912855148,-0.20634420216083527,-0.47389447689056396,0.5950431823730469,0.6720058917999268,0.3370722830295563,0.28534841537475586,-0.26321038603782654
1749048192.53459,4.231601715087891,-1.224992261534073,-1.5463056564331055,-4.109741350213522,4.403698921203613,-2.6548293272601526,-0.2059275209903717,0.0059810481034219265,-0.051013313233852386,0.09860099852085114,0.12588682770729065,-0.20716625452041626,-0.41655242443084717,0.5612021088600159,0.7058632969856262,0.331054151058197,0.2552627921104431,-0.23200424015522003
1749048192.5346282,4.231252193450928,-1.2249373954585572,-1.5464051961898804,-4.109532495538229,4.403944969177246,-2.6552277247058313,-0.20582659542560577,0.005893831141293049,-0.048373032361269,0.09799335896968842,0.12672476470470428,-0.20501607656478882,-0.4497291147708893,0.5544157028198242,0.6681824922561646,0.3433466851711273,0.26313066482543945,-0.24144460260868073
1749048192.534674,4.231252193450928,-1.2249373954585572,-1.5464051961898804,-4.109532495538229,4.403944969177246,-2.6552277247058313,-0.20582659542560577,0.005893831141293049,-0.048373032361269,0.09799335896968842,0.12672476470470428,-0.20501607656478882,-0.4497291147708893,0.5544157028198242,0.6681824922561646,0.3433466851711273,0.26313066482543945,-0.24144460260868073
1749048192.5347188,4.230388164520264,-1.2249562305263062,-1.546608805656433,-4.109151741067404,4.404419898986816,-2.6560407320605677,-0.21012753248214722,0.0043947347439825535,-0.049778811633586884,0.0991443619132042,0.1266522854566574,-0.20170019567012787,-0.4384927749633789,0.5831446051597595,0.6619145274162292,0.36025816202163696,0.2668861150741577,-0.2864314317703247
1749048192.5347648,4.230388164520264,-1.2249562305263062,-1.546608805656433,-4.109151741067404,4.404419898986816,-2.6560407320605677,-0.21012753248214722,0.0043947347439825535,-0.049778811633586884,0.0991443619132042,0.1266522854566574,-0.20170019567012787,-0.4384927749633789,0.5831446051597595,0.6619145274162292,0.36025816202163696,0.2668861150741577,-0.2864314317703247
1749048192.534803,4.22953987121582,-1.224913315182068,-1.5468122959136963,-4.108727832833761,4.404951095581055,-2.6568599382983606,-0.21438780426979065,0.004958344157785177,-0.05061197280883789,0.1029365286231041,0.13150827586650848,-0.20760579407215118,-0.4338392913341522,0.607600212097168,0.6728960275650024,0.3639928102493286,0.2640422582626343,-0.3161832094192505
1749048192.53484,4.229128360748291,-1.2249202293208619,-1.5469295978546143,-4.108538528481954,4.405224800109863,-2.657271210347311,-0.21660202741622925,0.0057397265918552876,-0.049930036067962646,0.10374369472265244,0.13174141943454742,-0.21378706395626068,-0.4269956648349762,0.5804404616355896,0.6373875141143799,0.3566845655441284,0.23374341428279877,-0.319536417722702
1749048192.5348778,4.229128360748291,-1.2249202293208619,-1.5469295978546143,-4.108538528481954,4.405224800109863,-2.657271210347311,-0.21660202741622925,0.0057397265918552876,-0.049930036067962646,0.10374369472265244,0.13174141943454742,-0.21378706395626068,-0.4269956648349762,0.5804404616355896,0.6373875141143799,0.3566845655441284,0.23374341428279877,-0.319536417722702
1749048192.534914,4.228235721588135,-1.2249048513225098,-1.5471402406692505,-4.1081301174559535,4.405699729919434,-2.6581974665271204,-0.21683315932750702,0.00532964151352644,-0.05283799022436142,0.1093222051858902,0.1314268261194229,-0.22188957035541534,-0.462579607963562,0.5643762946128845,0.6425234079360962,0.32661187648773193,0.27335628867149353,-0.27360573410987854
1749048192.534951,4.227768898010254,-1.2248584491065522,-1.5472406148910522,-4.107929130593771,4.405988693237305,-2.6586509386645716,-0.2196934074163437,0.004489116370677948,-0.05335572734475136,0.10673590004444122,0.13320182263851166,-0.22364093363285065,-0.4776719808578491,0.5893636345863342,0.6631336808204651,0.3493497967720032,0.2741236686706543,-0.2642001211643219
1749048192.5349874,4.227768898010254,-1.2248584491065522,-1.5472406148910522,-4.107929130593771,4.405988693237305,-2.6586509386645716,-0.2196934074163437,0.004489116370677948,-0.05335572734475136,0.10673590004444122,0.13320182263851166,-0.22364093363285065,-0.4776719808578491,0.5893636345863342,0.6631336808204651,0.3493497967720032,0.2741236686706543,-0.2642001211643219
1749048192.5350246,4.226884841918945,-1.22488425791774,-1.5474603176116943,-4.107437034646505,4.4065423011779785,-2.6594701449023646,-0.2240372896194458,0.005237301345914602,-0.054085779935121536,0.10980451107025146,0.13204547762870789,-0.22167974710464478,-0.47258272767066956,0.6186920404434204,0.6450398564338684,0.3488956093788147,0.29161304235458374,-0.2886427938938141
1749048192.5350618,4.226884841918945,-1.22488425791774,-1.5474603176116943,-4.107437034646505,4.4065423011779785,-2.6594701449023646,-0.2240372896194458,0.005237301345914602,-0.054085779935121536,0.10980451107025146,0.13204547762870789,-0.22167974710464478,-0.47258272767066956,0.6186920404434204,0.6450398564338684,0.3488956093788147,0.29161304235458374,-0.2886427938938141
1749048192.5350983,4.2259345054626465,-1.2248482269099732,-1.5476680994033813,-4.107012411157125,4.407027721405029,-2.6604164282428187,-0.22531607747077942,0.006513153202831745,-0.05463619902729988,0.10898304730653763,0.13587480783462524,-0.22589613497257233,-0.4454410970211029,0.5924482345581055,0.6589624881744385,0.33898407220840454,0.303705096244812,-0.3146439492702484
1749048192.5351355,4.2259345054626465,-1.2248482269099732,-1.5476680994033813,-4.107012411157125,4.407027721405029,-2.6604164282428187,-0.22531607747077942,0.006513153202831745,-0.05463619902729988,0.10898304730653763,0.13587480783462524,-0.22589613497257233,-0.4454410970211029,0.5924482345581055,0.6589624881744385,0.33898407220840454,0.303705096244812,-0.3146439492702484
1749048192.5352397,4.225520133972168,-1.2248363059810181,-1.5477803945541382,-4.106799026528829,4.407361030578613,-2.6608639399157923,-0.2255104035139084,0.006028276868164539,-0.056940872222185135,0.10990951955318451,0.138456791639328,-0.23391279578208923,-0.479376882314682,0.5639021396636963,0.6743504405021667,0.3371593952178955,0.2966373562812805,-0.2748836874961853
1749048192.5367844,4.22456169128418,-1.2248482269099732,-1.5479841232299805,-4.106353899041647,4.40791130065918,-2.6617990175830286,-0.23164325952529907,0.005799700506031513,-0.054333798587322235,0.1118517592549324,0.14147457480430603,-0.23704923689365387,-0.4347430467605591,0.5908461809158325,0.6418981552124023,0.3331889808177948,0.2736157178878784,-0.20663101971149445
1749048192.5785754,4.224090576171875,-1.224789873962738,-1.5481199026107788,-4.106134553948873,4.40822696685791,-2.6622727552997034,-0.23338475823402405,0.0067959800362586975,-0.05510716512799263,0.11052177101373672,0.14224611222743988,-0.23176230490207672,-0.47700947523117065,0.6016861796379089,0.6355335712432861,0.3340126872062683,0.2657773792743683,-0.2610878050327301
1749048192.578656,4.224090576171875,-1.224789873962738,-1.5481199026107788,-4.106134553948873,4.40822696685791,-2.6622727552997034,-0.23338475823402405,0.0067959800362586975,-0.05510716512799263,0.11052177101373672,0.14224611222743988,-0.23176230490207672,-0.47700947523117065,0.6016861796379089,0.6355335712432861,0.3340126872062683,0.2657773792743683,-0.2610878050327301
1749048192.5787299,4.223170280456543,-1.2247884434512635,-1.5483357906341553,-4.105733057061666,4.408785820007324,-2.6632092634784144,-0.23595477640628815,0.006369333248585463,-0.05631904676556587,0.11636010557413101,0.14456433057785034,-0.22983603179454803,-0.5116118788719177,0.5763922333717346,0.6391123533248901,0.3368873596191406,0.25425851345062256,-0.31634601950645447
1749048192.578803,4.223170280456543,-1.2247884434512635,-1.5483357906341553,-4.105733057061666,4.408785820007324,-2.6632092634784144,-0.23595477640628815,0.006369333248585463,-0.05631904676556587,0.11636010557413101,0.14456433057785034,-0.22983603179454803,-0.5116118788719177,0.5763922333717346,0.6391123533248901,0.3368873596191406,0.25425851345062256,-0.31634601950645447
1749048192.5788748,4.222214221954346,-1.2247797411731263,-1.548563838005066,-4.105260749856466,4.409414768218994,-2.6641057173358362,-0.2425844520330429,0.00546666793525219,-0.05739976838231087,0.11418508738279343,0.1453561931848526,-0.23649747669696808,-0.48031920194625854,0.6015115976333618,0.622433602809906,0.369635671377182,0.24528846144676208,-0.32181060314178467
1749048192.578945,4.2217116355896,-1.2247248452952881,-1.548687219619751,-4.105028768579,4.409689903259277,-2.6645715872394007,-0.2444150447845459,0.006171806715428829,-0.05790244787931442,0.11886517703533173,0.14278070628643036,-0.2419484555721283,-0.4684048295021057,0.5725359916687012,0.6296056509017944,0.3477119505405426,0.27702605724334717,-0.30373895168304443
1749048192.5790153,4.2217116355896,-1.2247248452952881,-1.548687219619751,-4.105028768579,4.409689903259277,-2.6645715872394007,-0.2444150447845459,0.006171806715428829,-0.05790244787931442,0.11886517703533173,0.14278070628643036,-0.2419484555721283,-0.4684048295021057,0.5725359916687012,0.6296056509017944,0.3477119505405426,0.27702605724334717,-0.30373895168304443
1749048192.579085,4.220684051513672,-1.224709467296936,-1.5489078760147095,-4.104547401467794,4.410236358642578,-2.6656256357776087,-0.24546729028224945,0.005881934426724911,-0.05923767015337944,0.12032215297222137,0.14747075736522675,-0.24770943820476532,-0.47813695669174194,0.5865325927734375,0.6149501800537109,0.3685053586959839,0.2431889921426773,-0.27600646018981934
1749048192.5791557,4.220180511474609,-1.224712924366333,-1.549066185951233,-4.104288717309469,4.410527229309082,-2.6661022345172327,-0.24364012479782104,0.0054880958050489426,-0.060087237507104874,0.12165220081806183,0.1475820392370224,-0.2454075813293457,-0.5366296172142029,0.612866997718811,0.6238000988960266,0.3544020354747772,0.28016871213912964,-0.2618201971054077
1749048192.5792253,4.2196807861328125,-1.2247042220881958,-1.549151062965393,-4.104051013986105,4.4108052253723145,-2.666565243397848,-0.2475092113018036,0.005764583591371775,-0.06053899973630905,0.12307888269424438,0.14851976931095123,-0.2483249306678772,-0.5137627124786377,0.6184632778167725,0.6194859147071838,0.3463054895401001,0.2954517602920532,-0.3051135241985321
1749048192.579295,4.219254493713379,-1.2246854168227692,-1.5492870807647705,-4.103779932061666,4.4111008644104,-2.6670430342303675,-0.2503814399242401,0.0067580691538751125,-0.061147090047597885,0.12464198470115662,0.15015269815921783,-0.24871493875980377,-0.49322980642318726,0.6069013476371765,0.6222124695777893,0.35563528537750244,0.2939174771308899,-0.29498952627182007
1749048192.57934,4.219254493713379,-1.2246854168227692,-1.5492870807647705,-4.103779932061666,4.4111008644104,-2.6670430342303675,-0.2503814399242401,0.0067580691538751125,-0.061147090047597885,0.12464198470115662,0.15015269815921783,-0.24871493875980377,-0.49322980642318726,0.6069013476371765,0.6222124695777893,0.35563528537750244,0.2939174771308899,-0.29498952627182007
1749048192.5793781,4.218195915222168,-1.224630520944931,-1.5494952201843262,-4.103322168389791,4.411728382110596,-2.668081823979513,-0.2523302435874939,0.006503628566861153,-0.06214713677763939,0.12183105945587158,0.15294894576072693,-0.2594972848892212,-0.5072429180145264,0.5837879180908203,0.6226641535758972,0.3371679484844208,0.305334210395813,-0.269410103559494
1749048192.5794158,4.217672824859619,-1.2246374648860474,-1.5496279001235962,-4.103034635583395,4.412022113800049,-2.66862398782839,-0.25137150287628174,0.006041482090950012,-0.06262610107660294,0.12174031138420105,0.15956038236618042,-0.26057660579681396,-0.500968873500824,0.6004810333251953,0.6271550059318542,0.36935868859291077,0.26078787446022034,-0.26732221245765686
1749048192.5794535,4.217672824859619,-1.2246374648860474,-1.5496279001235962,-4.103034635583395,4.412022113800049,-2.66862398782839,-0.25137150287628174,0.006041482090950012,-0.06262610107660294,0.12174031138420105,0.15956038236618042,-0.26057660579681396,-0.500968873500824,0.6004810333251953,0.6271550059318542,0.36935868859291077,0.26078787446022034,-0.26732221245765686
1749048192.579491,4.216656684875488,-1.224620298748352,-1.5498552322387695,-4.102573057214254,4.412686824798584,-2.6696346441852015,-0.256050169467926,0.006682530045509338,-0.06283196061849594,0.12333643436431885,0.15697722136974335,-0.2567068934440613,-0.5151062607765198,0.5957003235816956,0.5978717803955078,0.35100236535072327,0.2857515811920166,-0.25661179423332214
1749048192.5795293,4.216656684875488,-1.224620298748352,-1.5498552322387695,-4.102573057214254,4.412686824798584,-2.6696346441852015,-0.256050169467926,0.006682530045509338,-0.06283196061849594,0.12333643436431885,0.15697722136974335,-0.2567068934440613,-0.5151062607765198,0.5957003235816956,0.5978717803955078,0.35100236535072327,0.2857515811920166,-0.25661179423332214
1749048192.579566,4.215546131134033,-1.224592999821045,-1.550130844116211,-4.102068086663717,4.413332939147949,-2.670702044163839,-0.26233720779418945,0.006886431947350502,-0.06308072805404663,0.12601345777511597,0.15779122710227966,-0.2565273642539978,-0.47823840379714966,0.5927640795707703,0.5873277187347412,0.3501662611961365,0.2746369242668152,-0.33025747537612915
1749048192.5796046,4.215112209320068,-1.224577621822693,-1.5502822399139404,-4.10179938892507,4.413679599761963,-2.6712051073657435,-0.26203683018684387,0.006371922325342894,-0.06410163640975952,0.12793362140655518,0.159129336476326,-0.26157841086387634,-0.5350797176361084,0.6055760979652405,0.6064757704734802,0.35559600591659546,0.2761879563331604,-0.30716612935066223
1749048192.5796413,4.215112209320068,-1.224577621822693,-1.5502822399139404,-4.10179938892507,4.413679599761963,-2.6712051073657435,-0.26203683018684387,0.006371922325342894,-0.06410163640975952,0.12793362140655518,0.159129336476326,-0.26157841086387634,-0.5350797176361084,0.6055760979652405,0.6064757704734802,0.35559600591659546,0.2761879563331604,-0.30716612935066223
1749048192.579755,4.214561462402344,-1.2245416206172486,-1.5504024028778076,-4.101535697976583,4.41401481628418,-2.6716976801501673,-0.2646028399467468,0.007177341729402542,-0.06427354365587234,0.12861773371696472,0.16101719439029694,-0.2653557360172272,-0.5362264513969421,0.5978884696960449,0.5712317228317261,0.3731479048728943,0.25030142068862915,-0.2861208915710449
1749048192.5808265,4.213466167449951,-1.2245450776866456,-1.5506504774093628,-4.101014276544088,4.414653301239014,-2.6727967897998255,-0.27116328477859497,0.007710351143032312,-0.06549916416406631,0.12895789742469788,0.16305522620677948,-0.26648107171058655,-0.5190577507019043,0.5848889350891113,0.5921140909194946,0.3625354468822479,0.2800180912017822,-0.2713187038898468
1749048192.6222713,4.213466167449951,-1.2245450776866456,-1.5506504774093628,-4.101014276544088,4.414653301239014,-2.6727967897998255,-0.27116328477859497,0.007710351143032312,-0.06549916416406631,0.12895789742469788,0.16305522620677948,-0.26648107171058655,-0.5190577507019043,0.5848889350891113,0.5921140909194946,0.3625354468822479,0.2800180912017822,-0.2713187038898468
1749048192.6223166,4.212426662445068,-1.2245053809932251,-1.5509417057037354,-4.100489755670065,4.41530179977417,-2.6738579908954065,-0.2718547284603119,0.006568049546331167,-0.07163485139608383,0.1359328031539917,0.1612495630979538,-0.2682592570781708,-0.4812866151332855,0.5998926162719727,0.6358089447021484,0.3439686894416809,0.2898404896259308,-0.33060964941978455
1749048192.6223593,4.211896896362305,-1.2244589489749451,-1.5510897636413574,-4.100213428536886,4.4156413078308105,-2.674443070088522,-0.27643296122550964,0.007242098916321993,-0.06936467438936234,0.133311465382576,0.1628427803516388,-0.2738761603832245,-0.5889763236045837,0.593134880065918,0.6266972422599792,0.3349533975124359,0.30317211151123047,-0.35193705558776855
1749048192.6224015,4.211333274841309,-1.2244609159282227,-1.55122971534729,-4.0999492607512416,4.415987968444824,-2.6750004927264612,-0.2818675935268402,0.007576297968626022,-0.07041969150304794,0.13524717092514038,0.16827715933322906,-0.28007084131240845,-0.49138349294662476,0.5744094848632812,0.6176968812942505,0.3364964425563812,0.27355748414993286,-0.27636706829071045
1749048192.6224399,4.2108235359191895,-1.224411056642868,-1.5513336658477783,-4.099684616128439,4.416346073150635,-2.6755669752704065,-0.282626748085022,0.007243376690894365,-0.07075044512748718,0.13393725454807281,0.16921314597129822,-0.28331491351127625,-0.45159703493118286,0.573958158493042,0.6222279667854309,0.33872148394584656,0.2510125935077667,-0.2720284163951874
1749048192.6224778,4.2108235359191895,-1.224411056642868,-1.5513336658477783,-4.099684616128439,4.416346073150635,-2.6755669752704065,-0.282626748085022,0.007243376690894365,-0.07075044512748718,0.13393725454807281,0.16921314597129822,-0.28331491351127625,-0.45159703493118286,0.573958158493042,0.6222279667854309,0.33872148394584656,0.2510125935077667,-0.2720284163951874
1749048192.6225247,4.209657192230225,-1.224455938940384,-1.5516254901885986,-4.099128385583395,4.417020320892334,-2.676696840916769,-0.27915239334106445,0.006443528458476067,-0.06981608271598816,0.13286007940769196,0.17128096520900726,-0.27828750014305115,-0.5759210586547852,0.6026470065116882,0.6136147975921631,0.3508221507072449,0.23634475469589233,-0.27389949560165405
1749048192.6225808,4.209123611450195,-1.2244164508632203,-1.5517849922180176,-4.098878999749655,4.41732120513916,-2.6772781054126185,-0.28660848736763,0.006204152945429087,-0.06939581781625748,0.13293303549289703,0.16607174277305603,-0.278665691614151,-0.513828694820404,0.5937989354133606,0.5934311151504517,0.3708087205886841,0.2642780840396881,-0.2830658555030823
1749048192.6226225,4.209123611450195,-1.2244164508632203,-1.5517849922180176,-4.098878999749655,4.41732120513916,-2.6772781054126185,-0.28660848736763,0.006204152945429087,-0.06939581781625748,0.13293303549289703,0.16607174277305603,-0.278665691614151,-0.513828694820404,0.5937989354133606,0.5934311151504517,0.3708087205886841,0.2642780840396881,-0.2830658555030823
1749048192.622661,4.20793342590332,-1.2243853968432923,-1.552045226097107,-4.098325868646139,4.418015003204346,-2.678406540547506,-0.2891700565814972,0.006272852420806885,-0.07066897302865982,0.13594987988471985,0.167531356215477,-0.280612051486969,-0.47742828726768494,0.5967093110084534,0.6236153841018677,0.34443730115890503,0.28685176372528076,-0.30864569544792175
1749048192.6227102,4.207367897033691,-1.2243546706489106,-1.5521854162216187,-4.098061462441915,4.418349742889404,-2.678946558629171,-0.28637072443962097,0.006462885998189449,-0.07247215509414673,0.1376979649066925,0.1701020896434784,-0.2830639183521271,-0.5641987323760986,0.6156911253929138,0.6254615187644958,0.35311466455459595,0.31402748823165894,-0.30340576171875
1749048192.6227527,4.20681095123291,-1.2243853968432923,-1.5523329973220825,-4.097773214379782,4.418719291687012,-2.679519240056173,-0.2921935021877289,0.007427017670124769,-0.07606680691242218,0.14295798540115356,0.1733214557170868,-0.28645074367523193,-0.5703887343406677,0.5771449208259583,0.6811420917510986,0.35113897919654846,0.2886199653148651,-0.2950080335140228
1749048192.6227987,4.206171989440918,-1.2243496936610718,-1.5524771213531494,-4.097487827340597,4.419040203094482,-2.6800625959979456,-0.2970440983772278,0.008022335357964039,-0.07366809248924255,0.1401090919971466,0.17633967101573944,-0.28553617000579834,-0.5146409273147583,0.5887174010276794,0.6486298441886902,0.35282817482948303,0.280255526304245,-0.33154839277267456
1749048192.6228373,4.206171989440918,-1.2243496936610718,-1.5524771213531494,-4.097487827340597,4.419040203094482,-2.6800625959979456,-0.2970440983772278,0.008022335357964039,-0.07366809248924255,0.1401090919971466,0.17633967101573944,-0.28553617000579834,-0.5146409273147583,0.5887174010276794,0.6486298441886902,0.35282817482948303,0.280255526304245,-0.33154839277267456
1749048192.6228747,4.205034255981445,-1.2243220967105408,-1.552764654159546,-4.09689249614858,4.419763088226318,-2.681241575871603,-0.2974725365638733,0.007806351408362389,-0.07501602917909622,0.14255642890930176,0.17424464225769043,-0.2900058329105377,-0.4948686361312866,0.6083263158798218,0.6604289412498474,0.32314398884773254,0.300744891166687,-0.36137962341308594
1749048192.6229115,4.205034255981445,-1.2243220967105408,-1.552764654159546,-4.09689249614858,4.419763088226318,-2.681241575871603,-0.2974725365638733,0.007806351408362389,-0.07501602917909622,0.14255642890930176,0.17424464225769043,-0.2900058329105377,-0.4948686361312866,0.6083263158798218,0.6604289412498474,0.32314398884773254,0.300744891166687,-0.36137962341308594
1749048192.6229517,4.203904628753662,-1.2243052285960694,-1.553084373474121,-4.096290727654928,4.420480728149414,-2.6824174563037317,-0.3025389313697815,0.008136867545545101,-0.07499998062849045,0.14315132796764374,0.17907825112342834,-0.29731515049934387,-0.48210692405700684,0.6043940782546997,0.6729636192321777,0.33895689249038696,0.2731926441192627,-0.29782965779304504
1749048192.6229894,4.203222751617432,-1.2242776912501832,-1.5532360076904297,-4.095983644525045,4.420806407928467,-2.6830161253558558,-0.30390530824661255,0.0077825249172747135,-0.07467279583215714,0.14377517998218536,0.18091262876987457,-0.2967241108417511,-0.4813491404056549,0.5874360799789429,0.6622768640518188,0.30704644322395325,0.2792074382305145,-0.3121481239795685
1749048192.6230264,4.203222751617432,-1.2242776912501832,-1.5532360076904297,-4.095983644525045,4.420806407928467,-2.6830161253558558,-0.30390530824661255,0.0077825249172747135,-0.07467279583215714,0.14377517998218536,0.18091262876987457,-0.2967241108417511,-0.4813491404056549,0.5874360799789429,0.6622768640518188,0.30704644322395325,0.2792074382305145,-0.3121481239795685
1749048192.623063,4.202653884887695,-1.224269227390625,-1.553383708000183,-4.0957073173918666,4.421195030212402,-2.68363863626589,-0.30274346470832825,0.008131816051900387,-0.07388880848884583,0.14289285242557526,0.18315313756465912,-0.2970093786716461,-0.49368536472320557,0.5952438116073608,0.6540892124176025,0.30680742859840393,0.26072958111763,-0.29000890254974365
1749048192.6231658,4.201413154602051,-1.2242449086955567,-1.5536365509033203,-4.095111509362692,4.421921253204346,-2.684807364140646,-0.3053608238697052,0.007644293364137411,-0.07283692061901093,0.14273041486740112,0.18467509746551514,-0.2998094856739044,-0.5224202275276184,0.5723037719726562,0.6198533177375793,0.31865644454956055,0.26023221015930176,-0.33076316118240356
1749048192.6247587,4.201413154602051,-1.2242449086955567,-1.5536365509033203,-4.095111509362692,4.421921253204346,-2.684807364140646,-0.3053608238697052,0.007644293364137411,-0.07283692061901093,0.14273041486740112,0.18467509746551514,-0.2998094856739044,-0.5224202275276184,0.5723037719726562,0.6198533177375793,0.31865644454956055,0.26023221015930176,-0.33076316118240356
1749048192.6703227,4.200785160064697,-1.224214182501175,-1.5537846088409424,-4.094823976556295,4.422303676605225,-2.6853986422168177,-0.3086874186992645,0.007086333818733692,-0.07341194897890091,0.14245788753032684,0.18461625277996063,-0.30114057660102844,-0.4930214285850525,0.5959485173225403,0.6131260991096497,0.3293059766292572,0.2612878680229187,-0.33083751797676086
1749048192.6703696,4.200199604034424,-1.2242399019053956,-1.553924560546875,-4.094570776025289,4.422680377960205,-2.6860314051257532,-0.30970299243927,0.007247766479849815,-0.0740983784198761,0.14601705968379974,0.18394266068935394,-0.30414074659347534,-0.4816872477531433,0.599868893623352,0.611941397190094,0.3084116578102112,0.26488661766052246,-0.32605716586112976
1749048192.6704094,4.198945045471191,-1.2242004436305542,-1.5542399883270264,-4.093960424462789,4.423410892486572,-2.687248770390646,-0.309182733297348,0.007455636281520128,-0.07667159289121628,0.1451682597398758,0.18690715730190277,-0.3052087724208832,-0.5021427273750305,0.6063129305839539,0.6439225673675537,0.3202964961528778,0.2639583945274353,-0.30140191316604614
1749048192.670448,4.198344707489014,-1.2241662603667756,-1.5543841123580933,-4.0936719379820765,4.423793792724609,-2.687824074422018,-0.31237563490867615,0.007292648311704397,-0.07692167162895203,0.14920970797538757,0.19002659618854523,-0.3068574070930481,-0.45348429679870605,0.6198922991752625,0.638308048248291,0.317370742559433,0.22363701462745667,-0.33948272466659546
1749048192.670486,4.198344707489014,-1.2241662603667756,-1.5543841123580933,-4.0936719379820765,4.423793792724609,-2.687824074422018,-0.31237563490867615,0.007292648311704397,-0.07692167162895203,0.14920970797538757,0.19002659618854523,-0.3068574070930481,-0.45348429679870605,0.6198922991752625,0.638308048248291,0.317370742559433,0.22363701462745667,-0.33948272466659546
1749048192.670537,4.197103977203369,-1.2241183382323761,-1.5547150373458862,-4.093088050881857,4.424539089202881,-2.689070526753561,-0.31312304735183716,0.007802662439644337,-0.07964115589857101,0.14516443014144897,0.18597474694252014,-0.3112952411174774,-0.49324679374694824,0.6229507327079773,0.6728454232215881,0.3212239444255829,0.2698252201080322,-0.32127606868743896
1749048192.6705782,4.196467399597168,-1.2240838569453736,-1.5548629760742188,-4.092764993707174,4.4249420166015625,-2.6897392908679407,-0.3137776255607605,0.008079655468463898,-0.07815004885196686,0.1456131488084793,0.18714889883995056,-0.3128586709499359,-0.46965882182121277,0.5864987969398499,0.6544119119644165,0.3394168019294739,0.2710827589035034,-0.2726118564605713
1749048192.670616,4.196467399597168,-1.2240838569453736,-1.5548629760742188,-4.092764993707174,4.4249420166015625,-2.6897392908679407,-0.3137776255607605,0.008079655468463898,-0.07815004885196686,0.1456131488084793,0.18714889883995056,-0.3128586709499359,-0.46965882182121277,0.5864987969398499,0.6544119119644165,0.3394168019294739,0.2710827589035034,-0.2726118564605713
1749048192.670653,4.195818901062012,-1.2241165202907105,-1.5550072193145752,-4.092499633828634,4.425212383270264,-2.6903114954577845,-0.3150475323200226,0.008545735850930214,-0.07781361043453217,0.1459149867296219,0.1865917295217514,-0.3132684826850891,-0.48931050300598145,0.5965347290039062,0.6487786769866943,0.34532567858695984,0.2761666476726532,-0.29820555448532104
1749048192.670691,4.194496154785156,-1.2240581673434754,-1.5553034543991089,-4.091912170449728,4.425992965698242,-2.6916075388537806,-0.3131110668182373,0.00801031943410635,-0.0771838054060936,0.1456267386674881,0.1908084750175476,-0.3101928234100342,-0.4505407214164734,0.6059732437133789,0.6348775625228882,0.3326500356197357,0.2792397141456604,-0.3087024688720703
1749048192.670729,4.194496154785156,-1.2240581673434754,-1.5553034543991089,-4.091912170449728,4.425992965698242,-2.6916075388537806,-0.3131110668182373,0.00801031943410635,-0.0771838054060936,0.1456267386674881,0.1908084750175476,-0.3101928234100342,-0.4505407214164734,0.6059732437133789,0.6348775625228882,0.3326500356197357,0.2792397141456604,-0.3087024688720703
1749048192.670766,4.1932148933410645,-1.2240636211684723,-1.5556381940841675,-4.09134902576589,4.42682409286499,-2.6928468386279505,-0.31542909145355225,0.007572035770863295,-0.07702381908893585,0.1465190351009369,0.18947918713092804,-0.31246286630630493,-0.4758271872997284,0.6151090264320374,0.6406670808792114,0.3661942481994629,0.2931863069534302,-0.29480379819869995
1749048192.6708035,4.1932148933410645,-1.2240636211684723,-1.5556381940841675,-4.09134902576589,4.42682409286499,-2.6928468386279505,-0.31542909145355225,0.007572035770863295,-0.07702381908893585,0.1465190351009369,0.18947918713092804,-0.31246286630630493,-0.4758271872997284,0.6151090264320374,0.6406670808792114,0.3661942481994629,0.2931863069534302,-0.29480379819869995
1749048192.67084,4.19197416305542,-1.2240241926959534,-1.5559464693069458,-4.090717216531271,4.427574157714844,-2.6940789858447474,-0.3103633224964142,0.00780322402715683,-0.07894400507211685,0.15359768271446228,0.18925049901008606,-0.31209897994995117,-0.494894415140152,0.5823915004730225,0.655210554599762,0.32743510603904724,0.27094510197639465,-0.29041528701782227
1749048192.6708767,4.19137716293335,-1.2239740055850525,-1.5561174154281616,-4.090436597863668,4.42794132232666,-2.694733206425802,-0.31023988127708435,0.007503812666982412,-0.07646583020687103,0.15007442235946655,0.18852598965168,-0.31344643235206604,-0.5402852296829224,0.6165096163749695,0.6325609087944031,0.34994250535964966,0.2808017134666443,-0.30871421098709106
1749048192.6709135,4.19137716293335,-1.2239740055850525,-1.5561174154281616,-4.090436597863668,4.42794132232666,-2.694733206425802,-0.31023988127708435,0.007503812666982412,-0.07646583020687103,0.15007442235946655,0.18852598965168,-0.31344643235206604,-0.5402852296829224,0.6165096163749695,0.6325609087944031,0.34994250535964966,0.2808017134666443,-0.30871421098709106
1749048192.67095,4.190085411071777,-1.2239536804011841,-1.5564104318618774,-4.089796920815939,4.428677558898926,-2.695981566105978,-0.3165127635002136,0.008443973958492279,-0.08040020614862442,0.1515759825706482,0.18982718884944916,-0.3152603805065155,-0.4300076961517334,0.5744932889938354,0.6836403012275696,0.3146945834159851,0.2573005259037018,-0.27457544207572937
1749048192.6709862,4.190085411071777,-1.2239536804011841,-1.5564104318618774,-4.089796920815939,4.428677558898926,-2.695981566105978,-0.3165127635002136,0.008443973958492279,-0.08040020614862442,0.1515759825706482,0.18982718884944916,-0.3152603805065155,-0.4300076961517334,0.5744932889938354,0.6836403012275696,0.3146945834159851,0.2573005259037018,-0.27457544207572937
1749048192.6710231,4.18884801864624,-1.2239828568748017,-1.5567132234573364,-4.089170118371481,4.429494380950928,-2.6972528139697474,-0.3099497854709625,0.007061741314828396,-0.07740414887666702,0.15001708269119263,0.18654587864875793,-0.3128983974456787,-0.4632827639579773,0.5926694869995117,0.6526079177856445,0.3481452167034149,0.30234065651893616,-0.2909703850746155
1749048192.6710594,4.188169002532959,-1.2239399415305634,-1.556853175163269,-4.088869234124655,4.429861545562744,-2.6978521982776087,-0.31271201372146606,0.007376837078481913,-0.07721438258886337,0.1498471051454544,0.1912115514278412,-0.3096371293067932,-0.48616263270378113,0.5981800556182861,0.6441053748130798,0.33472105860710144,0.2643888592720032,-0.30224335193634033
1749048192.6710963,4.188169002532959,-1.2239399415305634,-1.556853175163269,-4.088869234124655,4.429861545562744,-2.6978521982776087,-0.31271201372146606,0.007376837078481913,-0.07721438258886337,0.1498471051454544,0.1912115514278412,-0.3096371293067932,-0.48616263270378113,0.5981800556182861,0.6441053748130798,0.33472105860710144,0.2643888592720032,-0.30224335193634033
1749048192.671133,4.186912536621094,-1.223919616346695,-1.557138204574585,-4.088285585443014,4.430606365203857,-2.6990929285632532,-0.3137814402580261,0.007885124534368515,-0.07601187378168106,0.15200775861740112,0.19281470775604248,-0.31214189529418945,-0.4634651839733124,0.5961847901344299,0.6203441023826599,0.3262006342411041,0.2492922991514206,-0.3051236569881439
1749048192.6712418,4.186305999755859,-1.2238851350596924,-1.5573129653930664,-4.0879885158934535,4.430946350097656,-2.6996918360339563,-0.3108194172382355,0.007017814088612795,-0.0766395553946495,0.15159113705158234,0.19125795364379883,-0.31570303440093994,-0.4683155119419098,0.6130262613296509,0.6241576075553894,0.32217487692832947,0.2707914113998413,-0.2798072397708893
1749048192.6727712,4.186305999755859,-1.2238851350596924,-1.5573129653930664,-4.0879885158934535,4.430946350097656,-2.6996918360339563,-0.3108194172382355,0.007017814088612795,-0.0766395553946495,0.15159113705158234,0.19125795364379883,-0.31570303440093994,-0.4683155119419098,0.6130262613296509,0.6241576075553894,0.32217487692832947,0.2707914113998413,-0.2798072397708893
1749048192.7143016,4.185035228729248,-1.223876641397812,-1.5576210021972656,-4.087416549722189,4.431708335876465,-2.7009812037097376,-0.31304731965065,0.007439424283802509,-0.07793967425823212,0.15054157376289368,0.19315075874328613,-0.31310904026031494,-0.4363378882408142,0.6006364226341248,0.6307276487350464,0.3426111936569214,0.2573601305484772,-0.2975844442844391
1749048192.7143617,4.185035228729248,-1.223876641397812,-1.5576210021972656,-4.087416549722189,4.431708335876465,-2.7009812037097376,-0.31304731965065,0.007439424283802509,-0.07793967425823212,0.15054157376289368,0.19315075874328613,-0.31310904026031494,-0.4363378882408142,0.6006364226341248,0.6307276487350464,0.3426111936569214,0.2573601305484772,-0.2975844442844391
1749048192.7144048,4.18441915512085,-1.2238218647292634,-1.5577811002731323,-4.087090154687399,4.432071685791016,-2.7016268412219446,-0.311494380235672,0.008162894286215305,-0.07850552350282669,0.1496744006872177,0.19149525463581085,-0.31408050656318665,-0.487626314163208,0.5732572078704834,0.6432029604911804,0.3387551009654999,0.2580547332763672,-0.3095591962337494
1749048192.7144444,4.183189392089844,-1.2237516802600403,-1.558088779449463,-4.086497684518331,4.432870388031006,-2.7028525511371058,-0.313326895236969,0.008057965897023678,-0.07958977669477463,0.15072180330753326,0.19378416240215302,-0.31743916869163513,-0.45704323053359985,0.5906561613082886,0.6735820770263672,0.323245644569397,0.28679516911506653,-0.287930965423584
1749048192.7144828,4.183189392089844,-1.2237516802600403,-1.558088779449463,-4.086497684518331,4.432870388031006,-2.7028525511371058,-0.313326895236969,0.008057965897023678,-0.07958977669477463,0.15072180330753326,0.19378416240215302,-0.31743916869163513,-0.45704323053359985,0.5906561613082886,0.6735820770263672,0.323245644569397,0.28679516911506653,-0.287930965423584
1749048192.7145212,4.182534217834473,-1.2237391930869599,-1.5582566261291504,-4.086217065850729,4.433253765106201,-2.7034595648394983,-0.3148578107357025,0.00832023099064827,-0.0794597864151001,0.15119823813438416,0.19196170568466187,-0.31641826033592224,-0.48233088850975037,0.5702896118164062,0.6702871918678284,0.3235941529273987,0.2722288966178894,-0.2609732151031494
1749048192.714558,4.181305885314941,-1.2237633925727387,-1.5585683584213257,-4.085597415963644,4.433932781219482,-2.704745594655172,-0.31286555528640747,0.008223206736147404,-0.078591488301754,0.1504882276058197,0.19166791439056396,-0.31005409359931946,-0.4653922915458679,0.5585428476333618,0.6713618040084839,0.33935046195983887,0.27306967973709106,-0.2775418162345886
1749048192.7145996,4.181305885314941,-1.2237633925727387,-1.5585683584213257,-4.085597415963644,4.433932781219482,-2.704745594655172,-0.31286555528640747,0.008223206736147404,-0.078591488301754,0.1504882276058197,0.19166791439056396,-0.31005409359931946,-0.4653922915458679,0.5585428476333618,0.6713618040084839,0.33935046195983887,0.27306967973709106,-0.2775418162345886
1749048192.7146475,4.180049419403076,-1.223701612358429,-1.5589230060577393,-4.0850411854186,4.434780597686768,-2.70597488084902,-0.3168858587741852,0.007531403098255396,-0.07960597425699234,0.14849303662776947,0.19320090115070343,-0.3086091876029968,-0.4530191719532013,0.574187159538269,0.6795990467071533,0.3536645770072937,0.28072670102119446,-0.32213273644447327
1749048192.7146866,4.17942476272583,-1.223701612358429,-1.5590754747390747,-4.084740539590353,4.435172080993652,-2.7065849939929407,-0.31559330224990845,0.007427508477121592,-0.07715826481580734,0.15210871398448944,0.1941296011209488,-0.3101310431957245,-0.4641530513763428,0.5632593035697937,0.6445863246917725,0.364283949136734,0.27351224422454834,-0.3135286867618561
1749048192.7147238,4.178816318511963,-1.223701612358429,-1.5592354536056519,-4.08444132427358,4.435582637786865,-2.707259003316061,-0.3149689733982086,0.007208977825939655,-0.07865386456251144,0.15107104182243347,0.1954895555973053,-0.30912652611732483,-0.4761776626110077,0.5893369317054749,0.6548324227333069,0.3588607609272003,0.22927851974964142,-0.28300726413726807
1749048192.7147608,4.178211212158203,-1.2236502927592774,-1.5593907833099365,-4.0841103992857875,4.43596887588501,-2.707916561757223,-0.3155253827571869,0.007482895627617836,-0.07933924347162247,0.15004105865955353,0.19453458487987518,-0.3101840317249298,-0.4864707589149475,0.5818887948989868,0.7044602036476135,0.3910335898399353,0.22781270742416382,-0.29201024770736694
1749048192.7147975,4.1775946617126465,-1.2236656111529847,-1.559546709060669,-4.083790203134054,4.436363697052002,-2.708550755177633,-0.3154800832271576,0.006927459500730038,-0.07813369482755661,0.15679016709327698,0.19044747948646545,-0.3095111548900604,-0.49906012415885925,0.5939162373542786,0.665012776851654,0.3500296175479889,0.24525007605552673,-0.29506444931030273
