nimar13/UR3e_dataset_trayectorias/trayectorias_ejecutadas/trapezoidal/trayectoria_153_result.csv
timestamp,q1,q2,q3,q4,q5,q6,qd1,qd2,qd3,qd4,qd5,qd6,tau1,tau2,tau3,tau4,tau5,tau6
1749050658.6822755,-0.5538848082171839,-0.5090395969203492,-0.9885482788085938,-2.116942068139547,-4.0894017855273646,-0.13197118440736944,-0.0005534992087632418,0.0005368844722397625,-0.005225642584264278,-0.002413705689832568,-0.017549384385347366,-0.0004842751659452915,-0.27050352096557617,-0.6797547340393066,0.05360295623540878,0.4078494608402252,-0.09309022128582001,-0.1506473273038864
1749050658.6823268,-0.5538609663592737,-0.509015755062439,-0.9885600209236145,-2.1169468365111292,-4.089438025151388,-0.13199168840517217,-0.0005088598118163645,0.0004153491754550487,-0.0039037864189594984,-0.00183371442835778,-0.016315432265400887,-0.00044737145071849227,-0.25667062401771545,-0.6849115490913391,0.04015360400080681,0.3819758892059326,-0.12161150574684143,-0.14998655021190643
1749050658.6823742,-0.553866211568014,-0.5090395969203492,-0.9885637760162354,-2.1169196567931117,-4.089473787938253,-0.13193017641176397,-0.00047079354408197105,0.0003732572658918798,-0.0027762979734688997,-0.0014606553595513105,-0.015179355628788471,-0.00045242454507388175,-0.2836465835571289,-0.6925013065338135,0.05123060569167137,0.41820359230041504,-0.09683194756507874,-0.1599760204553604
1749050658.6824133,-0.5538728872882288,-0.5090311330607911,-0.988591730594635,-2.116934915582174,-4.089513603840963,-0.1319645086871546,-0.000438076036516577,0.0002779430360533297,-0.001990085933357477,-0.0012115410063415766,-0.013369136489927769,-0.0004429412947501987,-0.2718590497970581,-0.6955246329307556,0.05859044939279556,0.4106980264186859,-0.1066758781671524,-0.15245608985424042
1749050658.6824508,-0.5538795630084437,-0.5090515178493042,-0.9885600209236145,-2.1169263325133265,-4.089553419743673,-0.13197595277895147,-0.0004661932762246579,0.00019416700524743646,-0.0014994575176388025,-0.0010351897217333317,-0.01152812223881483,-0.0004175150825176388,-0.2871902883052826,-0.7145425081253052,0.06638060510158539,0.4332948327064514,-0.06786547601222992,-0.17956604063510895
1749050658.682487,-0.5538609663592737,-0.5090738099864502,-0.988556444644928,-2.1169468365111292,-4.0895307699786585,-0.1319487730609339,-0.0004395056457724422,-0.00010269945778418332,-0.0011743465438485146,-0.000841763278003782,-0.00902667734771967,-0.00039219140307977796,-0.29823505878448486,-0.6883984208106995,0.0646434873342514,0.4260198771953583,-0.04409332573413849,-0.16480112075805664
1749050658.6825237,-0.5538881460772913,-0.5090515178493042,-0.9885954856872559,-2.1169196567931117,-4.089539114628927,-0.13197595277895147,-0.0003414795792195946,-0.0001858645846368745,-0.0009634378366172314,-0.0007112479070201516,-0.005731094628572464,-0.0003992058045696467,-0.2704165279865265,-0.7278025150299072,0.05793844535946846,0.4401141107082367,-0.04259401559829712,-0.1640699803829193
1749050658.68256,-0.5538972059832972,-0.5090360206416626,-0.988591730594635,-2.116942068139547,-4.089572254811422,-0.1320107618915003,-0.00035249567008577287,-0.00021585453941952437,-0.0008170758956111968,-0.0006330954493023455,-0.0034259643871337175,-0.00039464267319999635,-0.28580862283706665,-0.7267102599143982,0.08808816969394684,0.4458310902118683,-0.025282949209213257,-0.16955356299877167
1749050658.6825972,-0.5538509527789515,-0.5090792936137696,-0.9885600209236145,-2.116934915582174,-4.0895307699786585,-0.13194495836366826,-0.00034803347080014646,-0.00022007901861798018,-0.0006080917664803565,-0.000575183134060353,-0.0011660153977572918,-0.0003770316834561527,-0.25646644830703735,-0.7191261649131775,0.10551922768354416,0.4477129578590393,-0.005718052387237549,-0.1767694652080536
1749050658.6826344,-0.5538318792926233,-0.5090668958476563,-0.9885880947113037,-2.116942068139547,-4.089577023183004,-0.1319826284991663,-0.0003798929392360151,-0.0002075593511108309,-0.0005234720883890986,-0.0002321724168723449,-0.0006119278259575367,-0.0003587729297578335,-0.280753493309021,-0.7438952326774597,0.09662645310163498,0.4543960988521576,0.01024685800075531,-0.18085552752017975
1749050658.6826713,-0.5538614431964319,-0.5090864461711426,-0.9885761737823486,-2.116911073724264,-4.08949596086611,-0.13197213808168584,-0.0003948639496229589,-0.0002437185903545469,-0.0004680155834648758,-0.00016098428750410676,-0.00028799226856790483,-0.00034302184940315783,-0.29207074642181396,-0.7314295172691345,0.10405321419239044,0.4445526599884033,0.028695374727249146,-0.17613361775875092
1749050658.6827083,-0.5538504759417933,-0.5090738099864502,-0.9885761737823486,-2.116930147210592,-4.089515272771017,-0.1319792906390589,-0.00038988690357655287,-0.00023260842135641724,-0.0003451611555647105,-0.00010079589992528781,-5.0891256250906736e-05,-0.00031333835795521736,-0.2684585452079773,-0.751411497592926,0.13594898581504822,0.45390528440475464,0.03463169187307358,-0.1504243016242981
1749050658.6827447,-0.5538542906390589,-0.5090703529170533,-0.9885799288749695,-2.116942068139547,-4.0895462671863,-0.13194495836366826,-0.0007718469714745879,-0.0004812279366888106,-0.0002434517373330891,-6.943182233953848e-05,-8.993018127512187e-06,-0.0002919510006904602,-0.29216670989990234,-0.7582924962043762,0.119500070810318,0.47406885027885437,0.05640809237957001,-0.16706916689872742
1749050658.682782,-0.553903881703512,-0.5090618890574952,-0.9885637760162354,-2.116892000237936,-4.0895496050464075,-0.13200694719423467,-0.0007117839995771646,-0.0005346293328329921,6.13335141679272e-05,-6.052532626199536e-05,0.0013603691477328539,-0.0002739676274359226,-0.2634403705596924,-0.7608035206794739,0.1320367306470871,0.4753696918487549,0.05920688807964325,-0.15212658047676086
1749050658.6828187,-0.5539000670062464,-0.5090395969203492,-0.9885637760162354,-2.1169382534422816,-4.089541260396139,-0.131967846547262,-0.0007328413776122034,-0.00047881033970043063,0.00026725619682110846,-5.60013395443093e-05,0.0027717570774257183,-0.0002581952721811831,-0.25933367013931274,-0.7572219967842102,0.12804029881954193,0.4657208323478699,0.057919591665267944,-0.16872186958789825
1749050658.682855,-0.5538848082171839,-0.5090515178493042,-0.9885674118995667,-2.116934915582174,-4.089487377797262,-0.1319950262652796,-0.0007415497093461454,-0.00043275413918308914,0.0009882890153676271,-5.259073441266082e-05,0.00297455582767725,-0.0002441638498567045,-0.27732956409454346,-0.7796218991279602,0.1346854567527771,0.4795779585838318,0.0664699524641037,-0.14964129030704498
1749050658.682891,-0.553903881703512,-0.5090618890574952,-0.9885518550872803,-2.1169539890685023,-4.08952242532839,-0.13194495836366826,-0.0008801224757917225,-0.0003947768418584019,0.00159720447845757,-4.9660797230899334e-05,0.002396906726062298,-0.00023158440308179706,-0.29487553238868713,-0.7682684063911438,0.11441664397716522,0.4579485058784485,0.07326027750968933,-0.1667189747095108
1749050658.6829271,-0.553878132496969,-0.509012297993042,-0.9885399341583252,-2.116934915582174,-4.08952242532839,-0.13197595277895147,-0.0009018387645483017,-0.00036292854929342866,0.0015493914252147079,-4.705783067038283e-05,0.001868479186668992,-0.00025182418175973,-0.27530860900878906,-0.7643627524375916,0.11411683261394501,0.4638117551803589,0.09598490595817566,-0.16256797313690186
1749050658.6829636,-0.5538933912860315,-0.5089962047389527,-0.9885051846504211,-2.1169382534422816,-4.089518849049703,-0.1319950262652796,-0.0009047319763340056,-0.0003358356188982725,0.0013850423274561763,-4.471693318919279e-05,0.00174800050444901,-0.00024974383995868266,-0.27604711055755615,-0.7854388356208801,0.1250002086162567,0.4681238532066345,0.09128589183092117,-0.1494714468717575
1749050658.683,-0.5538881460772913,-0.5090549749187012,-0.9885435700416565,-2.116892000237936,-4.089556757603781,-0.13199168840517217,-0.0009041064186021686,-0.00031250869506038725,0.0012847695033997297,-1.834094109653961e-05,0.001705516828224063,-0.0002403186954325065,-0.30884039402008057,-0.7867688536643982,0.1171102523803711,0.4548640251159668,0.11016068607568741,-0.14747728407382965
1749050658.6834128,-0.553896729146139,-0.5090654653361817,-0.9885280132293701,-2.116911073724264,-4.089556757603781,-0.13202220598329717,-0.001138024963438511,-0.0002922119456343353,0.0012325190473347902,-3.241036893086857e-06,0.0021691052243113518,-0.00023036084894556552,-0.3004169464111328,-0.8048464059829712,0.11395123600959778,0.4623543620109558,0.10207492858171463,-0.15544572472572327
1749050658.685363,-0.5538900534259241,-0.5090584319880982,-0.9885124564170837,-2.1169144115843714,-4.089474980031149,-0.13200694719423467,-0.0011385169345885515,-0.0002743916411418468,0.0012048449134454131,-5.727252414544637e-07,0.003038347465917468,-0.00022098131012171507,-0.2872416377067566,-0.7805187106132507,0.1299615055322647,0.4699661135673523,0.11930859088897705,-0.15904638171195984
1749050658.7303052,-0.5538900534259241,-0.509012297993042,-0.9885399341583252,-2.1169144115843714,-4.089473787938253,-0.1319826284991663,-0.0011296276934444904,-0.00025861943140625954,0.0012745162239298224,-1.0120655957734925e-07,0.003273847745731473,-0.00021229816775303334,-0.3070467412471771,-0.7722985148429871,0.10316714644432068,0.4560771584510803,0.09395162761211395,-0.16822940111160278
1749050658.7303536,-0.553870979939596,-0.5090465110591431,-0.9885316491127014,-2.116903921166891,-4.089454714451925,-0.13196069398988897,-0.0015366283478215337,-0.00024456295068375766,0.0012226103572174907,-1.7884261183098715e-08,0.003276617731899023,-0.00020426505943760276,-0.3021722137928009,-0.7793801426887512,0.10078994929790497,0.46185293793678284,0.11130894720554352,-0.14886605739593506
1749050658.730398,-0.5539124647723597,-0.5090584319880982,-0.98850417137146,-2.116899152795309,-4.089498106633322,-0.13199168840517217,-0.0015037152916193008,-0.0002319555205758661,0.001170420553535223,-3.1603368810806387e-09,0.0029647015035152435,-0.00019681703997775912,-0.29099857807159424,-0.7639800310134888,0.11137756705284119,0.46797817945480347,0.1030561700463295,-0.1651591807603836
1749050658.7304373,-0.5538747946368616,-0.5090395969203492,-0.9885124564170837,-2.116903921166891,-4.08949596086611,-0.13198835054506475,-0.0020574121735990047,-0.0002205847267759964,0.0010148701258003712,-5.584646634027024e-10,0.002534090308472514,-0.00018989287491422147,-0.2868008017539978,-0.7883159518241882,0.11719824373722076,0.47052815556526184,0.11240386962890625,-0.1521972119808197
1749050658.7304752,-0.5539453665362757,-0.5090311330607911,-0.988516092300415,-2.116911073724264,-4.089423958455221,-0.13199168840517217,-0.002417439129203558,-0.00021027610637247562,0.0008897752850316465,-9.868655892475431e-11,0.0020707373041659594,-0.00018343971169088036,-0.2763175666332245,-0.7732058167457581,0.12844900786876678,0.4614519476890564,0.09877892583608627,-0.16481105983257294
1749050658.7305129,-0.5539239088641565,-0.5090549749187012,-0.988516092300415,-2.116942068139547,-4.089480702077047,-0.13195735612978154,-0.0023302931804209948,-0.0002008885785471648,0.0007917180191725492,-1.7438949589942965e-11,0.0018546365899965167,-0.00017741064948495477,-0.2873271405696869,-0.7564979195594788,0.11312584578990936,0.45590150356292725,0.10890357941389084,-0.16546392440795898
1749050658.7305505,-0.5539239088641565,-0.5090584319880982,-0.9885315895080566,-2.116892000237936,-4.089449946080343,-0.1320260206805628,-0.0021417352836579084,-0.00019230321049690247,0.0007132024620659649,-3.081645182090309e-12,0.0016122626839205623,-0.00017176564142573625,-0.2867840826511383,-0.7786419987678528,0.11253626644611359,0.47724664211273193,0.09266230463981628,-0.14864841103553772
1749050658.7305877,-0.5539205710040491,-0.5090549749187012,-0.9885088801383972,-2.1169263325133265,-4.089477125798361,-0.13201409975160772,-0.002188717247918248,-0.00017716095317155123,0.0005951182101853192,-9.622928539079756e-14,0.0010809284867718816,-0.00018350084428675473,-0.26715153455734253,-0.72825026512146,0.09716621041297913,0.45938849449157715,0.10658036917448044,-0.15394483506679535
1749050658.7306247,-0.5539205710040491,-0.5090549749187012,-0.9885088801383972,-2.1169263325133265,-4.089477125798361,-0.13201409975160772,-0.002188717247918248,-0.00017716095317155123,0.0005951182101853192,-9.622928539079756e-14,0.0010809284867718816,-0.00018350084428675473,-0.26715153455734253,-0.72825026512146,0.09716621041297913,0.45938849449157715,0.10658036917448044,-0.15394483506679535
1749050658.7306619,-0.553929630910055,-0.5090549749187012,-0.9885124564170837,-2.1169077358641566,-4.089458290730612,-0.13202220598329717,-0.0022144578397274017,-0.00017045003187377006,0.0005496768862940371,-1.700472343501864e-14,0.0009298113873228431,-0.00018206526874564588,-0.2662076950073242,-0.7359042167663574,0.109669029712677,0.4583170413970947,0.0977112427353859,-0.17797183990478516
1749050658.730699,-0.5539258162127894,-0.5090549749187012,-0.9885280132293701,-2.1168958149352015,-4.089473787938253,-0.13199168840517217,-0.002385031431913376,-0.00016422920452896506,0.0005106624448671937,-3.0049131196139113e-15,0.0009032388916239142,-0.00017761526396498084,-0.28297555446624756,-0.7337653040885925,0.10396598279476166,0.4588736593723297,0.10528454929590225,-0.159611776471138
1749050658.730736,-0.5539382139789026,-0.5090430539897461,-0.9885280132293701,-2.116911073724264,-4.089451376591818,-0.1319792906390589,-0.0023357511963695288,-0.00015844668087083846,0.00047682339209131896,-5.309997136173597e-16,0.0008063037530519068,-0.00017286173533648252,-0.2644985318183899,-0.7230373024940491,0.10267661511898041,0.4629508852958679,0.09622125327587128,-0.1533694565296173
1749050658.7307723,-0.553967301045553,-0.5090240997127076,-0.9885243773460388,-2.116942068139547,-4.089454714451925,-0.13197213808168584,-0.001978584798052907,-0.00015305740816984326,0.00044719051220454276,-9.383321140097792e-17,0.0007995530613698065,-0.00016826520732138306,-0.30589187145233154,-0.7329708933830261,0.09713035821914673,0.44816112518310547,0.11350403726100922,-0.140975683927536
1749050658.7308097,-0.5539348761187952,-0.5090479415706177,-0.9885280132293701,-2.116930147210592,-4.089412037526266,-0.13197595277895147,-0.0018060671864077449,-0.0001480226346757263,0.00042102759471163154,-1.658131183465827e-17,0.000681747158523649,-0.00016389058146160096,-0.2674529254436493,-0.712455689907074,0.12660342454910278,0.470192015171051,0.13786323368549347,-0.15077580511569977
1749050658.730852,-0.553929630910055,-0.5090430539897461,-0.9885243773460388,-2.116911073724264,-4.0894275347339075,-0.13199884096254522,-0.0018151759868487716,-0.00014330859994515777,0.0003977423766627908,-2.9300916917542317e-18,0.0007198823732323945,-0.0001597352238604799,-0.27075713872909546,-0.7094067931175232,0.10442468523979187,0.4771868586540222,0.11848875880241394,-0.1648278683423996
1749050658.7308893,-0.5539448896991175,-0.5090087217143555,-0.9885280132293701,-2.116922994653219,-4.089480702077047,-0.13197595277895147,-0.002239822642877698,-0.00013888563262298703,0.00037692554178647697,-5.177778920294187e-19,0.0010748711647465825,-0.00015578475722577423,-0.28851747512817383,-0.6997068524360657,0.11407393217086792,0.44534963369369507,0.1407485157251358,-0.17345531284809113
1749050658.7309296,-0.5539773146258753,-0.5090584319880982,-0.9885124564170837,-2.1169077358641566,-4.089461867009298,-0.13200694719423467,-0.0023372573778033257,-0.00011631353845587,0.0003581691125873476,-9.149678692466027e-20,0.001681639696471393,-0.0001520248333690688,-0.2814028859138489,-0.6853992938995361,0.10520689189434052,0.46758997440338135,0.1307571530342102,-0.1484486162662506
1749050658.730968,-0.5539839903460901,-0.5090276759913941,-0.9885435700416565,-2.116942068139547,-4.089468781148092,-0.13199884096254522,-0.00289488909766078,-0.00010473188012838364,0.0003411795769352466,-1.616844222241514e-20,0.0021834359504282475,-0.00014844207908026874,-0.2776041626930237,-0.7000680565834045,0.1233840137720108,0.4709194004535675,0.15233676135540009,-0.15918628871440887
1749050658.7310057,-0.5539687315570276,-0.5090618890574952,-0.9885280132293701,-2.1169077358641566,-4.089465204869406,-0.13199168840517217,-0.003062117611989379,-9.88988031167537e-05,0.00031164768734015524,-5.048853681643588e-22,0.002988317282870412,-0.00015835110389161855,-0.30715641379356384,-0.6678303480148315,0.1106482744216919,0.46590209007263184,0.14334224164485931,-0.16526058316230774
1749050658.7310429,-0.5539687315570276,-0.5090618890574952,-0.9885280132293701,-2.1169077358641566,-4.089465204869406,-0.13199168840517217,-0.003062117611989379,-9.88988031167537e-05,0.00031164768734015524,-5.048853681643588e-22,0.002988317282870412,-0.00015835110389161855,-0.30715641379356384,-0.6678303480148315,0.1106482744216919,0.46590209007263184,0.14334224164485931,-0.16526058316230774
1749050658.7310798,-0.5539811293231409,-0.5090276759913941,-0.9885088801383972,-2.1169454059996546,-4.08941895166506,-0.1320107618915003,-0.0034069728571921587,-7.2432158049196e-05,0.00029870617436245084,-8.92185464824753e-23,0.003858793992549181,-0.00015779948444105685,-0.2839338779449463,-0.6714535355567932,0.12506580352783203,0.47203516960144043,0.17860013246536255,-0.16033563017845154
1749050658.731117,-0.5540078322040003,-0.5090465110591431,-0.9885280132293701,-2.116911073724264,-4.089407030736105,-0.13199168840517217,-0.0037244714330881834,4.471572901820764e-05,0.00021612519049085677,-1.5765853774219622e-23,0.005129677709192038,-0.00015491996600758284,-0.3127743899822235,-0.6524456739425659,0.12514188885688782,0.464555561542511,0.19157002866268158,-0.15610316395759583
1749050658.731374,-0.5539935270892542,-0.5090361398509522,-0.9885316491127014,-2.1169382534422816,-4.089398209248678,-0.13202220598329717,-0.0038787422236055136,5.563250670093112e-05,0.00019709611660800874,-2.7859918571916857e-24,0.007312072440981865,-0.0001517457130830735,-0.2770921587944031,-0.6608274579048157,0.1407650113105774,0.49094390869140625,0.1813092827796936,-0.1613437384366989
1749050658.7333803,-0.5539935270892542,-0.5090361398509522,-0.9885316491127014,-2.1169382534422816,-4.089398209248678,-0.13202220598329717,-0.0038787422236055136,5.563250670093112e-05,0.00019709611660800874,-2.7859918571916857e-24,0.007312072440981865,-0.0001517457130830735,-0.2770921587944031,-0.6608274579048157,0.1407650113105774,0.49094390869140625,0.1813092827796936,-0.1613437384366989
1749050658.7742758,-0.5539429823504847,-0.5090549749187012,-0.9885280132293701,-2.116903921166891,-4.089429680501119,-0.13200694719423467,-0.003919324837625027,8.085029548965394e-05,0.0002208420482929796,-4.923139900597526e-25,0.009179329499602318,-0.00014862905663903803,-0.27183568477630615,-0.6478419303894043,0.14549614489078522,0.4892526865005493,0.20039686560630798,-0.14468605816364288
1749050658.7743206,-0.5540354887591761,-0.5090395969203492,-0.9885124564170837,-2.116911073724264,-4.089335028325216,-0.13196069398988897,-0.004064982291311026,0.00010200760152656585,0.000873786979354918,-1.5373287424580057e-26,0.013630853034555912,-0.00014273855776991695,-0.2849451005458832,-0.6393579840660095,0.155635803937912,0.5044617056846619,0.1877213418483734,-0.1330839991569519
1749050658.7743597,-0.5540168921100062,-0.5090311330607911,-0.9885088205337524,-2.116899152795309,-4.089260403309957,-0.1319792906390589,-0.0044770934619009495,9.92207060335204e-05,0.0012278335634618998,-2.7166214460203877e-27,0.015459218993782997,-0.00013996355119161308,-0.3034099340438843,-0.6363149285316467,0.14177998900413513,0.5223579406738281,0.24885058403015137,-0.15056249499320984
1749050658.7743979,-0.5540373961078089,-0.5090395969203492,-0.9885316491127014,-2.116911073724264,-4.089274470006124,-0.13200360933412725,-0.004331692587584257,0.00012045766925439239,0.0022983530070632696,0.00030364416306838393,0.017589759081602097,-0.00013729433703701943,-0.31101134419441223,-0.6374956965446472,0.14429894089698792,0.525558590888977,0.23152334988117218,-0.14110499620437622
1749050658.7744355,-0.5540321508990687,-0.5090430539897461,-0.9885316491127014,-2.1169144115843714,-4.089281622563497,-0.13197213808168584,-0.004208012484014034,0.00011754428851418197,0.0022214704658836126,0.0006777335656806827,0.020565712824463844,-0.0001347251672996208,-0.271989643573761,-0.6115230917930603,0.17214398086071014,0.5068073272705078,0.2046113908290863,-0.1336202770471573
1749050658.7744722,-0.5540340582477015,-0.5090242189219971,-0.9885316491127014,-2.116911073724264,-4.0892303625689905,-0.13200360933412725,-0.003724730806425214,0.00011455428466433659,0.0018999641761183739,0.0008162455051206052,0.020482875406742096,-0.00013225027942098677,-0.2758422791957855,-0.6117743849754333,0.159471794962883,0.5427709817886353,0.2069980502128601,-0.1315000057220459
1749050658.7745082,-0.5540407339679163,-0.5090465110591431,-0.9885197281837463,-2.116899152795309,-4.089224878941671,-0.13199168840517217,-0.0027997971046715975,0.00011171060032211244,0.0018266728147864342,0.0012810489861294627,0.019266879186034203,-0.00012986471119802445,-0.29487788677215576,-0.625320315361023,0.18589748442173004,0.5313667058944702,0.20387259125709534,-0.13692080974578857
1749050658.774546,-0.5540459791766565,-0.5090430539897461,-0.988516092300415,-2.1168958149352015,-4.089109722767965,-0.13197213808168584,-0.001983145484700799,0.000106426676211413,0.0031221499666571617,0.0023087162990123034,0.018131481483578682,-0.0001253428345080465,-0.2905654311180115,-0.6066854596138,0.19234699010849,0.5527114868164062,0.23116770386695862,-0.09556344151496887
1749050658.7745829,-0.5540459791766565,-0.5090430539897461,-0.988516092300415,-2.1168958149352015,-4.089109722767965,-0.13197213808168584,-0.001983145484700799,0.000106426676211413,0.0031221499666571617,0.0023087162990123034,0.018131481483578682,-0.0001253428345080465,-0.2905654311180115,-0.6066854596138,0.19234699010849,0.5527114868164062,0.23116770386695862,-0.09556344151496887
1749050658.7746205,-0.554030720387594,-0.5090395969203492,-0.9885197281837463,-2.1168719730772914,-4.08909780183901,-0.13200694719423467,-0.0020010368898510933,0.00010396780271548778,0.004201758187264204,0.002465988975018263,0.0179592352360487,-0.00012319795496296138,-0.3220209777355194,-0.6335801482200623,0.17688971757888794,0.5528882145881653,0.2377687394618988,-0.0999557375907898
1749050658.774658,-0.5540683905230921,-0.5090276759913941,-0.9885005354881287,-2.1168719730772914,-4.08903414407839,-0.13200360933412725,-0.0025725129526108503,0.00010161994578083977,0.004499236587435007,0.0024706171825528145,0.018642699345946312,-0.0001158424565801397,-0.29531630873680115,-0.6373719573020935,0.17295792698860168,0.5618510246276855,0.23171812295913696,-0.08195120096206665
1749050658.7746952,-0.5540421644793909,-0.5090242189219971,-0.9884834885597229,-2.1168681583800257,-4.088967625294821,-0.13195735612978154,-0.0033111756201833487,9.937588038155809e-05,0.004607079084962606,0.0025625175330787897,0.01844056136906147,-0.0001059729402186349,-0.28824979066848755,-0.6312835812568665,0.18184274435043335,0.5779569745063782,0.25020191073417664,-0.0898699164390564
1749050658.7747324,-0.554061237965719,-0.5090395969203492,-0.9884760975837708,-2.116890092889303,-4.088971201573507,-0.13202220598329717,-0.0037377045955508947,9.722883987706155e-05,0.004691649693995714,0.002853621728718281,0.017949998378753662,-0.00010284225572831929,-0.29417020082473755,-0.6640433669090271,0.20952650904655457,0.5793099403381348,0.27077779173851013,-0.08261889219284058
1749050658.7747693,-0.5540383497821253,-0.5090242189219971,-0.9884481430053711,-2.1168791256346644,-4.088944975529806,-0.13200694719423467,-0.0038893951568752527,9.517241414869204e-05,0.004832821898162365,0.0030077153351157904,0.01920432224869728,-6.407648470485583e-05,-0.28850966691970825,-0.6411884427070618,0.21241986751556396,0.5896183848381042,0.27899134159088135,-0.049632176756858826
1749050658.7748065,-0.5540574232684534,-0.5090703529170533,-0.9884517788887024,-2.11685909847402,-4.088879648839132,-0.13197595277895147,-0.003981873393058777,9.320135723100975e-05,0.00624966761097312,0.003649664344266057,0.01964421756565571,-3.057101275771856e-05,-0.27069586515426636,-0.6509667038917542,0.21134915947914124,0.591447114944458,0.2718927264213562,-0.026612132787704468
1749050658.774843,-0.5540950934039515,-0.5090739291957398,-0.9884244203567505,-2.116866251031393,-4.088866297398702,-0.1319792906390589,-0.003620143048465252,9.13101393962279e-05,0.007284373510628939,0.0041116042993962765,0.020577579736709595,-7.111365448508877e-06,-0.2837536334991455,-0.6715246438980103,0.21618716418743134,0.5760408043861389,0.2963586151599884,-0.018053293228149414
1749050658.774879,-0.5541089216815394,-0.5090430539897461,-0.9884280562400818,-2.116866251031393,-4.088849131261007,-0.13201886812318975,-0.0035499874502420425,8.949419861892238e-05,0.00783934723585844,0.004409602843225002,0.023218587040901184,-1.2566528084789752e-06,-0.30307498574256897,-0.6801077723503113,0.2097095400094986,0.5998036861419678,0.3051398992538452,-0.003317505121231079
1749050658.774915,-0.5540908018695276,-0.5090430539897461,-0.9884316921234131,-2.11681665996694,-4.08874756494631,-0.1319950262652796,-0.0036328916903585196,8.7749220256228e-05,0.007793020457029343,0.0044982279650866985,0.024086253717541695,0.0005782406078651547,-0.29376471042633057,-0.6793338656425476,0.23068784177303314,0.6004549860954285,0.31465819478034973,0.022664695978164673
1749050658.774951,-0.5541189352618616,-0.5090430539897461,-0.9884078502655029,-2.1168352566161097,-4.0887373129474085,-0.13200217882265264,-0.0037964375223964453,8.607083873357624e-05,0.008121146820485592,0.004844048526138067,0.02655407041311264,0.004360496997833252,-0.30029815435409546,-0.6796614527702332,0.2512354850769043,0.6197853684425354,0.3172706663608551,0.017637819051742554
1749050658.7749872,-0.5541437307940882,-0.5090395969203492,-0.9884114861488342,-2.116815229455465,-4.088663164769308,-0.1319645086871546,-0.0043197739869356155,8.44554670038633e-05,0.010035333223640919,0.005393346771597862,0.02834654413163662,0.007092968560755253,-0.25658416748046875,-0.68365079164505,0.2465415745973587,0.6310744881629944,0.3243066370487213,0.00882500410079956
1749050658.7753878,-0.5541213194476526,-0.5090240997127076,-0.9883560538291931,-2.1167875729002894,-4.088523928319113,-0.1319826284991663,-0.004053894430398941,8.14000450191088e-05,0.011373003013432026,0.006438602693378925,0.03371978923678398,0.009400876238942146,-0.2964649200439453,-0.6943027377128601,0.24327202141284943,0.6324593424797058,0.3337070047855377,0.042741626501083374
1749050658.7773757,-0.5541213194476526,-0.5090240997127076,-0.9883560538291931,-2.1167875729002894,-4.088523928319113,-0.1319826284991663,-0.004053894430398941,8.14000450191088e-05,0.011373003013432026,0.006438602693378925,0.03371978923678398,0.009400876238942146,-0.2964649200439453,-0.6943027377128601,0.24327202141284943,0.6324593424797058,0.3337070047855377,0.042741626501083374
1749050658.8182797,-0.5541489760028284,-0.5090738099864502,-0.9883596897125244,-2.116791387597555,-4.0884555021869105,-0.13194066682924444,-0.0042288340628147125,7.995381020009518e-05,0.011712568812072277,0.007085687946528196,0.03744218498468399,0.011287630535662174,-0.30066627264022827,-0.7136147618293762,0.22659696638584137,0.6541038751602173,0.3441958725452423,0.04606509208679199
1749050658.8183248,-0.5541484991656702,-0.5090549749187012,-0.9883202910423279,-2.116779943505758,-4.088399473820822,-0.1319196859942835,-0.00456624198704958,7.855805597500876e-05,0.012291709892451763,0.00838418584316969,0.040899503976106644,0.013578490354120731,-0.289806067943573,-0.7189041376113892,0.24375061690807343,0.65555340051651,0.35739967226982117,0.04436725378036499
1749050658.818365,-0.5542033354388636,-0.5090206426433106,-0.98829585313797,-2.1167403660216273,-4.0883031527148646,-0.13190108934511358,-0.004092221613973379,7.721022848272696e-05,0.013527993112802505,0.009194751270115376,0.04341626539826393,0.014396533370018005,-0.29892873764038086,-0.7276585698127747,0.2496076375246048,0.6644093990325928,0.33966368436813354,0.05759730935096741
1749050658.8184035,-0.5541656653033655,-0.5090395969203492,-0.9882721304893494,-2.116727968255514,-4.088241640721456,-0.13188058534731084,-0.003972702659666538,6.0876900533912703e-05,0.013572725467383862,0.010000471957027912,0.04540865868330002,0.015885692089796066,-0.30563032627105713,-0.7306815385818481,0.24662412703037262,0.6487930417060852,0.35816752910614014,0.045910805463790894
1749050658.818441,-0.5541532675372522,-0.5090242189219971,-0.9882482886314392,-2.1167198620238246,-4.088138405476705,-0.13184148470033819,-0.00401788204908371,5.9720339777413756e-05,0.013782937079668045,0.010040219873189926,0.04835471138358116,0.017281776294112206,-0.3042919635772705,-0.7444528937339783,0.2451351433992386,0.6698718667030334,0.37140870094299316,0.03758247196674347
1749050658.81848,-0.5541814009295862,-0.5090242189219971,-0.988224446773529,-2.1166888676085414,-4.088061396275656,-0.13182384172548467,-0.004036025609821081,5.893980051041581e-05,0.01294922549277544,0.010508501902222633,0.05025221407413483,0.016995077952742577,-0.3123300075531006,-0.7486427426338196,0.24952451884746552,0.6781020164489746,0.37895676493644714,0.04782761633396149
1749050658.8185174,-0.5541656653033655,-0.5090121787837525,-0.9881963729858398,-2.1166378460326136,-4.08793551126589,-0.13180715242494756,-0.004591492470353842,3.767110320040956e-05,0.013056066818535328,0.011316540651023388,0.05306127667427063,0.016388898715376854,-0.2829449772834778,-0.7738783955574036,0.25436633825302124,0.6658448576927185,0.3872833847999573,0.06165400147438049
1749050658.8185544,-0.5541623274432581,-0.5090499681285401,-0.9881882071495056,-2.1166635952391566,-4.087812010441915,-0.13178807893861944,-0.00514956284314394,8.87039459485095e-06,0.01296958141028881,0.011933265253901482,0.05531669035553932,0.01577715575695038,-0.27489417791366577,-0.7854668498039246,0.25840044021606445,0.6740396618843079,0.3992885649204254,0.07200416922569275
1749050658.8185909,-0.5541790167437952,-0.5090703529170533,-0.9881481528282166,-2.1165863476195277,-4.087710682545797,-0.13172847429384404,-0.0050331405363976955,8.654495076143576e-08,0.012668169103562832,0.012163562700152397,0.058950453996658325,0.01646835170686245,-0.2846097946166992,-0.7794366478919983,0.26414740085601807,0.6743603944778442,0.3871202766895294,0.08155851066112518
1749050658.8186276,-0.554232422505514,-0.5090703529170533,-0.9881436824798584,-2.116612573663229,-4.087597433720724,-0.13172847429384404,-0.004217025823891163,8.443850063599712e-10,0.013172714039683342,0.012569887563586235,0.0611962154507637,0.016176706179976463,-0.31871891021728516,-0.7904630303382874,0.26093074679374695,0.6706240773200989,0.4006815254688263,0.07618756592273712
1749050658.8186636,-0.5542376677142542,-0.5090430539897461,-0.9881156086921692,-2.1165572605528773,-4.087505404149191,-0.13168508211244756,-0.004418280441313982,8.238331891674555e-12,0.01273807417601347,0.013187048025429249,0.06284388899803162,0.015623888932168484,-0.295213907957077,-0.7926108241081238,0.2770342528820038,0.6677131056785583,0.388664573431015,0.08557794988155365
1749050658.8186998,-0.5542190710650843,-0.5090395969203492,-0.9880608320236206,-2.1165486774840296,-4.087346617375509,-0.13165790239442998,-0.004717324394732714,8.037816153763297e-14,0.0134086599573493,0.013790463097393513,0.0637652724981308,0.01680775359272957,-0.2985313832759857,-0.7956598997116089,0.25792360305786133,0.6625367403030396,0.394573450088501,0.10607077181339264
1749050658.8187358,-0.5542619864093226,-0.5090773862651368,-0.9880561232566833,-2.116490503350729,-4.087230745946066,-0.1316154638873499,-0.004432879853993654,7.842180426771055e-16,0.012673868797719479,0.012006931006908417,0.0652468279004097,0.017930835485458374,-0.2915462553501129,-0.8091875910758972,0.2918221652507782,0.6870657205581665,0.39060884714126587,0.07844825088977814
1749050658.8187726,-0.5542719999896448,-0.5090668958476563,-0.9880322813987732,-2.1164895496764125,-4.087109867726461,-0.13163263002504522,-0.004504250828176737,-0.0007924914243631065,0.01326961349695921,0.0111720385029912,0.0654054805636406,0.018050795421004295,-0.29427316784858704,-0.8272281289100647,0.29459071159362793,0.6855517625808716,0.4277702271938324,0.1020563542842865
1749050658.8188088,-0.5542338530169886,-0.5090395969203492,-0.9880235195159912,-2.1164618931212367,-4.087003771458761,-0.13156539598573858,-0.004965482745319605,-0.00086978729814291,0.013667826540768147,0.010870598256587982,0.06735078990459442,0.018891150131821632,-0.2795846462249756,-0.833710789680481,0.27705585956573486,0.6955960392951965,0.418223112821579,0.1115141212940216
1749050658.818845,-0.5542586485492151,-0.5090395969203492,-0.9879841208457947,-2.1164690456786097,-4.086844984685079,-0.1315367857562464,-0.004891089163720608,-0.0007720148423686624,0.014473576098680496,0.010203119367361069,0.0693066418170929,0.01979232020676136,-0.287460058927536,-0.8172231912612915,0.27993834018707275,0.6867132782936096,0.43286970257759094,0.10358722507953644
1749050658.8188815,-0.5542696158038538,-0.5090792936137696,-0.9879721999168396,-2.116460462609762,-4.086701695119039,-0.13152105013002569,-0.0045890044420957565,-0.000786550110206008,0.01430539321154356,0.010113607160747051,0.0705508440732956,0.01975913532078266,-0.2815141975879669,-0.8378010392189026,0.28045669198036194,0.6857637763023376,0.42396819591522217,0.10250380635261536
1749050658.8189182,-0.5542658011065882,-0.5090584319880982,-0.9879358410835266,-2.116418024102682,-4.0865264574634,-0.13151294389833623,-0.004205965902656317,-0.0007675820961594582,0.014628240838646889,0.010784590616822243,0.07320219278335571,0.020189689472317696,-0.2963355779647827,-0.847412645816803,0.2925727665424347,0.6964872479438782,0.4370233118534088,0.11385807394981384
1749050658.8189547,-0.5543473402606409,-0.5090515178493042,-0.9879084825515747,-2.1163937054076136,-4.086397711430685,-0.1314767042743128,-0.004362076986581087,-0.0008179583819583058,0.014206849969923496,0.010975293815135956,0.07662298530340195,0.020860573276877403,-0.27587655186653137,-0.8600630164146423,0.2982747256755829,0.7075010538101196,0.4306281805038452,0.12531816959381104
1749050658.818991,-0.5543425718890589,-0.5090395969203492,-0.9878727197647095,-2.1163698635497035,-4.086272064839498,-0.13139468828310186,-0.004117246251553297,-0.000872877542860806,0.014631726779043674,0.010916957631707191,0.0765404924750328,0.0205509252846241,-0.28909868001937866,-0.8695588707923889,0.3091604709625244,0.7120225429534912,0.44425228238105774,0.12933801114559174
1749050658.8194268,-0.5543320814715784,-0.5090703529170533,-0.9878799915313721,-2.116342683831686,-4.086102310811178,-0.13138944307436162,-0.004863230045884848,-0.0009925273479893804,0.01533411256968975,0.011160092428326607,0.07550466060638428,0.021811069920659065,-0.2901441156864166,-0.8794742226600647,0.2953976094722748,0.7093948125839233,0.44192439317703247,0.1232176274061203
1749050658.8213398,-0.5543249289142054,-0.5090549749187012,-0.9878202080726624,-2.116330762902731,-4.085917059575216,-0.1313541571246546,-0.004789507482200861,-0.001621045870706439,0.016196222975850105,0.011633883230388165,0.07850435376167297,0.022572776302695274,-0.2516349256038666,-0.8866967558860779,0.3134791851043701,0.7091004848480225,0.4453999996185303,0.13019974529743195
1749050658.8622959,-0.554321591054098,-0.5090982478908082,-0.9878002405166626,-2.116329332391256,-4.085764948521749,-0.13135177293886358,-0.0043794200755655766,-0.0016798938158899546,0.015666380524635315,0.011477864347398281,0.07876130193471909,0.022625643759965897,-0.2889977991580963,-0.8656722903251648,0.30687519907951355,0.7358298301696777,0.4359379708766937,0.13885198533535004
1749050658.8623421,-0.5543440024005335,-0.5090912145427247,-0.9877955913543701,-2.1163059673705042,-4.085573975239889,-0.13125974336733037,-0.0039469231851398945,-0.0019678669050335884,0.015872806310653687,0.01126081496477127,0.08218852430582047,0.024027595296502113,-0.29860857129096985,-0.9069501757621765,0.3073476254940033,0.730143666267395,0.42011916637420654,0.12442317605018616
1749050658.8623822,-0.5543368498431605,-0.5090443652919312,-0.9877593517303467,-2.116286417047018,-4.085436407719747,-0.13123017946352178,-0.004260256886482239,-0.0019330562790855765,0.01576746627688408,0.011899382807314396,0.08343619108200073,0.02345120534300804,-0.28263381123542786,-0.9192180037498474,0.3102865219116211,0.738453209400177,0.41400212049484253,0.14848345518112183
1749050658.8624203,-0.5544021765338343,-0.5090792936137696,-0.9877391457557678,-2.11625399212026,-4.08527642885317,-0.13116389909853154,-0.0041473316960036755,-0.0021587745286524296,0.017048928886651993,0.0122608607634902,0.08108986914157867,0.023918012157082558,-0.3039461672306061,-0.9012541174888611,0.3067571520805359,0.7230389714241028,0.41152483224868774,0.13509055972099304
1749050658.8624582,-0.554364029561178,-0.5090758365443726,-0.98769611120224,-2.116207262078756,-4.085104529057638,-0.1311586538897913,-0.003981644753366709,-0.003082123352214694,0.01736929826438427,0.012986483983695507,0.08115149289369583,0.023496823385357857,-0.2957940399646759,-0.9141160845756531,0.31457599997520447,0.7359235882759094,0.4430352449417114,0.13771265745162964
1749050658.862496,-0.5544007460223597,-0.5091219705394288,-0.9876635074615479,-2.116183420220846,-4.084893528615133,-0.13111430803407842,-0.00484473118558526,-0.003869878128170967,0.017335064709186554,0.0136603694409132,0.08263051509857178,0.024037623777985573,-0.29368287324905396,-0.9042693376541138,0.30207210779190063,0.7521795630455017,0.4393654465675354,0.15676790475845337
1749050658.8625333,-0.554366413746969,-0.5091219705394288,-0.9876241087913513,-2.1161862812437953,-4.084779564534323,-0.13107282320131475,-0.005061428528279066,-0.0037629723083227873,0.017938174307346344,0.014235054142773151,0.0847354382276535,0.024148492142558098,-0.2756956219673157,-0.9279102087020874,0.31927376985549927,0.7138318419456482,0.4292718768119812,0.13928565382957458
1749050658.8625708,-0.5544198195086878,-0.5091150564006348,-0.9875847101211548,-2.1161204777159632,-4.084588829671041,-0.13101321855653936,-0.004853215534240007,-0.00371082522906363,0.01816440559923649,0.01414350513368845,0.08444546908140182,0.023019924759864807,-0.31064221262931824,-0.9265716075897217,0.32070398330688477,0.7342458367347717,0.4313252568244934,0.14287486672401428
1749050658.8626077,-0.5543659369098108,-0.5090996784022828,-0.9875478744506836,-2.1161076031126917,-4.084405008946554,-0.13095552126039678,-0.004605254624038935,-0.0033247005194425583,0.018426813185214996,0.014737795107066631,0.08510484546422958,0.02334776520729065,-0.2927675247192383,-0.9267230033874512,0.3172551989555359,0.7314132452011108,0.4404674768447876,0.1567135900259018
1749050658.8626447,-0.5544379393206995,-0.5091031354716797,-0.9875433444976807,-2.116079946557516,-4.084255758916036,-0.13090354601015264,-0.004578589927405119,-0.004165551625192165,0.019024159759283066,0.014548455365002155,0.08641631156206131,0.022910866886377335,-0.3143206238746643,-0.9320031404495239,0.3343324661254883,0.7342954874038696,0.4310084879398346,0.16428223252296448
1749050658.8626814,-0.5544398466693323,-0.5090877574733277,-0.9874795079231262,-2.1160594425597132,-4.084109846745626,-0.13087493578066045,-0.004765249323099852,-0.004559007007628679,0.01898626610636711,0.014487852342426777,0.0873473584651947,0.023049000650644302,-0.306782990694046,-0.9252349138259888,0.3323739171028137,0.7349998354911804,0.43623602390289307,0.1515965312719345
1749050658.8627179,-0.5544403235064905,-0.5091304343989869,-0.9874677062034607,-2.1160551510252894,-4.083876196538107,-0.13081151643861944,-0.005041484721004963,-0.004506333265453577,0.019865253940224648,0.014100157655775547,0.08890208601951599,0.02339857630431652,-0.31191861629486084,-0.9221076965332031,0.31934303045272827,0.7438557147979736,0.41783756017684937,0.1765853464603424
1749050658.862755,-0.5544365088092249,-0.5091458123973389,-0.9874272346496582,-2.115999837914938,-4.083731714879171,-0.130775276814596,-0.005416395608335733,-0.004697366151958704,0.020688235759735107,0.015293892472982407,0.09073681384325027,0.023174889385700226,-0.26934587955474854,-0.937488853931427,0.3175284266471863,0.7384884357452393,0.41743284463882446,0.18290811777114868
1749050658.862792,-0.5544880072223108,-0.5091732305339356,-0.9873718619346619,-2.1159726581969203,-4.0835807959186,-0.1307314077960413,-0.005551177076995373,-0.004362139850854874,0.020151104778051376,0.014567517675459385,0.09153798222541809,0.024709085002541542,-0.29728615283966064,-0.9340646862983704,0.33755987882614136,0.743684709072113,0.41633498668670654,0.17195044457912445
1749050658.8628297,-0.5544794241534632,-0.509135441189148,-0.9873360991477966,-2.1159397564330042,-4.08337122598757,-0.130655590687887,-0.005058306269347668,-0.004460815340280533,0.020122863352298737,0.015051542781293392,0.09609971940517426,0.023770421743392944,-0.3137822151184082,-0.957288920879364,0.3305465579032898,0.7500360012054443,0.41071027517318726,0.16145342588424683
1749050658.8628662,-0.5544689337359827,-0.5091751378825684,-0.9873034954071045,-2.115884920159811,-4.083192888890402,-0.13061124483217412,-0.005318628624081612,-0.004811102990061045,0.020411532372236252,0.015262586995959282,0.09397207200527191,0.0252828411757946,-0.29448258876800537,-0.9423782229423523,0.33968669176101685,0.7572499513626099,0.41255396604537964,0.1509798914194107
1749050658.862903,-0.5544913450824183,-0.5091942113688965,-0.9872796535491943,-2.1158958874144496,-4.083017412816183,-0.13055640855898076,-0.005527107510715723,-0.004846267402172089,0.020024914294481277,0.016282496973872185,0.09329057484865189,0.02504030056297779,-0.29950636625289917,-0.9487659335136414,0.3610750138759613,0.7478381991386414,0.4498421549797058,0.17260777950286865
1749050658.862941,-0.5544932524310511,-0.5092058938792725,-0.9872159361839294,-2.115833898583883,-4.082813564931051,-0.13049680391420537,-0.00614626519382,-0.005417929030954838,0.02091771364212036,0.01651618257164955,0.09508468955755234,0.02451857179403305,-0.30056849122047424,-0.9754530787467957,0.3380649983882904,0.7568321824073792,0.4393270015716553,0.15572169423103333
1749050658.862978,-0.5545080343829554,-0.5091836017421265,-0.9871641397476196,-2.1158091030516566,-4.082629744206564,-0.13044864336122686,-0.005761648528277874,-0.005262726452201605,0.021982664242386818,0.016752561554312706,0.0976911187171936,0.02482665330171585,-0.31561121344566345,-0.9684264063835144,0.3476029634475708,0.7608332633972168,0.4392475485801697,0.15908998250961304
1749050658.8630142,-0.5545361677752894,-0.5092024368098755,-0.9871475696563721,-2.11578430751943,-4.082449499760763,-0.13042003313173467,-0.0065550534054636955,-0.005498774349689484,0.02213376574218273,0.017248941585421562,0.09933051466941833,0.024577517062425613,-0.2903018295764923,-0.9766877889633179,0.35675686597824097,0.7383846044540405,0.44468235969543457,0.1617373824119568
1749050658.8634143,-0.5544827620135706,-0.5092024368098755,-0.9871113300323486,-2.1157404385008753,-4.082248989735739,-0.13035327592958623,-0.006241301540285349,-0.005608429200947285,0.02166404202580452,0.016955507919192314,0.09766168147325516,0.025068877264857292,-0.304251492023468,-0.9654651880264282,0.361586332321167,0.7676488161087036,0.45877623558044434,0.15297970175743103
1749050658.865352,-0.5545600096331995,-0.5092571538737793,-0.9870445132255554,-2.1156979999937953,-4.082053248082296,-0.13029653230776006,-0.0058882697485387325,-0.005280117969959974,0.022420194000005722,0.01666450686752796,0.10089986026287079,0.02420998364686966,-0.2990851104259491,-0.9815446138381958,0.372816801071167,0.7585777640342712,0.47032418847084045,0.1854732781648636
1749050658.9062939,-0.554549519215719,-0.5092535775950928,-0.9870325922966003,-2.115661760369772,-4.081817928944723,-0.13026124635805303,-0.005589688196778297,-0.005951261147856712,0.02370295487344265,0.01707889698445797,0.10596540570259094,0.024245552718639374,-0.30337780714035034,-0.9925973415374756,0.3550434112548828,0.7523258924484253,0.455911785364151,0.1691742092370987
1749050658.9063392,-0.5545457045184534,-0.5092159074595948,-0.9869569540023804,-2.115660329858297,-4.081653181706564,-0.1302250067340296,-0.005800677463412285,-0.006736342795193195,0.02433764562010765,0.01794922538101673,0.10652592778205872,0.024391869083046913,-0.32379400730133057,-0.9980827569961548,0.3613595962524414,0.76566082239151,0.4547622799873352,0.17757198214530945
1749050658.9063795,-0.5545952955829065,-0.5092815917781373,-0.9869237542152405,-2.1155744991698207,-4.081440512334005,-0.13016873994936162,-0.006705847568809986,-0.006451704539358616,0.02461627498269081,0.01787545718252659,0.10839059948921204,0.025336576625704765,-0.32205870747566223,-0.9947548508644104,0.3526304066181183,0.7564296126365662,0.4420091509819031,0.19385692477226257
1749050658.9064183,-0.5545738379107874,-0.5092709821513672,-0.9868761897087097,-2.1155735454955042,-4.081196848546163,-0.1301205793963831,-0.007254844065755606,-0.006335204001516104,0.02434489317238331,0.018208585679531097,0.11030931770801544,0.02700243890285492,-0.32317331433296204,-1.006111741065979,0.37644878029823303,0.7785584330558777,0.45124563574790955,0.18327215313911438
1749050658.906457,-0.554601017628805,-0.5092935127070923,-0.9868279099464417,-2.1155339680113734,-4.080962006245748,-0.1300447622882288,-0.00690827053040266,-0.0068544442765414715,0.02467639371752739,0.018795201554894447,0.11371775716543198,0.026924140751361847,-0.3050690293312073,-1.0166902542114258,0.39925265312194824,0.7657261490821838,0.4653926193714142,0.17965902388095856
1749050658.9064946,-0.5546358267413538,-0.5092829030803223,-0.9868113994598389,-2.115467210809225,-4.0807674566852015,-0.12996274629701787,-0.006390040274709463,-0.007047554478049278,0.025808602571487427,0.018695736303925514,0.11574702709913254,0.027600202709436417,-0.3202442228794098,-1.0276559591293335,0.38130509853363037,0.7611070871353149,0.44545266032218933,0.18081185221672058
1749050658.906532,-0.5546401182757776,-0.5093227189830323,-0.9867321848869324,-2.1154657802977503,-4.080508534108297,-0.1299064795123499,-0.006605585105717182,-0.008136240765452385,0.026375850662589073,0.018867304548621178,0.11771934479475021,0.028105003759264946,-0.33007335662841797,-1.0171254873275757,0.37614646553993225,0.7732744216918945,0.4412968158721924,0.17094358801841736
1749050658.9065704,-0.5546296278582972,-0.5093429845622559,-0.9866845011711121,-2.115427156487936,-4.080287281666891,-0.1298773924456995,-0.007303948048502207,-0.007955297827720642,0.026559431105852127,0.0204223170876503,0.11905702203512192,0.02865271084010601,-0.3080022633075714,-1.022294044494629,0.38466235995292664,0.7524898052215576,0.4467760920524597,0.17663750052452087
1749050658.906608,-0.5546954313861292,-0.5092995923808594,-0.9866319298744202,-2.1153632603087367,-4.07999021211733,-0.12980729738344365,-0.007216738536953926,-0.007766278460621834,0.026810521259903908,0.01936674863100052,0.12051738798618317,0.02917923778295517,-0.2884827256202698,-1.033761739730835,0.36985522508621216,0.7566884160041809,0.4414411187171936,0.1739959418773651
1749050658.906646,-0.5546577612506312,-0.5093625348857422,-0.986588180065155,-2.115319391290182,-4.079777065907614,-0.12974244752992803,-0.006947470363229513,-0.007777880411595106,0.02736319601535797,0.01899922452867031,0.12116280198097229,0.030446240678429604,-0.29611092805862427,-1.035599708557129,0.3799401819705963,0.7752008438110352,0.4443942606449127,0.18456941843032837
1749050658.906683,-0.5547383467303675,-0.5093484681895752,-0.986543595790863,-2.115291734735006,-4.079500977193014,-0.12972575822939092,-0.00693547073751688,-0.00770316319540143,0.028156772255897522,0.019743435084819794,0.12133396416902542,0.030532294884324074,-0.31249627470970154,-1.0522692203521729,0.37549179792404175,0.782882571220398,0.46079277992248535,0.1858852058649063
1749050658.9067194,-0.5547316710101526,-0.5093707603267212,-0.9864833950996399,-2.115232130090231,-4.0792534987079065,-0.12965375581850225,-0.00736038526520133,-0.008065878413617611,0.0282057486474514,0.02011818438768387,0.12567013502120972,0.031308043748140335,-0.33077093958854675,-1.0617780685424805,0.38715872168540955,0.7834681272506714,0.4406047463417053,0.17735698819160461
1749050658.906756,-0.554720703755514,-0.5093861383250733,-0.9864322543144226,-2.1152121029295863,-4.079011265431539,-0.1295717398272913,-0.007873605005443096,-0.00815466046333313,0.028208907693624496,0.020354723557829857,0.1227472722530365,0.03118225559592247,-0.30382755398750305,-1.0440433025360107,0.3783356249332428,0.7755464315414429,0.4727386236190796,0.17899943888187408
1749050658.9067929,-0.5547102133380335,-0.5094219011119385,-0.9863240122795105,-2.115124364892477,-4.07855731645693,-0.12947065034975225,-0.007166942581534386,-0.008147604763507843,0.02944773994386196,0.02142307534813881,0.12876971065998077,0.031284160912036896,-0.31533297896385193,-1.056514024734497,0.3845716118812561,0.7650658488273621,0.45383501052856445,0.1882006824016571
1749050658.906829,-0.5547102133380335,-0.5094219011119385,-0.9863240122795105,-2.115124364892477,-4.07855731645693,-0.12947065034975225,-0.007166942581534386,-0.008147604763507843,0.02944773994386196,0.02142307534813881,0.12876971065998077,0.031284160912036896,-0.31533297896385193,-1.056514024734497,0.3845716118812561,0.7650658488273621,0.45383501052856445,0.1882006824016571
1749050658.9068666,-0.5547373930560511,-0.5094149869731446,-0.9862484335899353,-2.115060945550436,-4.07824427286257,-0.1293867270099085,-0.007502907421439886,-0.008826741948723793,0.029828732833266258,0.021642165258526802,0.1287747621536255,0.031151805073022842,-0.3088013827800751,-1.0754812955856323,0.3903844654560089,0.7587490081787109,0.46121710538864136,0.19798187911510468
1749050658.9069033,-0.5547564665423792,-0.509461836223938,-0.9861881732940674,-2.1150132618346156,-4.077994171773092,-0.12935048738588506,-0.0077871899120509624,-0.009318584576249123,0.030483944341540337,0.0219599399715662,0.12861952185630798,0.03361858054995537,-0.3278333246707916,-1.0849462747573853,0.4010131061077118,0.7616839408874512,0.48811447620391846,0.200247660279274
1749050658.90694,-0.5548389593707483,-0.5094819825938721,-0.9861287474632263,-2.1149655781187953,-4.077741924916403,-0.1292360464679163,-0.008477390743792057,-0.009046674706041813,0.030560575425624847,0.0224032960832119,0.13157640397548676,0.03439502418041229,-0.3165675401687622,-1.1026450395584106,0.38660719990730286,0.7614108920097351,0.47959327697753906,0.18226659297943115
1749050658.906976,-0.5548599402057093,-0.5094562333873291,-0.9860841631889343,-2.114917894402975,-4.077446285878317,-0.12919885316957647,-0.007909635081887245,-0.009655951522290707,0.030865130946040154,0.022673554718494415,0.13609500229358673,0.03461184725165367,-0.32632899284362793,-1.09326171875,0.39219459891319275,0.7611989974975586,0.47073787450790405,0.18828588724136353
1749050658.9070125,-0.554847542439596,-0.5095177453807374,-0.9860079288482666,-2.1148888073363246,-4.077205483113424,-0.12912351289858037,-0.008189031854271889,-0.009833584539592266,0.03232603892683983,0.022013304755091667,0.13825763761997223,0.03437855839729309,-0.3215816915035248,-1.1009175777435303,0.403417706489563,0.7621263861656189,0.4684392511844635,0.20766179263591766
1749050658.9073834,-0.5548566023456019,-0.5095177453807374,-0.9859395623207092,-2.114849706689352,-4.076889816914694,-0.12907392183412725,-0.00804151687771082,-0.009429500438272953,0.03359033167362213,0.022640036419034004,0.1395930051803589,0.034164320677518845,-0.3083268404006958,-1.0936815738677979,0.3758324086666107,0.7746027708053589,0.44492360949516296,0.17195893824100494
1749050658.9093697,-0.5548437277423304,-0.5095351499370118,-0.9858573079109192,-2.1147901020445765,-4.076656405125753,-0.1289609114276331,-0.007672127336263657,-0.009768662042915821,0.032554663717746735,0.023555517196655273,0.14476627111434937,0.034982092678546906,-0.3287011384963989,-1.1013585329055786,0.37603241205215454,0.753406822681427,0.4222721457481384,0.16623367369174957
1749050658.9502692,-0.5548642317401331,-0.5095589917949219,-0.9857852458953857,-2.1147543392577113,-4.076328817998068,-0.12891179720033819,-0.00809375662356615,-0.010829612612724304,0.031996820122003555,0.022831860929727554,0.14214789867401123,0.033690810203552246,-0.33803215622901917,-1.1059068441390991,0.38582730293273926,0.7575356364250183,0.4475354254245758,0.186854749917984
1749050658.9503157,-0.554915730153219,-0.509552077656128,-0.9857666492462158,-2.1147104702391566,-4.076047484074728,-0.12884122530092412,-0.008863003924489021,-0.010048153810203075,0.03306005150079727,0.023099033161997795,0.14041616022586823,0.03456420823931694,-0.3135083317756653,-1.1012345552444458,0.38880062103271484,0.7541709542274475,0.4536510109901428,0.19646623730659485
1749050658.950357,-0.554885212575094,-0.5095982116511841,-0.9856723546981812,-2.11466707805776,-4.075743500386373,-0.12878019014467412,-0.008984711952507496,-0.009866642765700817,0.03339817374944687,0.023855553939938545,0.14497295022010803,0.03386536240577698,-0.3219868838787079,-1.0986015796661377,0.3924119770526886,0.7567209005355835,0.4540855884552002,0.19980783760547638
1749050658.9504025,-0.5549524466144007,-0.5095982116511841,-0.985596776008606,-2.114610811273092,-4.075490061436788,-0.12872010866274053,-0.008686993271112442,-0.01010415330529213,0.033975813537836075,0.024462265893816948,0.14411486685276031,0.03488825261592865,-0.3192909061908722,-1.1247692108154297,0.39670372009277344,0.7623566389083862,0.4364844858646393,0.19815480709075928
1749050658.9504426,-0.5549171606646937,-0.5096314710429688,-0.9855520725250244,-2.1145664654173792,-4.075174156819479,-0.12867862382997686,-0.008605477400124073,-0.010280829854309559,0.0349322184920311,0.024517182260751724,0.14364007115364075,0.03508313000202179,-0.31826052069664,-1.1323637962341309,0.38343802094459534,0.7445282936096191,0.43957629799842834,0.1983742117881775
1749050658.9504817,-0.5549500624286097,-0.5096541208079834,-0.9854836463928223,-2.114500185052389,-4.074826542531149,-0.12855416933168584,-0.008330409415066242,-0.009960037656128407,0.034167222678661346,0.02483431249856949,0.1452222615480423,0.034873880445957184,-0.3257239758968353,-1.1451722383499146,0.3799324631690979,0.751038670539856,0.43348419666290283,0.19015759229660034
1749050658.9505236,-0.5549686590777796,-0.509655312900879,-0.9854118227958679,-2.114455839196676,-4.074516359959738,-0.1284850279437464,-0.007822161540389061,-0.01053145993500948,0.03287912905216217,0.02509590983390808,0.14503954350948334,0.03600426763296127,-0.3141508996486664,-1.1406583786010742,0.4086185395717621,0.7565186023712158,0.4719567894935608,0.19222429394721985
1749050658.950562,-0.5549500624286097,-0.5096826118281861,-0.9853362441062927,-2.1144048176207484,-4.074265782033102,-0.12842971483339483,-0.007861517369747162,-0.010355323553085327,0.03413889557123184,0.024890335276722908,0.14663755893707275,0.037249330431222916,-0.31736278533935547,-1.159149408340454,0.4060705602169037,0.7463421821594238,0.46158990263938904,0.19548296928405762
1749050658.9505997,-0.5550277868853968,-0.5097260040095826,-0.9852604269981384,-2.114376207391256,-4.073965374623434,-0.12834197679628545,-0.009116745553910732,-0.010629838332533836,0.035392001271247864,0.025107448920607567,0.14909282326698303,0.03704674541950226,-0.3219529986381531,-1.1531347036361694,0.385392427444458,0.7456211447715759,0.4450131952762604,0.19882690906524658
1749050658.9506369,-0.5550325552569788,-0.5097153943828125,-0.985223114490509,-2.1143280468382777,-4.073653046284811,-0.12830764452089483,-0.008640103042125702,-0.010747760534286499,0.035249050706624985,0.025051118806004524,0.1496942788362503,0.03759694844484329,-0.30654484033584595,-1.1330569982528687,0.41053149104118347,0.7428358793258667,0.4408152401447296,0.20678085088729858
1749050658.950674,-0.5550754706012171,-0.5097580713084717,-0.9851357340812683,-2.114241739312643,-4.073324505482809,-0.1281831900226038,-0.008476976305246353,-0.010109791532158852,0.03551982715725899,0.025234472006559372,0.1517288237810135,0.037551168352365494,-0.33950382471084595,-1.1533291339874268,0.38096386194229126,0.7398786544799805,0.445133239030838,0.1989670693874359
1749050658.9507115,-0.5550444761859339,-0.5097392362407227,-0.9850756525993347,-2.1142012081541957,-4.073028389607565,-0.12811404863466436,-0.009275776334106922,-0.011164055205881596,0.03583095222711563,0.025245454162359238,0.15285497903823853,0.03795360028743744,-0.3122779428958893,-1.1522653102874756,0.4012625515460968,0.7483698129653931,0.42155444622039795,0.17278683185577393
1749050658.9507484,-0.5550773779498499,-0.5097819131663819,-0.9849689602851868,-2.114188333550924,-4.072739903126852,-0.1280577818499964,-0.009548025205731392,-0.011357635259628296,0.03587838262319565,0.025454998016357422,0.15134190022945404,0.038379717618227005,-0.3013496398925781,-1.1602988243103027,0.4104057550430298,0.7427529692649841,0.43949437141418457,0.19151972234249115
1749050658.9507844,-0.5551202932940882,-0.5098183912089844,-0.9849197268486023,-2.114112993279928,-4.072412077580587,-0.12794334093202764,-0.009028557687997818,-0.010240147821605206,0.036114417016506195,0.02644377015531063,0.15119974315166473,0.038706932216882706,-0.28581398725509644,-1.1834096908569336,0.3925761282444,0.734212338924408,0.4461979269981384,0.19313152134418488
1749050658.950821,-0.5550850073443812,-0.5098183912089844,-0.9848433136940002,-2.114068647424215,-4.072110478078024,-0.12786752382387334,-0.009304121136665344,-0.012223365716636181,0.03659806028008461,0.024801183491945267,0.15345342457294464,0.03790988400578499,-0.3011007010936737,-1.176135540008545,0.3938583433628082,0.7347864508628845,0.4137849509716034,0.1848507821559906
1749050658.9508579,-0.555094067250387,-0.5098316234401246,-0.9847440123558044,-2.113998075524801,-4.071735684071676,-0.12783414522279912,-0.009485500864684582,-0.011353148147463799,0.03716098517179489,0.024856287986040115,0.1497361958026886,0.03840307891368866,-0.2941770851612091,-1.1676175594329834,0.3847320079803467,0.732319176197052,0.43233275413513184,0.2090536653995514
1749050658.9508946,-0.5551751295672815,-0.5098708432963868,-0.9846882224082947,-2.113957544366354,-4.071466986333029,-0.1277549902545374,-0.009525309316813946,-0.011696824803948402,0.03744503855705261,0.025215689092874527,0.15133850276470184,0.039426837116479874,-0.3041084408760071,-1.1837835311889648,0.3746480941772461,0.7487629652023315,0.4460100531578064,0.18749848008155823
1749050658.9509306,-0.5552027861224573,-0.5098554652980347,-0.9846197962760925,-2.1139217815794886,-4.071127955113546,-0.12762815157045537,-0.009603853337466717,-0.011540892533957958,0.037654150277376175,0.026165062561631203,0.15392199158668518,0.03834347426891327,-0.30872082710266113,-1.1760796308517456,0.37754493951797485,0.7237288951873779,0.42465585470199585,0.19926050305366516
1749050658.9509676,-0.5551999250995081,-0.5099175733378907,-0.9845435619354248,-2.11383118251943,-4.07081920305361,-0.12757522264589483,-0.009343636222183704,-0.011341753415763378,0.03811344876885414,0.026258625090122223,0.1539328545331955,0.03983483090996742,-0.2784425616264343,-1.1942099332809448,0.39262521266937256,0.7306423783302307,0.45292234420776367,0.19672809541225433
1749050658.9510043,-0.5552313963519495,-0.5099105399898072,-0.9844633936882019,-2.1137830219664515,-4.070550266896383,-0.12752324739565069,-0.008719012141227722,-0.01149804051965475,0.03867677226662636,0.026225170120596886,0.1566367894411087,0.040083300322294235,-0.3127342462539673,-1.1753365993499756,0.37785422801971436,0.7452269196510315,0.45643433928489685,0.2141609936952591
1749050658.9513605,-0.5552471319781702,-0.5099125665477295,-0.9843565225601196,-2.1137544117369593,-4.0702062288867396,-0.12741262117494756,-0.009591256268322468,-0.011093840934336185,0.03906810283660889,0.02604789286851883,0.15949177742004395,0.03970256820321083,-0.32170164585113525,-1.1764274835586548,0.38553357124328613,0.7415193319320679,0.4561568796634674,0.21153275668621063
1749050658.9541914,-0.5552633444415491,-0.5099831384471436,-0.9842318296432495,-2.113612791100973,-4.069604221974508,-0.1272490660296839,-0.010318600572645664,-0.011185943149030209,0.04005938768386841,0.02514677867293358,0.16650986671447754,0.0418507419526577,-0.28899914026260376,-1.2059903144836426,0.34990838170051575,0.7407560348510742,0.44441816210746765,0.2091236561536789
1749050658.9985414,-0.5552633444415491,-0.5099831384471436,-0.9842318296432495,-2.113612791100973,-4.069604221974508,-0.1272490660296839,-0.010318600572645664,-0.011185943149030209,0.04005938768386841,0.02514677867293358,0.16650986671447754,0.0418507419526577,-0.28899914026260376,-1.2059903144836426,0.34990838170051575,0.7407560348510742,0.44441816210746765,0.2091236561536789
1749050658.9986181,-0.5552938620196741,-0.5099845689586182,-0.984063982963562,-2.11352076152944,-4.06891376176943,-0.1270812193499964,-0.011407552286982536,-0.011098814196884632,0.038799215108156204,0.026209542527794838,0.16652502119541168,0.04032444581389427,-0.2665538489818573,-1.1949636936187744,0.373089075088501,0.7325606942176819,0.48169049620628357,0.20245561003684998
1749050658.9986897,-0.5552938620196741,-0.5099845689586182,-0.984063982963562,-2.11352076152944,-4.06891376176943,-0.1270812193499964,-0.011407552286982536,-0.011098814196884632,0.038799215108156204,0.026209542527794838,0.16652502119541168,0.04032444581389427,-0.2665538489818573,-1.1949636936187744,0.373089075088501,0.7325606942176819,0.48169049620628357,0.20245561003684998
1749050658.9987583,-0.5553439299212855,-0.5100460809520264,-0.9839765429496765,-2.1134730778136195,-4.068553272877828,-0.1270201841937464,-0.010151786729693413,-0.01125324796885252,0.03993745520710945,0.026351239532232285,0.16748401522636414,0.041577327996492386,-0.2862069606781006,-1.186028242111206,0.36553579568862915,0.7409636378288269,0.46386075019836426,0.21315298974514008
1749050658.9988275,-0.5553320089923304,-0.5100357097438355,-0.9839038252830505,-2.113432069818014,-4.068225208912985,-0.1269171873675745,-0.010076628066599369,-0.010793951340019703,0.04032229259610176,0.026417642831802368,0.16712172329425812,0.0410543754696846,-0.2904113829135895,-1.213820457458496,0.36820828914642334,0.7520971298217773,0.47972625494003296,0.20555689930915833
1749050658.9988964,-0.5553677717791956,-0.5100754064372559,-0.9838199019432068,-2.1133653126158656,-4.067877117787496,-0.12683326402773076,-0.010073082521557808,-0.011602948419749737,0.04000614956021309,0.02576429769396782,0.16740694642066956,0.040548741817474365,-0.27618154883384705,-1.2128276824951172,0.381051242351532,0.7530666589736938,0.48570820689201355,0.21131473779678345
1749050658.9989624,-0.555399243031637,-0.51010616243396,-0.9837395548820496,-2.1133367023863734,-4.067531887684957,-0.12675267854799444,-0.010326286777853966,-0.01176725048571825,0.04075269028544426,0.02650436945259571,0.1686677783727646,0.04144299402832985,-0.29851242899894714,-1.209007978439331,0.36527225375175476,0.7640378475189209,0.4802844226360321,0.2221984565258026
1749050658.999029,-0.5554311911212366,-0.5101420444301148,-0.9836705923080444,-2.1132737598814906,-4.067190710698263,-0.12663823763002569,-0.010278230533003807,-0.012273140251636505,0.04099775478243828,0.026400061324238777,0.17168602347373962,0.04300611838698387,-0.2986549139022827,-1.2212541103363037,0.3619542419910431,0.7579700946807861,0.47792893648147583,0.1943497657775879
1749050658.9990962,-0.555396858845846,-0.5101315540126343,-0.9835993647575378,-2.113213678399557,-4.066823546086447,-0.12655812898744756,-0.010288862511515617,-0.012044854462146759,0.04189344868063927,0.027424002066254616,0.1762552112340927,0.042546238750219345,-0.29095160961151123,-1.2248281240463257,0.36535394191741943,0.7539576888084412,0.47391074895858765,0.20607197284698486
1749050658.9991636,-0.5554869810687464,-0.5101677936366578,-0.9835028648376465,-2.113169332543844,-4.0664783159839075,-0.12647563615907842,-0.009479323402047157,-0.011844943277537823,0.04091448709368706,0.028315261006355286,0.17876194417476654,0.041890956461429596,-0.31132763624191284,-1.212081789970398,0.37084925174713135,0.7673065066337585,0.4637429714202881,0.21323110163211823
1749050658.99923,-0.5554912726031702,-0.5102173847011109,-0.9834123849868774,-2.1131097278990687,-4.066114250813619,-0.12639886537660772,-0.010721533559262753,-0.012214215472340584,0.04278384894132614,0.028576530516147614,0.1818520426750183,0.04192173853516579,-0.3111470639705658,-1.2042979001998901,0.3848825991153717,0.7708917856216431,0.46698081493377686,0.21767686307430267
1749050658.9992967,-0.555518929158346,-0.5102347892573853,-0.9833159446716309,-2.113039632836813,-4.065734926854269,-0.12632543245424444,-0.01040167361497879,-0.011763712391257286,0.043405450880527496,0.0289631225168705,0.1827494204044342,0.04254261776804924,-0.28400763869285583,-1.220482587814331,0.3557669520378113,0.7731994986534119,0.4691522717475891,0.22717684507369995
1749050658.9993637,-0.555511776600973,-0.5102592271617432,-0.9832476377487183,-2.1129681072630824,-4.06537372270693,-0.12623769441713506,-0.010393830947577953,-0.012122146785259247,0.04236958920955658,0.029339592903852463,0.1817493438720703,0.043667905032634735,-0.27834808826446533,-1.2285913228988647,0.34700456261634827,0.7902931571006775,0.47728824615478516,0.24346709251403809
1749050658.9994302,-0.5555046240435999,-0.5102521938136597,-0.9831480979919434,-2.112911363641256,-4.065001312886373,-0.12612706819643194,-0.011052289977669716,-0.012835226021707058,0.0414564311504364,0.02996501512825489,0.18459689617156982,0.045218326151371,-0.30204835534095764,-1.213100552558899,0.37152761220932007,0.7681021690368652,0.4876195192337036,0.22303830087184906
1749050658.999497,-0.5555208365069788,-0.510310248737671,-0.9830517172813416,-2.1128398380675257,-4.064612929021017,-0.12602407137026006,-0.010281920433044434,-0.012387236580252647,0.04386113956570625,0.030245725065469742,0.1822812855243683,0.04576241970062256,-0.29630574584007263,-1.2414052486419678,0.36972692608833313,0.7748057246208191,0.5121734738349915,0.20803669095039368
1749050658.9995635,-0.5555842558490198,-0.5103375476649781,-0.9829989671707153,-2.1127921543517054,-4.064260307942526,-0.12594396272768194,-0.01013098657131195,-0.013252331875264645,0.04547984153032303,0.030747713521122932,0.189065083861351,0.04581032320857048,-0.313623309135437,-1.2177207469940186,0.35249337553977966,0.7656015157699585,0.5189802646636963,0.2469923049211502
1749050658.9996305,-0.5556147734271448,-0.5104010862163086,-0.9828994870185852,-2.1127172909178675,-4.0638373533831995,-0.1258485952960413,-0.01036693062633276,-0.013122295029461384,0.04566490650177002,0.03140652924776077,0.1903584599494934,0.04879061132669449,-0.30246108770370483,-1.2311753034591675,0.35544946789741516,0.7697933316230774,0.4918045997619629,0.20064406096935272
1749050658.999698,-0.5555956999408167,-0.5103445810130616,-0.9828036427497864,-2.1126729450621546,-4.063499752675192,-0.1257713476764124,-0.0095586022362113,-0.013716290704905987,0.04334068298339844,0.03105500154197216,0.19524802267551422,0.049492157995700836,-0.2894774079322815,-1.229053258895874,0.3703959584236145,0.7831773161888123,0.48748645186424255,0.19696851074695587
1749050658.999766,-0.5556572119342249,-0.5104250472835083,-0.9827038049697876,-2.112600942651266,-4.063087050114767,-0.12565118471254522,-0.009355987422168255,-0.013312108814716339,0.04494253545999527,0.030909864231944084,0.2005019187927246,0.048909083008766174,-0.33963024616241455,-1.2402547597885132,0.3666883111000061,0.7801607847213745,0.48030051589012146,0.215648353099823
1749050658.999833,-0.5557029883014124,-0.5104110997966309,-0.9826234579086304,-2.112526079217428,-4.062694613133566,-0.12556392351259404,-0.010732671245932579,-0.013878138735890388,0.04599563032388687,0.030472131446003914,0.20561537146568298,0.048436716198921204,-0.3107782304286957,-1.2430493831634521,0.3694705367088318,0.7911430597305298,0.47526633739471436,0.22303220629692078
1749050658.9998999,-0.5557172934161585,-0.5104698699763794,-0.9825322031974792,-2.112481733361715,-4.06232196489443,-0.12544566789735967,-0.010574601590633392,-0.013498244807124138,0.04693172872066498,0.03088313341140747,0.20304560661315918,0.046182334423065186,-0.28280386328697205,-1.2517540454864502,0.35592174530029297,0.7881183624267578,0.48243650794029236,0.22960954904556274
1749050658.9999669,-0.5557072798358362,-0.5104780954173584,-0.9824163913726807,-2.1124187908568324,-4.061878983174459,-0.12536555925478154,-0.010860963724553585,-0.013384846039116383,0.04671885073184967,0.031578123569488525,0.2060188502073288,0.04834207147359848,-0.30734696984291077,-1.2472001314163208,0.3594456911087036,0.7976674437522888,0.4694526791572571,0.24655166268348694
1749050659.0001245,-0.5556953589068812,-0.5104984802058716,-0.9823557138442993,-2.1123467884459437,-4.061434332524435,-0.1252353827105921,-0.011427534744143486,-0.013754159212112427,0.04578782618045807,0.03257913514971733,0.20216329395771027,0.051321983337402344,-0.2861989140510559,-1.2250782251358032,0.34949591755867004,0.799396812915802,0.49152493476867676,0.21943268179893494
1749050659.0014033,-0.555770222340719,-0.5105317395976563,-0.9822872877120972,-2.112270494500631,-4.061075750981466,-0.12517816225160772,-0.010896042920649052,-0.014331803657114506,0.04563802853226662,0.03328505530953407,0.20217737555503845,0.052968572825193405,-0.3046945333480835,-1.245845079421997,0.37212592363357544,0.7782943248748779,0.5215615630149841,0.20868921279907227
1749050659.0424945,-0.5558040777789515,-0.5105471175960083,-0.9821788668632507,-2.112210889855856,-4.060679499302999,-0.12507802644838506,-0.010781509801745415,-0.014283984899520874,0.0457099974155426,0.033341217786073685,0.20354342460632324,0.05327291786670685,-0.29399800300598145,-1.2694395780563354,0.3683964014053345,0.8008311986923218,0.5290120244026184,0.23040348291397095
1749050659.0425727,-0.5557907263385218,-0.5105794233134766,-0.9820795655250549,-2.1121512852110804,-4.0602245966540735,-0.1250084082232874,-0.010255439206957817,-0.016024990007281303,0.04715671017765999,0.033393170684576035,0.20795223116874695,0.0530780553817749,-0.30238163471221924,-1.239600658416748,0.3614542484283447,0.7835408449172974,0.4971468448638916,0.21086952090263367
1749050659.042645,-0.5557997862445276,-0.5106429618648072,-0.982002854347229,-2.112063547173971,-4.059846941624777,-0.1248696486102503,-0.010016574524343014,-0.015529158525168896,0.04700136557221413,0.03297577425837517,0.2126285880804062,0.05376547947525978,-0.3284826874732971,-1.2281367778778076,0.3579988181591034,0.7957581281661987,0.4923945665359497,0.2282368242740631
1749050659.0427134,-0.5558336416827601,-0.5106514257243653,-0.9818679690361023,-2.1120039425291957,-4.059438292180197,-0.12472755113710576,-0.010810943320393562,-0.015271107666194439,0.04691940173506737,0.03314543887972832,0.21735121309757233,0.05410417541861534,-0.32520657777786255,-1.2320191860198975,0.37752020359039307,0.7897350788116455,0.49831581115722656,0.20640307664871216
1749050659.042781,-0.5558608214007776,-0.5107060235789795,-0.9817796349525452,-2.111936231652731,-4.058967892323629,-0.1246574560748499,-0.01102491095662117,-0.014948570169508457,0.049088213592767715,0.03320852667093277,0.22071826457977295,0.05374306067824364,-0.3519352972507477,-1.2463537454605103,0.34945148229599,0.7981948256492615,0.47471266984939575,0.2160559892654419
1749050659.0428495,-0.5558665434466761,-0.5106837314418335,-0.9816993474960327,-2.1118604145445765,-4.058557097111837,-0.12452823320497686,-0.012638768181204796,-0.015419245697557926,0.0485401451587677,0.03427847474813461,0.21800361573696136,0.053998664021492004,-0.3324255049228668,-1.2486034631729126,0.34404754638671875,0.7948875427246094,0.47802460193634033,0.2103443741798401
1749050659.042918,-0.5559142271624964,-0.5107626479915162,-0.9815962314605713,-2.1117855511107386,-4.058090273533956,-0.12440425554384404,-0.013636789284646511,-0.01571681909263134,0.04654068499803543,0.0358206145465374,0.21664202213287354,0.0529024675488472,-0.3007882535457611,-1.2322770357131958,0.3702269196510315,0.7902461290359497,0.48712918162345886,0.222258523106575
1749050659.0429847,-0.5559347311602991,-0.5107591909221192,-0.9815191030502319,-2.1116982899107875,-4.057738844548361,-0.12431937852968389,-0.013423693366348743,-0.015953246504068375,0.04766419902443886,0.03635110706090927,0.21250873804092407,0.05463499203324318,-0.2964608371257782,-1.237779140472412,0.36315634846687317,0.771796464920044,0.5228335857391357,0.2164224535226822
1749050659.0430522,-0.5559809843646448,-0.5108073514750977,-0.9813951849937439,-2.111614843408102,-4.057268444691793,-0.12417394319643194,-0.013206400908529758,-0.01567671075463295,0.04873809590935707,0.03699573501944542,0.21435633301734924,0.054777711629867554,-0.3143376111984253,-1.2244070768356323,0.3722344636917114,0.7867281436920166,0.5464837551116943,0.19871675968170166
1749050659.04312,-0.5559828917132776,-0.5108505052379151,-0.9812794923782349,-2.1115743122496546,-4.056849066411154,-0.12410384813417608,-0.012469164095818996,-0.015835760161280632,0.050024326890707016,0.03723962604999542,0.2184949368238449,0.05466027185320854,-0.2900253236293793,-1.23375403881073,0.33448031544685364,0.7585907578468323,0.5607706308364868,0.20777779817581177
1749050659.0431888,-0.5560014883624476,-0.5108520549586792,-0.9812185168266296,-2.111490388909811,-4.056409184132711,-0.12397319475282842,-0.01239305641502142,-0.015534630976617336,0.04718609154224396,0.0374474935233593,0.22365865111351013,0.05461994186043739,-0.3216191530227661,-1.2379940748214722,0.38073620200157166,0.7864071726799011,0.526206374168396,0.19564887881278992
1749050659.0432549,-0.556037727986471,-0.5109108251384278,-0.9810798168182373,-2.111415525475973,-4.055974070225851,-0.12386542955507451,-0.012518521398305893,-0.015750465914607048,0.04792746901512146,0.03730260208249092,0.22845594584941864,0.05369732528924942,-0.30512017011642456,-1.2441074848175049,0.39537888765335083,0.7660695910453796,0.5002279877662659,0.2093534618616104
1749050659.0433214,-0.556011978779928,-0.5109190505794068,-0.981026828289032,-2.111359258691305,-4.055467669163839,-0.12378055254091436,-0.012271475978195667,-0.015835171565413475,0.0495714470744133,0.037153471261262894,0.23330320417881012,0.05526462942361832,-0.32474637031555176,-1.2224904298782349,0.3705224394798279,0.7749511003494263,0.4660923480987549,0.20055486261844635
1749050659.0433867,-0.5560787359820765,-0.510951356296875,-0.9809306859970093,-2.111283918420309,-4.055031363164083,-0.12364179292787725,-0.012696335092186928,-0.015772055834531784,0.04996275156736374,0.036121319979429245,0.23264078795909882,0.0554676428437233,-0.3252607583999634,-1.2304747104644775,0.34760338068008423,0.7962727546691895,0.46152716875076294,0.22033676505088806
1749050659.0434535,-0.5561369101153772,-0.5109827083400269,-0.9808310270309448,-2.1111918888487757,-4.0545788447009485,-0.12353068987001592,-0.012923558242619038,-0.016695357859134674,0.04916348308324814,0.03672114759683609,0.23152700066566467,0.05593011528253555,-0.2927076518535614,-1.2446216344833374,0.37416356801986694,0.779282808303833,0.46320125460624695,0.20582877099514008
1749050659.0435185,-0.5561116377459925,-0.5110373061946412,-0.9807700514793396,-2.1111203632750453,-4.0541396776782435,-0.12341052690614873,-0.01295441947877407,-0.01644078642129898,0.048992760479450226,0.038114096969366074,0.23056301474571228,0.056216079741716385,-0.31523966789245605,-1.220354676246643,0.3744872808456421,0.7710247039794922,0.4720771312713623,0.20914015173912048
1749050659.043584,-0.5561884085284632,-0.5110661548427125,-0.9806271195411682,-2.1110297642149867,-4.053680245076315,-0.12332231203188115,-0.012514385394752026,-0.0164949968457222,0.04892442375421524,0.04008900374174118,0.22896315157413483,0.05609749257564545,-0.3148333430290222,-1.2362388372421265,0.3926697373390198,0.7350999712944031,0.48879390954971313,0.2009776085615158
1749050659.0436487,-0.5561850706683558,-0.5110904735377808,-0.9805192947387695,-2.1109687290587367,-4.05322772661318,-0.12320214906801397,-0.012686112895607948,-0.01643005944788456,0.0500059500336647,0.04024636372923851,0.23029176890850067,0.055953703820705414,-0.34443676471710205,-1.222478985786438,0.36750251054763794,0.7594791054725647,0.5081213116645813,0.19928744435310364
1749050659.0437174,-0.5561865011798304,-0.5111232560924073,-0.9804390668869019,-2.110885282556051,-4.052729670201437,-0.12309486070741826,-0.012025191448628902,-0.01623416692018509,0.050548750907182693,0.038480162620544434,0.23152965307235718,0.05674639716744423,-0.3343292474746704,-1.21186363697052,0.3774857521057129,0.7528204917907715,0.48341748118400574,0.17967946827411652
1749050659.0437872,-0.5562379995929163,-0.5111712974360962,-0.9802151918411255,-2.110741754571432,-4.051799599324362,-0.1228707472430628,-0.013095022179186344,-0.01601080223917961,0.05086781829595566,0.03761650621891022,0.23476587235927582,0.058219220489263535,-0.33417463302612305,-1.225257396697998,0.3815727233886719,0.7431459426879883,0.4536549746990204,0.18377262353897095
1749050659.043943,-0.5562379995929163,-0.5111712974360962,-0.9802151918411255,-2.110741754571432,-4.051799599324362,-0.1228707472430628,-0.013095022179186344,-0.01601080223917961,0.05086781829595566,0.03761650621891022,0.23476587235927582,0.058219220489263535,-0.33417463302612305,-1.225257396697998,0.3815727233886719,0.7431459426879883,0.4536549746990204,0.18377262353897095
1749050659.0453908,-0.5562928358661097,-0.5112070602229615,-0.9801228642463684,-2.1106425724425257,-4.0513508955584925,-0.12278682390321904,-0.014273091219365597,-0.016778593882918358,0.05092331022024155,0.03813525289297104,0.23537811636924744,0.055748093873262405,-0.3205403685569763,-1.2284753322601318,0.38395804166793823,0.7511932849884033,0.4493069350719452,0.18947961926460266
1749050659.086507,-0.5563371817218226,-0.5112393659404297,-0.9799991846084595,-2.1105710468687953,-4.050886933003561,-0.12265521684755498,-0.012989392504096031,-0.016166523098945618,0.051513589918613434,0.03943917155265808,0.23338435590267181,0.05488530173897743,-0.32000434398651123,-1.2345046997070312,0.38542330265045166,0.7362434267997742,0.47869887948036194,0.2121846228837967
1749050659.0865853,-0.5563119093524378,-0.5112862151912232,-0.9799152612686157,-2.110490938226217,-4.050428215657369,-0.1225207487689417,-0.013417261652648449,-0.016484001651406288,0.05201273784041405,0.03976522013545036,0.23167382180690765,0.05567208677530289,-0.3256925344467163,-1.2223398685455322,0.3797779679298401,0.7285249829292297,0.4781584143638611,0.22798743844032288
1749050659.086655,-0.5563700834857386,-0.5113063615611573,-0.9797956943511963,-2.110415597955221,-4.04996902147402,-0.12240535417665654,-0.013463479466736317,-0.015618803910911083,0.052500780671834946,0.03820888698101044,0.23334722220897675,0.05680147185921669,-0.34094277024269104,-1.250618577003479,0.37779563665390015,0.7190654873847961,0.5053722858428955,0.2101244330406189
1749050659.0867238,-0.5564177672015589,-0.5113267463496705,-0.9797149300575256,-2.110335966149801,-4.0495081583606165,-0.12231284776796514,-0.013962190598249435,-0.015937713906168938,0.05289103090763092,0.038432735949754715,0.23738811910152435,0.05677951127290726,-0.34155941009521484,-1.2338099479675293,0.37429079413414,0.7092634439468384,0.48637524247169495,0.2081136405467987
1749050659.086792,-0.5564025084124964,-0.5113510650447388,-0.9796029329299927,-2.11024870494985,-4.049040857945577,-0.12219363847841436,-0.013366460800170898,-0.01575443521142006,0.05295111984014511,0.039051156491041183,0.2409297525882721,0.05835132673382759,-0.30500590801239014,-1.2569776773452759,0.37783658504486084,0.7148662805557251,0.485120564699173,0.2190750241279602
1749050659.0868595,-0.5564439932452601,-0.5113595289042969,-0.9794981479644775,-2.110161443749899,-4.048538271580831,-0.12208921114076787,-0.013837791047990322,-0.015852974727749825,0.052920132875442505,0.038238681852817535,0.24319450557231903,0.060065194964408875,-0.300738126039505,-1.2442289590835571,0.38701534271240234,0.7278198003768921,0.4627414345741272,0.2015077769756317
1749050659.0869272,-0.5564473311053675,-0.5114392799190064,-0.9793750047683716,-2.110117097894186,-4.048065964375631,-0.12195760408510381,-0.013307979330420494,-0.015831757336854935,0.052991338074207306,0.03688898682594299,0.24339720606803894,0.059803739190101624,-0.34024113416671753,-1.2399660348892212,0.39983758330345154,0.7245998978614807,0.46404802799224854,0.17701318860054016
1749050659.086996,-0.5564520994769495,-0.5114782613566895,-0.9792829155921936,-2.1100455723204554,-4.047563139592306,-0.12182218233217412,-0.01371050626039505,-0.015871256589889526,0.05581872910261154,0.036190662533044815,0.2417496144771576,0.05804692581295967,-0.31680065393447876,-1.2449235916137695,0.38038185238838196,0.7448005080223083,0.45824241638183594,0.19329850375652313
1749050659.0870628,-0.5565312544452112,-0.5114916127971192,-0.979146420955658,-2.1099587879576625,-4.047074381505148,-0.12173825899233037,-0.014569183811545372,-0.016055652871727943,0.05370943620800972,0.03547803312540054,0.24095191061496735,0.05624827370047569,-0.30538344383239746,-1.2399194240570068,0.3929729461669922,0.7502162456512451,0.47409629821777344,0.21954190731048584
1749050659.0871294,-0.5565617720233362,-0.5115069907954712,-0.9790705442428589,-2.109886785546774,-4.046548906956808,-0.12158757845033819,-0.013817204162478447,-0.015462037175893784,0.053469374775886536,0.03587927296757698,0.24222487211227417,0.058076731860637665,-0.33554255962371826,-1.2615091800689697,0.3953532576560974,0.7638445496559143,0.4722915291786194,0.22260943055152893
1749050659.0871959,-0.5565736929522913,-0.5115432304194947,-0.9789155125617981,-2.1098033390440882,-4.046056095753805,-0.12148982683290654,-0.013388829305768013,-0.01622850075364113,0.05472341552376747,0.036563701927661896,0.2446761429309845,0.05954020097851753,-0.3449983596801758,-1.2503485679626465,0.3853242099285126,0.7610092759132385,0.4928235113620758,0.21130743622779846
1749050659.0872629,-0.5565756003009241,-0.5116169017604371,-0.9788191914558411,-2.1097709141173304,-4.045542780552999,-0.12139016786684209,-0.012863539159297943,-0.016291245818138123,0.057492464780807495,0.03726740553975105,0.24926897883415222,0.060608506202697754,-0.3390563726425171,-1.242796540260315,0.372189998626709,0.7654404640197754,0.4593520164489746,0.22748462855815887
1749050659.0873294,-0.5566027800189417,-0.5115958017161866,-0.9786834716796875,-2.109687467614645,-4.045058552418844,-0.12124282518495733,-0.013465522788465023,-0.016543535515666008,0.054496489465236664,0.0385880284011364,0.251711905002594,0.061255838721990585,-0.34814614057540894,-1.2325364351272583,0.38614538311958313,0.769982099533081,0.4236152768135071,0.21114835143089294
1749050659.0873954,-0.55664569536318,-0.5116663736156006,-0.9786015152931213,-2.109615465203756,-4.044588390980856,-0.12110406557192022,-0.014065631665289402,-0.01621369831264019,0.055449821054935455,0.03979147598147392,0.2522742748260498,0.06083326414227486,-0.3391323387622833,-1.2679880857467651,0.3880690634250641,0.7720061540603638,0.42062604427337646,0.22432145476341248
1749050659.087462,-0.5566661993609827,-0.5116748374751587,-0.9784746766090393,-2.109516759912008,-4.044090334569113,-0.12100011507143194,-0.014889405108988285,-0.016368070617318153,0.05619895085692406,0.03947005048394203,0.2512820065021515,0.062334731221199036,-0.30696770548820496,-1.258367657661438,0.3879920542240143,0.7745957374572754,0.47529008984565735,0.21309451758861542
1749050659.0875287,-0.5566800276385706,-0.5117110770991822,-0.9783552289009094,-2.109429498712057,-4.043577973042623,-0.12093717256654912,-0.015567139722406864,-0.016618242487311363,0.05657592788338661,0.04014578089118004,0.24733451008796692,0.06278162449598312,-0.3270105719566345,-1.248087763786316,0.3855515718460083,0.7594563961029053,0.47836998105049133,0.22009818255901337
1749050659.0875952,-0.5567806402789515,-0.5117040437510987,-0.9782587289810181,-2.109361787835592,-4.043028418217794,-0.12077027956117803,-0.01626603677868843,-0.016226431354880333,0.05651681870222092,0.040895115584135056,0.24689657986164093,0.0625588446855545,-0.2842833399772644,-1.2418978214263916,0.39812779426574707,0.7780674695968628,0.49311578273773193,0.2207600474357605
1749050659.087663,-0.5567863623248499,-0.5118025106242676,-0.9781230092048645,-2.1092659435667933,-4.042546812688009,-0.12066251436342412,-0.015582059510052204,-0.016865255311131477,0.05634990707039833,0.041574571281671524,0.24994735419750214,0.06270499527454376,-0.3252444267272949,-1.2734620571136475,0.39217832684516907,0.7762871980667114,0.5008707046508789,0.21678470075130463
1749050659.0877306,-0.5567830244647425,-0.5118228954127808,-0.9780188202857971,-2.1091748676695765,-4.042000595723287,-0.12048751512636358,-0.015424419194459915,-0.016337182372808456,0.056921035051345825,0.04232648387551308,0.25339099764823914,0.0634460523724556,-0.3229166269302368,-1.2951836585998535,0.3923226296901703,0.7542120218276978,0.474383682012558,0.24622167646884918
1749050659.0877976,-0.5567968527423304,-0.5118501943400879,-0.9778707027435303,-2.1090833149352015,-4.0414889494525355,-0.12038690248598272,-0.01511024497449398,-0.0166355911642313,0.057929087430238724,0.04241058602929115,0.25990042090415955,0.06547103822231293,-0.3328326940536499,-1.268047571182251,0.39676451683044434,0.774539053440094,0.45098453760147095,0.19559107720851898
1749050659.087957,-0.5568769613849085,-0.511903242473938,-0.9777666330337524,-2.109030862847799,-4.040957514439718,-0.120216194783346,-0.014890184625983238,-0.016949767246842384,0.05811973661184311,0.04194336012005806,0.25913700461387634,0.06517969816923141,-0.31610405445098877,-1.2600269317626953,0.3901503086090088,0.7720564603805542,0.46206018328666687,0.21206623315811157
1749050659.0894182,-0.5568721930133265,-0.5119047921947022,-0.9776346683502197,-2.1089354954161585,-4.040422026311056,-0.12010366121401006,-0.015206906013190746,-0.016740506514906883,0.05897192284464836,0.041360337287187576,0.26007145643234253,0.06506577879190445,-0.3406432867050171,-1.268897533416748,0.3980007767677307,0.7792383432388306,0.4479331374168396,0.2172357738018036
1749050659.1304939,-0.5569642225848597,-0.5119823974421998,-0.9775107502937317,-2.108882566491598,-4.039847437535421,-0.11995965639223272,-0.014968357048928738,-0.016620879992842674,0.06102081388235092,0.04178444668650627,0.25945889949798584,0.06364817917346954,-0.3402756452560425,-1.277969479560852,0.39029332995414734,0.7821090817451477,0.4816626012325287,0.2187078595161438
1749050659.1305716,-0.5569656530963343,-0.5119717878154297,-0.9774059653282166,-2.108760973016256,-4.039373461400167,-0.11983138719667608,-0.015746625140309334,-0.015734059736132622,0.060733456164598465,0.04270385205745697,0.26256972551345825,0.06423386186361313,-0.3318192958831787,-1.2823946475982666,0.3713337481021881,0.7953661680221558,0.4690766930580139,0.21213433146476746
1749050659.1306424,-0.5569489637957972,-0.512007550602295,-0.9772828817367554,-2.1086775265135707,-4.038845602666036,-0.11975747743715459,-0.015272065065801144,-0.01682652160525322,0.059658344835042953,0.04260728880763054,0.2646068036556244,0.06659838557243347,-0.3146139681339264,-1.2816171646118164,0.3964765965938568,0.794452965259552,0.4780360460281372,0.20298756659030914
1749050659.1307104,-0.5570223967181605,-0.5120591682246705,-0.9771579504013062,-2.10858215908193,-4.0382767359363,-0.11954862276186162,-0.015816284343600273,-0.016353486105799675,0.06087271124124527,0.043032076209783554,0.26591065526008606,0.06890127807855606,-0.3070816397666931,-1.3017370700836182,0.3860505223274231,0.7958798408508301,0.47335654497146606,0.21349941194057465
1749050659.1307788,-0.5570653120623987,-0.5120871824077149,-0.9770342111587524,-2.1085173092284144,-4.037747446690695,-0.11943179765810186,-0.015115529298782349,-0.016901513561606407,0.06365860253572464,0.044795773923397064,0.2696797251701355,0.06770425289869308,-0.33944112062454224,-1.2931909561157227,0.34567946195602417,0.7792052626609802,0.4669628143310547,0.20390957593917847
1749050659.1308482,-0.5570672194110315,-0.5120884937099,-0.9768992066383362,-2.108421941796774,-4.037212196980612,-0.119331185017721,-0.015988701954483986,-0.017265528440475464,0.060847971588373184,0.047009680420160294,0.2700798213481903,0.06550147384405136,-0.329778790473938,-1.3032058477401733,0.36943307518959045,0.7907776236534119,0.46714216470718384,0.22723841667175293
1749050659.1309187,-0.5571096579181116,-0.5121433299830933,-0.9767817854881287,-2.1083384952940882,-4.036675516759054,-0.11916476884950811,-0.015925008803606033,-0.017518898472189903,0.061943694949150085,0.04756379872560501,0.26840564608573914,0.06780679523944855,-0.30736076831817627,-1.2930647134780884,0.38092321157455444,0.7812198996543884,0.4905162453651428,0.20350328087806702
1749050659.1309881,-0.5571458975421351,-0.5121827882579346,-0.9766503572463989,-2.108246465722555,-4.036070887242452,-0.11905175844301397,-0.016867557540535927,-0.01772422529757023,0.0629039779305458,0.04654015600681305,0.2711387872695923,0.06864505261182785,-0.33260300755500793,-1.296392798423767,0.3737318515777588,0.7856223583221436,0.5003967881202698,0.21152113378047943
1749050659.131059,-0.5571458975421351,-0.5121827882579346,-0.9766503572463989,-2.108246465722555,-4.036070887242452,-0.11905175844301397,-0.016867557540535927,-0.01772422529757023,0.0629039779305458,0.04654015600681305,0.2711387872695923,0.06864505261182785,-0.33260300755500793,-1.296392798423767,0.3737318515777588,0.7856223583221436,0.5003967881202698,0.21152113378047943
1749050659.1311276,-0.5572174231158655,-0.5122304719737549,-0.976394534111023,-2.1080600223936976,-4.034955565129415,-0.11877996126283819,-0.016602713614702225,-0.016468258574604988,0.06428609788417816,0.046983134001493454,0.2770884931087494,0.07281382381916046,-0.3292229473590851,-1.304472804069519,0.36268356442451477,0.7826363444328308,0.5230470299720764,0.19661730527877808
1749050659.1311967,-0.5572627226458948,-0.5122906726649781,-0.976266622543335,-2.107952734033102,-4.034388844166891,-0.11861974397768194,-0.01622232422232628,-0.01878836750984192,0.06412862241268158,0.04929157346487045,0.2833058536052704,0.07286614924669266,-0.32225191593170166,-1.3059229850769043,0.3518584370613098,0.7876915335655212,0.4684179127216339,0.20470961928367615
1749050659.1312642,-0.55731708208193,-0.512333945637085,-0.9761183857917786,-2.1078645191588343,-4.033805433903829,-0.1184609572040003,-0.01604158617556095,-0.019371993839740753,0.06470534205436707,0.05075214058160782,0.28360113501548767,0.06979105621576309,-0.30149394273757935,-1.279493808746338,0.3596392869949341,0.7581290602684021,0.4985421299934387,0.2056342363357544
1749050659.1313326,-0.5573290030108851,-0.5123714965632935,-0.9759988188743591,-2.107734342614645,-4.033276383076803,-0.11830646196474248,-0.01650446280837059,-0.01897897757589817,0.06483060866594315,0.05062948539853096,0.2827942967414856,0.06988164782524109,-0.33048343658447266,-1.2938828468322754,0.3683328628540039,0.7591986060142517,0.5036165118217468,0.22103101015090942
1749050659.1313992,-0.5573671499835413,-0.5123834174922486,-0.9758734107017517,-2.1076542339720667,-4.0326436201678675,-0.11822063127626592,-0.015984050929546356,-0.018049092963337898,0.06593343615531921,0.052183471620082855,0.2844267189502716,0.07152900844812393,-0.3392006754875183,-1.299200177192688,0.3619318902492523,0.7462148070335388,0.5237228870391846,0.19975806772708893
1749050659.1314669,-0.5574095884906214,-0.5124191802791138,-0.9757346510887146,-2.107535024682516,-4.0320826212512415,-0.11803704897035772,-0.016563037410378456,-0.018403412774205208,0.06582407653331757,0.053579650819301605,0.2891976237297058,0.07129566371440887,-0.33930641412734985,-1.3026055097579956,0.34193965792655945,0.7069541811943054,0.4941525459289551,0.2204083949327469
1749050659.131533,-0.5574095884906214,-0.5124331277659913,-0.9755863547325134,-2.1074277363219203,-4.031487766896383,-0.11789399782289678,-0.01567072980105877,-0.01891014724969864,0.06553519517183304,0.05354079604148865,0.29242485761642456,0.0720294937491417,-0.3388257324695587,-1.3190668821334839,0.35357043147087097,0.7008485794067383,0.4939152002334595,0.20606672763824463
1749050659.131598,-0.5574610869037073,-0.5125259918025513,-0.9754432439804077,-2.107297559777731,-4.030924383793966,-0.1177604834185999,-0.016119692474603653,-0.01914520375430584,0.06561066210269928,0.05269080027937889,0.2975344955921173,0.0722191110253334,-0.3430361747741699,-1.29334557056427,0.35712769627571106,0.7156211733818054,0.481484055519104,0.2122582495212555
1749050659.131663,-0.5574782530414026,-0.51255817831073,-0.9753138422966003,-2.1072398624815882,-4.0303407351123255,-0.11762124696840459,-0.016338227316737175,-0.01943373493850231,0.06633239984512329,0.05086229369044304,0.29410049319267273,0.07250334322452545,-0.3412453830242157,-1.311120629310608,0.3425915837287903,0.7047470808029175,0.47254693508148193,0.21692880988121033
1749050659.1317294,-0.5574834982501429,-0.5125597280314942,-0.9751707315444946,-2.1071325741209925,-4.02974516550173,-0.11747247377504522,-0.016897372901439667,-0.02049243077635765,0.0658658817410469,0.05078089237213135,0.29318034648895264,0.07214316725730896,-0.31948617100715637,-1.2920106649398804,0.3522794246673584,0.7120841145515442,0.5045555830001831,0.21550682187080383
1749050659.1317961,-0.5575841108905237,-0.5126190942576905,-0.9750539660453796,-2.1070100269713343,-4.02913481393923,-0.1173332373248499,-0.01742660254240036,-0.0203379075974226,0.06832472234964371,0.05181201174855232,0.29442325234413147,0.07236035913228989,-0.32626909017562866,-1.3064221143722534,0.3501882255077362,0.7082511186599731,0.5653038024902344,0.23709654808044434
1749050659.1319542,-0.5575774351703089,-0.5126595062068482,-0.9749182462692261,-2.106926580468649,-4.0285823980914515,-0.11717015901674444,-0.01770237646996975,-0.019581038504838943,0.06622394174337387,0.05150521919131279,0.29847609996795654,0.07453151792287827,-0.32271888852119446,-1.3003942966461182,0.37243378162384033,0.6851690411567688,0.5571116805076599,0.22721141576766968
1749050659.1333897,-0.5576370398150843,-0.5126728576472779,-0.9747897982597351,-2.10680689434194,-4.02797514597048,-0.11701852480043584,-0.018509672954678535,-0.02013862319290638,0.06689396500587463,0.05082821473479271,0.3038605749607086,0.07551924139261246,-0.3200131058692932,-1.309106707572937,0.36945217847824097,0.697812557220459,0.5332606434822083,0.21274636685848236
1749050659.1743798,-0.5576732794391077,-0.5127503436854859,-0.9746384024620056,-2.106711526910299,-4.027380291615621,-0.1168435255633753,-0.017484081909060478,-0.020162541419267654,0.06955809891223907,0.04973166435956955,0.3092629313468933,0.0753069669008255,-0.32444846630096436,-1.3207767009735107,0.3399388790130615,0.6929410696029663,0.49756139516830444,0.20562481880187988
1749050659.1744251,-0.5576885382281702,-0.5127603572658082,-0.9745137095451355,-2.1066352329649867,-4.026749436055319,-0.11672717729677373,-0.017040206119418144,-0.019952140748500824,0.0662115141749382,0.04848003759980202,0.3138331472873688,0.07572166621685028,-0.3545548915863037,-1.3163366317749023,0.3585730791091919,0.7162567973136902,0.45406630635261536,0.22674840688705444
1749050659.1744664,-0.5577366987811487,-0.5128379625133057,-0.9743586778640747,-2.106511732141012,-4.02612549463381,-0.11658651033510381,-0.017631234601140022,-0.019885515794157982,0.06708822399377823,0.047663647681474686,0.3128405809402466,0.07637713849544525,-0.35514286160469055,-1.3200280666351318,0.3640264868736267,0.702833354473114,0.4914737045764923,0.21604250371456146
1749050659.1745057,-0.5577452818499964,-0.5129099649241944,-0.9742578268051147,-2.1064402065672816,-4.025489870701925,-0.11640674272646123,-0.017774002626538277,-0.02061605453491211,0.06750637292861938,0.047446902841329575,0.3127508759498596,0.0766337662935257,-0.34307849407196045,-1.30714750289917,0.356282502412796,0.7170211672782898,0.5078922510147095,0.2167956531047821
1749050659.174548,-0.5577967802630823,-0.5128756326488038,-0.974098265171051,-2.106344839135641,-4.024900976811544,-0.1162346045123499,-0.01823132298886776,-0.020535321906208992,0.06740222871303558,0.047018542885780334,0.31441113352775574,0.07709696888923645,-0.334352970123291,-1.3083285093307495,0.3543543517589569,0.7185233235359192,0.5125586986541748,0.20847705006599426
1749050659.1745868,-0.5578325430499476,-0.5129663509181519,-0.9739853143692017,-2.1062613926329554,-4.024239842091696,-0.11608297029604131,-0.018710589036345482,-0.02089178003370762,0.06777103990316391,0.04712844267487526,0.314677894115448,0.07959713041782379,-0.3121935725212097,-1.324525237083435,0.38467246294021606,0.7367759943008423,0.5178391337394714,0.2021067589521408
1749050659.174625,-0.5578535238849085,-0.5129719537547608,-0.9738382697105408,-2.1061345539488734,-4.023623768483297,-0.11592990556825811,-0.01847785897552967,-0.021045656874775887,0.06861624121665955,0.04762306436896324,0.31664618849754333,0.08079688251018524,-0.3303070664405823,-1.306616187095642,0.38385772705078125,0.7250475287437439,0.5174261331558228,0.20445065200328827
1749050659.1746624,-0.5579407850848597,-0.5130264324000855,-0.9736818671226501,-2.1060430012144984,-4.022921625767843,-0.11574346223940069,-0.019001714885234833,-0.02067607082426548,0.06927092373371124,0.0482044517993927,0.31846848130226135,0.07773532718420029,-0.31700897216796875,-1.318799376487732,0.3723427653312683,0.7309956550598145,0.5278765559196472,0.20159193873405457
1749050659.1747,-0.5579455534564417,-0.5130627912333985,-0.9735705256462097,-2.105950494805807,-4.022311035786764,-0.11565000215639287,-0.01917410083115101,-0.021070869639515877,0.06999588757753372,0.049362730234861374,0.3193727135658264,0.07705678045749664,-0.33376458287239075,-1.2991667985916138,0.38472282886505127,0.7349058985710144,0.527801513671875,0.21819934248924255
1749050659.1747408,-0.5579817930804651,-0.5131153625300904,-0.9734176397323608,-2.1058551273741664,-4.021697823201315,-0.1154401938067835,-0.018854735419154167,-0.02158142812550068,0.06892295181751251,0.04946566000580788,0.32167014479637146,0.07741054892539978,-0.32195574045181274,-1.3149136304855347,0.38944321870803833,0.7465986609458923,0.5521883964538574,0.2078014761209488
1749050659.1747797,-0.5580361525165003,-0.5131705564311524,-0.9732979536056519,-2.1057516537108363,-4.021081034337179,-0.1153033415423792,-0.019314497709274292,-0.02210262045264244,0.07178963720798492,0.04990825057029724,0.3288310170173645,0.07831764221191406,-0.34971296787261963,-1.2936490774154663,0.38808324933052063,0.7420153617858887,0.5391924381256104,0.20341069996356964
1749050659.1748176,-0.5580757300006312,-0.513187364940979,-0.9731379151344299,-2.1056210003294886,-4.020418707524435,-0.11510974565614873,-0.0196665171533823,-0.02213778905570507,0.06917546689510345,0.05057624354958534,0.3318054676055908,0.08086084574460983,-0.33474528789520264,-1.304404377937317,0.38838985562324524,0.7483900785446167,0.5042087435722351,0.19099418818950653
1749050659.1748552,-0.5581358114825647,-0.5132425588420411,-0.9729939103126526,-2.1055218182005824,-4.019743029271261,-0.11496907869447881,-0.01966410130262375,-0.021807827055454254,0.07115484029054642,0.051420584321022034,0.3326127529144287,0.0793008804321289,-0.3161112666130066,-1.3077470064163208,0.3961621820926666,0.7455224394798279,0.47695502638816833,0.19541378319263458
1749050659.1748922,-0.5581629912005823,-0.5132787984660645,-0.9728654026985168,-2.1054302654662074,-4.019146029149191,-0.11481315294374639,-0.019639430567622185,-0.02221350558102131,0.07406763732433319,0.05180619657039642,0.3321532905101776,0.07814152538776398,-0.3291572630405426,-1.3037211894989014,0.38608241081237793,0.7621734142303467,0.5073967576026917,0.21480299532413483
1749050659.1749294,-0.5582106749164026,-0.5133459132960816,-0.9727059006690979,-2.1053229771056117,-4.01849872270693,-0.1147072950946253,-0.019859902560710907,-0.02270491234958172,0.07343252748250961,0.05305688828229904,0.33153778314590454,0.07917041331529617,-0.34529995918273926,-1.305647850036621,0.3783915340900421,0.7497981786727905,0.5357477068901062,0.22376340627670288
