nimar13/UR3e_dataset_trayectorias/trayectorias_ejecutadas_filtradas/trapezoidal_func/trayectoria_044_result_filtrado.csv
timestamp,q1,q2,q3,q4,q5,q6,qd1,qd2,qd3,qd4,qd5,qd6,tau1,tau2,tau3,tau4,tau5,tau6
1749054707.626575,5.6168246511574464,-0.18861853531688177,-0.23587786837741487,-1.3440835155959554,4.965713551653151,5.470504353192911,-0.006975472293575036,-0.0035101783921275623,-0.00019862736550526342,-0.0014686194843620552,6.390072316283202e-05,-0.0019175294433075004,0.0456160381436347,-1.970245122909546,-1.2142548561096191,-0.7358796000480652,0.2061671614646911,0.0364881381392478
1749054707.6266546,5.616808150500118,-0.18862000963535536,-0.23587716229887823,-1.3440871816485405,4.965699275527573,5.470497496234173,-0.006963512997645102,-0.0031721276658061856,-0.00019246588842864452,-0.001458871106092983,4.618329029100453e-05,-0.001809181593130199,0.0417855754494667,-1.978179931640625,-1.219313383102417,-0.7148773074150085,0.1894163191318512,0.0459349453449249
1749054707.6267269,5.616792129502684,-0.1886213902905789,-0.235876390866149,-1.3440907350739046,4.965685552844947,5.470490941504907,-0.0069292091181580315,-0.002839640561526946,-0.00018637475056948016,-0.0014431983263356006,2.934213747526109e-05,-0.0017012886962249562,0.0812748149037361,-1.9788968563079836,-1.2157609462738037,-0.7334667444229126,0.1881975978612899,0.0188915282487869
1749054707.626796,5.616776814360268,-0.188622628420997,-0.23587550702371748,-1.3440940877843006,4.965672868478411,5.470484931410383,-0.006852971250666932,-0.0025177815022016867,-0.00018039446117877093,-0.001417295491175023,1.43101405233199e-05,-0.0015939577207166726,0.058751530945301,-1.9808475971221924,-1.2105873823165894,-0.7182173132896423,0.1949628442525863,0.0386969149112701
1749054707.6268654,5.616762381554508,-0.18862367367893873,-0.2358744743666697,-1.344097161735311,4.965661615152938,5.470479653373375,-0.006719137380237211,-0.0022113684715918992,-0.0001745585340913493,-0.001377953632434145,1.959187566425754e-06,-0.0014874530191680338,0.0444677844643592,-2.00216007232666,-1.2239038944244385,-0.7189982533454895,0.19765505194664,0.0553721934556961
1749054707.6269364,5.616748948297478,-0.1886244753757307,-0.2358732702452977,-1.344099895776511,4.9656520645418905,5.470475225881261,-0.006517402945802043,-0.0019247879383669612,-0.0001688936039268167,-0.001323445346310293,-6.971525571568845e-06,-0.001382236814958662,0.0719032883644104,-2.010870695114136,-1.2191946506500244,-0.7217711806297302,0.197757288813591,0.0408194288611412
1749054707.627005,5.616736567497675,-0.18862498526206517,-0.23587188799578349,-1.3441022512677958,4.965644353443677,5.4704716942085865,-0.006243691209365738,-0.0016617740112597353,-0.00016342038604862254,-0.0012537281541001983,-1.1941921320560694e-05,-0.0012789619577395404,0.096710667014122,-2.015793561935425,-1.224937081336975,-0.7150868773460388,0.204415813088417,0.0331927984952926
1749054707.6270747,5.616725228246155,-0.18862516162432066,-0.23587033800702784,-1.3441042156470713,4.965638485682006,5.470469034927561,-0.005900387231380431,-0.0014251946092751354,-0.00015815538284200692,-0.0011704582597193219,-1.266932247606578e-05,-0.0011784235723766735,0.073131039738655,-2.01733922958374,-1.2219573259353638,-0.7269059419631958,0.1957078725099563,0.0331933349370956
1749054707.6271296,5.616714861818795,-0.18862497456894137,-0.23586864737134608,-1.344105803360491,4.965634348102602,5.470467167002102,-0.005495927467545786,-0.0012168876152197396,-0.00015311310614175743,-0.0010768323867132363,-9.176159060315161e-06,-0.0010814851208946082,0.0675966888666153,-2.024318218231201,-1.2113957405090332,-0.7190724015235901,0.1959163248538971,0.034368947148323
1749054707.6271684,5.6167053522978785,-0.18862441223878063,-0.23586685796647916,-1.3441070540101225,4.965631736985012,5.470465966875288,-0.005043810373427747,-0.001037575356562728,-0.0001483084769536022,-0.0009772915340673525,-1.824335134885397e-06,-0.0009889978073181955,0.0614552274346351,-2.0146515369415283,-1.2201189994812012,-0.7286350131034851,0.1810190379619598,0.029419869184494
1749054707.6272058,5.616696550608603,-0.18862348708055926,-0.2358650229760462,-1.3441080281389406,4.96563038979283,5.470465285232093,-0.004561159069442794,-0.0008868675061667379,-0.000143758993146651,-0.0008771284593307608,8.667304492989533e-06,-0.0009017295539669538,0.0598879531025886,-2.02103590965271,-1.2243610620498655,-0.7328818440437317,0.2090300321578979,0.0322703421115875
1749054707.6272435,5.616688290912875,-0.1886222406442623,-0.2358632020765979,-1.3441088015474838,4.965630016970577,5.470464963604344,-0.0040670088176796345,-0.0007633476710556842,-0.00013948623288628933,-0.000782043062984026,2.1226837611871278e-05,-0.0008203127695418003,0.0713459253311157,-1.994082808494568,-1.2286219596862793,-0.725980818271637,0.2129770815372467,0.0352032035589218
1749054707.6272814,5.616680408469003,-0.188620745299969,-0.23586145574252093,-1.3441094591596445,4.96563032962503,5.47046484940284,-0.0035805039430823367,-0.0006647291639404705,-0.00013551629124854389,-0.0006976880204222198,3.445944054538492e-05,-0.0007452125812929399,0.0545447096228599,-2.0016732215881348,-1.2272357940673828,-0.7280393242835999,0.2097320109605789,0.0434020310640335
1749054707.6273184,5.61667275804555,-0.1886191017554501,-0.23585983930211918,-1.344110089154167,4.965631060899604,5.470464808267086,-0.0031191773119882125,-0.0005880598859855181,-0.00013187883072342225,-0.0006292413248887506,4.6708739153689265e-05,-0.0006767124781413411,0.0395342111587524,-1.997671604156494,-1.2271275520324707,-0.7318506836891174,0.2128267586231231,0.0420771315693855
1749054707.627355,5.616665231764275,-0.188617431996622,-0.23585839754265195,-1.3441107775888699,4.965631980688614,5.47046473289873,-0.0026974602582396728,-0.0005299539640434103,-0.0001286045602575514,-0.0005810336726743649,5.615312113938631e-05,-0.0006149133175157801,0.05369633436203,-1.9991981983184812,-1.2341444492340088,-0.7329434156417847,0.2017013132572174,0.0511737242341041
1749054707.6273923,5.616657774817232,-0.1886158680427785,-0.23585716076510194,-1.3441116034311422,4.965632904316949,5.47046454789511,-0.002325538298685147,-0.0004868282154437348,-0.00012572113514027866,-0.0005562490829235608,6.0938585473030305e-05,-0.000559743025593268,0.0505607426166534,-1.9813157320022583,-1.2203426361083984,-0.7369147539138794,0.2141267657279968,0.0485602766275405
1749054707.627429,5.616650397005244,-0.1886145377797844,-0.23585614308464822,-1.3441126339991927,4.965633695991791,5.470464210558658,-0.002008631387689343,-0.0004551241169357186,-0.00012324768022778875,-0.0005567095343700218,5.934631708980335e-05,-0.0005109759902589663,0.0507958084344863,-1.97588050365448,-1.2392871379852295,-0.7277820706367493,0.2183742076158523,0.0557845532894134
1749054707.6274717,5.6166431779161625,-0.1886135500353891,-0.23585534338987363,-1.3441139212250783,4.965634267812422,5.47046370817463,-0.0017467393831493586,-0.00043150005178989765,-0.00012118836630439397,-0.0005827502615193169,4.998872517756499e-05,-0.0004682615968384662,0.0818024650216102,-1.9828730821609497,-1.239872932434082,-0.7440972924232483,0.2127399146556854,0.0461767315864563
1749054707.6275094,5.616636264151732,-0.18861298156923462,-0.23585474881524815,-1.3441154994669706,4.965634575325955,5.470463052734017,-0.0015348566134670664,-0.00041298346562471593,-0.00011952569433254421,-0.0006331913496773996,3.202245772330724e-05,-0.0004311601994389416,0.0801710784435272,-1.964550256729126,-1.2322925329208374,-0.7448684573173523,0.2183605134487152,0.0468561500310897
1749054707.6275458,5.61662985826866,-0.1886128683721024,-0.23585434000057567,-1.3441173854234996,4.965634610951547,5.470462274412519,-0.0013636267772192295,-0.0003970775150692789,-0.0001182143419958486,-0.0007054115561186096,5.361361063938328e-06,-0.00039918277085353664,0.0602338314056396,-1.966413736343384,-1.2495193481445312,-0.7515775561332703,0.2425723373889923,0.0556031465530395
1749054707.627661,5.616624200668413,-0.18861320264069936,-0.2358540969146426,-1.3441195800525896,4.965634396707287,5.470461415159111,-0.0012203826950613382,-0.0003818213346254713,-0.00011717657593460925,-0.0007955292339738906,-2.9132896634415022e-05,-0.000371828821741608,0.074442334473133,-1.9707653522491453,-1.243314266204834,-0.7417270541191101,0.2372507154941558,0.0546544939279556
1749054707.629408,5.616619547055453,-0.18861393543951555,-0.23585400377339108,-1.3441220717182445,4.965633977403662,5.470460523418896,-0.0010904943261091482,-0.0003658068536864526,-0.00011630030528976127,-0.0008986903191676285,-6.950904267869662e-05,-0.00034861692822462894,0.0800541043281555,-1.9501957893371584,-1.2403327226638794,-0.7535586953163147,0.2147724479436874,0.0623194277286529
1749054707.6705902,5.616616144753864,-0.18861498390497106,-0.23585405182336108,-1.344124839566862,4.965633414989713,5.470459650402973,-0.000958931421048614,-0.0003481580185581415,-0.00011544082293068416,-0.0010094529540819561,-0.00011266216325381127,-0.0003291034657937809,0.0710172355175018,-1.944790601730347,-1.2644485235214231,-0.7354550361633301,0.2267119884490966,0.0601424872875213
1749054707.6706705,5.616614210858251,-0.18861624125780593,-0.23585423950374118,-1.344127856474995,4.965632784225963,5.47045884767885,-0.0008119334868994579,-0.0003284802387798708,-0.00011442712953207682,-0.0011222423115242399,-0.00015437610859744225,-0.00031288729665923594,0.097294345498085,-1.9403436183929443,-1.24641752243042,-0.7470884323120117,0.221083253622055,0.0383026599884033
1749054707.6707425,5.6166139141465585,-0.18861758793848835,-0.2358545703989193,-1.3441310914288238,4.965632169304234,5.47045816545532,-0.0006386697357889974,-0.00030678873569601177,-0.00011307344923700482,-0.0012318293326554083,-0.00018949752909728208,-0.0002996004822626066,0.0920699015259742,-1.947373390197754,-1.2446930408477783,-0.732438325881958,0.2455072700977325,0.0549392849206924
1749054707.6708114,5.616615361428697,-0.1886189026674864,-0.23585505004746052,-1.3441345113909564,4.965631660547891,5.470457650861646,-0.0004327660685940228,-0.0002834240411901748,-0.00011119612121550258,-0.0013337677108611447,-0.0002122594447268096,-0.0002888871720581252,0.0908079370856285,-1.9343050718307493,-1.2559618949890137,-0.7383764982223511,0.2368830442428589,0.0436861217021942
1749054707.670879,5.616618587927674,-0.18862007280499668,-0.23585568286352107,-1.3441380825050224,4.965631350219838,5.470457345651502,-0.00019357578195414946,-0.0002589612810440885,-0.00010863550037518079,-0.0014247114960596976,-0.00021676100945215016,-0.0002803744957008616,0.0908079370856285,-1.9343050718307493,-1.2559618949890137,-0.7383764982223511,0.2368830442428589,0.0436861217021942
1749054707.6709485,5.6166235506672875,-0.1886210036795026,-0.2358564700829719,-1.3441417702473915,4.965631326880794,5.470457282979603,7.292324263416986e-05,-0.00023411769837157644,-0.00010528185360399902,-0.001502539104199405,-0.00019759517270825341,-0.00027364052575556844,0.10165536403656,-1.910515069961548,-1.2770934104919434,-0.7236302495002747,0.2452854812145233,0.0518346577882766
1749054707.6710174,5.616630124038603,-0.18862162641180658,-0.23585740891682408,-1.3441455381607206,4.965631668450427,5.470457483259506,0.00035370818926477073,-0.00020966101318771767,-0.00010110354799644671,-0.0015662330709421933,-0.00015059798645362702,-0.000268185206037009,0.1018854230642318,-1.8877205848693848,-1.2717934846878052,-0.7320046424865723,0.2285381257534027,0.0822860300540924
1749054707.671086,5.616638097810611,-0.1886219034044638,-0.2358584924003674,-1.3441493450753295,4.965632434732529,5.470457949688611,0.0006288481407861868,-0.00018632036488164963,-9.617515938825552e-05,-0.0016155061472947546,-7.367361970224504e-05,-0.0002634105537423839,0.1243995949625969,-1.878328561782837,-1.266282320022583,-0.7371286153793335,0.2537773251533508,0.0481811910867691
1749054707.6711545,5.616647179132523,-0.1886218305551774,-0.23585970921454044,-1.3441531410810776,4.96563366037584,5.47045866465387,0.0008722460143959296,-0.0001647020371743147,-9.070254429533687e-05,-0.0016502136445676145,3.23704805787326e-05,-0.00025861631831610907,0.1151958256959915,-1.8816957473754885,-1.268589735031128,-0.7294230461120605,0.2563336789608001,0.0621523261070251
1749054707.6712265,5.616657000472359,-0.18862143564871298,-0.23586104315519543,-1.344156862791506,4.965635349015849,5.470459588517547,0.0010529913730895645,-0.0001452138934355682,-8.504147426992036e-05,-0.0016696365401419903,0.00016306113216930696,-0.0002530164302537471,0.1002418026328086,-1.8665575981140137,-1.273864984512329,-0.7222663164138794,0.2483860552310943,0.0649120211601257
1749054707.6712945,5.616667134527713,-0.18862077314472556,-0.23586247260567827,-1.3441604285274342,4.965637468903209,5.470460661885482,0.0011372765328276466,-0.00012800504006983798,-7.970620231117236e-05,-0.0016717492532998014,0.00030966485702810205,-0.0002457799257847019,0.0931838452816009,-1.870957851409912,-1.261014103889465,-0.7217945456504822,0.2575200200080871,0.0562696158885955
1749054707.6713626,5.616677115477268,-0.18861991637364797,-0.23586397074136312,-1.344163734027958,4.965639950026174,5.470461811428066,0.0010907636742498897,-0.00011292955425516358,-7.536442460666826e-05,-0.001652595729809063,0.0004588610656265358,-0.00023609768796085576,0.0549599826335907,-1.855285882949829,-1.2687021493911743,-0.711211621761322,0.2483621090650558,0.0532196462154388
1749054707.6714113,5.616686464339249,-0.18861894866996026,-0.23586550691391334,-1.3441666494143814,4.965642682797096,5.470462958156056,0.0008812229642363991,-9.954354334677891e-05,-7.281567290861042e-05,-0.001605888876014976,0.0005927772144000929,-0.00022327348455437453,0.0403445363044738,-1.850602388381958,-1.279390573501587,-0.711028516292572,0.2305811941623687,0.0713595151901245
1749054707.671449,5.616694715176433,-0.18861795499668188,-0.2358670489690711,-1.3441690183980541,4.965645518615206,5.470464026314915,0.00048121013229975273,-8.714249003309078e-05,-7.295139356875601e-05,-0.001522925055716458,0.0006894621927353841,-0.0002068346141321504,0.0408348590135574,-1.855878472328186,-1.2667369842529297,-0.6921795010566711,0.2452162504196167,0.0674026310443878
1749054707.6714857,5.616701438691098,-0.18861701512763634,-0.23586856574672785,-1.3441706607926154,4.965648272644604,5.470464951008597,-0.00012946600584417409,-7.484151863551359e-05,-7.66969277164749e-05,-0.0013928703755869548,0.0007238427104371305,-0.00018665423758538753,0.0354320928454399,-1.8442617654800413,-1.2830567359924316,-0.697712242603302,0.2193005084991455,0.0618154257535934
1749054707.671522,5.616706260429977,-0.18861619873252938,-0.2358700290529189,-1.3441713789719403,4.965650728885066,5.470465683205629,-0.0009617209980207517,-6.169640656115884e-05,-8.493823517975511e-05,-0.0012034313168467268,0.0006691626396508458,-0.00016307447561990363,-0.0175672620534896,-1.8517781496047971,-1.281339406967163,-0.6878803968429565,0.201127290725708,0.050954058766365
1749054707.6715577,5.616708872048702,-0.18861556218702508,-0.23587141480458712,-1.344170968107883,4.965652647353457,5.47046619156719,-0.0020158215200124247,-4.6858806382968704e-05,-9.84392503820431e-05,-0.0009418719056380553,0.0004988490611984683,-0.00013701694795650903,-0.0557378232479095,-1.83858060836792,-1.281554102897644,-0.6787484884262085,0.202796459197998,0.0655447542667388
1749054707.6715937,5.616709035312596,-0.1886151467831836,-0.23587270346713252,-1.3441692291438074,4.9656537730783,5.470466461197565,-0.0032808276652389226,-2.9755349362715277e-05,-0.00011775870863305404,-0.0005962872391947105,0.00018868524711744897,-0.00011006600159371019,-0.0513887107372283,-1.8492624759674072,-1.289698362350464,-0.6611106991767883,0.1894580870866775,0.0618204474449157
1749054707.67163,5.616706579283231,-0.18861497801157376,-0.23587388018079053,-1.34416598273714,4.96565384649565,5.470466489874083,-0.0047349601440383965,-1.0276963801710597e-05,-0.0001431773410478177,-0.0001569943335475889,-0.0002808935500930836,-8.450980324248719e-05,-0.0803252756595611,-1.856564283370972,-1.2938462495803833,-0.6423711180686951,0.1746226400136947,0.0673714876174926
1749054707.6716664,5.616701391383575,-0.18861506553896923,-0.2358749350827535,-1.3441610819925827,4.965652614631785,5.470466282690248,-0.0063469147822177805,1.1037972595322655e-05,-0.00017464671397576963,0.0003821373522559685,-0.0009226218365513833,-6.33260847037424e-05,-0.1103706210851669,-1.8424298763275144,-1.274916648864746,-0.6119567155838013,0.1469788700342178,0.0627143085002899
1749054707.6717794,5.616693403174403,-0.18861540359682488,-0.23587586419648265,-1.3441544219075898,4.965649842197497,5.470465846311744,-0.00807804043400878,3.284468899441175e-05,-0.00021176927436686145,0.001022614267909996,-0.0017406200852158504,-5.010285384972714e-05,-0.0999676436185836,-1.8698058128356931,-1.278960943222046,-0.5972834825515747,0.1400455087423324,0.0347512662410736
1749054707.6733935,5.616682572238189,-0.18861597187325305,-0.23587667085446987,-1.3441459441505215,4.965645321350503,5.470465184009604,-0.00988519799834701,5.287549181937773e-05,-0.00025381529237491666,0.0017607002751481476,-0.0027292859162935455,-4.88898744311546e-05,-0.1448388248682022,-1.8831679821014404,-1.2883137464523315,-0.5787011384963989,0.0855266153812408,0.0471936166286468
1749054707.7142763,5.616668862485222,-0.18861673742530724,-0.23587736712774987,-1.3441356368279718,4.96563887847046,5.470464292267365,-0.011724046342185173,6.788221203977877e-05,-0.0002997763577112688,0.002587409148648423,-0.003873097204000099,-6.398399827498726e-05,-0.1811245530843734,-1.8958940505981443,-1.2910935878753662,-0.5431997776031494,0.0704815983772277,0.0326031595468521
1749054707.7143216,5.6166522258225875,-0.18861765822823,-0.23587797443321465,-1.3441235297604448,4.9656303763395675,5.470463159334064,-0.013552454579692157,7.365060111356654e-05,-0.000348447277206405,0.0034891920987360292,-0.005147463492911365,-9.96600301985583e-05,-0.1982396095991134,-1.9397096633911133,-1.2704453468322754,-0.5292778015136719,0.046557031571865,0.0229362845420837
1749054707.7143614,5.61663258795489,-0.18861868859382455,-0.23587852254627104,-1.3441096861355808,4.965619711162647,5.470461765914114,-0.01533371095571214,6.50941421486788e-05,-0.00039852059066979685,0.004449295914573773,-0.0065206102584164085,-0.00015986789449139386,-0.2227879613637924,-1.9533884525299072,-1.2884804010391235,-0.5365408062934875,0.0435551106929779,0.0394656956195831
1749054707.7143986,5.616609840191771,-0.18861978598604134,-0.23587904664012693,-1.3440941913695967,4.965606805582423,5.470460088153266,-0.01703919024677153,3.642758872640483e-05,-0.0004486741985867887,0.005449644791651254,-0.007956310610884575,-0.00024792524319684897,-0.2120683640241623,-2.0026614665985107,-1.2929002046585083,-0.5126985907554626,0.0351971313357353,0.0585940033197402
1749054707.7144356,5.616583838075505,-0.18862091819814775,-0.23587958254352853,-1.3440771399708622,4.96559160014291,5.47045810274874,-0.018650173607865445,-1.8587722330500887e-05,-0.000497635810393841,0.006472996853744469,-0.009417143187190854,-0.00036624073107228153,-0.208250343799591,-2.02192759513855,-1.2963836193084717,-0.4778986275196075,0.0122482925653457,0.0222672298550605
1749054707.7144723,5.616554406974837,-0.18862206985395663,-0.23588016094944267,-1.3440586213536527,4.965574045732584,5.470455793188504,-0.020158605584978527,-0.00010634331853799482,-0.0005442172442465018,0.0075050703040445725,-0.010867889865593545,-0.0005161051324690999,-0.2453073859214782,-2.0289738178253174,-1.2874281406402588,-0.5011707544326782,-0.0106983929872512,0.0149464905261993
1749054707.7145083,5.616521354462561,-0.18862324766190228,-0.23588080167261105,-1.3440387057293708,4.965554098552437,5.470453155270678,-0.021566720812582502,-0.00023305214450858772,-0.0005873225110389335,0.008536325835947186,-0.012278688115392379,-0.0006975831728679821,-0.2399736642837524,-2.035972118377685,-1.29284405708313,-0.487852394580841,-0.0003383159637451,0.0264795571565628
1749054707.7145452,5.616484488664044,-0.1886244842473086,-0.23588150920151701,-1.3440174312011057,4.965531717791256,5.470450199905833,-0.02288564924216163,-0.0004044160512751905,-0.0006259414192186451,0.009563124910731956,-0.013627591740054422,-0.0009095260601455352,-0.2459105551242828,-2.047892570495605,-1.2933818101882937,-0.472190797328949,-0.0111111104488372,0.0217794105410575
1749054707.7145822,5.616443640528303,-0.18862584037534147,-0.23588227068466983,-1.3439947930591205,4.965506865146404,5.470446952092444,-0.024133265688284417,-0.0006253229667398045,-0.0006591431209298051,0.010588060935811472,-0.014902255608729598,-0.0011497021180521042,-0.2569314241409302,-2.070288896560669,-1.2830760478973389,-0.4775073528289795,0.0093943625688552,0.0093461647629737
1749054707.71462,5.616398686685138,-0.18862740514827916,-0.23588305705249055,-1.3439707362189854,4.965479505024487,5.470443446496551,-0.025331639919788398,-0.0008995981392147857,-0.0006860820177143625,0.011619384824369017,-0.016100553979169766,-0.0014150146957277049,-0.2844306826591491,-2.0938150882720947,-1.2909266948699951,-0.4680657982826233,-0.0117900520563125,0.0176242589950561
1749054707.714657,5.616349568999792,-0.18862929369870415,-0.23588382723816145,-1.343945151795966,4.9654496046391134,5.470439721356029,-0.026504445741904494,-0.0012298187979181217,-0.0007060231796674458,0.01266959940574769,-0.017230077747931734,-0.0017017544878840866,-0.2603692412376404,-2.0849769115448,-1.2929766178131104,-0.4408594965934753,-0.0123898386955261,0.0021888464689254
1749054707.7146938,5.616296307388161,-0.18863164212194336,-0.23588453469104348,-1.3439178787772292,4.965417133909077,5.470435812655197,-0.02767461713075123,-0.0016171811149246107,-0.0007183875373160544,0.013753439980120592,-0.01830661722225759,-0.0020058313451462167,-0.2543464303016662,-2.094506025314331,-1.304499864578247,-0.4228186309337616,-0.0245553702116012,0.0268435925245285
1749054707.7147307,5.61623900367712,-0.18863459972272334,-0.23588513488082002,-1.3438887114158835,4.965382065707727,5.4704317496953125,-0.028862440455603735,-0.0020613927400486413,-0.0007228101062493692,0.014885552139420274,-0.019351882127892857,-0.0023229520045589913,-0.2713800370693207,-2.096581220626831,-1.2950031757354736,-0.4252685606479645,-0.0478139221668243,0.0070765018463134
1749054707.7147665,5.6161778359310395,-0.1886383189969711,-0.23588559234987297,-1.3438574122570184,4.9653443773439125,5.470427552170026,-0.030084188933432995,-0.002560566336531468,-0.0007191987242175078,0.01607820337527133,-0.02039079821423654,-0.002648742809110824,-0.3102349042892456,-2.1272008419036865,-1.2879574298858645,-0.4264997541904449,-0.0370411127805709,0.0015821903944015
1749054707.7148025,5.616113044333455,-0.18864294426900016,-0.23588588598883545,-1.343823729771605,4.965304053874603,5.470423228351388,-0.031351352613457714,-0.0031111137214792257,-0.0007077778677091688,0.017339329907587818,-0.021448733501576077,-0.002978841773604357,-0.2972206473350525,-2.153289556503296,-1.302060842514038,-0.388108879327774,-0.0438684970140457,0.001036986708641
1749054707.7148392,5.616044910962361,-0.18864860050645305,-0.2358860115352801,-1.3437874187437424,4.965261092955078,5.470418773924958,-0.032670471830421814,-0.003707673555824205,-0.000689103945446666,0.018671151710373368,-0.02254895855657002,-0.0033089903673024727,-0.2598839998245239,-2.1452126502990723,-1.293240308761597,-0.3904007971286773,-0.0432778298854827,-0.0114742256700992
1749054707.7148757,5.6159737362980655,-0.18865538407778604,-0.23588598086960239,-1.3437482610912723,4.9652155098736115,5.470414171042791,-0.034043518841626125,-0.004343124517579886,-0.0006640451963492044,0.020069511427473114,-0.023710563469975753,-0.0036351422827628262,-0.2855848670005798,-2.155569553375244,-1.2929664850234983,-0.3808760941028595,-0.0525247156620025,-0.021861158311367
1749054707.7149117,5.615899815086996,-0.18866335681283858,-0.23588581847418819,-1.343706084715607,4.965167340732489,5.470409387294919,-0.0354686985262288,-0.0050087254685315845,-0.0006337280714203391,0.021524012925760127,-0.024946971452809955,-0.003953583641468041,-0.2974536120891571,-2.142395496368408,-1.2848312854766846,-0.3690588474273681,-0.0527364164590835,0.0093200802803039
1749054707.7149482,5.61582341365355,-0.18867254399290836,-0.2358855561816014,-1.343660778151829,4.965116641717336,5.470404374655017,-0.036941487063730606,-0.005694391716916185,-0.0005994587965349788,0.023018947393263947,-0.026265122313631255,-0.0042610401191540675,-0.2646839916706085,-2.156714916229248,-1.2802356481552124,-0.3671885728836059,-0.0771344602108001,0.0036211386322975
1749054707.7149844,5.615744750356262,-0.18868293625653382,-0.2358852277271509,-1.343612299167179,4.9650634830827896,5.470399068910714,-0.03845572089473997,-0.00638908610340528,-0.0005626317407489301,0.024534899844340163,-0.02766534435880485,-0.004554743593571383,-0.2902856171131134,-2.195558786392212,-1.2838810682296753,-0.3504377603530884,-0.0689997971057891,-0.0257311165332794
1749054707.7153974,5.615663980683344,-0.18869449490906892,-0.2358848645226066,-1.3435606760370755,4.965007937704032,5.470393390405161,-0.04000458538072752,-0.007081294339335934,-0.0005246359605285443,0.02605083914660979,-0.02914187719568833,-0.004832447471632924,-0.3163321316242218,-2.181278705596924,-1.2822644710540771,-0.358822762966156,-0.0795657485723495,-0.0286401808261871
1749054707.7173643,5.61558118810081,-0.1887071597373316,-0.23588449360680008,-1.3435060009787827,4.9649500654395124,5.4703872469814625,-0.04158141211269647,-0.007759562731383254,-0.00048676952993224816,0.027546428670561292,-0.030683943975846478,-0.005092405396690873,-0.3198341429233551,-2.218825340270996,-1.2798142433166504,-0.3558526337146759,-0.1061319559812545,-0.0025456473231315
1749054707.7582903,5.615496380929105,-0.18872085830993995,-0.23588413804670227,-1.3434484161258875,4.964889895707632,5.470380539807254,-0.04318024726792286,-0.008413082281881382,-0.00045016903387617107,0.029004268907243863,-0.0322772072041237,-0.005333345025848936,-0.2793778479099273,-2.192810535430908,-1.2832212448120115,-0.3481257855892181,-0.1048174649477005,-0.0053409114480018
1749054707.7583363,5.615409494478528,-0.18873551587738924,-0.23588381928958943,-1.3433880934868017,4.964827411322703,5.470373172195164,-0.04479618717561676,-0.00903229021598462,-0.00041575912600061194,0.0304118057523109,-0.03390539573618295,-0.005554467093337346,-0.2873281240463257,-2.204042434692383,-1.2794220447540283,-0.3440895676612854,-0.0908631235361099,-0.0207440853118896
1749054707.7583766,5.615320397007953,-0.18875106505458739,-0.235883560331385,-1.3433252113756935,4.964762536726457,5.470365060670531,-0.0464255040065905,-0.009609435475905443,-0.00038422440400159554,0.03176270304263707,-0.035551879041442865,-0.005755484185846082,-0.3188648223876953,-2.2178449630737305,-1.2883541584014893,-0.3151599168777466,-0.0822281911969184,-0.0305162966251373
1749054707.7584164,5.615228898277252,-0.18876745432896203,-0.23588338831508057,-1.3432599304418522,4.964695133404513,5.470356146735173,-0.04806561794365597,-0.010139041496442425,-0.00035600328443175064,0.03305756527480913,-0.037200993409513224,-0.005936694158288752,-0.3350104391574859,-2.232067346572876,-1.289190649986267,-0.3142289817333221,-0.0903369039297103,-0.0360740609467029
1749054707.758456,5.615134760533579,-0.1887846543474683,-0.23588333540339979,-1.3431923723504429,4.964625004514467,5.470346407465123,-0.04971499936038853,-0.010618209746179587,-0.00033130137795981854,0.034303978042258834,-0.03883898861876351,-0.006099067706051765,-0.3204259872436523,-2.2120907306671143,-1.2688239812850952,-0.3305781781673431,-0.089775949716568,-0.0274598598480224
1749054707.758494,5.615037712984957,-0.1888026611532756,-0.2358834373755272,-1.3431226034672483,4.964551909476858,5.470335863286892,-0.051373080764266076,-0.011046730321644585,-0.0003101202853535207,0.035515890933854474,-0.04045455363230153,-0.006244321576527631,-0.32503342628479,-2.2226362228393555,-1.27860426902771,-0.2954875826835632,-0.1164131015539169,-0.0352080687880516
1749054707.7585318,5.614937471136921,-0.18882149599748407,-0.2358837301190429,-1.3430506249924485,4.964475587570554,5.470324581656876,-0.05304021977680525,-0.011426984741685516,-0.0002922968305107672,0.03671240686893725,-0.042038981404196686,-0.006374948944550928,-0.3214072287082672,-2.2635762691497803,-1.2903838157653809,-0.3077974915504455,-0.1249957382678985,-0.0184772945940494
1749054707.758571,5.6148337612707815,-0.188841201794362,-0.23588424472923528,-1.3429763702713229,4.964395787780765,5.470312675677826,-0.05471770054715413,-0.011763638285138048,-0.00027754749146229003,0.037916085112702384,-0.04358611925147753,-0.006494185751580552,-0.3573070466518402,-2.249929904937744,-1.278191089630127,-0.2812650799751282,-0.1541251987218856,-0.044771209359169
1749054707.7586093,5.614726348142964,-0.18886183659289138,-0.2358850021461204,-1.3428997094745654,4.964312300609171,5.47030029703848,-0.05640771260192649,-0.012063133743470863,-0.0002655130850194603,0.03915092265996014,-0.045092287481720554,-0.00660590497812844,-0.2676437497138977,-2.2698075771331787,-1.2670514583587646,-0.2817815542221069,-0.126653179526329,-0.0359759740531444
1749054707.758649,5.614615061542679,-0.18888346469467993,-0.2358860082718431,-1.342820461065771,4.964224986444985,5.470287623336799,-0.05811321926876459,-0.012333022337045238,-0.00025579947098094155,0.04044023566920517,-0.046556314519109535,-0.006714447910758892,-0.2676437497138977,-2.2698075771331787,-1.2670514583587646,-0.2817815542221069,-0.126653179526329,-0.0359759740531444
1749054707.7586884,5.614499815718653,-0.18890614638452333,-0.23588725050241993,-1.3427384081690832,4.964133794664779,5.470274840890626,-0.059837642945412585,-0.012581197304353734,-0.00024801104265328994,0.04180468936349503,-0.047979747954426596,-0.006824417258957822,-0.3392134010791778,-2.243361711502075,-1.2696492671966553,-0.2815871238708496,-0.1272950321435928,-0.0348784253001213
1749054707.7587254,5.614380615962898,-0.18892992755599133,-0.23588869654879868,-1.342653316612034,4.964038768490119,5.47026212519145,-0.061584362859297435,-0.012815118918017399,-0.00024177499072279194,0.04326069271591054,-0.04936719884392863,-0.006940463141898791,-0.395548552274704,-2.2442662715911865,-1.2654199600219729,-0.2711348533630371,-0.1428762376308441,-0.0509203933179378
1749054707.758762,5.614257549460915,-0.18895483056038734,-0.23589029612736695,-1.3425649511460556,4.9639400333963195,5.47024962177792,-0.06335611202895372,-0.013041125781097599,-0.00023675571537793574,0.04481927669021077,-0.05072669314211538,-0.007067084883616445,-0.3544865250587463,-2.259279251098633,-1.2568864822387695,-0.2335193753242492,-0.1498843133449554,-0.0492222234606742
1749054707.7587993,5.614130762090127,-0.18898084731722917,-0.23589198552148638,-1.342473087630878,4.963837771056591,5.470237430381343,-0.06515441421411726,-0.013263915407150285,-0.00023266016276124723,0.0464854463680659,-0.05206985260700149,-0.007208454965462985,-0.3914453387260437,-2.2454938888549805,-1.2700610160827637,-0.2461067587137222,-0.1543476581573486,-0.0426420047879219
1749054707.758836,5.614000426807166,-0.1890079352762466,-0.2358936943422071,-1.342377520966704,4.963732184570937,5.470225594810434,-0.06697919108135288,-0.01348625164171658,-0.00022923598816250142,0.0482579009317538,-0.05341171653964275,-0.00736825976934496,-0.4052591621875763,-2.2744603157043457,-1.27398681640625,-0.2235607355833053,-0.1565983295440673,-0.0461038462817668
1749054707.758873,5.613866710570176,-0.18903601640936266,-0.23589535330805164,-1.342278070033303,4.9636234623708955,5.470214100170021,-0.06882861944628416,-0.013708921080705367,-0.00022626504168533538,0.050128994301376205,-0.0547700526067929,-0.007549554939162127,-0.3372333347797394,-2.253725051879883,-1.2677358388900757,-0.2501872479915619,-0.1391588151454925,-0.0475309081375598
1749054707.758911,5.6137297455552195,-0.18906497909947728,-0.23589690165924637,-1.3421745814257078,4.9635117475927295,5.470202877657168,-0.07069926269982915,-0.013930921251399749,-0.00022355466732799548,0.05208485625691268,-0.056164087831572056,-0.007754648535972264,-0.4027517437934875,-2.2685742378234863,-1.2617727518081665,-0.2233126163482666,-0.1651996523141861,-0.0736815258860588
1749054707.7589474,5.613589608351467,-0.1890946825452672,-0.2358982929064503,-1.3420669336024331,4.963397117797543,5.470191815709363,-0.07258645381050274,-0.014149829967160486,-0.000220928830117255,0.054105671359305406,-0.05761270736308523,-0.007985037401675332,-0.4219911396503448,-2.249518394470215,-1.2519845962524414,-0.2072039246559143,-0.1626065522432327,-0.0701378732919693
1749054707.758984,5.61344630889753,-0.18912496310243154,-0.23589949793052756,-1.3419550424191182,4.9632795774825205,5.470180775252887,-0.07448487093659374,-0.014362286233475803,-0.00021822039861061623,0.05616618146196986,-0.05913229738928281,-0.008241414226068038,-0.4393766820430755,-2.257397413253784,-1.2502243518829346,-0.2060597389936447,-0.1850074380636215,-0.063302457332611
1749054707.7590206,5.613299789231893,-0.18915564186533018,-0.23590050496145162,-1.3418388681353826,4.963159063354781,5.470169606484777,-0.07638921717872539,-0.014564510260778261,-0.00021526533539892724,0.058236503647941106,-0.060734517606906596,-0.008523731261966214,-0.4171637594699859,-2.261736869812012,-1.2563552856445312,-0.2065527141094207,-0.2097364217042923,-0.0604858770966529
1749054707.759365,5.613149930713033,-0.18918653278677958,-0.23590131660110997,-1.3417184232183261,4.963035460251975,5.470158164817947,-0.07829489463768081,-0.014752800302811474,-0.00021189929443160796,0.06028332259175604,-0.062424342876202826,-0.008831269613427959,-0.4357328116893768,-2.25919246673584,-1.2506608963012695,-0.2198732644319534,-0.2029666751623153,-0.0425645001232624
1749054707.761398,5.612996567448897,-0.18921745076499516,-0.23590194467705244,-1.3415937798838018,4.962908624216154,5.47014632400302,-0.08019856344272021,-0.014923962146322077,-0.00020795712721752508,0.06227144476980924,-0.06419869307891794,-0.009162650006346564,-0.4674039185047149,-2.247920036315918,-1.2519999742507937,-0.231038749217987,-0.2190342545509338,-0.0861065536737442
1749054707.8022823,5.612839503258361,-0.18924821938373756,-0.23590240414894365,-1.3414650762634834,4.962778408656131,5.4701339849601665,-0.08209850747740398,-0.01507564775543477,-0.00020327581499519695,0.06416563814777879,-0.06604588425811192,-0.009515749399729333,-0.4966068267822265,-2.255002975463867,-1.2454776763916016,-0.1935478895902633,-0.2436312288045883,-0.0587110184133052
1749054707.802349,5.6126785294274235,-0.18927867830014544,-0.2359027073857275,-1.3413325200977446,4.962644689607463,5.470121079621008,-0.08399477490900055,-0.015206597164982776,-0.00019770117398106138,0.06593265509986214,-0.06794601666897426,-0.00988754666985889,-0.4702246785163879,-2.26360297203064,-1.2344855070114136,-0.2185524404048919,-0.2383753955364227,-0.0634404569864273
1749054707.8023927,5.61251344086976,-0.1893086905666178,-0.23590285985425447,-1.341196388783737,4.96250738651335,5.470107570003639,-0.08588909941515502,-0.015316788136220776,-0.00019109828106028557,0.06754333782943726,-0.06987230008978669,-0.010273974754363752,-0.4615810513496399,-2.280189514160156,-1.2340915203094482,-0.2281797677278518,-0.2457015365362167,-0.0926011577248573
1749054707.8024328,5.6123440490795335,-0.18933815028631015,-0.23590285777349002,-1.3410570246169073,4.96236647556924,5.4700934435503,-0.08778463078508807,-0.015407501727039028,-0.0001833649982858207,0.06897470436928436,-0.07179321450460076,-0.01066987024973565,-0.4942681193351745,-2.283644437789917,-1.2360048294067385,-0.2243967056274414,-0.230833500623703,-0.0941120535135269
1749054707.8024707,5.612170191152043,-0.18936699064653573,-0.23590268785890003,-1.3409148243494613,4.962221993699116,5.470078706264952,-0.08968552179047348,-0.015481312193426687,-0.0001744473380845514,0.07021189436444641,-0.07367530662320863,-0.011069075072302615,-0.4853321611881256,-2.2680842876434326,-1.2281068563461304,-0.2400383204221725,-0.219779759645462,-0.0860851258039474
1749054707.8025084,5.611991734730965,-0.18939519156320575,-0.23590232905407282,-1.3407702226979503,4.9620740328602055,5.470063375301769,-0.09159643978014428,-0.015542008297374673,-0.00016435482502949708,0.07124982510997867,-0.07548632751108668,-0.011464683743871256,-0.5056629776954651,-2.27147912979126,-1.2248685359954834,-0.2595678567886352,-0.2050094008445739,-0.0718878209590911
1749054707.8025455,5.611808578999514,-0.18942278543410654,-0.23590175605387914,-1.3406236700689764,4.961922726327747,5.470047472309967,-0.0935220920701275,-0.015594450433330213,-0.00015317359537887488,0.07209438350869302,-0.07719834668223244,-0.011849382822996843,-0.5158960819244385,-2.2964916229248047,-1.2193024158477783,-0.2584754824638366,-0.2228124290704727,-0.0954370349645614
1749054707.802583,5.611620652087565,-0.18944985937232356,-0.2359009442935148,-1.3404756055577973,4.961768230146602,5.470031018190766,-0.09546686135438748,-0.01564436685049646,-0.00014107481577534334,0.07276296863090088,-0.07879047114820477,-0.012215815691821065,-0.5066291093826294,-2.2890050411224365,-1.220243215560913,-0.2594339549541473,-0.2314435243606567,-0.0846780985593795
1749054707.8026197,5.61142790565699,-0.18947655284260284,-0.23589987582071015,-1.3403264271105042,4.961610703402603,5.470014029351277,-0.09743462616895303,-0.015698096586824816,-0.00012831608414969536,0.07328421462851525,-0.08025087060977786,-0.012556917782768262,-0.5657074451446533,-2.2816288471221924,-1.2022018432617188,-0.2766698896884918,-0.2039518505334854,-0.0796681568026542
1749054707.8026557,5.611230307783926,-0.18950305057508832,-0.23589854519211442,-1.3401764614080676,4.961450290392888,5.469996515305831,-0.09942878319536033,-0.015762296004234087,-0.00011523371383633775,0.07369678153133025,-0.0815779295718392,-0.012866188226645975,-0.5703043937683105,-2.3128459453582764,-1.1975899934768677,-0.2647954821586609,-0.2085404843091964,-0.0918093174695968
1749054707.8026924,5.6110278354362135,-0.18952957158608155,-0.2358969644375678,-1.3400259364635858,4.96128710680209,5.4699784775085725,-0.10145240367942926,-0.015843635149861254,-0.00010222419738069617,0.07404720853334955,-0.08278045712319865,-0.013137890289279834,-0.5195858478546143,-2.3411998748779297,-1.1990938186645508,-0.2537198662757873,-0.2111554741859436,-0.1086553707718849
1749054707.802729,5.6108204678138645,-0.18955635567182175,-0.2358951662887275,-1.3398749601015936,4.961121231213467,5.469959909374822,-0.10350838249548534,-0.01594851503426879,-8.971390051819011e-05,0.07438695844940672,-0.08387696225669473,-0.013367206903492544,-0.5328211784362793,-2.3328027725219727,-1.1916234493255615,-0.2180254757404327,-0.2103402763605117,-0.0996115952730178
1749054707.8027651,5.610608181546305,-0.18958364864737476,-0.23589320517889137,-1.339723507231112,4.960952702742053,5.469940797429037,-0.10559942385561838,-0.016082834882558805,-7.811743418329112e-05,0.07476889586074188,-0.08489406778863667,-0.013550406488026143,-0.5473593473434448,-2.374440670013428,-1.1936590671539309,-0.2414252460002899,-0.20963054895401,-0.1092805862426757
1749054707.8028011,5.610390948283302,-0.18961168718052931,-0.23589115585423542,-1.3395714180371165,4.9607815248528775,5.469921123415637,-0.1077277738952699,-0.0162518281749734,-6.778727740704342e-05,0.07524350120926021,-0.085864208587574,-0.013685072883314785,-0.5538401007652283,-2.383274793624878,-1.1788649559020996,-0.2272710800170898,-0.2098353803157806,-0.1087910830974578
1749054707.802842,5.610168734768073,-0.18964068391547542,-0.235889109685692,-1.3394184080691016,4.960607674232978,5.4699008670630125,-0.10989472448888485,-0.01645996797771819,-5.895969558494136e-05,0.07585514030693134,-0.0868228288658243,-0.013770411672895042,-0.5326607823371887,-2.3728482723236084,-1.1841580867767334,-0.2033880352973938,-0.2246847450733184,-0.1061810925602912
1749054707.8028798,5.60994150518781,-0.1896708139005351,-0.2358871688823373,-1.3392640898988217,4.960431112334798,5.469880009047488,-0.1121000127163786,-0.016710920365396297,-5.17039840349447e-05,0.07663871468167922,-0.08780533611191381,-0.013807584812109083,-0.5416563153266907,-2.372785806655884,-1.1665234565734863,-0.2074374109506607,-0.2300559133291244,-0.100190095603466
1749054707.8029158,5.609709225434,-0.18970220378888294,-0.23588543885482585,-1.3391080046481962,4.960251796776698,5.469858533687135,-0.11434128684207645,-0.01700751038505943,-4.5882767262624405e-05,0.07761701123156892,-0.08884407862444667,-0.013799980839257145,-0.5694284439086914,-2.3984203338623047,-1.1741108894348145,-0.1876336932182312,-0.2332884222269058,-0.1096256971359252
1749054707.8029523,5.609471868701934,-0.1897349254967451,-0.23588401915546828,-1.3389496604145614,4.960069690534721,5.469836431100279,-0.11661379907285507,-0.017351667313255707,-4.113031440632171e-05,0.07879901627755605,-0.08996559969703671,-0.013753318268463705,-0.5577552318572998,-2.3998701572418213,-1.1681511402130127,-0.215330883860588,-0.2498676180839538,-0.1162196546792984
1749054707.8029883,5.6092294215515,-0.18976899581910822,-0.2358829938074072,-1.3387885737142928,4.959884768190099,5.4698136989036845,-0.11891043068944633,-0.017744332752580468,-3.685400249930503e-05,0.08017934687282088,-0.0911883963533924,-0.013675503367201669,-0.5303183197975159,-2.422025680541992,-1.164070963859558,-0.2186947911977768,-0.2437011152505874,-0.0982775390148162
1749054707.8030262,5.608981889451387,-0.18980438285598641,-0.2358824221936064,-1.3386243096982895,4.959697019515983,5.469790343789237,-0.12122207722741811,-0.01818533511040125,-3.226164532176742e-05,0.081738817538847,-0.09252137630034621,-0.01357621114616308,-0.5498898029327393,-2.435065269470215,-1.1605653762817385,-0.2074925303459167,-0.2312551736831665,-0.1341311633586883
1749054707.8034549,5.608729301268599,-0.18984101907073442,-0.23588233170360776,-1.3384565170167981,4.95950645103374,5.469766383340757,-0.12353834665253179,-0.01867324874945621,-2.6414621409329692e-05,0.08344605797982356,-0.0939631583285151,-0.013466219627870538,-0.567729115486145,-2.4294092655181885,-1.1676225662231443,-0.1919628977775573,-0.2464590966701507,-0.1214717850089073
1749054707.8053975,5.608471712816536,-0.18987881959706063,-0.23588271304200606,-1.3382849537352175,4.959313086125486,5.469741848223882,-0.12584846669497626,-0.019205266003561924,-1.8303671297628095e-05,0.08526004665606048,-0.09550229648044345,-0.013356585022394183,-0.5427500605583191,-2.453002452850342,-1.1426372528076172,-0.1801418364048004,-0.2483358681201934,-0.1168932169675827
1749054707.846288,5.608209209680817,-0.18991770324237278,-0.23588351874701033,-1.3381095016796236,4.959116964271603,5.469716784497735,-0.12814225538698942,-0.019777118949631137,-6.9410744879981206e-06,0.08713339283533107,-0.09711843115487309,-0.013257778165150714,-0.5473341941833496,-2.450924873352051,-1.1540532112121582,-0.2031968832015991,-0.2628954648971557,-0.1151404380798339
1749054707.8463347,5.607941908922413,-0.189957612772709,-0.23588466519592008,-1.3379301680719287,4.958918140046446,5.469691255349568,-0.13041098382279515,-0.02038309240647044,8.540035692545475e-06,0.08901614057200626,-0.09878428756159127,-0.013178902135189345,-0.5315786600112915,-2.481684684753418,-1.1471424102783203,-0.2179717123508453,-0.2596011459827423,-0.1189407929778099
1749054707.8463757,5.607669958567379,-0.18999853083579563,-0.23588603810987482,-1.3377470750527733,4.958716682394171,5.4696653411839975,-0.13264797416839574,-0.021016161065454383,2.879086594443608e-05,0.09085978226924186,-0.10046835951089311,-0.013127087810439302,-0.5550897121429443,-2.4564549922943115,-1.133034586906433,-0.1944564133882522,-0.245208278298378,-0.1350464224815368
1749054707.8464143,5.607393533705211,-0.1900404884565304,-0.23588750123436586,-1.337560439175462,4.958512674228604,5.46963913696331,-0.13484884257253482,-0.02166826044460277,5.416983660566731e-05,0.09262110504650396,-0.10213803928094536,-0.0131071319371896,-0.5271627306938171,-2.4335219860076904,-1.132866144180298,-0.2092092633247375,-0.2492968589067459,-0.1280698776245117
1749054707.8464522,5.607112828547628,-0.19008356440221852,-0.23588890750460953,-1.337370543789259,4.958306211621326,5.469612746173077,-0.13701139091906891,-0.022330675918089855,8.46965998967715e-05,0.09426549437223923,-0.10376288967718668,-0.013121404612991942,-0.5592154860496521,-2.450230121612549,-1.1227200031280518,-0.2332128137350082,-0.2340676188468933,-0.1273218989372253
1749054707.8464904,5.606828044525585,-0.1901278756182805,-0.2358901116314049,-1.3371777074026934,4.958097401081678,5.469586271665397,-0.13913522604435877,-0.022994520544340508,0.00012004932928148703,0.09576938953273322,-0.10531771999494642,-0.013170010181525986,-0.5485581159591675,-2.451418399810791,-1.1102111339569092,-0.2508783638477325,-0.2498194277286529,-0.1326651275157928
1749054707.8465278,5.6065393751880945,-0.19017356078085612,-0.23589098266848463,-1.3369822509444884,4.957886353172354,5.469559804578916,-0.14122121366603016,-0.023651273719682925,0.00015961398041598285,0.09712169696000736,-0.10678514290203282,-0.013251146562917229,-0.5470393896102905,-2.467066526412964,-1.108851432800293,-0.2104349434375763,-0.2582135796546936,-0.1407936215400695
1749054707.8465655,5.606246989425759,-0.19022076011628225,-0.2358914149089446,-1.336784466681583,4.957673171298562,5.469533413212363,-0.14327086806416447,-0.024293359841982564,0.00020258822336206083,0.09832408833238666,-0.10815734751788829,-0.013361586377592117,-0.5308798551559448,-2.465253591537476,-1.1021918058395386,-0.2183431386947631,-0.24326092004776,-0.1324629783630371
1749054707.8466032,5.605951015421023,-0.19026959478067731,-0.23589133564231787,-1.336584591514328,4.957457935924378,5.469507133907038,-0.14528576596000153,-0.024914744462889677,0.00024813385223108246,0.09939021629809687,-0.10943689452347694,-0.013497201463566248,-0.5198105573654175,-2.433356523513794,-1.0943660736083984,-0.2249157130718231,-0.2344124168157577,-0.1387401074171066
1749054707.8466396,5.605651528374674,-0.19032014863551536,-0.23589070887970912,-1.3363827872657832,4.957240686266125,5.469480965594917,-0.1472670685856535,-0.02551150564342039,0.0002955604412589991,0.10034395966564888,-0.11063641424780639,-0.013653460635607653,-0.5246764421463013,-2.4579453468322754,-1.1031873226165771,-0.2157596051692962,-0.2489307224750518,-0.1496248692274093
1749054707.8466766,5.605348544997077,-0.19037245466960162,-0.2358895348477024,-1.3361791301355954,4.95702140299517,5.469454868860185,-0.14921522744002347,-0.026082308510978137,0.00034451294975161465,0.10121686514174785,-0.11177719456581842,-0.013825840966379729,-0.5146344900131226,-2.475764751434326,-1.0926237106323242,-0.2405219823122024,-0.2310688644647598,-0.126102477312088
1749054707.846713,5.605042026812628,-0.19042648772268406,-0.23588784562161097,-1.3359736104655489,4.956799996048446,5.469428769535732,-0.15112992074423903,-0.026628692552954258,0.0003951316670776456,0.10204499721338996,-0.11288678840651852,-0.014010108373345011,-0.5206528306007385,-2.4658000469207764,-1.0821748971939087,-0.2399484813213348,-0.2556145191192627,-0.1366162002086639
1749054707.84675,5.604731892654018,-0.19048216436384593,-0.23588569767786652,-1.335766142401426,4.95657630111755,5.4694025663326995,-0.15301022965896793,-0.027155089048435613,0.00044815700970344353,0.10286545822860213,-0.11399591066273385,-0.014202448738282318,-0.5187956690788269,-2.458752155303955,-1.0770597457885742,-0.2208702117204666,-0.243118405342102,-0.1436610519886016
1749054707.8467867,5.604418038659681,-0.19053934969973027,-0.23588316243836038,-1.335556581460941,4.956350086973005,5.4693761417502635,-0.15485503876644555,-0.027668520177478503,0.000504962012515462,0.10371290414614918,-0.1151349877332404,-0.01439946250912173,-0.5124406218528748,-2.455572843551636,-1.0658820867538452,-0.2028412818908691,-0.2753174901008606,-0.1391129195690155
1749054707.8468237,5.604100362219225,-0.19059786989999206,-0.23588031605856166,-1.3353447470655064,4.956121073840346,5.469349375213725,-0.1566636312898043,-0.028177984228012036,0.0005675068460095295,0.10461642879889639,-0.11633075887051336,-0.014598063789651129,-0.5101760625839233,-2.475245475769043,-1.0616455078125,-0.2033769190311432,-0.2525617778301239,-0.1335052251815796
1749054707.8468597,5.603778785311121,-0.19065752882319026,-0.23587722977053216,-1.3351304468680294,4.9558889610111265,5.4693221568061725,-0.15843642052321955,-0.028693590723336878,0.0006382186345712677,0.10559716631449201,-0.11760331786837333,-0.014795340772253508,-0.5202702879905701,-2.4921557903289795,-1.0741620063781738,-0.2287005484104156,-0.2591469585895538,-0.1485334485769271
1749054707.8468962,5.603453272881142,-0.190718127235017,-0.23587396204717598,-1.334913499902915,4.955653460164728,5.4692943993638705,-0.16017570524165545,-0.029225554011213496,0.0007198055326970544,0.10666685510409107,-0.11896394042325296,-0.014988433922381375,-0.4902996718883514,-2.4795076847076416,-1.0741381645202637,-0.1840923875570297,-0.2772712111473083,-0.1354584544897079
1749054707.8469326,5.6031238432177455,-0.19077948307298528,-0.23587055367672638,-1.3346937560781107,4.955414329779234,5.469266046769973,-0.1618862799525824,-0.02978316491263837,0.0008150175783841602,0.10782747360482163,-0.12041397328391275,-0.015174473864338001,-0.5224609375,-2.476502656936645,-1.0491079092025757,-0.1949144154787063,-0.3004630804061889,-0.144127756357193
1749054707.8469691,5.602790569343553,-0.19084145069532346,-0.2358670264217298,-1.334471110392801,4.955171405637963,5.469237077333123,-0.16357570703384797,-0.030373841865784224,0.0009263695182660965,0.10907195030570711,-0.12194495555818685,-0.015350602706414616,-0.5264590382575989,-2.47489333152771,-1.0532639026641846,-0.1916370838880539,-0.2728112339973449,-0.1463699638843536
1749054707.8470054,5.602453572638609,-0.19090393658318727,-0.23586338522140032,-1.3342455113169225,4.954924622772366,5.469207502679101,-0.16525409932797502,-0.031002340219718778,0.001055843144916576,0.11038585834106421,-0.12353998682192532,-0.015514090782370883,-0.5311657786369324,-2.471837043762207,-1.0518678426742554,-0.1948437690734863,-0.2975928783416748,-0.1512363702058792
1749054707.8474274,5.602113011423317,-0.19096690922284373,-0.2358596230439675,-1.3340169635656294,4.9546740252080275,5.4691773636978915,-0.16693337550070936,-0.031670186972496454,0.0012045893723635175,0.11174989672260566,-0.12517616839452556,-0.01566255264780978,-0.504219114780426,-2.491623640060425,-1.0393296480178833,-0.1979207694530487,-0.3008279204368591,-0.1417756527662277
1749054707.849414,5.601769067605967,-0.1910304018342046,-0.23585572688869047,-1.3337855257750013,4.954419761667306,5.469146725238457,-0.16862609583580895,-0.03237540019112773,0.0013726544311548456,0.11314284287903648,-0.12682776941325022,-0.01579424905114327,-0.4781049787998199,-2.4735376834869385,-1.0373035669326782,-0.2299319803714752,-0.2781727910041809,-0.1311468034982681
1749054707.8902917,5.6014219339469635,-0.19109450768128403,-0.23585168339167312,-1.3335513035318245,4.954162067755668,5.469115670627656,-0.17034409149328095,-0.03311253019238972,0.0015587597845945838,0.11454457258019672,-0.12846964468230684,-0.01590843279404144,-0.5343528985977173,-2.4729695320129395,-1.0365984439849854,-0.2326106429100036,-0.2824685573577881,-0.1282933801412582
1749054707.8903372,5.601071803486341,-0.19115936864293243,-0.23584748298550942,-1.333314438309976,4.9539012374763205,5.469084296282149,-0.17209711945813053,-0.03387301934063723,0.0017601683011137415,0.11593871761486628,-0.1300803737635867,-0.016005670548961765,-0.5288657546043396,-2.4626834392547607,-1.017004132270813,-0.2303610444068908,-0.2708034813404083,-0.1313047558069229
1749054707.8903809,5.6007188616218695,-0.19122515864216047,-0.23584312227661117,-1.3330750933658693,4.953637588537412,5.469052706088319,-0.17389172282895057,-0.03464583311289893,0.001972666099986123,0.11731458180753601,-0.1316446181697558,-0.016088065450948073,-0.519468367099762,-2.470606803894043,-1.0212758779525757,-0.2211744785308838,-0.244149163365364,-0.1519951224327087
1749054707.8904202,5.60036328048895,-0.19129206428985437,-0.235838604898025,-1.3328334382693703,4.953371426681072,5.469021004971962,-0.1757304047372464,-0.03541828292656069,0.0021906797673990645,0.11866805097051232,-0.13315432077066805,-0.016159317829635703,-0.5058150291442871,-2.4462804794311523,-1.0215907096862793,-0.2493200302124023,-0.239080548286438,-0.1287647485733032
1749054707.8904586,5.600005214821084,-0.19136026527760433,-0.23583394144619055,-1.3325896340121453,4.953103014242526,5.4689892912120674,-0.17761117779226623,-0.03617694459088196,0.0024075350303291413,0.1200013878045788,-0.13460858693010985,-0.01622458507711426,-0.5388377904891968,-2.432163715362549,-1.0162248611450195,-0.2050603032112121,-0.2565591037273407,-0.1281527727842331
1749054707.8904998,5.599644798378429,-0.19142991658649425,-0.23582914924476595,-1.3323438203443352,4.952832547234923,5.468957647569424,-0.17952753594374873,-0.03690857174434184,0.0026158482251827132,0.12132197781711103,-0.13601234761274955,-0.016290129884354018,-0.5367528200149536,-2.4422836303710938,-1.015441656112671,-0.2223588228225708,-0.2361160516738891,-0.1282518953084945
1749054707.890539,5.599282140226526,-0.19150113391325488,-0.23582425258916692,-1.3320961063267587,4.952560143409123,5.468926132017584,-0.181468886453402,-0.037600912126164156,0.002808026396663756,0.12264026417208765,-0.13737415106796974,-0.01636277796135364,-0.525411069393158,-2.445847749710083,-1.0244994163513184,-0.2115247100591659,-0.2496595531702041,-0.1193531304597854
1749054707.890577,5.598917320431876,-0.1915739832621464,-0.23581928377058978,-1.3318465644070572,4.952285841397462,5.468894769435113,-0.18342144320950832,-0.03824335746384351,0.0029768351244673433,0.12396723985215875,-0.13870360078047075,-0.016449240795122107,-0.5506377816200256,-2.4249038696289062,-1.0023152828216553,-0.2044858336448669,-0.2530818581581116,-0.1455453187227249
1749054707.8906147,5.598550384991253,-0.19164847535152474,-0.23581428464637938,-1.3315952279149776,4.952009608978898,5.468863545772517,-0.18536950748010766,-0.03882738966494812,0.003115977270127033,0.12531192371746722,-0.1400090096143071,-0.01655538858386554,-0.528810441493988,-2.4475302696228027,-1.0134758949279783,-0.2028355002403259,-0.2673864364624023,-0.141517624258995
1749054707.890651,5.598181340087289,-0.19172456506014063,-0.23580930803898065,-1.3313420917267385,4.951731357233183,5.468832405947186,-0.1872969742049518,-0.039346817916273626,0.003220615928348535,0.12667923766908162,-0.14129576397748161,-0.016685571536676644,-0.5884689688682556,-2.416468381881714,-1.019156575202942,-0.2024942487478256,-0.2917948365211487,-0.1246212869882583
1749054707.8906882,5.597810146137919,-0.19180215558150362,-0.23580441796447169,-1.3310871157255926,4.951450956890649,5.468801256243928,-0.1891888456442265,-0.03979782699241811,0.0032877764273355676,0.1280686424394324,-0.14256571092316467,-0.016842079458445715,-0.513795793056488,-2.4255850315093994,-1.0207107067108154,-0.2311995178461074,-0.2665240168571472,-0.136973351240158
1749054707.890729,5.5974367124799596,-0.19188110651154153,-0.2357996876531962,-1.3308302303752713,4.951168253260388,5.468769971441427,-0.1910325376258873,-0.040178874355387015,0.003316578224274487,0.1294737776631613,-0.1438176386401821,-0.01702480810442407,-0.4656658768653869,-2.390342950820923,-1.031399846076965,-0.2136137783527374,-0.286654531955719,-0.1329820454120636
1749054707.8907669,5.597060893692677,-0.19196124487757604,-0.23579519462312495,-1.3305713432600546,4.950883076739976,5.468738406252793,-0.19281882731150407,-0.04049048608144271,0.003308275938741148,0.13088318480336755,-0.14504866952638143,-0.017231177438452542,-0.5343877077102661,-2.424349069595337,-1.0153228044509888,-0.2124262899160385,-0.2829196751117706,-0.1387105584144592
1749054707.8908074,5.596682488529087,-0.1920423780458684,-0.23579101280027065,-1.3303103451258689,4.9505952474345065,5.4687064099852405,-0.1945423969825372,-0.04073501629223275,0.0032661210031302065,0.1322819919375436,-0.14625617852502187,-0.017456323433125177,-0.4985401928424835,-2.4447717666625977,-1.007034182548523,-0.2195603400468826,-0.2467208802700042,-0.1336009353399276
1749054707.8908448,5.596301242526424,-0.19212430743093623,-0.23578720268137407,-1.3300471142211197,4.9503045748290955,5.468673842647209,-0.19620203962435398,-0.04091644720389733,0.0031950805951292145,0.1336542511197965,-0.14743973371570002,-0.017693555679433665,-0.5059401392936707,-2.418963432312012,-1.0109529495239258,-0.2233391106128692,-0.2489724606275558,-0.1473794728517532
1749054707.8908815,5.595916855818323,-0.19220684186081158,-0.23578380136495974,-1.3297815187879272,4.950010855899544,5.468640590156575,-0.19780066339176566,-0.04104029516257397,0.003101463557137101,0.13498549199572915,-0.14860256298656369,-0.01793503536162954,-0.5161541104316711,-2.4299323558807373,-0.9974762201309204,-0.2409400045871734,-0.2421921193599701,-0.1289950460195541
1749054707.890919,5.595528997960235,-0.19228980924538983,-0.23578081452363298,-1.3295134189755864,4.949713876366069,5.4686065761188445,-0.19934523435378382,-0.04111363772097116,0.0029925068719562262,0.13626502604284615,-0.14975218196218626,-0.0181725885689253,-0.5971357226371765,-2.4141645431518555,-0.987821877002716,-0.2256154417991638,-0.2412439882755279,-0.13937808573246
1749054707.8909593,5.5951373308217525,-0.19237306504435162,-0.23577821190471998,-1.3292426704326594,4.949413419401217,5.468571768204611,-0.20084672996586478,-0.041145208796214555,0.002875975386316722,0.13748760391674922,-0.1509000329299115,-0.01839854249668044,-0.5669766068458557,-2.4127254486083984,-0.9990428686141968,-0.2544487118721008,-0.2605623304843902,-0.1328309327363968
1749054707.8909965,5.594741538506678,-0.19245649637035944,-0.23577592695645083,-1.3289691318061327,4.949109284068375,5.468536178399601,-0.2023200608589849,-0.041145466008335956,0.0027598210092190617,0.13865416392219637,-0.1520602127174139,-0.018606470114669475,-0.4289755821228027,-2.470158338546753,-0.9721188545227052,-0.2706415057182312,-0.2420768737792968,-0.1518090218305587
1749054707.891037,5.594341360410414,-0.19254002158698255,-0.23577386018810967,-1.3286926771354663,4.948801312499626,5.4684998577333905,-0.2037838020299491,-0.04112653947915287,0.00265193083002519,0.1397715875074337,-0.15324754956865538,-0.018791753003805152,-0.5664976239204407,-2.450859546661377,-0.9640007615089417,-0.2244729399681091,-0.2654827237129211,-0.1377273350954055
1749054707.891388,5.593936620798868,-0.19262358659244389,-0.23577188528462817,-1.3284132117346563,4.948489420953789,5.468462886922923,-0.2052595227543053,-0.0411020076672845,0.0025599653926963117,0.1408515824605822,-0.15447540234402116,-0.018951909865334873,-0.5664976239204407,-2.450859546661377,-0.9640007615089417,-0.2244729399681091,-0.2654827237129211,-0.1377273350954055
1749054707.893416,5.593527246864988,-0.19270715992322276,-0.2357698568441951,-1.3281306874014036,4.948173626607922,5.468425364582298,-0.20677055399397967,-0.04108647902203117,0.0024912562063611303,0.14190900470910583,-0.15575360254498088,-0.019086676895299914,-0.4892149269580841,-2.425432682037353,-0.9660909175872804,-0.2040705233812332,-0.281066358089447,-0.1338344663381576
1749054707.934312,5.593113268835959,-0.19279072882306653,-0.23576761874059662,-1.3278451115527743,4.947854061092592,5.468387394515689,-0.20834015051936297,-0.041094975345827636,0.0024527084635887126,0.1429600314978415,-0.15708693424639622,-0.019197859387204447,-0.4982325434684753,-2.420900583267212,-0.9578816294670104,-0.2030834108591079,-0.3083191514015198,-0.1230057924985885
1749054707.934358,5.592694801052002,-0.1928742974397202,-0.23576501242567288,-1.3275565466175332,4.9475309646647645,5.468349073434002,-0.2099891387244085,-0.041142129567413,0.0024506509112304327,0.14402056402207,-0.1584744340978158,-0.019288997833452802,-0.535770833492279,-2.44165587425232,-0.9593771696090698,-0.2200835645198822,-0.2981568574905395,-0.1380513608455658
1749054707.9343982,5.592272009398327,-0.19295788692071364,-0.23576188488368968,-1.3272650996472624,4.947204660377748,5.4683104803721765,-0.21173327859566834,-0.04124124300219656,0.002490590857924446,0.14510509077526226,-0.15990960621715455,-0.019364904633573526,-0.5376101136207581,-2.443371057510376,-0.9668274521827698,-0.2308185696601867,-0.2733928263187408,-0.1407721042633056
1749054707.934437,5.591845073988496,-0.19304153627544943,-0.23575809624177402,-1.3269709048511398,4.94687551274168,5.468271669065173,-0.21358071709732854,-0.04140328879117039,0.0025768616974685085,0.14622605504407102,-0.1613814355553242,-0.019431131810298544,-0.5265456438064575,-2.4576449394226074,-0.9500831365585328,-0.2338111996650695,-0.2587296068668365,-0.1362464725971222
1749054707.934475,5.591414155430957,-0.19312530282017007,-0.23575352703674277,-1.326674102260178,4.9465438783028555,5.468232664353209,-0.21553004340636314,-0.04163597978482837,0.002712184832635998,0.14739361049712393,-0.16287591613882638,-0.019493429571093648,-0.3025930225849151,-2.431479454040528,-0.9493299722671508,-0.2389208227396011,-0.1892132759094238,-0.1340706199407577
1749054707.934513,5.590979370353798,-0.19320926141706288,-0.23574808485685256,-1.3263748150981194,4.946210056417902,5.468193463157693,-0.21756951319794127,-0.041943027311222805,0.0028972015796732684,0.14861556638197082,-0.16437775003247684,-0.019557250982436828,-0.7456929087638855,-2.486350774765014,-0.9306431412696838,-0.2054443061351776,-0.2647549510002136,-0.1363703608512878
1749054707.934551,5.590540778963243,-0.19329350207246326,-0.2357417098055033,-1.326073128219536,4.945874247905296,5.468154039715805,-0.21967791205475456,-0.042323699215867254,0.0031300578879737743,0.14989733451586992,-0.16587193534415046,-0.01962734944895745,-0.695896327495575,-2.463938474655152,-0.9329198002815248,-0.2424526959657669,-0.2528671026229858,-0.1336677372455597
1749054707.9345882,5.5900983848078525,-0.19337812573128862,-0.23573437824044524,-1.325769070384975,4.945536527572286,5.468114353821542,-0.22182720632793257,-0.04277274340871883,0.0034061369734560694,0.15124176820744925,-0.16734508747699425,-0.01970750445006235,-0.5925623774528503,-2.4471559524536133,-0.9344630241394044,-0.2173437178134918,-0.2671635746955871,-0.1689601838588714
1749054707.934625,5.589652144861914,-0.19346323843247207,-0.2357261044834448,-1.325462603404495,4.94519683425212,5.468074360143798,-0.2239866152029699,-0.0432806834559442,0.0037180232525686327,0.15264888315316674,-0.1687864339056174,-0.01980039658973356,-0.4828338027000427,-2.454669713973999,-0.9261691570281982,-0.1895770728588104,-0.2367952764034271,-0.160021036863327
1749054707.9346616,5.589201986788453,-0.1935489443344363,-0.23571694043770355,-1.3251536207190742,4.944854979503308,5.468034016572454,-0.2261272439100062,-0.04383443160710312,0.004055742837217986,0.15411553645222242,-0.17018844547010187,-0.01990763105921029,-0.6164057850837708,-2.440294981002808,-0.9299850463867188,-0.2230764478445053,-0.2352896630764007,-0.1368836164474487
1749054707.9346983,5.588747829782331,-0.19363533836976013,-0.23570697316129108,-1.324841956883433,4.9445106738619735,5.4679932900792805,-0.22822621257711057,-0.044418123712411356,0.004407270466224139,0.15563518646665314,-0.17154704992244593,-0.020029878121545303,-0.6917443871498108,-2.4555819034576416,-0.9315172433853148,-0.2058896571397781,-0.2504929304122925,-0.1394603252410888
1749054707.9347346,5.58828960553823,-0.19372249943769682,-0.23569632047511938,-1.3245274080034024,4.944163567560036,5.467952159558157,-0.23026937922175683,-0.04501407208285825,0.004759239674315993,0.15719784996173147,-0.1728613748396115,-0.0201670719141079,-0.5439407229423523,-2.4473018646240234,-0.942741870880127,-0.2054683268070221,-0.2711023092269897,-0.1532507836818695
1749054707.9347713,5.587827276447749,-0.19381048509116927,-0.2356851247755915,-1.3242097616239965,4.943813300991045,5.467910616055434,-0.23225215166351887,-0.045603752139746524,0.005097762299260085,0.15879032755240363,-0.1741330125479028,-0.02031860264933936,-0.3821451365947723,-2.439593553543091,-0.92670476436615,-0.2131971567869186,-0.1958404779434204,-0.1498970240354538
1749054707.9348078,5.587360848965312,-0.19389932850970817,-0.2356735454559785,-1.3238888328490623,4.943459559123489,5.467868661314106,-0.23417835271260573,-0.04616877316584303,0.005409261841590501,0.1603967115774537,-0.17536488045749207,-0.020483456840375284,-0.5910019874572754,-2.443584442138672,-0.958471953868866,-0.228432223200798,-0.2542939782142639,-0.1652358770370483
1749054707.9348447,5.586890381090568,-0.19398903810843268,-0.23566175060779054,-1.3235645017570978,4.943102123645897,5.467826305611179,-0.2360575672333783,-0.04669181823005758,0.005681243686198654,0.161999139341388,-0.17655985716305134,-0.02066028983427202,-0.672533392906189,-2.433281183242798,-0.9461542963981628,-0.2462073564529419,-0.2539532780647278,-0.1445648372173309
1749054707.9348817,5.5864159838933505,-0.19407959961612287,-0.23564990876813705,-1.32323674596798,4.9427409166989,5.467783565720136,-0.23790176417608166,-0.04715755962350851,0.005902951741776974,0.16357872150746985,-0.17771949918094845,-0.020847434984012574,-0.7260719537734985,-2.471986055374145,-0.9482107758522034,-0.2206152975559234,-0.295165479183197,-0.1551205813884735
1749054707.9349186,5.585937817650411,-0.19417098014889733,-0.23563818133683473,-1.322905662103945,4.94237603036908,5.46774046362966,-0.2397221029626881,-0.04755355392150287,0.006065889544944044,0.16511657413337108,-0.17884323740098687,-0.02104286022284106,-0.5204402208328247,-2.442144632339477,-0.9470635056495668,-0.2187355756759643,-0.2951454520225525,-0.1486862897872924
1749054707.9349556,5.585456083335936,-0.1942631336895539,-0.23562671603017535,-1.3225714711955443,4.942007736901638,5.467697026282659,-0.2415266409992659,-0.0478710973413183,0.006164208298908044,0.166594911814141,-0.17992843101491787,-0.02124408623886428,-0.5755624175071716,-2.431802988052368,-0.9511215686798096,-0.2217565178871154,-0.2749732732772827,-0.1496471762657165
1749054707.9349918,5.584971010088244,-0.19435600719737492,-0.23561564151141495,-1.3222345057345033,4.941636476424313,5.4676532859971045,-0.24331928401416275,-0.0481059914212667,0.006194974728807958,0.16799819268392072,-0.1809714701661558,-0.02144808873347169,-0.5968664288520813,-2.433858871459961,-0.9538673162460328,-0.1959025859832763,-0.2721591889858246,-0.1538072377443313
1749054707.935029,5.584482839128978,-0.19444954628120434,-0.2356050631988226,-1.321895179540528,4.94126282199535,5.467609280718207,-0.24509996652799051,-0.04825914255723861,0.0061583243188605965,0.1693143111914187,-0.1819698103074182,-0.02165121816016878,-0.6043888926506042,-2.445434093475342,-0.9602731466293336,-0.2436961978673935,-0.2645993530750274,-0.1380666047334671
1749054707.9353664,5.58399180455174,-0.19454369928870272,-0.23559506022255317,-1.3215539449551659,4.940887425226937,5.46756505329825,-0.246865825352544,-0.048336900284165034,0.0060574912939118705,0.17053579765475416,-0.18292450347618072,-0.02184917926905998,-0.555725634098053,-2.3950858116149902,-0.9455729722976683,-0.2085281163454055,-0.2279655039310455,-0.1649440228939056
1749054707.9375975,5.583498111447867,-0.19463841913297325,-0.2355856836108758,-1.3212112441314756,4.9405109486068985,5.467520649598114,-0.24861302129694152,-0.048351037620371004,0.0058987004827451015,0.17166091720620322,-0.18384257800402476,-0.022037116738893827,-0.5928015112876892,-2.437527894973755,-0.9504314661026,-0.2216855883598327,-0.2179675698280334,-0.1522496938705444
1749054707.9783883,5.5830019120845815,-0.19473366314842983,-0.2355769559520737,-1.320867461759802,4.940133992521197,5.467476115837907,-0.25033882106178024,-0.04831830828798593,0.005690910547454339,0.17269449250375493,-0.18473857893386136,-0.02220984756205833,-0.6665903329849243,-2.501671075820923,-0.950103759765625,-0.2499220818281173,-0.2132020592689514,-0.1583417654037475
1749054707.9784648,5.582503281369556,-0.19482939224845372,-0.2355688727539144,-1.3205228854049138,4.939757025852346,5.467431495831753,-0.25204353718529715,-0.048259579088307386,0.0054454056472344435,0.17364823490349499,-0.18563473263101168,-0.022362260449106768,-0.6513641476631165,-2.428807497024536,-0.9585678577423096,-0.237257570028305,-0.2442008107900619,-0.1577245593070984
1749054707.9785347,5.582002193527067,-0.19492557107374506,-0.23556140537109913,-1.3201776772179374,4.939380328752581,5.467386828448564,-0.25373192860302235,-0.048198601311891846,0.005175242135048581,0.17454038547430276,-0.1865595044237134,-0.02248986762011189,-0.5068960189819336,-2.4580328464508057,-0.9429346919059752,-0.2892372906208038,-0.2125531435012817,-0.1560323387384414
1749054707.9786036,5.581498502492133,-0.19502217044037568,-0.23555450490131993,-1.3198318580754749,4.939003954510389,5.467342145126174,-0.2554137149283727,-0.04816052236125378,0.004894574968613643,0.17539455421215383,-0.18754470177171711,-0.0225894525374106,-0.5763731598854065,-2.459648847579956,-0.9422773122787476,-0.2592856585979461,-0.2376487851142883,-0.1520273983478546
1749054707.9786737,5.580991928682008,-0.19511917243093316,-0.23554810615695104,-1.3194853032230092,4.938627714453061,5.467297466994252,-0.2571030035852167,-0.04817024824165007,0.004617913809480312,0.17623779044340512,-0.18862164228144557,-0.022659718570502124,-0.6425225734710693,-2.482225179672241,-0.9348008632659912,-0.2354399859905243,-0.2707675695419311,-0.1606192886829376
1749054707.9787412,5.580482054488713,-0.19521657737525658,-0.23554213075669866,-1.3191377477892314,4.938251186308979,5.4672528013962225,-0.25881666987538354,-0.04825076933096596,0.004359376080435888,0.177098084760767,-0.1898171549212451,-0.022701818183577173,-0.7183288335800171,-2.504312753677368,-0.9288203716278076,-0.227349191904068,-0.3203832507133484,-0.1397397816181183
1749054707.97881,5.579968330465983,-0.19531441115698212,-0.23553648855642662,-1.318788800878549,4.937873743476328,5.467208138147213,-0.2605719750366233,-0.04842156416340632,0.00413200051847387,0.17800164821480596,-0.1911502258739442,-0.022719640919599042,-0.5821216702461243,-2.4909512996673584,-0.9262945652008056,-0.1991470158100128,-0.2974142432212829,-0.1461926996707916
1749054707.978878,5.5794500941892,-0.19541273098363265,-0.2355310772248107,-1.3184379677231735,4.937494600963619,5.467163446347011,-0.26238385310058493,-0.048697191111726566,0.0039471635334647065,0.1789703912474738,-0.1926299045756287,-0.022719769731287556,-0.5728442668914795,-2.496065616607666,-0.924432635307312,-0.2068655490875244,-0.3137208819389343,-0.1600330770015716
1749054707.978948,5.578926603900316,-0.19551162797923013,-0.23552578073005961,-1.3180846799901047,4.937112873431231,5.467118672810348,-0.26426233191455367,-0.049086159081693954,0.003814115384624644,0.18001999817113593,-0.19425471298517866,-0.0227110756686799,-0.6528930068016052,-2.49234938621521,-0.8979830145835876,-0.22251558303833,-0.2832505106925964,-0.1437764763832092
1749054707.9790182,5.578397088373726,-0.19561122551517987,-0.23552046825749762,-1.3177283344169506,4.936727641272668,5.4670737431715475,-0.2662105329010463,-0.04959013943261163,0.003739633212602374,0.18115886166347928,-0.19601339646887778,-0.022703991459858196,-0.7119705080986023,-2.476504325866699,-0.9176430702209472,-0.1948480904102325,-0.2710240483283996,-0.1459051668643951
1749054707.979087,5.577860812198734,-0.19571167284932253,-0.23551499502250794,-1.3173683393579243,4.936338021282953,5.467028566393815,-0.26822363107636094,-0.050203553817876535,0.0037277766806791193,0.1823879439821621,-0.1978865717977188,-0.022709561329308733,-0.6046252250671387,-2.5102100372314453,-0.9143567085266112,-0.2275394052267074,-0.2825134694576263,-0.1523071676492691
1749054707.979156,5.577317152116757,-0.19581313424401706,-0.23550920573174627,-1.3170041675200608,4.935943238356969,5.4669830426905435,-0.2702890070403615,-0.05091355626852091,0.00377973131954096,0.18370142448592694,-0.19984875304283925,-0.022738394926740003,-0.6036548614501953,-2.464286088943481,-0.8920272588729858,-0.2297622263431549,-0.2846003770828247,-0.159718245267868
1749054707.9792233,5.576765676152393,-0.19591577424631168,-0.2355029408336049,-1.3166354110893945,4.9355426933059405,5.466937073923559,-0.27238758939037633,-0.05170042279675721,0.003893734122860986,0.18508783297031048,-0.20187035683817917,-0.02279965863094374,-0.7200597524642944,-2.4709064960479736,-0.907776951789856,-0.2571804225444793,-0.2894122302532196,-0.1560570001602172
1749054707.9792912,5.57620621388882,-0.1960197403560938,-0.23549604557574316,-1.3162618327245634,4.935136019568212,5.466890574765266,-0.27449616332927546,-0.05253836113616819,0.00406508989822052,0.18653130616329858,-0.20391951160544333,-0.022900223626930612,-0.7200597524642944,-2.4709064960479736,-0.907776951789856,-0.2571804225444793,-0.2894122302532196,-0.1560570001602172
1749054707.9793582,5.575638904388197,-0.19612514497830522,-0.23548838180528578,-1.315883403555345,4.934723119827442,5.466843482606179,-0.27659029296961957,-0.05339674959343418,0.004286298139310615,0.18801267111330214,-0.20596370100560382,-0.023044062818722358,-0.5601099729537964,-2.4589552879333496,-0.8948085308074951,-0.2358407974243164,-0.2814524173736572,-0.1605124473571777
1749054707.9794254,5.575064210052741,-0.1962320490085249,-0.23547984179410592,-1.3155003194888117,4.934304174704035,5.466795764498385,-0.2786474605930159,-0.054241800462953606,0.004547314712618935,0.1895102377515479,-0.20797137059404477,-0.02323195410424681,-0.5864322781562805,-2.4820680618286133,-0.8918324708938599,-0.2171835005283355,-0.2953450679779053,-0.1590318828821182
1749054707.9794755,5.574482891589392,-0.1963404491157687,-0.23547036226561371,-1.31511299122792,4.933879620981748,5.466747420252607,-0.2806500142049927,-0.05503861281620884,0.004835968702187899,0.191000404052741,-0.2099135894806968,-0.023461511823793756,-0.5950446724891663,-2.4661402702331543,-0.8852978944778442,-0.20496366918087,-0.2714071869850158,-0.1569038331508636
1749054707.9795165,5.5738959485633375,-0.19645026995315878,-0.23545993602621587,-1.3147220097291084,4.933450104061295,5.466698481679494,-0.2825875163285335,-0.05575352648120667,0.005138540802087626,0.19245834572678175,-0.2117657187481373,-0.02372753559311579,-0.9110603332519532,-2.4815433025360107,-0.8973302245140076,-0.199615016579628,-0.3262867033481598,-0.17632457613945
1749054707.9795537,5.573304536490135,-0.19656136198658392,-0.23544861873389614,-1.3143280935643182,4.933016414207255,5.466649008400317,-0.28445810589205184,-0.05635661735328157,0.005440486891095901,0.19385910099676396,-0.21350887595629722,-0.0240226374853665,-0.4451685845851898,-2.3957607746124268,-0.8875147104263306,-0.1750378906726837,-0.2422182410955429,-0.1567026674747467
1749054707.9795902,5.572709872628288,-0.19667350577788875,-0.23543652922637517,-1.3139320258953318,4.932579416539069,5.466599080714384,-0.286268539341589,-0.056824107247334284,0.005727264996809514,0.1951792447691504,-0.21513089945195496,-0.02433808212281801,-0.4458051919937134,-2.4401023387908936,-0.8922052383422852,-0.2082163840532302,-0.2335265278816223,-0.184605985879898
1749054707.9797044,5.5721131406966675,-0.19678642386510656,-0.23542384300871808,-1.3135345877090536,4.932139981971712,5.4665487900826815,-0.288032728253539,-0.057140434523779496,0.0059852027458677575,0.19639911353029688,-0.21662658329859102,-0.02466474701091851,-0.6345416307449341,-2.431349754333496,-0.9010285139083862,-0.220062717795372,-0.281757652759552,-0.1878513693809509
1749054707.9813898,5.571515402422298,-0.19689980100782883,-0.23541077960459078,-1.3131364925021058,4.931698922923712,5.466498227967687,-0.2897688847448787,-0.05729975728189082,0.006202329030422167,0.19750528197075043,-0.21799717690668005,-0.024994084381933877,-0.7252888679504395,-2.4338693618774414,-0.9018908739089966,-0.21897853910923,-0.3309240639209747,-0.1745037138462066
1749054708.0263052,5.570917521970628,-0.1970133121534951,-0.23539758529460028,-1.312738326587383,4.9312569352544315,5.466447473945102,-0.29149573897676234,-0.057306718633968454,0.006369090992310699,0.1984928089657017,-0.21924942003106143,-0.025318947336806598,-0.4487023651599884,-2.403031826019287,-0.9129111170768738,-0.2406948208808899,-0.3097074031829834,-0.150753378868103
1749054708.0263505,5.570320107821082,-0.19712665542485797,-0.23538451325172413,-1.312340498691656,4.930814547225423,5.46639658422757,-0.2932285399483053,-0.05717637466102241,0.0064788918660614175,0.19936673360000756,-0.2203945411084858,-0.025634142261175413,-0.5034665465354919,-2.4375314712524414,-0.911081612110138,-0.2763156294822693,-0.2803022265434265,-0.1538312286138534
1749054708.0263925,5.569723475640227,-0.19723958558786556,-0.23537180333066887,-1.3119432023635955,4.9303720772079584,5.4663455821055615,-0.2949756157171324,-0.056933270740437476,0.006528418564519716,0.20014242104477462,-0.22144756357047046,-0.025936600903105525,-0.6633162498474121,-2.458683490753174,-0.9013419151306152,-0.2397139519453048,-0.2914618849754333,-0.1624984145164489
1749054708.0264316,5.5691276350866294,-0.1973519426995957,-0.23535966375510245,-1.3115463945902637,4.92992960375921,5.466294452107962,-0.2967361795707429,-0.056609746368951656,0.00651776575550922,0.2008445948888615,-0.22242697313079093,-0.0262251390803867,-0.7664449214935303,-2.435609579086304,-0.9066845774650574,-0.235677421092987,-0.2631983160972595,-0.1831404715776443
1749054708.026475,5.568532302577923,-0.1974636713414745,-0.23534825651418886,-1.3111497935056529,4.929486953537892,5.466243139521653,-0.2984998329462768,-0.056243629111438535,0.0064503820182638715,0.20150517740345117,-0.22335446321098157,-0.026499871825866248,-0.4931920766830444,-2.4660940170288086,-0.9070181250572203,-0.1881502866744995,-0.2415508925914764,-0.1910808086395263
1749054708.0265143,5.567936940386594,-0.19757482759229264,-0.2353376874728311,-1.3107528969408093,4.9290437131151625,5.466191556163805,-0.3002478353047724,-0.05587552374526035,0.006332855845610012,0.20216030355115636,-0.22425428100541944,-0.02676144793438773,-0.5266966819763184,-2.4604899883270264,-0.91055828332901,-0.1864706575870514,-0.2095863223075866,-0.1949295699596405
1749054708.0265512,5.567340820327608,-0.19768557289985714,-0.2353280013742977,-1.3103550219186957,4.928599269246547,5.466139592249414,-0.30195579408604895,-0.05554591115506363,0.006174542959352712,0.2028469963778397,-0.2251517555968656,-0.027010308814564746,-0.6199463605880737,-2.485196590423584,-0.923348307609558,-0.19501893222332,-0.2188392579555511,-0.1886759102344513
1749054708.026589,5.566743108198992,-0.19779615583951324,-0.23531918139395708,-1.3099553632872705,4.9281528786432816,5.466087133141057,-0.30359714299516605,-0.055292255578720834,0.0059870339816645995,0.2035999514484344,-0.22607089829696975,-0.02724615172034502,-0.6276876330375671,-2.475398540496826,-0.9189394116401672,-0.1868657320737838,-0.2951141595840454,-0.1887077540159225
1749054708.02663,5.566142962851416,-0.19790688429401387,-0.2353111527037342,-1.3095530676418192,4.92770376330782,5.466034078726048,-0.3051466906194942,-0.05514629613785187,0.005783476043169661,0.20444870802680742,-0.22703139613521736,-0.027467703284797505,-0.4317958056926727,-2.489401340484619,-0.893960177898407,-0.2047514468431472,-0.2747296392917633,-0.1900345385074615
1749054708.0266693,5.565539640721842,-0.19801809170055595,-0.23530378943630492,-1.3091473163881475,4.927251221633757,5.465980362108225,-0.30658358982472067,-0.05513168534806994,0.005577781259994721,0.20541528555949162,-0.22804566388730596,-0.027672819041997393,-0.4782450199127197,-2.508595466613769,-0.9075457453727722,-0.1901051104068756,-0.30811607837677,-0.1793917268514633
1749054708.026708,5.564932592763603,-0.1981301016073165,-0.23529692434922905,-1.3087374090843995,4.926794739388593,5.465925963593096,-0.3078932657742167,-0.055262136708773994,0.005383769609192177,0.20651225081401095,-0.22911670371471124,-0.027858846065579628,-0.4782450199127197,-2.508595466613769,-0.9075457453727722,-0.1901051104068756,-0.30811607837677,-0.1793917268514633
1749054708.0267448,5.564321537555754,-0.19824319493701345,-0.23529036039541024,-1.308322835803013,4.926334080355834,5.465870916300442,-0.3090681247447985,-0.05554023974828823,0.005214302329871013,0.20774120564939144,-0.2302373154497593,-0.028023135023907537,-0.6287151575088501,-2.4975335597991943,-0.8883443474769592,-0.1512859165668487,-0.2849076092243194,-0.1765447109937667
1749054708.0267851,5.563706495678437,-0.1983575839481714,-0.23528388343301704,-1.307903327357795,4.925869337317009,5.465815301592437,-0.3101071598977542,-0.0559570734738582,0.00508046570473825,0.20909180458764534,-0.2313908254674232,-0.028163573398288923,-0.4802844226360321,-2.543391227722168,-0.8816649913787842,-0.1673900634050369,-0.2693642675876617,-0.1717015206813812
1749054708.0268228,5.563087778674556,-0.19847339564221336,-0.23527727555962744,-1.3074788765283554,4.925400932144053,5.465759235397278,-0.3110147579064938,-0.05649269275545955,0.004990863442131187,0.21054152184044175,-0.23255313933370403,-0.02827903234735827,-0.4745238125324249,-2.526916980743408,-0.8836514353752136,-0.1388718485832214,-0.269186794757843,-0.1828870177268982
1749054708.0268593,5.562465937869629,-0.19859066548208554,-0.23527032890929828,-1.3070497301910795,4.924929565798622,5.465702849123566,-0.3117990554740638,-0.05711748559422213,0.004951067328053368,0.21205639382904373,-0.23369571799363492,-0.02836965931727082,-0.60312420129776,-2.525820255279541,-0.8690606951713562,-0.1467665284872055,-0.316958874464035,-0.1647586226463318
1749054708.0268962,5.561841687049262,-0.1987093404680843,-0.23526285979502506,-1.306616357570559,4.9244561288307285,5.465646269918181,-0.31247013995840045,-0.057794313090314096,0.004963259676433236,0.2135928360844526,-0.23478905678442002,-0.028436982963036025,-0.6013962626457214,-2.469128370285034,-0.8963262438774109,-0.1546505242586136,-0.3485784530639648,-0.1705260574817657
1749054708.0269363,5.561215814905688,-0.198829289375419,-0.23525472252410792,-1.3061794017145225,4.9239815875889645,5.4655896042688825,-0.3130382819193484,-0.058481264037714066,0.005026081475753008,0.21510042626262196,-0.23580629698699573,-0.02848381514725975,-0.3734446167945862,-2.5339584350585938,-0.8859923481941223,-0.1786292195320129,-0.2845768928527832,-0.1666160821914672
1749054708.0269735,5.56058910025856,-0.1989503174037723,-0.23524582140266034,-1.3057396210005399,4.923506862321344,5.465532927207826,-0.31351228205495146,-0.059134803292995586,0.005134687279714194,0.2165253587861999,-0.2367265704992564,-0.028513947586165156,-0.3921516537666321,-2.465451955795288,-0.8778756856918335,-0.156064823269844,-0.2567154765129089,-0.1779211908578872
1749054708.0270102,5.559962238814649,-0.19907218262440154,-0.23523611910340617,-1.3052978267315474,4.923032712741222,5.465476277670771,-0.3138979918600447,-0.05971306985232182,0.005281009199965333,0.21781419175179478,-0.23753754531714036,-0.028531665704861597,-0.577299952507019,-2.4827470779418945,-0.8711177110671997,-0.1665751934051513,-0.2337615191936493,-0.1749260127544403
1749054708.0270464,5.5593357864416175,-0.19919461235121697,-0.2352256400198083,-1.3048548221701335,4.92255964500294,5.4654196594657565,-0.31419715954000527,-0.060179068735975345,0.005454240590405519,0.2189175338402508,-0.2382365425996172,-0.028541142466780883,-0.595722496509552,-2.4739558696746826,-0.8598731756210327,-0.1299467086791992,-0.2415841519832611,-0.1856495290994644
1749054708.0270867,5.558710121014647,-0.19931731857017426,-0.23521446813696595,-1.3044113475808052,4.922087851417634,5.465363046812446,-0.3144068630177832,-0.06050349600592566,0.0056415468145282815,0.21979340790550672,-0.23882971074288778,-0.028545815080163323,-0.3640343248844147,-2.4212467670440674,-0.8668841123580933,-0.1748701333999633,-0.1641125231981277,-0.185618907213211
1749054708.0271242,5.558085423009336,-0.1994400123501162,-0.2352027397877934,-1.3039680350293692,4.921617190832119,5.465306393282893,-0.31451978834187844,-0.06066695668759917,0.005828983888138622,0.22041011478624134,-0.23932913121777025,-0.02854786670450159,-0.4007973968982696,-2.4396355152130127,-0.8803054094314575,-0.1722245514392852,-0.2055051177740097,-0.1726975739002227
1749054708.0274436,5.557461674312614,-0.199562417451915,-0.2351906321434881,-1.303525375964377,4.92114721338018,5.465249642978292,-0.31452548957361065,-0.06066139003793722,0.006002561982313022,0.22074846554997962,-0.2397483065529552,-0.028547920227333944,-0.5909062027931213,-2.43523383140564,-0.8938837647438049,-0.1918985843658447,-0.3040836751461029,-0.1837186068296432
1749054708.029374,5.556838675020532,-0.1996842833089519,-0.23517834844177202,-1.303083703950769,4.920677228226355,5.465192742802927,-0.31441261130457243,-0.060490592519519736,0.0061493508713061406,0.22080325077436472,-0.24009704876912305,-0.028545002531854546,-0.5982484817504883,-2.467931032180786,-0.8840789198875427,-0.2277486026287078,-0.3094332814216614,-0.1780945062637329
1749054708.0702846,5.556216078473519,-0.19980539746774095,-0.23516610100898408,-1.3026431941606367,4.920206407352168,5.465135654669619,-0.3141718903293408,-0.060169810548264355,0.0062585112668437125,0.22058380480416045,-0.24037711072911958,-0.02853677141896293,-0.3540139198303222,-2.4453203678131104,-0.874790370464325,-0.222627118229866,-0.305702269077301,-0.1700923144817352
1749054708.070331,5.555593444284594,-0.19992559739299914,-0.23515409328254036,-1.302203880131498,4.919733913143333,5.465078366290739,-0.3137995603216603,-0.05972445741922172,0.0063221566872816515,0.22011354786845488,-0.2405798061269911,-0.028519938829076226,-0.380473256111145,-2.4559504985809326,-0.87239009141922,-0.2233742028474807,-0.3125122189521789,-0.1810761094093322
1749054708.0703723,5.554970306827277,-0.20004478096250253,-0.23514250230900569,-1.3017656865901694,4.919259033250667,5.465020898965754,-0.31330063485339726,-0.05918808914621107,0.006335986817072779,0.21942847608531207,-0.24068635442240827,-0.02849079482968139,-0.5295423269271851,-2.5007848739624023,-0.8642807602882385,-0.2093282639980316,-0.2998925149440765,-0.1869005113840103
1749054708.070411,5.554346252464683,-0.20016291415224283,-0.23513146340091245,-1.3013284744460403,4.918781303572194,5.464963310864186,-0.31269154623634876,-0.0585998408932031,0.006299656878501189,0.21857470422765982,-0.2406709769426946,-0.028445743002535155,-0.6290889978408813,-2.5024237632751465,-0.874975860118866,-0.1881385147571563,-0.2801550030708313,-0.1803395003080368
1749054708.0704498,5.553720993470142,-0.2002800340811802,-0.23512105849968756,-1.3008920903794388,4.918300599820476,5.4649056949642825,-0.3120017384513524,-0.058001561396023645,0.006216850310563383,0.21760530099830108,-0.24050613248337124,-0.02838178747602123,-0.6290889978408813,-2.5024237632751465,-0.874975860118866,-0.1881385147571563,-0.2801550030708313,-0.1803395003080368
1749054708.0704887,5.553094422459448,-0.20039624624072838,-0.23511130924093895,-1.300456410143537,4.917817180681451,5.464848171772484,-0.3112739118846177,-0.05743488008427857,0.006095024821652056,0.2165767426953747,-0.24016888694260832,-0.028296944202623686,-0.4073086380958557,-2.528451919555664,-0.8736224174499512,-0.1803306937217712,-0.2628079950809479,-0.1805650293827057
1749054708.0705264,5.552466632258058,-0.20051171587632632,-0.23510217509660342,-1.3000213647024499,4.917331672214955,5.464790877817371,-0.3105626405036357,-0.05693841222454672,0.0059448278921498295,0.21554533054787833,-0.23964728405180952,-0.02819056895451613,-0.5516419410705566,-2.519473075866699,-0.8554193377494812,-0.2070329189300537,-0.2812481224536896,-0.1808007359504699
1749054708.070564,5.551837894716726,-0.20062665420081907,-0.23509355660668102,-1.299586943605458,4.916844994167808,5.4647339515395466,-0.3099311021005711,-0.056545264209778644,0.00577922449508971,0.2145638832372582,-0.2389456414951608,-0.0280635984906766,-0.6125938296318054,-2.5420565605163574,-0.866409420967102,-0.1869276762008667,-0.2946895360946655,-0.1882514208555221
1749054708.0706024,5.5512086043199425,-0.20074130028975845,-0.23508530347837084,-1.2991531782508392,4.916358241114656,5.464677518531431,-0.30944575993376655,-0.056280946889873534,0.005612423602084024,0.2136789484401621,-0.23808783277017487,-0.027918693163286077,-0.5930219292640686,-2.5263500213623047,-0.869484543800354,-0.1841917484998703,-0.2492228001356125,-0.190400093793869
1749054708.07064,5.550579201329717,-0.20085589982151886,-0.23507722697850533,-1.2987201138360585,4.915872539624657,5.464621678040595,-0.3091690515390924,-0.05616175356794654,0.0054587134732254124,0.21292868662005487,-0.237117785364193,-0.027760255840644465,-0.2450451850891113,-2.54153823852539,-0.8592861890792847,-0.1832889914512634,-0.1814627945423126,-0.1824995130300521
1749054708.0706773,5.549950091364787,-0.20097068261794737,-0.23506911566663624,-1.2982877801042645,4.915388904509771,5.464566492274487,-0.30915054521637225,-0.05619364183755704,0.005331317821975144,0.21234147672965306,-0.23609669523652574,-0.027594293181076944,-0.0184443015605211,-2.5129544734954834,-0.8592938184738159,-0.2168353945016861,-0.1048353314399719,-0.1818018704652786
1749054708.0707145,5.549321575834445,-0.20108584175926392,-0.2350607532743975,-1.2978561688033656,4.914908114131167,5.464511979482214,-0.3094176738118117,-0.05637168257572636,0.005241368248963405,0.2119351922718682,-0.23509694654409263,-0.02742808936810992,-0.4214588403701782,-2.5282680988311768,-0.8534408211708069,-0.2016050368547439,-0.1590686738491058,-0.1723193377256393
1749054708.070752,5.548693803384522,-0.20120151723609978,-0.23505193735547508,-1.2974252225545508,4.914430619287124,5.46445811123883,-0.30996790246443207,-0.056680171234207606,0.005197055120996268,0.21171702057540673,-0.23419345289835228,-0.02726968323613887,-0.5263319611549377,-2.530019998550415,-0.8703584671020508,-0.236326515674591,-0.2316105216741562,-0.1781911998987198
1749054708.0707924,5.548066747583629,-0.20131778637733122,-0.23504249713648315,-1.2969948368380944,4.91395649413827,5.4644048140256425,-0.3107646054596734,-0.057093499209284304,0.005202983555338438,0.21168367910074476,-0.23345390068242494,-0.027127178550169127,-0.3920403718948364,-2.511293411254883,-0.8647366762161255,-0.2253971695899963,-0.2353454530239105,-0.1673182547092437
1749054708.0708303,5.54744021106881,-0.2014346619201209,-0.23503230897076335,-1.2965648741435625,4.913485431987024,5.464351975103106,-0.3117385855310798,-0.05757784647114173,0.005259745227427601,0.21182194049427328,-0.232929830793045,-0.027007969039208952,-0.3983629643917084,-2.523975133895874,-0.8352460861206055,-0.2202842384576797,-0.2809266746044159,-0.1717407703399658
1749054708.0708673,5.546813852173599,-0.20155209722419817,-0.23502130811011807,-1.2961351868868811,4.913016784008574,5.464299452527052,-0.3127960066023483,-0.0580936835451945,0.0053637256067703585,0.21210949327739423,-0.23265038036803312,-0.02691800417059515,-1.0050909519195557,-2.5456111431121826,-0.8719063401222229,-0.1862608045339584,-0.3455851674079895,-0.192170649766922
1749054708.070904,5.546187227412241,-0.20166999728038862,-0.23500949600660767,-1.295705643751298,4.912549635196661,5.464247088640187,-0.3138318731286652,-0.05859896407336854,0.005507182849527376,0.21251626950560523,-0.23261981078954688,-0.026861229146090116,-0.8686715364456177,-2.494778633117676,-0.8664708733558655,-0.177261009812355,-0.3215901851654053,-0.1690735965967178
1749054708.070941,5.545559842330546,-0.20178823377592908,-0.23499694271662724,-1.2952761532462171,4.9120829085691335,5.4641947254888965,-0.31474657282094337,-0.05905276227914001,0.00567864130373251,0.2130063825643858,-0.2328189149636844,-0.026839291560467132,-0.4553567469120025,-2.515859603881836,-0.8501101136207581,-0.1880315393209457,-0.2455004155635833,-0.1784382164478302
1749054708.0709774,5.544931203911606,-0.2019066622280201,-0.23498378413717014,-1.2948466789063338,4.911615486000604,5.4641422198052885,-0.3154619132766303,-0.05941899631920488,0.005863634027986761,0.21354070381318135,-0.2332094073172151,-0.026851539848868934,-0.2099304944276809,-2.486755609512329,-0.8410003781318665,-0.2023529857397079,-0.2008165121078491,-0.1878512501716613
1749054708.0710137,5.544300869266157,-0.20202513901334057,-0.23497021395467702,-1.2944172426124496,4.9111463322557185,5.464089454997538,-0.3159329997515879,-0.05966981973201019,0.0060458008466299645,0.21407991617364971,-0.23373982378984318,-0.02689528035723298,-0.4967288076877594,-2.486111640930176,-0.8548887968063354,-0.2039786130189895,-0.2289781421422958,-0.2000274807214737
1749054708.0714042,5.543668486929736,-0.20214353628839446,-0.2349564704358215,-1.2939879154259308,4.910674608432286,5.464036348193927,-0.3161533968577652,-0.05978828305199751,0.006208294310899468,0.2145877159689956,-0.23435148980864273,-0.026966225286616005,-0.5178988575935364,-2.493275880813598,-0.8867654204368591,-0.2323600053787231,-0.2558397054672241,-0.1807571202516555
1749054708.0733652,5.543033828304128,-0.20226175350407313,-0.23494281852618,-1.293558798179293,4.91019976240407,5.463982851493034,-0.3161528930290181,-0.05976996050729174,0.00633537332680919,0.21503376830734577,-0.23498365694896325,-0.027059044706184376,-0.4174070358276367,-2.49361515045166,-0.8685845732688904,-0.2147192955017089,-0.2905536293983459,-0.1713275760412216
1749054708.114284,5.542396807723979,-0.20237972516531585,-0.23492952827619487,-1.2931299960838445,4.909721586751297,5.463928947765108,-0.31598906373211394,-0.0596233738663072,0.006414002738211554,0.21539606658325983,-0.23557762747581912,-0.02716792715633327,-0.5112553238868713,-2.4879629611968994,-0.8601369261741638,-0.2278104573488235,-0.3455817103385925,-0.1921600401401519
1749054708.1143308,5.541757490530757,-0.2024974251307215,-0.23491685147007685,-1.2927015924975138,4.909240238375669,5.46387464241351,-0.31573507518115845,-0.059369189678913976,0.006435252632339849,0.2156624569497357,-0.23608020665991394,-0.02728706419268158,-0.7191247940063477,-2.455812454223633,-0.887740433216095,-0.2501270771026611,-0.3350223004817962,-0.1854085326194763
1749054708.114372,5.541116089353502,-0.2026148679036351,-0.23490499910146356,-1.2922736267402213,4.908756217934648,5.463819953251646,-0.3154665683069908,-0.05903829030091814,0.00639530448960767,0.2158311999015812,-0.2364469406548877,-0.027411010130184373,-0.6237984299659729,-2.539508819580078,-0.903647005558014,-0.2691708505153656,-0.3198837637901306,-0.1991887390613556
1749054708.1144123,5.540472949335244,-0.20273210731148777,-0.2348941224015322,-1.2918460795820343,4.908270311414976,5.463764900758223,-0.31525010495658984,-0.05866891862977035,0.006295914917113896,0.21591051621303253,-0.23664534638616652,-0.027534914968572032,-0.5495955348014832,-2.537074089050293,-0.8795803785324097,-0.266834944486618,-0.2618089020252228,-0.2039850056171417
1749054708.114454,5.539828523407564,-0.20284923300596067,-0.23488429935876143,-1.2914188681676098,4.907783500690814,5.463709500439561,-0.31513480908090236,-0.058303173567160055,0.006144263649923598,0.21591711953389406,-0.23665792533437438,-0.027654661320724448,-0.4960793852806091,-2.490441083908081,-0.8749524354934692,-0.2678504586219787,-0.2166022509336471,-0.1915212869644165
1749054708.114493,5.539183339331889,-0.20296636532050635,-0.23487552758138505,-1.2909918502870947,4.907296854155256,5.463653758392885,-0.31514786260437916,-0.05798317980371012,0.005952214660485245,0.21587382399745825,-0.23648442154471166,-0.027766940778298613,-0.5392985343933105,-2.559250593185425,-0.8677830696105957,-0.2466937601566314,-0.2153887450695037,-0.193825751543045
1749054708.1145306,5.538537961226036,-0.20308364892531744,-0.23486772353961755,-1.2905648364799407,4.9068114113408425,5.463597670795889,-0.3152937359577515,-0.0577472705223215,0.005735114884514667,0.21580646259367944,-0.23614269400358406,-0.0278692859090849,-0.5222280621528625,-2.5752193927764893,-0.8613261580467224,-0.2212924659252166,-0.2139340043067932,-0.1785638630390167
1749054708.1145687,5.537892949205721,-0.20320124530982883,-0.2348607278913957,-1.2901376076093947,4.906328076033593,5.463541227617322,-0.315556554665781,-0.05762651802356449,0.005510308443311555,0.21574052849849512,-0.23566773469420535,-0.027960049126048582,-0.4875032305717468,-2.562056303024292,-0.8671053051948547,-0.1754921972751617,-0.1698091179132461,-0.1879242360591888
1749054708.114606,5.537248821095724,-0.20331932365152117,-0.23485431653402525,-1.289709935329469,4.9058475306689155,5.463484419948162,-0.31590475976020593,-0.05764192323365652,0.005295549672653287,0.2156980729639011,-0.23510867343775016,-0.028038310959846695,-0.4233559668064117,-2.572467565536499,-0.8540050983428955,-0.1961569190025329,-0.1940371394157409,-0.1781918853521347
1749054708.1146464,5.5366060199100495,-0.20343804946092117,-0.23484821693222138,-1.2892816032152639,4.905370181350611,5.463427249274971,-0.3162971292004733,-0.05780251333125432,0.005107475063728862,0.21569537790634719,-0.23452394810231358,-0.0281037187667725,-0.5130380988121033,-2.5910181999206543,-0.8544776439666748,-0.1830380707979202,-0.1915765106678009,-0.2006058096885681
1749054708.114684,5.5359648902714325,-0.20355757073965566,-0.2348421289942994,-1.2888524269710144,4.904896138422334,5.463369736470411,-0.3166892536018132,-0.058104501033794005,0.004960259108762169,0.2157417425116968,-0.2339751188905902,-0.028156290566582965,-0.4722611904144287,-2.572053909301758,-0.8669517636299133,-0.2185458540916443,-0.1828873306512832,-0.2043938487768173
1749054708.1147203,5.535325666327169,-0.20367800224085464,-0.23483574924388914,-1.288422272791017,4.904425232733605,5.463311928586937,-0.317039664287369,-0.05853155585652225,0.004864538661986559,0.21583942924318708,-0.23352005608756315,-0.02819624159729951,-0.4640468657016754,-2.567833185195923,-0.8622192144393921,-0.2313281595706939,-0.2099779695272445,-0.1949012577533722
1749054708.1147563,5.53468847286319,-0.20379940944232539,-0.23482879633307177,-1.2879910734616133,4.903957063112703,5.463253902344404,-0.31731494325746973,-0.059056144223151044,0.004826653130336658,0.21598451082318315,-0.23320641524535954,-0.028223888403716816,-0.4647090435028076,-2.566493272781372,-0.8515626192092896,-0.2164230793714523,-0.2767013311386108,-0.1801009476184845
1749054708.114796,5.534053339810477,-0.2039217945175376,-0.23482103538657065,-1.2875588419960844,4.90349106676896,5.463195763894322,-0.31749328550011335,-0.05964181185701272,0.004848225198072866,0.21616816264325533,-0.2330663739440508,-0.028239661931414518,-0.4706367254257202,-2.5442495346069336,-0.849690854549408,-0.23898246884346,-0.2789800763130188,-0.1855551451444625
1749054708.114833,5.533420228084997,-0.2040450866903284,-0.23481229858275643,-1.2871256823682613,4.903026601998424,5.46313764475932,-0.31756616188087566,-0.06024620806218394,0.004926099819531522,0.21637792942362724,-0.23311346510325598,-0.028244227666263458,-0.3639706373214721,-2.524866342544556,-0.8395476341247559,-0.2232686728239059,-0.2514200806617737,-0.1983751952648162
1749054708.1148694,5.532789062302887,-0.20416913902686662,-0.23480249974382092,-1.2866917963304394,4.902563031875118,5.46307969397322,-0.3175379728739115,-0.0608245947744972,0.005052653158423108,0.21659866217924917,-0.23334197904044535,-0.028238673741472,-0.337468147277832,-2.517585515975952,-0.8345035314559937,-0.2139002978801727,-0.2667192220687866,-0.183364525437355
1749054708.1149054,5.532159764149934,-0.20429373306498294,-0.23479164130068653,-1.2862574846185515,4.902099798463665,5.4630220666813365,-0.3174238802450196,-0.061333551368990005,0.005216462651027955,0.21681309862731035,-0.23372889690449714,-0.02822469718232223,-0.3982101678848266,-2.5228166580200195,-0.853184700012207,-0.1813627332448959,-0.2283901572227478,-0.1762453913688659
1749054708.1149418,5.5315322794853,-0.20441859169271714,-0.2347798127307573,-1.285823140396161,4.901636479211717,5.462964909934568,-0.3172463041993032,-0.06173457710316258,0.005403293531354857,0.21700232347084566,-0.23423782159771417,-0.028204710289175566,-0.4479726254940033,-2.4640467166900635,-0.8427653312683105,-0.1754520386457443,-0.2358698099851608,-0.1813224256038665
