nimar13/UR3e_dataset_trayectorias/trayectorias_ejecutadas_filtradas/trapezoidal_func/trayectoria_149_result_filtrado.csv
timestamp,q1,q2,q3,q4,q5,q6,qd1,qd2,qd3,qd4,qd5,qd6,tau1,tau2,tau3,tau4,tau5,tau6
1749057569.9103236,2.574011575458629,-2.1119015344882577,-0.40685079220543807,-1.625667724773616,5.3755972327418995,-5.486103661373021,-0.0006446496072631934,-3.290318946157876e-05,-5.638562323362737e-07,-2.302181917007983e-05,-0.0006719111500659863,0.0014508781009620537,0.0885934606194496,0.9887698888778688,0.7941494584083557,0.0849547088146209,-0.1702706813812255,-0.0349346622824668
1749057569.9103763,2.5740221057122272,-2.1119107466890883,-0.4068505259793579,-1.6256673360718985,5.375604017776021,-5.486100557263276,-0.0005982935157464146,-2.5172708811193258e-05,-1.034802335472109e-06,-1.9605088377287306e-05,-0.0006412648744428483,0.0013384807580755515,0.1008473634719848,0.9646677374839784,0.7909654974937439,0.0594797506928443,-0.1770128011703491,-0.0274974033236503
1749057569.910431,2.5740322488345337,-2.111919598108029,-0.40685026053587625,-1.6256669801725276,5.375610529025937,-5.486097666225778,-0.000554141678096829,-1.9311210869918822e-05,-1.5171741584730485e-06,-1.6337542744307765e-05,-0.0006098919788147715,0.0012263077327702577,0.0947356447577476,0.9817230105400084,0.7834896445274353,0.0857920050621032,-0.1883330047130584,-0.0287643298506736
1749057569.9104726,2.574041624993729,-2.1119277319962384,-0.4068500208377896,-1.625666654252409,5.375616487942427,-5.486095143174162,-0.0005128126289669511,-1.66095483544624e-05,-1.960479325499754e-06,-1.353547127170038e-05,-0.0005775504388442835,0.0011159988689101016,0.1069497764110565,0.982795000076294,0.7856796383857727,0.0743759870529174,-0.1759553998708725,-0.0130950957536697
1749057569.9105153,2.5740499053702757,-2.111934847653232,-0.40684982102530265,-1.6256663516135168,5.375621645508957,-5.48609310291929,-0.0004746532446254736,-1.8153067594477027e-05,-2.3050169582743106e-06,-1.1547074823322624e-05,-0.0005440264799093634,0.0010091297948630169,0.0965680181980133,0.9596054553985596,0.7896372079849243,0.0640623122453689,-0.1886287778615951,-0.0267290845513343
1749057569.9105542,2.5740568345036943,-2.111940721403491,-0.4068496604571944,-1.6256660633757622,5.375625798965345,-5.486091610062916,-0.00043968093175419454,-2.4743135620511498e-05,-2.4860350330430487e-06,-1.0724706955081374e-05,-0.0005091955086426155,0.0009071876582059345,0.1087975651025772,0.9558855295181274,0.7741256356239319,0.0556795895099639,-0.1607788503170013,-0.0240924432873725
1749057569.9105923,2.5740622453135633,-2.111945218416708,-0.40684952351874176,-1.6256657806425165,5.375628806036376,-5.486090675933159,-0.0004075551899616034,-3.6834326487041477e-05,-2.4395636563197446e-06,-1.138913851358945e-05,-0.00047308609106993323,0.0008115648687948036,0.1087975651025772,0.9558855295181274,0.7741256356239319,0.0556795895099639,-0.1607788503170013,-0.0240924432873725
1749057569.9106302,2.5740660661610058,-2.111948295008798,-0.4068493827471769,-1.6256654965564667,5.3756305965924875,-5.486090262353785,-0.00037758369756500074,-5.4492848259034404e-05,-2.109726278635101e-06,-1.378767464723012e-05,-0.00043594240765714717,0.00072356659054326,0.1069647371768951,0.9474355578422546,0.7965649366378784,0.0713544636964798,-0.1584086269140243,-0.0313483104109764
1749057569.9106705,2.574068320226634,-2.1119499923567804,-0.406849204298276,-1.6256652076233036,5.375631180553185,-5.486090290851789,-0.0003487643206052327,-7.738195798927147e-05,-1.4571137276021806e-06,-1.8049152217609793e-05,-0.0003982790894116771,0.0006444235964508684,0.1121453642845153,0.9462170004844666,0.7961329817771912,0.0684376209974289,-0.1684064865112304,-0.0346007123589515
1749057569.91071,2.574069118212824,-2.1119504238653715,-0.4068489544256256,-1.6256649138792718,5.37563064988193,-5.486090655132679,-0.0003198606092426652,-0.0001047800495298342,-4.6757666236891744e-07,-2.414002709609208e-05,-0.00036092046654650036,0.0005752989872514094,0.1121482104063034,0.930760383605957,0.7895345687866211,0.0499972999095916,-0.1669118106365203,-0.0324682071805
1749057569.910749,2.574068645779831,-2.1119497591571337,-0.4068486055429161,-1.6256646178078595,5.375629172654046,-5.486091234479804,-0.00028950499627836845,-0.00013563632548059168,8.394271662404596e-07,-3.182679169227078e-05,-0.00032501491271835217,0.0005172759676499532,0.1252712160348892,0.9320623874664308,0.7939154505729675,0.0625032484531402,-0.1804501116275787,-0.0323179885745048
1749057569.91079,2.574067147114818,-2.1119482072643905,-0.4068481407214236,-1.6256643222844025,5.375626978490961,-5.486091906204487,-0.0002563214083455935,-0.00016866696644132417,2.4039765790000407e-06,-4.0650686119915364e-05,-0.0002920147904662501,0.0004713148399356605,0.1112747639417648,0.9306519031524658,0.770314633846283,0.0600588917732238,-0.1715885400772094,-0.0219767317175865
1749057569.910828,2.5740649057963996,-2.111946000454491,-0.4068475560331766,-1.6256640281786479,5.37562433651516,-5.486092556076395,-0.00021905736656093052,-0.00020249104752327363,4.121482113797845e-06,-4.992091002528696e-05,-0.0002636137535237581,0.00043817088454749936,0.1274139285087585,0.9136231541633606,0.7723051905632019,0.033948615193367,-0.1779421120882034,-0.0226192697882652
1749057569.9108653,2.574062223989887,-2.1119433791789053,-0.4068468606971982,-1.6256637324479464,5.375621528699782,-5.486093086365604,-0.0001767146939284374,-0.0002357998308628995,5.84230995139974e-06,-5.873214018550989e-05,-0.00024163589435107058,0.00041827086762434936,0.1188154965639114,0.914234459400177,0.7825995087623596,0.0457326769828796,-0.1669657677412033,-0.0313968583941459
1749057569.9109025,2.574059401165952,-2.1119405783877676,-0.40684607533317624,-1.625663427467995,5.375618822581593,-5.486093421529593,-0.0001286674703046207,-0.00026754584020797486,7.376302385410113e-06,-6.601097296679986e-05,-0.00022787542562799766,0.0004115539401265918,0.1289050430059433,0.9117969274520874,0.7721755504608154,0.0494787395000457,-0.1773373186588287,-0.0290104672312736
1749057569.91094,2.5740567138518213,-2.111937815604356,-0.40684522879530977,-1.625663101973498,5.375616447350837,-5.486093511735266,-7.475597460026267e-05,-0.0002971311519297637,8.503005067329497e-06,-7.059385269469618e-05,-0.00022389112438450277,0.00041729147014308134,0.1564041227102279,0.9097091555595398,0.7914811372756958,0.0414612740278244,-0.172896534204483,-0.0183197483420372
1749057569.9109886,2.5740543981065387,-2.1119352812553833,-0.4068443541866129,-1.6256627434941404,5.3756145762613485,-5.486093334445469,-1.5346448408585743e-05,-0.0003245706080606825,8.987994601271582e-06,-7.133611671267413e-05,-0.00023076634225384105,0.0004339085874452712,0.1261999309062957,0.9077898859977722,0.7784176468849182,0.052144855260849,-0.1709635555744171,-0.0303613469004631
1749057569.911034,2.5740526362657588,-2.1119331316796366,-0.406843484808526,-1.6256623417950808,5.375613316767649,-5.4860928942710006,4.865099883889169e-05,-0.0003506069783183653,8.60512784035258e-06,-6.724812971244222e-05,-0.0002488524980831205,0.00045883685036003045,0.1298401206731796,0.904190719127655,0.7713799476623535,0.0338477939367294,-0.1566037386655807,-0.0401262566447258
1749057569.9110763,2.5740515490770486,-2.1119314850617394,-0.40684265087236415,-1.625661892664065,5.375612708566181,-5.486092221143925,0.00011581024345545858,-0.0003767604016403357,7.1638282319364715e-06,-5.765041346252328e-05,-0.000277520942072859,0.0004884315806867261,0.1514181047677993,0.9073352217674256,0.782720148563385,0.0163875818252563,-0.1680278778076172,-0.0428605005145072
1749057569.9111152,2.5740511937704014,-2.1119304202824836,-0.40684187765628077,-1.6256614013370152,5.375612728882781,-5.486091366619847,0.00018426244793574848,-0.00040530108312348086,4.5397272571612344e-06,-4.2335631682719716e-05,-0.00031495408910544605,0.0005179882635048681,0.1514181047677993,0.9073352217674256,0.782720148563385,0.0163875818252563,-0.1680278778076172,-0.0428605005145072
1749057569.9111526,2.5740515678977336,-2.1119299783769763,-0.406841185442378,-1.625660884813173,5.375613303567846,-5.486090398034201,0.00025181100249109105,-0.00043914029452932305,7.061544406420527e-07,-2.1721671766376413e-05,-0.00035801085805520927,0.0005418893433132574,0.1385729163885116,0.887936532497406,0.7709632515907288,0.0555343180894851,-0.1610397547483444,-0.0492014363408088
1749057569.9111898,2.574052617982334,-2.1119301661011525,-0.40684059109154225,-1.6256603723802325,5.375614321885923,-5.486089390671088,0.0003160815835951683,-0.00048163989486166173,-4.236798178251912e-06,3.0227849412039283e-06,-0.00040220282090078647,0.0005539053987986728,0.1478630602359771,0.8898512125015259,0.7796323299407959,0.0215557962656021,-0.1571941375732422,-0.0389070734381675
1749057569.911313,2.5740542513428117,-2.1119309611460038,-0.40684011061574715,-1.6256599040085182,5.37561565273906,-5.486088418940085,0.0003746972969886614,-0.0005363460688304682,-1.003952125913185e-05,2.9900551605314514e-05,-0.00044181521336379215,0.000547662966673362,0.1313154846429824,0.8977851271629333,0.7682037353515625,0.0297932475805282,-0.1355562508106231,-0.0265707299113273
1749057569.9125383,2.574056349096088,-2.111932318709834,-0.4068397617385052,-1.6256595267805931,5.375617160511408,-5.486087548115062,0.00042546345418135605,-0.000606660714773741,-1.629066959666787e-05,5.6076634597210294e-05,-0.00047020034917948713,0.0005172754027134036,0.1598730385303497,0.8831762671470642,0.7805299162864685,0.0512573719024658,-0.1637644171714782,-0.0138750448822975
1749057569.954531,2.5740587784684656,-2.1119341792079664,-0.40683956530859744,-1.625659289933709,5.3756187193198395,-5.48608682797839,0.00046654126851470055,-0.0006954743903296532,-2.2419671055876682e-05,7.795606295118445e-05,-0.00048025953629780485,0.00045811371917492026,0.1591056138277053,0.8665955662727356,0.7806405425071716,0.02461539208889,-0.1655537784099578,-0.0406694784760475
1749057569.954609,2.5740614032324767,-2.1119364766774225,-0.4068395446463457,-1.6256592393111686,5.375620224797652,-5.486086289026923,0.0004965891697058022,-0.0008047956091457118,-2.7717643663385753e-05,9.136322819773645e-05,-0.0004651133247058507,0.00036767258559308085,0.162718579173088,0.8652215003967285,0.775463879108429,0.0480475202202796,-0.1584085524082183,-0.0328632667660713
1749057569.9546795,2.5740640920619766,-2.111939146928696,-0.4068397225187281,-1.6256594120995234,5.375621602623966,-5.486085941339278,0.0005148568878035508,-0.0009354187935389615,-3.137934421033249e-05,9.183000274109725e-05,-0.00041893945458692074,0.00024646460682285727,0.1433208882808685,0.8783268332481384,0.7742602825164795,0.0243425965309143,-0.1428186893463134,-0.0446222648024559
1749057569.9547482,2.57406672529001,-2.111942134040164,-0.40684011626868133,-1.6256598326205824,5.375622813076549,-5.486085775940625,0.0005212280946705843,-0.001086674411361472,-3.256713772923373e-05,7.49901450688279e-05,-0.0003379344909887369,9.885611982980448e-05,0.1489645838737487,0.8613560795783997,0.7549149394035339,0.0196246951818466,-0.1628494262695312,-0.0273962095379829
1749057569.954815,2.5740692005939585,-2.111945393871114,-0.40684073226132506,-1.625660509562739,5.375623851099798,-5.486085768264776,0.0005162168202423042,-0.0012562987166081002,-3.049579213678203e-05,3.706563277761678e-05,-0.00022133072086153707,-6.625707781673014e-05,0.1510983258485794,0.8724561333656311,0.7691900134086609,0.0346499383449554,-0.141854390501976,-0.0546693727374076
1749057569.9548829,2.5740714376249514,-2.111948894063541,-0.4068415610201674,-1.6256614345619558,5.375624741694194,-5.48608588290093,0.0005009278834715419,-0.0014404477991845136,-2.4534259379909047e-05,-2.4582456006217595e-05,-7.237693637267894e-05,-0.0002350424765967027,0.1526928693056106,0.8722160458564758,0.7693012952804565,0.007994458079338,-0.1379753053188324,-0.0514418706297874
1749057569.9549496,2.5740733810184677,-2.1119526111604867,-0.40684257425733544,-1.6256625818363069,5.37562553072453,-5.4860860783062035,0.00047699234583541047,-0.0016338635412696625,-1.4317671972965426e-05,-0.00011087865454764187,0.00010082679068691117,-0.0003886964914364097,0.1564294695854187,0.879063069820404,0.758207380771637,0.0222264379262924,-0.1616840362548828,-0.0354486033320426
1749057569.9550169,2.5740750010983593,-2.111956526353077,-0.40684372459408097,-1.6256639086815619,5.375626271579587,-5.486086309852795,0.00044648711907840927,-0.0018301808214447463,1.4019327259081151e-07,-0.00022048426553031395,0.0002847610673465021,-0.0005038702802982279,0.1381228119134903,0.864166796207428,0.7558882236480713,0.0269580632448196,-0.1464882791042328,-0.0530068054795265
1749057569.955082,2.5740762920834612,-2.1119606214770377,-0.40684494825544865,-1.6256653567349373,5.37562700868994,-5.486086529786829,0.00041184490160747566,-0.0020223490433591298,1.8346439846146623e-05,-0.00034933255597511626,0.00046030649572285963,-0.0005536114539604586,0.1631132215261459,0.860395610332489,0.7705146670341492,0.0253580957651138,-0.1634493321180343,-0.0349056497216224
1749057569.955147,2.5740772683710555,-2.1119648762267937,-0.4068461705269936,-1.62566685383443,5.37562775969542,-5.48608668349118,0.0003757576472726577,-0.002203128290284929,3.925509014959084e-05,-0.0004903065842666733,0.0006030571197640629,-0.0005088313886380876,0.1711242645978927,0.8726653456687927,0.7594289779663086,0.0155804604291915,-0.164541482925415,-0.0221750065684318
1749057569.9552102,2.5740779599234536,-2.1119692667028342,-0.4068473133682396,-1.6256683161902288,5.375628498691904,-5.486086702555166,0.00034107425671316783,-0.0023656106551218554,6.12352033708782e-05,-0.0006331126415801754,0.0006842052201629414,-0.0003402493677737196,0.1832859218120575,0.8805599808692932,0.7666572332382202,0.0337148159742355,-0.1694879084825515,-0.0466154888272285
1749057569.955276,2.574078407616522,-2.1119737649565624,-0.4068483043317699,-1.6256696506039903,5.375629143059139,-5.486086496099501,0.0003106912654359534,-0.0025037104434191613,8.209626441479082e-05,-0.0007643913532350054,0.000672028855078671,-2.0698006010894592e-05,0.1897050440311432,0.8883294463157654,0.7731353640556335,0.0274357050657272,-0.1690603345632553,-0.0308691784739494
1749057569.955341,2.57407865888513,-2.1119783392612135,-0.40684908580980034,-1.6256707566198385,5.375629545758245,-5.486085942311821,0.00028743427667818946,-0.002612566304067428,9.918392369058255e-05,-0.0008680955376555477,0.0005339528161707075,0.0004723938466869629,0.173931285738945,0.8802605271339417,0.7553460001945496,0.0337840169668197,-0.1773888915777206,-0.0050522461533546
1749057569.9554074,2.5740787636764755,-2.111982955070519,-0.4068496235255929,-1.625671528681073,5.37562949398726,-5.486084882168155,0.0002739283587511856,-0.0026888091878592693,0.00010955510019403466,-0.0009261509756293107,0.00023908186375901265,0.0011545845927352781,0.1758136600255966,0.8887639045715332,0.7640363574028015,0.0493678599596023,-0.1864150464534759,-0.0028080567717552
1749057569.9554725,2.5740787708573754,-2.111987576639326,-0.40684991307887475,-1.6256718584606835,5.375628714168963,-5.4860831169123925,0.0002724581907081853,-0.0027306728514769557,0.00011023538305023669,-0.0009194009321883414,-0.0002389709722319542,0.002032352904072436,0.186487540602684,0.8781669735908508,0.7523559927940369,0.0621041357517242,-0.2116472125053405,-0.0075403973460197
1749057569.9555385,2.5740787256002675,-2.111992169015673,-0.40684998334620603,-1.625671637397715,5.375626882703104,-5.486080410190445,0.0002848234167558549,-0.0027379508978359426,9.855373699300574e-05,-0.0008288126350782849,-0.0009192086363751874,0.0031016670100756285,0.1810100078582763,0.8781716227531433,0.7628227472305298,0.0675010234117508,-0.2138110846281051,0.0151827782392501
1749057569.9556036,2.574078668486336,-2.1119966998635413,-0.40684989573677705,-1.6256707591265183,5.375623641682961,-5.486076495026264,0.00031220062022595577,-0.0027118266374415753,7.254014387614909e-05,-0.0006368912461727116,-0.0018106265689646396,0.004347431298800472,0.1791405528783798,0.876885712146759,0.7671248316764832,0.09018474817276,-0.2261829376220703,0.0178888216614723
1749057569.9556704,2.574078636783344,-2.11200114060711,-0.40684973875182967,-1.6256691211675627,5.3756186186091615,-5.486071085263847,0.0003550290812066513,-0.0026546153950554184,3.1361676435073604e-05,-0.00032920632407784515,-0.0029101613159794788,0.005743952426844826,0.1839686185121536,0.8845084309577942,0.7690889239311218,0.107466347515583,-0.2424464076757431,0.0112205818295478
1749057569.9557364,2.5740786675517504,-2.1120054666699137,-0.40684961798485797,-1.6256666252779104,5.3756114488810605,-5.486063890661708,0.00041294134468260576,-0.0025694645001973744,-2.4237448504376737e-05,0.00010410637598191483,-0.004201507494614293,0.007256432004665435,0.1902346462011337,0.8944939374923706,0.7697592377662659,0.1065238863229751,-0.2448456883430481,0.0049954578280448
1749057569.955802,2.57407880129119,-2.11200965694358,-0.4068496425442657,-1.6256631763863454,5.37560179954205,-5.486054634405231,0.0004847601131286698,-0.0024600557978049415,-9.153487158799437e-05,0.0006670399869891537,-0.005655029223374168,0.008843359738496379,0.1529333144426345,0.9107695817947388,0.7885545492172241,0.1434570252895355,-0.2614430785179138,0.0176409408450126
1749057569.955962,2.574079084291614,-2.112013692925396,-0.4068499096749166,-1.6256586808192874,5.37558939253482,-5.486043071378279,0.0005685792308913365,-0.0023303493226324986,-0.0001655170577332739,0.0013567987843868135,-0.007228887294534823,0.010459588715620095,0.1987943947315216,0.8932155966758728,0.7736914753913879,0.1526859700679779,-0.2652916610240936,0.0359352082014083
1749057569.9564314,2.574079568018332,-2.1120175580751943,-0.406850489792079,-1.6256530450134619,5.3755740256847675,-5.486029005133746,0.0006619381927108287,-0.0021843946110520337,-0.000238704930710632,0.0021634489509155756,-0.008871387022387045,0.012059833956961257,0.1741577684879303,0.8952223062515259,0.8083117008209229,0.1574319899082183,-0.2918180823326111,0.0527636110782623
1749057569.9982889,2.5740803047596623,-2.1120212377910135,-0.4068514139547807,-1.6256461757187597,5.375555589736289,-5.486012301175528,0.0007620862783916223,-0.0020262183426407883,-0.0003011653212104746,0.0030702749519824265,-0.01052444152768105,0.013602322385076634,0.2006908059120178,0.9225817322731018,0.7983238101005554,0.1827698498964309,-0.3143816292285919,0.0418581813573837
1749057569.998356,2.5740813401349723,-2.1120247201232427,-0.4068526650582147,-1.6256379819570705,5.375534079904299,-5.485992894129967,0.000866314157405622,-0.0018597756849192228,-0.00034074550943178163,0.004054896270469289,-0.012127941081289527,0.015052307042337478,0.2189997434616089,0.9273120760917664,0.7956979274749756,0.1922896802425384,-0.30313241481781,0.0544612184166908
1749057569.9984002,2.5740827043790397,-2.1120279971115945,-0.4068541731844796,-1.6256283782152983,5.375509600540723,-5.485970786927813,0.0009723102651939017,-0.001688933699713918,-0.00034355153599432,0.005091087431028958,-0.013624711809656175,0.016385137978515735,0.1964245736598968,0.92824125289917,0.8262448906898499,0.2282046675682068,-0.3424187898635864,0.0659576803445816
1749057569.99844,2.5740844049770804,-2.1120310663958977,-0.40685581508232815,-1.6256172878710808,5.375482361718596,-5.485946041251959,0.0010784831078407826,-0.0015174473184761843,-0.0002946679261165054,0.006151125631854362,-0.014965637455586617,0.017588579823623312,0.207371175289154,0.929427683353424,0.8253738880157471,0.206357717514038,-0.335449755191803,0.0521212145686149
1749057569.9984782,2.574086422856554,-2.1120339324251862,-0.4068574176746657,-1.6256046457084459,5.375452666865987,-5.4859187599124315,0.0011841878214331966,-0.0013488973655217979,-0.00017908832492582013,0.007208393832839347,-0.01611442511858537,0.018664102790880967,0.2014141380786895,0.9462122917175292,0.8410952687263489,0.2309695482254028,-0.3403685688972473,0.0613316260278224
1749057569.9985166,2.5740887132044166,-2.1120366063898257,-0.4068587655129374,-1.6255903985390694,5.375420891095475,-5.485889063096925,0.001289811479836855,-0.0011865821596683773,1.7204236470146463e-05,0.008239914640810137,-0.01705145203303986,0.01962695494359822,0.2185139954090118,0.9649910926818848,0.8538387417793274,0.2484210133552551,-0.3056686222553253,0.0766715854406356
1749057569.9985542,2.574091210833883,-2.1120391043031588,-0.40685961198156956,-1.6255745034712015,5.375387450730716,-5.485857061375552,0.001396703413250839,-0.0010333777050604057,0.00030609831013308185,0.00922849019983286,-0.01777617088267242,0.020504945715689515,0.2085877954959869,0.9842362403869628,0.8785536885261536,0.2473747730255127,-0.3228500783443451,0.0616355054080486
1749057569.998592,2.574093839325948,-2.1120414433942383,-0.4068596937584137,-1.625556924199101,5.375352765921348,-5.485822828860328,0.0015069719408065721,-0.000891595205293565,0.0006962702752324806,0.010164173859515927,-0.018307698151671763,0.021336023403922207,0.2095025181770324,0.9790920615196228,0.8973721861839294,0.2385017871856689,-0.3169257342815399,0.0765132680535316
1749057569.9986308,2.574096522672253,-2.1120436375641494,-0.40685874757312784,-1.6255376264203336,5.375317219954374,-5.485786379983766,0.0016231944496210853,-0.0007628648538015218,0.0011922801701148612,0.011044893249292075,-0.018683448879378454,0.02216488803002288,0.2095025181770324,0.9790920615196228,0.8973721861839294,0.2385017871856689,-0.3169257342815399,0.0765132680535316
1749057569.998668,2.5740991976350944,-2.11204569272112,-0.40685652775596254,-1.6255165736692463,5.37528112004713,-5.485747652789294,0.0017480975510552716,-0.0006480652723963023,0.0017939613368233803,0.01187616827183945,-0.01895595484726397,0.023039011645163053,0.2081113457679748,1.0039491653442385,0.9067342877388,0.259373128414154,-0.3363651037216186,0.0881712734699249
1749057569.998706,2.5741018248905565,-2.112047602611466,-0.4068528226209969,-1.625493724419754,5.375244664213662,-5.485706500434527,0.0018842589676923776,-0.0005473051209083509,0.002496181022901073,0.012670000242017247,-0.019188243044304623,0.024004511238693422,0.2336000800132751,1.0213572978973389,0.8841940760612488,0.2530761361122131,-0.3392955362796783,0.0868637710809707
1749057569.9987435,2.574104397510673,-2.112049345754972,-0.40684746755942947,-1.6254690306557829,5.375207917452165,-5.485662691307274,0.0020338675237875983,-0.00045995249440620317,0.003288987298241628,0.013443122854030605,-0.019448313583723256,0.025102319092374027,0.2548589706420898,1.0221939086914062,0.903025448322296,0.2572730183601379,-0.3609706461429596,0.1102557480335235
1749057569.998794,2.5741069460184134,-2.1120508842702295,-0.40684035292863346,-1.6254424376813281,5.37517079899373,-5.4856159172910415,0.0021985595734229898,-0.0003847009607469542,0.004158093487190017,0.014214877699354882,-0.019803329254063758,0.02636502500202744,0.2305188775062561,1.0420126914978027,0.9272671341896056,0.2787966728210449,-0.3710334897041321,0.1116995736956596
1749057569.998977,2.574109539567085,-2.1120521653751663,-0.406831425496234,-1.6254138848322122,5.375133081201195,-5.4855658092887865,0.0023793371053040246,-0.00031965812196373307,0.005085618317465706,0.015004995424426057,-0.020314119605501568,0.02781464699049889,0.2630316317081451,1.063261866569519,0.9538169503211976,0.2989743947982788,-0.3848319947719574,0.1525957882404327
1749057569.9991882,2.574112282896599,-2.112053125943717,-0.4068206833759006,-1.6253833067678836,5.375094399736907,-5.485511958777792,0.002576566298357705,-0.0002624422647922093,0.006051007726859442,0.015831533395906396,-0.021030527180445444,0.02946145410100081,0.2587490081787109,1.0688796043395996,0.9523715972900392,0.301884651184082,-0.3869928419589996,0.1268938928842544
1749057569.999308,2.5741153091143127,-2.1120536997799566,-0.4068081658599734,-1.6253506350600553,5.375054273760672,-5.485453943710684,0.0027900491543962204,-0.00021027431306675726,0.007032083568340691,0.01670915961214772,-0.021988002313551344,0.031303843943104544,0.2474004626274109,1.0616050958633425,0.9470263719558716,0.2963490486145019,-0.4129117429256439,0.1495815962553024
1749057569.9993832,2.574118769113347,-2.1120538264997544,-0.4067939407831101,-1.6253157999398142,5.375012134358009,-5.4853913564463515,0.0030191482119185484,-0.00016005547689367682,0.008006164330335361,0.017647903801715083,-0.023205704076148338,0.03332918290736682,0.2456497400999069,1.082574486732483,0.9560356736183168,0.3089885413646698,-0.4182011783123016,0.1532117128372192
1749057569.999452,2.5741228190826826,-2.1120534603543253,-0.40677809249226676,-1.6252787323769522,5.374967359060991,-5.485323830713942,0.003262927039759321,-0.0001084250966892519,0.008951188542397145,0.018652439262574014,-0.02468620112508385,0.03551544799359579,0.2396096438169479,1.098027229309082,0.9611765146255492,0.3090901374816894,-0.4327742159366607,0.1627916991710662
1749057569.9995224,2.5741276076817923,-2.1120525771907435,-0.4067607129632717,-1.625239366953197,5.374919309955677,-5.485251064324191,0.003520258145651515,-5.1797771934492136e-05,0.009846769226710671,0.01972191667923947,-0.026416696359857272,0.037833458008395014,0.2487583607435226,1.1158719062805176,0.9626569747924804,0.3249049782752991,-0.4415301084518432,0.1570156365633011
1749057569.9995914,2.574133264254947,-2.112051178148214,-0.40674189736422584,-1.625197645895533,5.374867372496557,-5.485172834920002,0.0037898563849134985,1.3615898399062664e-05,0.010675127037954224,0.02085033064336565,-0.02837153605232772,0.04024944606322992,0.2744676470756531,1.1208871603012085,0.9827276468276978,0.3272737860679626,-0.429503858089447,0.1690682619810104
1749057569.999788,2.5741398893280603,-2.1120492895688403,-0.4067217439529363,-1.6251535240741732,5.374810991953483,-5.485089007451689,0.004070221416405706,9.179464443037614e-05,0.011421875032203217,0.02202734756413659,-0.030515628973337355,0.0427277137281279,0.2861753702163696,1.124384880065918,0.9854176044464112,0.3392545580863952,-0.4564824402332306,0.1891606748104095
1749057570.0004196,2.574147548470024,-2.1120469595625773,-0.40670035707651103,-1.6251069741380215,5.374749704408256,-5.484999533668952,0.004359507164428741,0.00018688196201729416,0.012076640477937783,0.023239465749038995,-0.03280831808391371,0.04523312902845221,0.2762744426727295,1.1429226398468018,0.9866586327552797,0.3280020654201507,-0.4560354948043823,0.1656412333250045
1749057570.0463178,2.574156270063135,-2.1120442522130034,-0.4066778514181642,-1.6250579907206035,5.374683159435151,-5.484904445146329,0.0046553651443742555,0.00030313240076579003,0.012633503594890896,0.024471337224657788,-0.03520723099007317,0.04773328306722478,0.2819654047489166,1.1462630033493042,0.9854156970977784,0.3353651762008667,-0.4662719666957855,0.1909753382205963
1749057570.0463803,2.574166046643745,-2.1120412404192317,-0.40665435551838675,-1.6250065928863913,5.374611132324806,-5.4848038419847605,0.004954820925082765,0.0004448092462920877,0.013091217408134681,0.02570707610809372,-0.03767168368613031,0.05020019087184497,0.293945163488388,1.1663250923156738,0.9763370752334596,0.3405012488365173,-0.481023371219635,0.1940951645374298
1749057570.0464249,2.5741768386785635,-2.1120379981712727,-0.4066300129229612,-1.6249528244586382,5.374533525088576,-5.484697879362865,0.005254234923905541,0.0006160159323510978,0.013453161219644056,0.026931411893976756,-0.04016530991307862,0.0526114944625963,0.2681392431259155,1.1595556735992432,0.9876075983047484,0.3422939777374267,-0.4921203553676605,0.2009032815694809
1749057570.0464664,2.574188579310034,-2.1120345929885973,-0.4066049799536344,-1.624896752297187,5.3744503571616065,-5.4845867536068775,0.005549373130881749,0.0008204471594610521,0.013726986726366243,0.028130603512514722,-0.04265771511064163,0.05495118040124755,0.2756618857383728,1.1826398372650146,0.986177146434784,0.3573449552059173,-0.4804755449295044,0.1997842341661453
1749057570.0465047,2.574201178792144,-2.112031079264129,-0.40657941991009794,-1.6248384628372743,5.3743617481243,-5.484470688666875,0.005835579311008462,0.001061053999043151,0.013923947348073245,0.029293092920248006,-0.04512508998409989,0.057209845543566056,0.2596156597137451,1.1788201332092283,1.000128149986267,0.3492900431156158,-0.4874139130115509,0.1746260076761245
1749057570.0465438,2.5742145279070896,-2.1120274930891463,-0.4065534943543239,-1.624778057268211,5.374267895521717,-5.484349923267712,0.006108012198853105,0.001339633370845048,0.014057952569312752,0.03040993014324128,-0.047549849523137774,0.05938453921403377,0.2916752099990845,1.1929287910461426,0.9845386147499084,0.3495741486549377,-0.4967640042304992,0.1861853897571563
1749057570.0465815,2.5742285004442107,-2.112023848758327,-0.40652735281989605,-1.624715645718145,5.374169050938478,-5.484224698798814,0.006361903646983754,0.0016563760281357593,0.014144444071055093,0.03147503199358606,-0.049919478706033665,0.06147820175578632,0.2991691827774048,1.2126973867416382,1.002558350563049,0.3749733567237854,-0.502314031124115,0.1932575404644012
1749057570.04662,2.574242955572661,-2.1120201368315805,-0.4065011226712516,-1.6246513408184622,5.374065497028781,-5.484095248149419,0.006592808700793864,0.002009434601291982,0.014199228546062842,0.03248533483791442,-0.05222485463309215,0.06349872731171367,0.2793406844139099,1.213556170463562,1.002118706703186,0.3551813960075378,-0.5045425891876221,0.1877415478229522
1749057570.046658,2.5742577412553636,-2.1120163236212415,-0.4064749008549817,-1.624585251100432,5.373957527494577,-5.483961785996604,0.006796840490433203,0.0023945973766792356,0.014237408259078715,0.03344087047061059,-0.05445836226062545,0.06545770234702018,0.2911686897277832,1.2327600717544556,0.9890759587287904,0.3577321171760559,-0.5152252912521362,0.2028451859951019
1749057570.0466952,2.5742726995947005,-2.1120123522710563,-0.40644874888737786,-1.624517474796213,5.37384543138146,-5.483824501273319,0.006970892392105209,0.0028051649441784747,0.014272524506045315,0.03434474926691714,-0.05661211980138652,0.06736889996178134,0.2708179652690887,1.247619390487671,1.0212825536727903,0.3691117465496063,-0.5007148385047913,0.2234188914299011
1749057570.0467322,2.574287674478623,-2.1120081458943907,-0.40642269159184363,-1.6244480946806463,5.373729482616448,-5.483683552436061,0.007112843372641135,0.003232116049615298,0.01431598472461622,0.03520299726061983,-0.058676586678805445,0.0692466329268088,0.2697043120861053,1.2715965509414673,1.0112699270248413,0.3563328087329864,-0.5149244666099548,0.2091488987207412
1749057570.0467696,2.574302521406879,-2.1120036132080586,-0.4063967191029518,-1.624377174512084,5.373609935227292,-5.483539065713024,0.007221732323109149,0.003664610360531946,0.014376795889611285,0.03602418184828285,-0.06063975824836709,0.07110407917972467,0.2692053616046905,1.29222309589386,1.0043278932571411,0.3580282628536224,-0.5085664391517639,0.1895158290863037
1749057570.0468063,2.574317118836154,-2.1119986566260844,-0.4063707909904808,-1.624304757390872,5.373487023962791,-5.483391136039676,0.007297884428484007,0.004090812795184201,0.014461581405208286,0.03681878372089471,-0.06248707752276821,0.07295169709417118,0.2516019642353058,1.2860169410705566,1.0249496698379517,0.3560860455036163,-0.4923647046089172,0.1998343616724014
1749057570.0468438,2.5743313796016145,-2.1119931819768647,-0.40634484128688214,-1.6242308660244589,5.373360969205333,-5.48323983015332,0.007342973792355688,0.004498952247163891,0.014574818064031233,0.0375983234786718,-0.06420212804399579,0.07479586014840965,0.2434741258621215,1.2781248092651367,1.020167350769043,0.3642490804195404,-0.5413013100624084,0.2222310751676559
1749057570.0468807,2.5743452601254253,-2.111987108179532,-0.40631878351125006,-1.624155504606682,5.3732319844338265,-5.483085191319633,0.007360004307051553,0.0048784708702273175,0.014719200725725837,0.038374309224402485,-0.0657681042676621,0.07663786436810824,0.2519063949584961,1.2970495223999023,1.0237345695495603,0.3836215734481811,-0.5219032764434814,0.2234448790550232
1749057570.0469186,2.57435876481215,-2.1119803748407944,-0.40629251512405246,-1.624078661891386,5.373100284169295,-5.482927245214498,0.007353190111822223,0.005221097683290881,0.014896036084145805,0.03915711508436473,-0.06716995925382749,0.07847346713274278,0.2628451883792877,1.2933861017227173,1.013318419456482,0.3753811419010162,-0.5065820217132568,0.2172775268554687
1749057570.0469596,2.5743719437839285,-2.1119729461509293,-0.40626592111915155,-1.6240003150477966,5.372966090217154,-5.48276600648484,0.00732772826440815,0.0055216947836130995,0.015105588160062595,0.039954919670376926,-0.06839699669225123,0.08029306615616938,0.2821376919746399,1.3042209148406982,1.0353237390518188,0.3696054220199585,-0.4991272687911987,0.1995098888874054
1749057570.0470014,2.5743848837598686,-2.111964810494218,-0.4062388767649574,-1.6239204339335496,5.372829634092505,-5.482601485565626,0.007289476100928511,0.005778764119761381,0.01534733960703085,0.040772829349252755,-0.06944554346130913,0.08208252659247799,0.272376537322998,1.3150603771209717,1.0495762825012207,0.3858748972415924,-0.4812699258327484,0.2164984792470932
1749057570.047039,2.5743976936272155,-2.111955976339486,-0.4062112498982363,-1.6238389854600637,5.372691153906346,-5.482433695493627,0.007244560007807272,0.005994553839626686,0.01562017715602345,0.04161229307437614,-0.07032127033665524,0.08382456197207283,0.2766396403312683,1.3291970491409302,1.0710030794143677,0.3742663264274597,-0.4743992984294891,0.2161017656326294
1749057570.0470765,2.574410487367797,-2.111946465853218,-0.40618290352971537,-1.6237559377488044,5.372550884770662,-5.4822626585168335,0.0071989471849742935,0.0061747576486488745,0.015922536746567732,0.04247089135332795,-0.07104075782440322,0.08550051882912295,0.2673996090888977,1.341464281082153,1.043930172920227,0.4079342484474182,-0.5117740035057068,0.2164351642131805
1749057570.0471134,2.5744233673454335,-2.1119363080700335,-0.40615369958798664,-1.623671263780923,5.372409042821489,-5.482088412035837,0.0071580178793928285,0.006327852183219267,0.016252542376657346,0.043342547998133564,-0.07163201682033525,0.08709240489467339,0.2746568322181701,1.3492168188095093,1.0519523620605469,0.3880657255649566,-0.5097236037254333,0.2179324924945831
1749057570.0471506,2.574436410719046,-2.1119255332091096,-0.4061235042299922,-1.6235849442530812,5.372265804019264,-5.481911013018962,0.007126187233844006,0.006464157630087647,0.016608148778625754,0.044218159307837526,-0.07213381702887767,0.08858499844461515,0.2899916768074035,1.348584532737732,1.0566737651824951,0.3834245204925537,-0.4915998578071594,0.2073673158884048
1749057570.0472603,2.574449661040868,-2.11191416892775,-0.40609219442520655,-1.6234969694525934,5.372121279898033,-5.481730539945225,0.007106631546678066,0.006594730437530464,0.016987274603854942,0.04508656446192743,-0.0725938024317275,0.08996785750600936,0.2685827612876892,1.3677574396133425,1.0705310106277466,0.3857946395874023,-0.5356722474098206,0.1933042705059051
1749057570.0483797,2.5744631259983692,-2.111902238423713,-0.4060596648983387,-1.6234073402197904,5.371975493565687,-5.481547091721502,0.007101160794303042,0.006730207715457798,0.01738790884451723,0.04593571950061216,-0.07306547818488532,0.09123702489055117,0.3058122992515564,1.3620225191116333,1.0723689794540403,0.3770865797996521,-0.5189574360847473,0.1820916831493377
1749057570.0902836,2.57447678105994,-2.1118897598493676,-0.4060258343047657,-1.6233160683748364,5.3718283604044315,-5.481360783662682,0.007110251421009175,0.00687972719923739,0.017808184011334636,0.04675391671607954,-0.0736042618064585,0.09239622468881381,0.2710139751434326,1.3833200931549072,1.0925794839859009,0.3929905295372009,-0.5303710103034973,0.2024767696857452
1749057570.090347,2.57449057790429,-2.111876746603291,-0.4059906496632021,-1.6232231770620678,5.371679678404828,-5.481171741183597,0.007133224306319905,0.007050042735110911,0.018246416029175684,0.047530919218504726,-0.07426291342323342,0.0934573813434049,0.2676045298576355,1.3954479694366455,1.0790653228759766,0.3944487869739532,-0.5543806552886963,0.2015223503112793
1749057570.090393,2.574504456044983,-2.111863208402881,-0.4059540883501874,-1.6231287011216593,5.371529132203083,-5.480980092127551,0.007168529776588258,0.007244934392157398,0.018701106317239934,0.048258932288276775,-0.07508677559671656,0.09444035948945537,0.2547685503959656,1.390628457069397,1.0740911960601809,0.3949230909347534,-0.564773678779602,0.1804318875074386
1749057570.0904336,2.574518355796342,-2.1118491532051173,-0.405916157249176,-1.623032687053855,5.371376312720798,-5.480785958576182,0.007214084861624944,0.007464971462891107,0.01917089899527657,0.04893337323460514,-0.0761093310189211,0.09537190732349592,0.2560076117515564,1.40898334980011,1.0927391052246094,0.3924771845340729,-0.5486205816268921,0.2141994088888168
1749057570.0904722,2.5745322306089555,-2.1118345899202593,-0.40587688899635677,-1.6229351918067312,5.371220751534348,-5.480589448615773,0.00726760248439929,0.007707636479788688,0.019654498264400265,0.04955341247282174,-0.07734860091114135,0.09628387537302029,0.261128693819046,1.4148989915847778,1.107636570930481,0.3956625461578369,-0.5814700722694397,0.2051282376050949
1749057570.090511,2.5745460569655987,-2.1118195316323365,-0.40583633576784417,-1.6228362796591955,5.371061966496021,-5.48039064818337,0.007326865831748792,0.007967774852704192,0.02015057259365527,0.050122250107633035,-0.07880484933381776,0.09721086708731703,0.2812286615371704,1.432827115058899,1.1121869087219238,0.4098955690860748,-0.5802639722824097,0.2257059961557388
1749057570.0905492,2.5745598404299823,-2.1118039987901462,-0.4057945616223878,-1.6227360168050557,5.370899513197149,-5.480189613234514,0.007389928924236233,0.008238303276816954,0.02065768573554658,0.050647086162267534,-0.08045993380677566,0.09818754521875002,0.2782456576824188,1.4336999654769895,1.112705111503601,0.3963954150676727,-0.6017585396766663,0.2149287611246109
1749057570.0905876,2.57457361687715,-2.1117880215220146,-0.40575163473304887,-1.6226344638073975,5.370733035872803,-5.479986363169265,0.007455247022610996,0.008511085003162614,0.02117428727624222,0.05113875445474834,-0.08227846087524969,0.09924585442459773,0.2657604813575744,1.434512495994568,1.1046613454818726,0.3925033211708069,-0.5855327844619751,0.2236518263816833
1749057570.0906258,2.57458744845282,-2.1117716400356934,-0.40570762066571414,-1.6225316668203709,5.370562311324354,-5.479780877152872,0.007521746550280184,0.008777860386439913,0.02169877054000875,0.051611022737343325,-0.08421068888146903,0.1004124234887324,0.2747775316238403,1.4301376342773438,1.093770980834961,0.4015200436115265,-0.589447557926178,0.2289194613695144
1749057570.090663,2.5746014147060072,-2.111754902315652,-0.405662577329787,-1.6224276491570866,5.370387280209003,-5.4795730949120935,0.007588843024405555,0.009031117067819337,0.02222957893123292,0.052079606348514204,-0.08619691686832912,0.10170639234822076,0.292706549167633,1.433549165725708,1.107450008392334,0.4091649651527405,-0.600756049156189,0.2022317349910736
1749057570.0907006,2.5746156005599685,-2.1117378590152356,-0.4056165517117932,-1.6223224051237404,5.370208061432516,-5.479362922606563,0.007656419014391939,0.009264803321686934,0.022765327730348905,0.05256098512054017,-0.08817295830631601,0.1031378863621634,0.2753202021121979,1.4287093877792358,1.1194316148757937,0.4102689623832702,-0.621002197265625,0.2279868274927139
1749057570.0907378,2.574630083662651,-2.1117205562374908,-0.4055695782329963,-1.6222158978124825,5.370024947234946,-5.479150242942594,0.0077247789055528695,0.009474824207953871,0.02330490717666523,0.0530711422672357,-0.09007622479778929,0.1047073405916993,0.28501957654953,1.458709716796875,1.109997272491455,0.4186127483844757,-0.6062965393066406,0.2387600541114807
1749057570.0907755,2.57464492355654,-2.111703027591701,-0.40552167848872117,-1.6221080617103831,5.3698383786952855,-5.478934927411426,0.0077945945258542015,0.009659300107304248,0.023847534255148097,0.05362435628378352,-0.09185189344024455,0.10640584051977527,0.2707151174545288,1.4470834732055664,1.1068260669708252,0.418792575597763,-0.5689876079559326,0.2527935802936554
1749057570.0908136,2.574660154178187,-2.1116852874114604,-0.40547286202737,-1.6219988098019706,5.369648903614854,-5.478716847762674,0.007866847015145085,0.009818599972339801,0.024392722647755306,0.05423217522764136,-0.09345857224955381,0.10821654744178305,0.2689177989959717,1.4624488353729248,1.1062359809875488,0.4297051429748535,-0.5860826969146729,0.2410531938076019
1749057570.0908508,2.5746757802066145,-2.11166732711647,-0.40542312762580984,-1.6218880437786483,5.3694571208540385,-5.4784958837069535,0.007942762653420135,0.009955178874537104,0.02494015382217489,0.05490268792745577,-0.09487284116791198,0.11011709817294932,0.2786036431789398,1.465146780014038,1.1297481060028076,0.4140393435955047,-0.5793423652648926,0.2495167851448059
1749057570.090889,2.574691777280329,-2.111649116162802,-0.4053724644316668,-1.6217756653458903,5.369263616874072,-5.478271924445804,0.00802373686468567,0.01007324892627288,0.025489462808839184,0.05564017460995097,-0.09609208804591102,0.11208266043033398,0.2715069651603699,1.484768986701965,1.1416627168655396,0.4426726400852203,-0.5771428942680359,0.2630320191383362
1749057570.0909266,2.574708095950042,-2.111630607868208,-0.40532085264350554,-1.6216615864730894,5.369068901233875,-5.478044863062808,0.008111242842780069,0.010178303647619654,0.026039984327559305,0.056445166357325084,-0.09713519945799207,0.11408916820366256,0.2974843084812164,1.460078239440918,1.10850727558136,0.4311322867870331,-0.552303671836853,0.2414328753948211
1749057570.090964,2.5747246688995857,-2.111611748990385,-0.4052682639440058,-1.6215457366821429,5.368873348126267,-5.477814585031088,0.008206729659527645,0.01027651401088182,0.026590516250108668,0.057314871860351196,-0.09804088146373853,0.11611620296000756,0.2824307382106781,1.4587182998657229,1.106378197669983,0.4367673695087433,-0.5349807739257812,0.2146245539188385
1749057570.0910008,2.5747414202585563,-2.111592490888808,-0.40521466224854963,-1.621428066094621,5.368677150790484,-5.477580954452923,0.008311523259016544,0.010374030200350763,0.027139145445224208,0.0582438560513138,-0.09886365027577565,0.1181490363360399,0.2868914604187011,1.4762284755706787,1.1097489595413208,0.4154547452926636,-0.5297496318817139,0.2176450341939926
1749057570.091049,2.574758275228832,-2.111572799864501,-0.4051600053235581,-1.6213085438990145,5.3684802946854076,-5.47734380296927,0.008426744049009923,0.010476254557492834,0.027683164304411135,0.05922480455587166,-0.09966783475480734,0.12017950475088243,0.2759745121002197,1.499924659729004,1.1221455335617063,0.4458127319812774,-0.5545364618301392,0.2195068001747131
1749057570.0911584,2.5747751683666706,-2.111552664771527,-0.4051042476413047,-1.6211871529699555,5.368282553408441,-5.477102925740444,0.00855324632250448,0.010587183278169258,0.028219098668428953,0.06024920402386935,-0.10052023835387036,0.12220562291607943,0.288578450679779,1.4813098907470703,1.1233601570129397,0.4366633594036102,-0.5693570971488953,0.2256896793842315
1749057570.092352,2.5747920496714873,-2.1115321008100514,-0.4050473445580068,-1.6210638823375758,5.368083508565212,-5.476858086799387,0.008691573910550641,0.010708927008001478,0.028742862955342237,0.061307813024530027,-0.10148234726444168,0.12423010195967318,0.2877862453460693,1.513399958610535,1.1192176342010498,0.4304541647434234,-0.5673847198486328,0.2543444335460663
1749057570.1342795,2.574808888526636,-2.1115111492225065,-0.404989257498961,-1.620938719871275,5.367882591755208,-5.4766090335112985,0.008841919809322472,0.01084150174916501,0.029250042266479304,0.062390870020119324,-0.10260307324416575,0.12625814129240576,0.2990331649780273,1.5237900018692017,1.1086279153823853,0.4343237280845642,-0.5854188799858093,0.2232791632413864
1749057570.1343431,2.5748256760219808,-2.1114898732811693,-0.4049299594374636,-1.6208116476985575,5.367679144285148,-5.476355517772181,0.009004080019676489,0.010982935378361881,0.029736274045265184,0.06348805995291716,-0.10391295772251341,0.1282949596049472,0.2872681617736816,1.5348957777023315,1.1239993572235107,0.4308788180351257,-0.592162013053894,0.2196490615606308
1749057570.134388,2.5748424261872187,-2.1114683513761987,-0.4048694398052575,-1.620682642345913,5.3674724883511695,-5.476097320289785,0.009177404010152941,0.011129676394990844,0.030197677594382386,0.0645883280006127,-0.10542056416605823,0.1303435198397254,0.2711419463157654,1.5197405815124512,1.1075451374053955,0.4431080222129822,-0.6187946200370789,0.2797314822673797
1749057570.1344285,2.574859176386677,-2.1114466681927113,-0.40480770815633377,-1.6205516803984417,5.367262001945371,-5.475834273924021,0.009360757065276754,0.011277236870231246,0.03063127042524088,0.06567968175965005,-0.10711150033605403,0.13240282069324574,0.2848833799362182,1.5150277614593506,1.1007996797561646,0.4289420545101166,-0.6054445505142212,0.2692244052886963
1749057570.134467,2.5748759868626747,-2.1114249050996636,-0.4047447962873357,-1.6204187489558068,5.367047188626431,-5.475566282695585,0.009552511138372183,0.011420963775115008,0.031035316621790026,0.06674914872135614,-0.10895019070499158,0.1344670026540679,0.2803440690040588,1.5206570625305176,1.11859393119812,0.4344378709793091,-0.6231399774551392,0.245603859424591
1749057570.134505,2.5748929392908315,-2.1114031310720622,-0.4046807588834018,-1.6202838587740174,5.366827733156339,-5.475293334391773,0.009750568520931552,0.011556818762300898,0.03140956843687057,0.0677830438364031,-0.11088419945200576,0.1365253646656547,0.2828716039657593,1.529062271118164,1.1121708154678345,0.4342361092567444,-0.5960795283317566,0.2683428227901459
1749057570.134543,2.5749101340926526,-2.1113813954855147,-0.40461567293405226,-1.6201470570897059,5.366603535472248,-5.475015505996288,0.009952405912494126,0.011682055536888702,0.031755382118625684,0.06876765398092372,-0.11285061675050653,0.13856323348158572,0.2900441288948059,1.5544008016586304,1.0976247787475586,0.4555058479309082,-0.6157858967781067,0.2624103724956512
1749057570.1345804,2.5749276860342474,-2.1113597236845507,-0.4045496360722031,-1.62000843691959,5.366374718438105,-5.47473296198855,0.010155117517776655,0.011795708769242276,0.03207570547706135,0.0696903664005448,-0.11478378974728924,0.14056350594754302,0.2767018675804138,1.5486644506454468,1.105828881263733,0.4512713551521301,-0.610689103603363,0.2554530501365661
1749057570.134618,2.57494571748108,-2.1113381155061512,-0.4044827637315307,-1.6198681401332222,5.3661416084935905,-5.474445946019286,0.010355442505770765,0.011898838931388092,0.03237494172418847,0.07054115839425647,-0.11662351111853117,0.14250860769126333,0.2663823366165161,1.5569119453430176,1.1065863370895386,0.4383184611797333,-0.6038044095039368,0.2481143623590469
1749057570.134655,2.5749643488263034,-2.1113165463867145,-0.40441518484665256,-1.6197263526523222,5.365904691841166,-5.474154766814373,0.010549782434601343,0.011994506407356732,0.03265869332462114,0.07131424639483958,-0.11832266649511834,0.1443825730032851,0.2764070332050323,1.557266354560852,1.103199481964111,0.4385104775428772,-0.5471303462982178,0.2472642958164215
1749057570.134693,2.574983686188676,-2.1112949705279553,-0.40434703591596827,-1.6195832914730064,5.365664551844517,-5.47385977939944,0.010734235500244844,0.012087475185131638,0.03293339174285003,0.07200961381429724,-0.1198533104924972,0.14617295038998987,0.3145167231559753,1.5554901361465454,1.1126136779785156,0.4287457764148712,-0.547603189945221,0.2356339693069458
1749057570.1347315,2.5750038074269,-2.111273325719614,-0.4042784535582508,-1.6194391845572376,5.3654217958100645,-5.473561362883349,0.01090468297623849,0.012183675646197635,0.0332058338304476,0.07263413736241495,-0.12121025752225274,0.1478722829079126,0.290651798248291,1.5779547691345217,1.1065160036087036,0.4594946503639221,-0.548755407333374,0.2275197952985763
1749057570.134769,2.5750247485573166,-2.1112515394899973,-0.40420956604926533,-1.6192942457252812,5.365176980995567,-5.473259896225136,0.011056954180168083,0.012289490580842808,0.03348267015122919,0.07320209373735649,-0.12241158425667549,0.1494789945920764,0.2748608291149139,1.5673024654388428,1.1076899766921997,0.4449329674243927,-0.536554217338562,0.2249220460653305
1749057570.134807,2.5750464932956705,-2.1112295360174254,-0.40414048458320917,-1.6191486473400407,5.364930549965892,-5.472955733622156,0.011187075588454441,0.012410964752801627,0.03376990850522483,0.0737348980004295,-0.12349590073073229,0.15099761203170903,0.297276496887207,1.593559980392456,1.1171163320541382,0.4282665252685547,-0.5550755262374878,0.2294365614652633
1749057570.134845,2.575068968235478,-2.1112072427644413,-0.4040712950820869,-1.6190024938551917,5.3646827838844136,-5.472649181164497,0.01129158782888169,0.012553063601329559,0.034072492913896774,0.07425997514308505,-0.12451674924850042,0.15243834234235332,0.2849366366863251,1.6039661169052124,1.1027706861495972,0.425503134727478,-0.5605116486549377,0.2290051579475402
1749057570.1348825,2.575092045186174,-2.111184595517455,-0.4040020512614905,-1.6188557993603705,5.3644337790296595,-5.472340476074455,0.01136789780651622,0.0127191056463925,0.03439399769866262,0.07480872880470642,-0.12553493830108572,0.15381610692315426,0.2973038256168365,1.621261477470398,1.1168601512908936,0.446367084980011,-0.5796636939048767,0.248192548751831
1749057570.13492,2.5751155509613866,-2.1111615408181876,-0.4039327694554535,-1.6187084721531695,5.364183447419244,-5.472029769337923,0.011414621838096958,0.012910460019863203,0.03473645283734262,0.07541369307832706,-0.12660994783657892,0.15514919209454855,0.2928017973899841,1.6412101984024048,1.1229734420776367,0.4497355818748474,-0.5950379967689514,0.2373054325580597
1749057570.1349576,2.5751392837886633,-2.111138035622711,-0.40386342556368254,-1.6185603089828176,5.363931538223974,-5.471717112157978,0.011431867037471398,0.013126546021754592,0.03510029743983437,0.07610512854830258,-0.12779169970049328,0.15645771011147394,0.2680404186248779,1.6147069931030271,1.1189157962799072,0.4505586624145508,-0.6188870668411255,0.2415099442005157
1749057570.1349947,2.5751630344103993,-2.1111140449496792,-0.4037939544846677,-1.6184110007929442,5.363677674040384,-5.471402446762103,0.011421393908828889,0.013365114759023886,0.035484439683137456,0.07690747585618486,-0.12911393080805153,0.1577620505474474,0.2804901301860809,1.6239478588104248,1.1117732524871826,0.4637049436569214,-0.632131814956665,0.2551422715187073
1749057570.1350317,2.5751866088832633,-2.111089538743366,-0.4037242524783388,-1.6182601505385308,5.363421395562241,-5.471085602785286,0.011386609819019998,0.013622747542545579,0.0358863844218295,0.0778361316664822,-0.13059012913577808,0.15908144756951476,0.2620326280593872,1.616413116455078,1.1010775566101074,0.4637308716773987,-0.6476210355758667,0.2659151554107666
1749057570.1351442,2.575209849483649,-2.1110644889686947,-0.40365418291858385,-1.6181073021892447,5.363162209143008,-5.4707663013743755,0.011332366248709777,0.013895477141758974,0.03630238434595076,0.07889495815982654,-0.13221254317047926,0.16043271849895366,0.2600077390670776,1.6297098398208618,1.0918420553207395,0.4771815538406372,-0.6445959210395813,0.2483965456485748
1749057570.1363523,2.575232650320622,-2.111038867287346,-0.40358358568040287,-1.6179519786966405,5.362899633095746,-5.4704441696306985,0.01126456810757429,0.014179428047103263,0.03672758850891292,0.08007483170823809,-0.133954248623442,0.16182917002389657,0.2644391655921936,1.6416094303131104,1.1188173294067385,0.478876531124115,-0.6460444331169128,0.2415166497230529
1749057570.1823037,2.575254965172657,-2.111012642953174,-0.4035122898752922,-1.6177937256826929,5.362633239676422,-5.470118767484236,0.011189637777821709,0.014471380736581826,0.037156199797109817,0.08135342471013482,-0.13577375074614748,0.16327964558801933,0.2565168440341949,1.6380466222763062,1.1106863021850586,0.4830877482891083,-0.6097673773765564,0.2243492305278778
1749057570.1823597,2.575276806463147,-2.1109857801908434,-0.403440128912374,-1.6176321568326808,5.362362690636712,-5.469789627471707,0.011113899524557762,0.014769189521502692,0.037581684693266906,0.08269630714779756,-0.13762119974508494,0.16478771745612106,0.2587140500545501,1.6228991746902466,1.0960614681243896,0.5016985535621643,-0.5998716950416565,0.2704934477806091
1749057570.182403,2.5752982359388263,-2.110958234501705,-0.4033669561696774,-1.6174669963923205,5.3620877651990115,-5.469456305401289,0.011042961261775609,0.01507201782166491,0.03799707715002744,0.08405934344238325,-0.1394450770485499,0.1663510964592968,0.2838134765625,1.654495358467102,1.1071577072143557,0.4761556386947632,-0.5698782205581665,0.2182549089193344
1749057570.1824436,2.57531934917585,-2.110929948062337,-0.4032926591167352,-1.617298113925376,5.361808379822117,-5.469118436832625,0.010981175186571435,0.015380391719417168,0.03839538590228224,0.08539224068434419,-0.14119822351602282,0.1679614001804859,0.2660866379737854,1.6637532711029053,1.0980491638183594,0.4841324090957641,-0.5599659085273743,0.2662802338600158
1749057570.1824825,2.5753402570707697,-2.110900845390381,-0.4032171695893384,-1.6171255467005967,5.361524598576529,-5.468775791101062,0.010931256680696414,0.0156961047903932,0.03877008121565,0.08664298587271115,-0.1428423188281819,0.16960444943443392,0.2660866379737854,1.6637532711029053,1.0980491638183594,0.4841324090957641,-0.5599659085273743,0.2662802338600158
1749057570.182521,2.5753610676831635,-2.1108708312614217,-0.4031404681382339,-1.6169495057909598,5.361236631881233,-5.468428312339114,0.010894126724081386,0.01602202561792337,0.03911562630931522,0.08776280483992786,-0.14435031980090438,0.1712612373458223,0.2627676129341125,1.6592155694961548,1.131786584854126,0.4582270681858063,-0.5494402647018433,0.2447516024112701
1749057570.18256,2.5753818712280445,-2.1108397928603937,-0.4030625812774438,-1.6167703635242023,5.360944821581214,-5.468076137555053,0.010869013740792464,0.016361856711585868,0.039428024275393714,0.08871117741098132,-0.14570683450667204,0.17290962708402613,0.2625209093093872,1.6701381206512451,1.108018159866333,0.4475735425949096,-0.5855065584182739,0.2636972665786743
1749057570.1825986,2.5754027300309468,-2.1108076070849067,-0.4029835722243123,-1.6165886226435915,5.36064961301735,-5.467719586556892,0.010853810057537418,0.016719870456318075,0.03970534721333822,0.08946034845318619,-0.1469068485159623,0.1745266861933947,0.2828560173511505,1.66019868850708,1.0928459167480469,0.4389714002609253,-0.5551587343215942,0.2368139028549194
1749057570.1826365,2.5754236743431798,-2.1107741522706522,-0.4029035276301013,-1.6164048707537744,5.36035151845176,-5.467359125639961,0.010845633474130124,0.01710061638830456,0.03994818427007573,0.08999873102366128,-0.14795352813306867,0.17609139640230156,0.3033530712127685,1.6821328401565552,1.1097042560577393,0.4501698911190033,-0.6205758452415466,0.271246075630188
1749057570.1826737,2.575444704301328,-2.1107393222236492,-0.4028225436613471,-1.616219725956761,5.360051078123952,-5.466995312839549,0.01084150321069583,0.017508572570502697,0.04015990507282435,0.09033268253240913,-0.1488559276929918,0.17758735250769614,0.2547491192817688,1.6702730655670166,1.100584626197815,0.4389251470565796,-0.5946449637413025,0.2271355390548706
1749057570.1827114,2.575465797702644,-2.1107030398358346,-0.4027407142445105,-1.6160337803994984,5.359748824128217,-5.466628735132253,0.010839009623922221,0.017947714652432122,0.04034662109702548,0.09048636160871533,-0.1496273045459105,0.17900502578603406,0.2773284912109375,1.6547026634216309,1.0830092430114746,0.432591050863266,-0.5989581346511841,0.222408652305603
1749057570.182749,2.575486922223367,-2.1106652677351256,-0.4026581229636588,-1.6158475481769556,5.359445249512173,-5.466259947726001,0.010836849183572507,0.018421000249950234,0.04051676316614271,0.09049966442281625,-0.15028444341479152,0.18034321913374282,0.2979750037193298,1.6450940370559692,1.0805584192276,0.4097769856452942,-0.6088169813156128,0.239432156085968
1749057570.1827855,2.5755080494090112,-2.110626014088277,-0.4025748387932285,-1.6156614231364745,5.3591407824380095,-5.4658894236038895,0.01083511947016618,0.018929805445504638,0.0406802723994013,0.09042450064522405,-0.15084800190152423,0.18160946374619602,0.243898719549179,1.672256588935852,1.093860387802124,0.4347528219223022,-0.5674296617507935,0.2142163962125778
1749057570.1828249,2.5755291669702403,-2.1105853325041335,-0.4024909150367804,-1.615475650722323,5.358835763997893,-5.465517518457867,0.01083532077258147,0.0194733903769276,0.04084749751255504,0.09031985994204653,-0.15134351041875174,0.18281927624881641,0.2751831412315368,1.660059094429016,1.0908300876617432,0.4353104829788208,-0.5691878795623779,0.2399581521749496
1749057570.1828618,2.575550286193833,-2.110543315865515,-0.4024063906542655,-1.6152903161841548,5.358530428441069,-5.465144452692931,0.010840074407615271,0.02004849426705603,0.04102796928902155,0.09024623977004469,-0.15180238899007995,0.18399438357307285,0.2716256380081177,1.6683003902435305,1.1014958620071411,0.4381656646728515,-0.5496689081192017,0.2400649785995483
1749057570.1828988,2.575571442610741,-2.1105000849676725,-0.40232129332764094,-1.615105349503529,5.358224885690872,-5.464770309093819,0.010852623871483228,0.020649154370127102,0.04122925671888645,0.09026005615884977,-0.15226226284682795,0.1851601979313487,0.2718467712402344,1.671749472618103,1.1213774681091309,0.4584946632385254,-0.5562576651573181,0.2573259174823761
1749057570.182936,2.5755926899782375,-2.110455773980575,-0.40223564368217113,-1.6149205455095244,5.357919107530456,-5.464395042745436,0.010876223206302053,0.021266810255975873,0.04145609276688746,0.09040863674674464,-0.15276599784776115,0.18634294748810454,0.2734169363975525,1.6608902215957642,1.1000248193740845,0.4716731607913971,-0.5526372194290161,0.2516440153121948
1749057570.1829731,2.5756140893830506,-2.1104105154767665,-0.4021494598514472,-1.6147355959789151,5.357612920251983,-5.464018499148354,0.010913536460580468,0.021890706335550243,0.04170990329225189,0.09072629849410971,-0.15335919085346272,0.18756690711277865,0.2921862602233886,1.6513851881027222,1.098472237586975,0.46278977394104,-0.5396667122840881,0.2708978652954101
1749057570.18301,2.5756356962410933,-2.1103644276385474,-0.40206276130615154,-1.6145501291892583,5.357306007330193,-5.463640436819106,0.010966172460939715,0.02250855245871046,0.04198879730164625,0.09123185275256879,-0.15408625445287305,0.18885211895658918,0.2736457288265228,1.6370975971221924,1.099398493766785,0.4723754823207855,-0.5731697678565979,0.2526437640190124
1749057570.1830466,2.5756575481090995,-2.1103176054104797,-0.4019755709738512,-1.6143637517075922,5.356997925128683,-5.463260551423706,0.01103445460770563,0.023107357426305226,0.04228799596287873,0.09192768996313566,-0.1549856345534315,0.19021286322586015,0.2894616723060608,1.6480813026428225,1.0995420217514038,0.47716224193573,-0.6039624214172363,0.2404162287712097
1749057570.183083,2.5756796558483095,-2.1102701163069266,-0.40188791525604706,-1.6141760874249014,5.356688132598024,-5.4628784993023025,0.011117472317627606,0.023674330803612784,0.04260060787773385,0.09280042103531556,-0.15608498735352547,0.19165697338189194,0.2815527617931366,1.6390420198440552,1.1112804412841797,0.4676313698291778,-0.6051952242851257,0.2346570491790771
1749057570.1831198,2.57570199996486,-2.110222000764134,-0.4017998222428916,-1.613986809900532,5.35637603302053,-5.462493918972177,0.011213390842952245,0.024197760756524193,0.04291861337931222,0.09382292383841791,-0.15739722543920465,0.1931859320563502,0.2768556773662567,1.6247172355651855,1.0942319631576538,0.466457188129425,-0.6271341443061829,0.2345913499593734
1749057570.1832352,2.5757245329377882,-2.1101732765189727,-0.40171131878713484,-1.6137956654626069,5.356061023066479,-5.4621064497257334,0.011319934784195674,0.0246678008718296,0.04323390802130285,0.09495755768623701,-0.1589181920369507,0.1947955689059315,0.2725913524627685,1.615101337432861,1.103925347328186,0.487490177154541,-0.6545354127883911,0.2589248418807983
1749057570.1843915,2.575747187210268,-2.110123946369303,-0.4016224270372189,-1.6136024857326532,5.35574254254428,-5.46171574672559,0.01143492748022544,0.025077110365401938,0.04353927461789489,0.09616023991933584,-0.1606263916930414,0.19647712246456012,0.2718716859817505,1.5965453386306765,1.1079097986221311,0.4691112041473388,-0.5989936590194702,0.2291123270988464
1749057570.2263184,2.5757698875411026,-2.110074008495819,-0.40153316081251994,-1.6134071892488069,5.3554201178525895,-5.461321492308846,0.011556765756150012,0.025421285960159853,0.04382919467128464,0.09738500922801321,-0.16248479756719145,0.19821842319602737,0.2727429270744324,1.5987955331802368,1.0970879793167114,0.4718860387802124,-0.6325930953025818,0.2542235851287842
1749057570.226366,2.575792565758239,-2.1100234680889245,-0.40144352208365874,-1.613209772863643,5.355093393566555,-5.460923403934162,0.01168472926014887,0.02569902320376759,0.04410045199540482,0.0985886398500598,-0.16444438072754294,0.20000500048748907,0.2796564400196075,1.5954952239990234,1.0984256267547607,0.4707086086273193,-0.6098172664642334,0.2596517205238342
1749057570.226407,2.575815175591645,-2.1099723484766795,-0.40135349783679247,-1.6130102946196425,5.354762149390719,-5.4605212402066,0.011819060787010682,0.025911972901443512,0.0443525046869557,0.09973484545760086,-0.16644875701157777,0.20182100520226523,0.2770193815231323,1.5990006923675537,1.0904154777526855,0.449050635099411,-0.6028984785079956,0.2741767764091491
1749057570.2264462,2.5758377050832393,-2.10992069968722,-0.40126305766625003,-1.6128088506629037,5.354426302772987,-5.46011480689531,0.011960806302823233,0.02606431256419006,0.044587611342245086,0.10079764052033993,-0.1684392689946196,0.20364995092145136,0.2981432974338531,1.5887408256530762,1.1069965362548828,0.4413624107837677,-0.5841140151023865,0.2584622502326965
1749057570.226485,2.575860184147407,-2.109868602659155,-0.40117215247744814,-1.6126055493183464,5.354085899710699,-5.459703964114396,0.01211146115566584,0.026162110156258175,0.044810713587126495,0.10176351052543263,-0.17035990168653528,0.20547537492555537,0.2877248525619507,1.5939784049987793,1.122772216796875,0.4361186027526855,-0.58580082654953,0.2676349580287933
1749057570.2265246,2.575882685479876,-2.1098161680959326,-0.4010807147139367,-1.6124004857282073,5.3537410973303645,-5.459288634070701,0.012272514028136963,0.02621259381417674,0.045029102566870274,0.10263216490625578,-0.17216161098375288,0.20728156574309364,0.2887696921825409,1.5883351564407349,1.129764437675476,0.4681352972984314,-0.5981860756874084,0.2587662637233734
1749057570.2265644,2.5759053183299483,-2.109763530052303,-0.400988660569493,-1.6121937204053391,5.353392141978674,-5.458868807037963,0.012444998016074002,0.02622344406362304,0.04525191175423549,0.10341578362523739,-0.17380584385589873,0.2090544725147312,0.2796924114227295,1.5804225206375122,1.1056824922561646,0.4135075211524963,-0.6025450825691223,0.2304226011037826
1749057570.2266033,2.5759282162889896,-2.109710835412889,-0.4008958945189397,-1.6119852645322181,5.353039346101229,-5.458444542560043,0.012629146855345417,0.026202196489014902,0.045489470238036116,0.10413680637766241,-0.1752671764879838,0.21078280511317812,0.2704844176769256,1.582363486289978,1.1227006912231443,0.403800755739212,-0.5519636869430542,0.2730213701725006
1749057570.2266414,2.575951521481894,-2.1096582310357,-0.4008023159742224,-1.6117750738230439,5.352683066044351,-5.458015963648153,0.012824221343033269,0.026155798485627314,0.04575253702313249,0.10482446669820432,-0.1765350526457448,0.2124591953393429,0.3179276287555694,1.590375900268555,1.1265300512313845,0.4400089979171753,-0.5970914959907532,0.2417117804288864
1749057570.226679,2.5759753678738058,-2.1096058503461284,-0.4007078271197084,-1.6115630515332162,5.352323681163662,-5.457583243468913,0.013028526463418537,0.026090322759039324,0.04605144051956443,0.10551045738286972,-0.17761458067901031,0.21408118522333394,0.2969684898853302,1.6128785610198977,1.1381946802139282,0.4443510472774505,-0.5910030603408813,0.2476331293582916
1749057570.2267177,2.5759998659339134,-2.1095538009404904,-0.40061234052251643,-1.611349060121162,5.351961572959476,-5.457146585983636,0.013239593643730826,0.026010811449598766,0.04639516492567088,0.10622429403392479,-0.1785262939368203,0.21565178542765176,0.3206380903720855,1.59051251411438,1.1207674741744995,0.4596467614173889,-0.5696858167648315,0.2800985276699066
1749057570.2267551,2.576025090176932,-2.1095021546803405,-0.40051578526574505,-1.611132940190252,5.351597102392563,-5.45670620357992,0.013454466025707483,0.025921208379540983,0.04679043857666257,0.106989043539878,-0.1793047531467412,0.21717940803599525,0.2939906418323517,1.556929349899292,1.1186704635620115,0.4599941074848175,-0.578639566898346,0.2429506629705429
1749057570.226793,2.576051070555104,-2.109450941757128,-0.4004181109427534,-1.6109145344252258,5.351230584606437,-5.456262295537909,0.013670008910394545,0.025824337686261287,0.0472408875346016,0.1078180542497145,-0.17999591104613905,0.21867709650432388,0.2995418906211853,1.5886967182159424,1.135253667831421,0.4713140428066253,-0.5654497742652893,0.2372841536998748
1749057570.22683,2.5760777883728587,-2.109400149894857,-0.40031928948588213,-1.6106937133213213,5.350862262632548,-5.455815030998105,0.01388317818782232,0.025721911090698636,0.04774633564785005,0.10871317835900804,-0.1806532844668564,0.22016111420219828,0.2879941761493683,1.6248087882995603,1.1483502388000488,0.474298894405365,-0.5672125816345215,0.2441502958536148
1749057570.226868,2.576105177291795,-2.109349729060127,-0.40021931523064186,-1.6104703990134732,5.350492284115207,-5.455364538993504,0.01409121101546155,0.025614581206550743,0.048302359472362257,0.10966475904057513,-0.18133317106022195,0.2216490778066562,0.3007197082042694,1.5874923467636108,1.134792447090149,0.493367999792099,-0.5971514582633972,0.2445071041584015
1749057570.2269046,2.5761331299664816,-2.109299601058691,-0.40011820378514235,-1.610244583726965,5.350120686250471,-5.45491090642377,0.01429174096818597,0.025502075918585287,0.04890021595834885,0.11065339868962835,-0.18208935817511765,0.22315791232072643,0.3169944286346435,1.568088412284851,1.1366033554077148,0.4356865584850311,-0.5938082933425903,0.2449439764022827
1749057570.226942,2.576161510577937,-2.109249672664669,-0.4000159902366374,-1.6100163401353174,5.3497473932233,-5.454454183110585,0.01448286939450262,0.02538343663824186,0.049527229326243156,0.11165325553533598,-0.18296793189602092,0.22470195271744367,0.3177539110183716,1.59194815158844,1.1354265213012695,0.4539496898651123,-0.5475335121154785,0.2913152873516083
1749057570.2269788,2.5761901726959158,-2.1091998505848712,-0.39991272709298736,-1.6097858219457204,5.349372227866637,-5.453994391708088,0.014663235624613092,0.025257362182977517,0.05016765855948835,0.11263637294487713,-0.1840028443983818,0.22629151623729454,0.3055813014507293,1.6299418210983276,1.1380804777145386,0.440007209777832,-0.598595380783081,0.2906567454338074
1749057570.227016,2.576218980589422,-2.1091500564188146,-0.39980848219538756,-1.6095532541981017,5.34899493618672,-5.453531539449546,0.014832117202552154,0.025122651404252485,0.05080399232890935,0.1135773722856627,-0.18521281099403264,0.2279322086809323,0.3334630131721496,1.6262037754058838,1.140566349029541,0.4319789409637451,-0.5934373140335083,0.2938447296619415
1749057570.2270525,2.5762478308374988,-2.1091002396889427,-0.39970333660173235,-1.609318914007986,5.348615220801916,-5.453065628626809,0.014989561634462337,0.02497872726577842,0.05141854674897685,0.11445775783070516,-0.1865999028028042,0.22962510162967326,0.3126277327537536,1.5995161533355713,1.11210298538208,0.3911156356334686,-0.5985172986984253,0.2883083820343017
1749057570.2271607,2.5762766704808415,-2.1090503870358295,-0.3995973821451703,-1.6090831037682982,5.348232777833724,-5.452596663430388,0.015136515771939004,0.024826185554553275,0.05199517807726864,0.11526910477033384,-0.18814993794013452,0.2313677395864873,0.2937354445457458,1.5878567695617676,1.1220957040786743,0.3993985950946808,-0.6201369166374207,0.2783350646495819
1749057570.228399,2.576305508300495,-2.1090005259439217,-0.399490718223073,-1.6088461200935327,5.347847331647629,-5.4521246521023965,0.01527489357252491,0.024667253748345774,0.05252088243794883,0.11601455725805293,-0.18983453520738022,0.2331557510585125,0.2894307971000671,1.6530497074127195,1.1450494527816772,0.4166035056114197,-0.6071260571479797,0.3002329468727112
1749057570.2742937,2.5763344169713376,-2.1089507220467874,-0.3993834474882917,-1.60860822280976,5.347458662892503,-5.4516496046894645,0.015407518779474414,0.024506018546353047,0.052987057290751274,0.11670835864286624,-0.19161453357385405,0.23498470217356734,0.2832020223140716,1.6034952402114868,1.0822367668151855,0.3988674283027649,-0.5976181030273438,0.2361970841884613
1749057570.2743423,2.5763635254119555,-2.1089010702049364,-0.3992756703512944,-1.6083696086366832,5.3470666269479,-5.451171527573115,0.015537899603645823,0.02434831528344499,0.05339024960287795,0.11737350966945051,-0.19344439566051802,0.2368517804918802,0.2951016426086426,1.5775917768478394,1.1163500547409058,0.4005782008171081,-0.6164381504058838,0.2684080004692077
1749057570.2743845,2.5763930022083423,-2.1088516808694084,-0.3991674784274348,-1.608130393560951,5.346671161580352,-5.450690416332671,0.015669834751654347,0.024201252698986705,0.053732302716476374,0.11803800349891057,-0.1952771706904318,0.23875693709887813,0.3242500722408294,1.606757879257202,1.1019904613494873,0.4137485027313232,-0.5962543487548828,0.255203515291214
1749057570.274425,2.576423032279532,-2.1088026642106596,-0.39905894740460135,-1.6078906063320688,5.346272284008503,-5.450206248462214,0.015806903761527363,0.024072439161080227,0.05401991624992557,0.11873033918540996,-0.1970695624359006,0.2407032370691064,0.3042290210723877,1.646094560623169,1.0941864252090454,0.4143752455711365,-0.5816106200218201,0.2904213666915893
1749057570.274464,2.5764537899871924,-2.1087541147543116,-0.3989501303547589,-1.6076501933931788,5.345870078591703,-5.449718977162548,0.01595194026090673,0.023969059023078002,0.0542637199604389,0.11947512041831035,-0.19878661185382884,0.2426963415949371,0.3026059567928314,1.6742347478866575,1.0931516885757446,0.4171812236309051,-0.5670717358589172,0.2832825481891632
1749057570.2745042,2.5764854126492636,-2.1087060988740567,-0.398841052943018,-1.6074090334002786,5.345464677092238,-5.449228527066964,0.01610660258840293,0.02389699689348018,0.054477011356182714,0.12028948592939444,-0.200405464738798,0.24474322174103003,0.3188344836235046,1.6531890630722046,1.112443447113037,0.4252162277698517,-0.5784146785736084,0.2661973536014557
1749057570.274542,2.5765179786536474,-2.1086586466963952,-0.3987317118235954,-1.6071669578468866,5.34505623407554,-5.4487347924661265,0.016271132342737228,0.023860196457995822,0.054674324806571285,0.1211809173233064,-0.20191769453502337,0.2468503461150092,0.3284034132957458,1.631949782371521,1.1080322265625,0.4051171243190765,-0.5548102855682373,0.2491911351680755
1749057570.274582,2.57655149389797,-2.108611748982403,-0.3986220767421572,-1.6069237736109714,5.3446449005393015,-5.448237638294633,0.016444338207575772,0.023860367194078577,0.054870003344383564,0.122146694127526,-0.20332975803585288,0.24902167730352223,0.2958455383777618,1.670554757118225,1.1144521236419678,0.4298686981201172,-0.5483376979827881,0.2998758554458618
1749057570.2746208,2.576585889179192,-2.108565358561427,-0.3985120959547617,-1.6066792835362549,5.3442307992568265,-5.447736903717682,0.016623783781231624,0.023897050596222946,0.05507693158197594,0.12317498158684825,-0.2046614175769491,0.2512568470708915,0.3145513236522674,1.6663001775741575,1.1266305446624756,0.4366887807846069,-0.5534071326255798,0.3163665235042572
1749057570.2746575,2.5766210295139538,-2.1085193951333805,-0.3984017039272855,-1.606433302202069,5.343814005484663,-5.447232407749109,0.016806117480102446,0.023967971468035382,0.05530555205841632,0.12424728340295747,-0.20594233408249707,0.2535498499692185,0.3219794034957886,1.6640976667404177,1.1135576963424685,0.4200256466865539,-0.5590515732765198,0.3134993016719818
1749057570.274696,2.5766567342484685,-2.1084737519048478,-0.39829082995765097,-1.606185665470783,5.343394536328696,-5.446723956248566,0.016987471153376673,0.024069557767469284,0.05556323882126475,0.12534178627764037,-0.20720741437287635,0.2558884986377382,0.3181882500648498,1.6483854055404663,1.1205261945724487,0.383212685585022,-0.6063731908798218,0.3273428976535797
1749057570.274733,2.5766928045813597,-2.10842830260491,-0.3981794062465969,-1.605936233875982,5.34297235088155,-5.446211349999753,0.01716386749751441,0.024197519739988863,0.05585406023115514,0.12643698516477295,-0.2084917509584622,0.25825473822929795,0.306595116853714,1.689420461654663,1.146491289138794,0.3958400785923004,-0.6002383232116699,0.3114835619926452
1749057570.274771,2.5767290535105496,-2.108382907848973,-0.3980673739967317,-1.6056848911191302,5.342547361373759,-5.445694394143369,0.01733160021844471,0.0243474186645158,0.05617893152790829,0.12751494170997457,-0.2098260303546876,0.26062575945651445,0.298388808965683,1.6790117025375366,1.1448383331298828,0.3968803584575653,-0.6036331057548523,0.2875775396823883
1749057570.2748086,2.5767653328481526,-2.1083374204537564,-0.39795468651388644,-1.605431539697523,5.342119453569003,-5.445172909589044,0.0174875704995036,0.02451519518789474,0.05653612455357033,0.1285636208544942,-0.21123309884975178,0.2629757286046482,0.3182104229927063,1.6676079034805298,1.1173306703567505,0.3750223815441131,-0.5696254968643188,0.2885886430740356
1749057570.2748456,2.576801552802554,-2.1082916899924737,-0.39784130912948196,-1.6051760959527268,5.341688512938471,-5.444646746736426,0.017629571370704887,0.024697640939289403,0.05692205947774779,0.12957795702811764,-0.21272603999972847,0.2652779031162771,0.3169094324111938,1.6707971096038818,1.1164542436599731,0.3747096061706543,-0.5904258489608765,0.2758460640907287
1749057570.274883,2.5768376911494046,-2.1082455673606333,-0.39772721671953243,-1.604918486613731,5.341254452003742,-5.444115800860156,0.017756509086192192,0.02489278559005856,0.057332258883935776,0.13055956621440049,-0.21430775902631868,0.26750692005684146,0.280099868774414,1.7091492414474487,1.1518203020095823,0.4064610302448272,-0.5838886499404907,0.334486186504364
1749057570.274942,2.5768737908006045,-2.1081989101263905,-0.3976123900603728,-1.6046586482536946,5.340817233945738,-5.443580027350609,0.0178685430052003,0.02510015500517265,0.05776231088052008,0.13151528232167672,-0.2159717990884283,0.26964109273144704,0.2978891730308532,1.7134968042373655,1.115286350250244,0.4084093570709228,-0.5984906554222107,0.3231200575828552
1749057570.2749906,2.5769099465956087,-2.1081515889169475,-0.39749681201457804,-1.6043965301267202,5.340376888475343,-5.4430394543074545,0.017967119577964506,0.025320850725094365,0.05820867390876413,0.1324549032907401,-0.2177039939879985,0.2716645759657376,0.2972387671470642,1.667445421218872,1.1097320318222046,0.3888514041900635,-0.5855703353881836,0.3059864938259125
1749057570.27503,2.5769462841352975,-2.108103494300843,-0.39738046398710275,-1.6041320998247497,5.339933517893909,-5.442494190126734,0.018054879472841668,0.02555741169881241,0.05866917172947947,0.13338864252892244,-0.21948458885824765,0.27356923273821465,0.2942433059215545,1.6730611324310305,1.1220811605453491,0.3877195119857788,-0.5792866945266724,0.2937888503074646
1749057570.2750676,2.576982934823924,-2.108054542943095,-0.39726332278500115,-1.6038653503310238,5.339487293381659,-5.441944424645196,0.018135433817758114,0.02581344840377148,0.05914308145637247,0.1343247860069163,-0.2212905827734037,0.2753559744103877,0.2935385406017303,1.6993733644485474,1.112736463546753,0.4361717998981476,-0.6019026637077332,0.2530061900615692
1749057570.2751071,2.577020011608885,-2.1080046815472557,-0.39714535808617524,-1.603596306550108,5.339038442889202,-5.441390423631392,0.01821303107170535,0.02609308522806012,0.059630802282704176,0.13526798075661234,-0.2230981803913716,0.2770353158623096,0.3206658661365509,1.6971160173416138,1.1138604879379272,0.4370522797107696,-0.6204565167427063,0.274940550327301
1749057570.275144,2.577057589380214,-2.1079538874048467,-0.39702653087663603,-1.6033250293515684,5.338587232339333,-5.440832517240345,0.018292158241078976,0.02640029318126741,0.06013318418192413,0.13621844832192712,-0.22488529236769159,0.2786269402053372,0.3089897632598877,1.6958967447280884,1.149603009223938,0.4228425025939941,-0.6090874671936035,0.2686647176742553
1749057570.2752545,2.577095692871494,-2.1079021651453638,-0.39690679320573014,-1.603051615527722,5.33813394169202,-5.440271083103917,0.018377129097440468,0.026738218500598813,0.06065067232123156,0.13717223338097678,-0.22663395044105716,0.2801582119105181,0.2844810485839844,1.703621506690979,1.1322702169418335,0.4238290190696716,-0.5776612758636475,0.292671799659729
1749057570.2763507,2.5771342933518464,-2.1078495401609962,-0.39678608947573696,-1.6027761927322617,5.337678837403007,-5.439706524384583,0.01847170676525355,0.027108603179268803,0.061182464556480354,0.13812238896720866,-0.22833235026588153,0.2816617642087047,0.3265324234962463,1.7129676342010498,1.1312159299850464,0.4418566823005676,-0.5609982013702393,0.3171938061714172
1749057570.3182807,2.5771733137227812,-2.1077960497884694,-0.39666435929034805,-1.6024989092289077,5.337222143166333,-5.439139243103113,0.018578794570460418,0.027511360246574437,0.06172586908831264,0.13906081431128695,-0.22997613047573462,0.28317244045857054,0.3143484890460968,1.7056539058685305,1.1285789012908936,0.4133208394050598,-0.550469160079956,0.3064162135124206
1749057570.318327,2.5772126402760085,-2.1077417335490805,-0.3965415415790905,-1.6022199188470563,5.336764011414296,-5.438569609666428,0.018700213319056476,0.027944328196454996,0.062275992653160486,0.1399803336705821,-0.23156856088257918,0.28472394065484724,0.2901634871959686,1.690347671508789,1.1380218267440796,0.4000896215438843,-0.5541110038757324,0.2867725491523742
1749057570.3183682,2.5772521386337957,-2.1076866237399243,-0.39641757934426725,-1.6019393619093447,5.336304498424061,-5.437997930452743,0.018836569014204205,0.02840320075163059,0.06282581764452976,0.1408765503339483,-0.23311956166036452,0.2863455305311311,0.2834450304508209,1.6932207345962524,1.1400883197784424,0.4094636142253876,-0.5908535122871399,0.2745773792266845
1749057570.318408,2.577291671307912,-2.1076307376011223,-0.39629242415923427,-1.6016573435052879,5.335843545680797,-5.437424416035631,0.018987206451431773,0.028881617720291484,0.06336666516922106,0.1417490493478908,-0.2346437958485766,0.28805916433335277,0.3017494678497314,1.6962295770645142,1.1347148418426514,0.3969610333442688,-0.5856809020042419,0.2997758388519287
1749057570.3184474,2.577331114643805,-2.1075740720967384,-0.39616603958189345,-1.601373911663079,5.335380969401783,-5.436849152849796,0.01915024369440518,0.029371407966419728,0.06388899098153826,0.1426016641446882,-0.23615830724000536,0.2898773702347875,0.3056889772415161,1.7034258842468262,1.1313568353652954,0.3807985782623291,-0.5985274314880371,0.3122988045215606
1749057570.3184855,2.577370373363029,-2.107516601917105,-0.39603840281477354,-1.6010890393138244,5.334916459253264,-5.43627208089726,0.019322687274515762,0.029862984634681875,0.06438341292068228,0.14344173878785552,-0.2376802125445701,0.2918022091505111,0.2835465669631958,1.702175855636597,1.1154582500457764,0.3968607783317566,-0.6013295650482178,0.3257836699485779
1749057570.318524,2.5774093913158858,-2.1074582807597757,-0.3959095041485055,-1.6008026145086887,5.334449586786904,-5.435692979874984,0.019500630387403163,0.030345890257692097,0.06484182335977427,0.144278560050445,-0.23922481386882108,0.29382549643847966,0.3233795762062073,1.6917314529418943,1.116767168045044,0.4054222702980041,-0.5856356620788574,0.3125945329666137
1749057570.3185616,2.5774481573585146,-2.1073990455636245,-0.3957793440970565,-1.6005144424730262,5.33397982409022,-5.435111466314954,0.019679530054212097,0.030809467878788313,0.06525841386859794,0.14512134790505402,-0.2408042810238393,0.2959302720041389,0.2840509712696075,1.683047652244568,1.0901459455490112,0.4211064577102661,-0.6054779291152954,0.2446301281452179
1749057570.318599,2.5774867055078077,-2.107338823246104,-0.39564792881073035,-1.6002242609255934,5.333506573130068,-5.434527004836427,0.019854545943875004,0.03124360097528014,0.06563044804980499,0.14597731866123148,-0.2424268838038297,0.2980932692211122,0.2928555905818939,1.6864609718322754,1.116104245185852,0.4359710812568664,-0.5924306511878967,0.2802627682685852
1749057570.318637,2.57752510890763,-2.1072775394249317,-0.3955152651109377,-1.5999317675024165,5.333029205757832,-5.433938936487955,0.020020911063523442,0.031639435307212894,0.06595866439881816,0.1468503204251093,-0.244096689163194,0.3002879432613022,0.2779724299907684,1.6728276014328003,1.0949708223342896,0.4480155408382416,-0.6052144765853882,0.2895387709140777
1749057570.3186738,2.577563467900199,-2.1072151283932468,-0.3953813568537401,-1.5996366560204547,5.332547113198539,-5.433346525486728,0.020174297843399025,0.031989983739997604,0.06624726009464432,0.14774037424700695,-0.24581365014590034,0.30248753904956677,0.276872307062149,1.6810349225997925,1.1457748413085938,0.4452168643474579,-0.622014045715332,0.2979383468627929
1749057570.3187115,2.577601893604819,-2.107151543326014,-0.39524620411932465,-1.5993386570778596,5.332059762036134,-5.4327490224862585,0.02031114281635306,0.032290527378601296,0.06650347848153482,0.1486441788430971,-0.24757403357070332,0.304667717158407,0.2900814414024353,1.6968024969100952,1.1020358800888062,0.4069614708423614,-0.6419256329536438,0.3002877831459045
1749057570.3187494,2.5776404895466207,-2.107086765505283,-0.3951098061030312,-1.5990375777755943,5.331566751116374,-5.432145738514268,0.02042889941498014,0.032538760351919334,0.0667368810614749,0.1495563398968466,-0.24937111085420435,0.30680836539367284,0.2843134999275207,1.6772339344024658,1.1293635368347168,0.4191842079162597,-0.6081493496894836,0.2737245857715606
1749057570.318788,2.577679334666192,-2.107020811297869,-0.39497216755415265,-1.5987333345782955,5.331067860669018,-5.431536119499719,0.020526200766065768,0.03273467173089521,0.0669584229576797,0.15047087471187406,-0.25119597472287836,0.3088943648133389,0.2843134999275207,1.6772339344024658,1.1293635368347168,0.4191842079162597,-0.6081493496894836,0.2737245857715606
1749057570.3188255,2.577718471085716,-2.1069537356971364,-0.3948333071622454,-1.5984259727571704,5.330563082813178,-5.430919808029132,0.020602928298948293,0.03288020857708662,0.06717947231385123,0.15138250129308412,-0.2530382940476758,0.31091526517960855,0.2701740264892578,1.6775546073913574,1.1243245601654053,0.3740196526050567,-0.559491753578186,0.2483397424221038
1749057570.3188632,2.577757899007667,-2.1068856316211417,-0.39469326512768255,-1.5981156670755803,5.3300526242796495,-5.43029667946947,0.020660191703105152,0.03297881399999621,0.06741091998622137,0.15228735370524907,-0.2548868327307422,0.31286407828785195,0.2772459387779236,1.6815662384033203,1.1265428066253662,0.388578712940216,-0.5511711239814758,0.3124178647994995
1749057570.3189,2.5777975792693133,-2.106816624972909,-0.394552107298398,-1.597802702631987,5.329536879094713,-5.42966684600062,0.0207002297726838,0.03303496885954021,0.06766250720164317,0.15318300304051669,-0.2567296583543269,0.3147356682888358,0.2569585144519806,1.6845585107803345,1.1333225965499878,0.4095417261123657,-0.590957760810852,0.316428542137146
1749057570.3189373,2.5778374422177346,-2.106746866433106,-0.3944099246677259,-1.597487440454043,5.329016377960557,-5.42903063173449,0.020726244840606693,0.033053859578236075,0.0679424446254735,0.15406791066452272,-0.2585541308898337,0.3165253763181581,0.3212801814079284,1.723326325416565,1.1749650239944458,0.44218909740448,-0.6495211720466614,0.3560347259044647
1749057570.318974,2.5778774005973464,-2.1066765215616927,-0.39426682855862955,-1.5971702760689441,5.3284917265203235,-5.428388528864454,0.02074219088648719,0.033041233482375976,0.06825730767522838,0.15494061655836275,-0.2603469150891534,0.31822844137096973,0.2733045816421509,1.663227081298828,1.1190353631973269,0.4219703078269958,-0.5861427187919617,0.2945589423179626
1749057570.319011,2.5779173642001623,-2.1066057608504014,-0.3941229426864086,-1.5968515993033932,5.327963544335012,-5.4277411455539335,0.020752542460818372,0.03300340915563014,0.06861209542189661,0.15579901995150772,-0.26209429304363263,0.31984047039882435,0.2770754694938659,1.6301395893096924,1.1061968803405762,0.4039599597454071,-0.5917547941207886,0.2627077102661133
1749057570.3191292,2.5779572544954448,-2.1065347510555292,-0.39397839367419074,-1.596531761322886,5.327432412539187,-5.427089153090191,0.020762067563784854,0.03294733540516149,0.06901028413082928,0.15664004185572047,-0.26378291542007637,0.32135881646023445,0.2976559400558471,1.676658272743225,1.1208877563476562,0.4422657787799835,-0.5816113352775574,0.2943798005580902
1749057570.3203962,2.577997017685055,-2.106463648567979,-0.3938333018260562,-1.5962110521729147,5.326898833875061,-5.426433236224739,0.020775612075626955,0.03288058459599473,0.06945373378642879,0.15745981682746155,-0.2654009012536098,0.32278443276965985,0.3000587224960327,1.6991853713989258,1.134379267692566,0.3966830372810364,-0.5706175565719604,0.289781391620636
1749057570.362298,2.578036634593502,-2.106392594856774,-0.3936877739776112,-1.5958896895285741,5.326363205499852,-5.425774048467093,0.02079788837145438,0.03281122003991241,0.06994240579423935,0.15825440017277206,-0.266939030740388,0.3241236661182296,0.3106620907783508,1.6780658960342407,1.1162203550338743,0.4352058470249176,-0.5829273462295532,0.2889677584171295
1749057570.362345,2.5780761258906346,-2.106321713478725,-0.3935418998310553,-1.595567817188778,5.325825802843345,-5.425112173585239,0.02083325492085462,0.0327475395306756,0.07047396085445443,0.15902083546463544,-0.2683917717227791,0.32538949209561413,0.2889412641525268,1.6625380516052246,1.1181011199951172,0.4302867352962494,-0.6001180410385132,0.268716812133789
1749057570.3623972,2.578115551595483,-2.106251108071681,-0.3933957523202998,-1.5952455104041001,5.325286771913721,-5.424448095000466,0.020885476402922237,0.032697721780108296,0.07104337348063475,0.15975833068411097,-0.2697580110732311,0.3266018113191433,0.3164810836315155,1.666906714439392,1.121071219444275,0.4029147028923034,-0.620198130607605,0.2371657788753509
1749057570.3624394,2.5781550046124306,-2.106180861071707,-0.3932493914696341,-1.594922784748264,5.3247461277557155,-5.423782175131105,0.020957464892327356,0.032669393393138194,0.07164271548986549,0.16046925278180854,-0.2710415006159466,0.3277866101859476,0.3101454079151153,1.6317640542984009,1.1754997968673706,0.3981103897094726,-0.6393564343452454,0.2499863803386688
1749057570.3624785,2.578194599117588,-2.1061110332647957,-0.39310287026649154,-1.5945996058426501,5.324203757924319,-5.4231146462849456,0.0210510229543218,0.03266912492330184,0.07226123891576854,0.16115967196389946,-0.27225104419184293,0.32897404778134987,0.2946127355098724,1.6430622339248655,1.1239681243896484,0.3983882963657379,-0.6019452214241028,0.2670820951461792
1749057570.3625164,2.578234455677181,-2.1060416643719946,-0.3929562405703166,-1.5942758982211094,5.323659431388171,-5.422445613299763,0.02116663283401492,0.032701878897148186,0.0728858338256567,0.16183926802018833,-0.27340032820711296,0.33019580783000957,0.3155852854251861,1.668535828590393,1.1080684661865234,0.3598015904426574,-0.5445597171783447,0.3192693591117859
1749057570.362555,2.578274685645519,-2.105972774632779,-0.39280955709045495,-1.593951552436548,5.323112814647859,-5.421775066236134,0.021303349696086857,0.032770471560428935,0.073501859011852,0.16252054599464777,-0.27450715929543945,0.33148223689190737,0.3154972791671753,1.6946616172790527,1.122451663017273,0.4087962806224823,-0.5379989743232727,0.3051799237728119
1749057570.362593,2.5783153774800316,-2.1059043670837583,-0.3926628778424661,-1.5936264301498277,5.322563497194062,-5.421102899783294,0.021458851710517927,0.03287515381313833,0.07409427553253983,0.1632174745359533,-0.27559189475533885,0.3328597911760988,0.3033670485019684,1.676552414894104,1.119322419166565,0.4027699828147888,-0.5818507671356201,0.285335898399353
1749057570.3626304,2.5783565872404473,-2.1058364302307795,-0.3925162601781124,-1.5933003676012714,5.322011027103349,-5.420428935286952,0.021629674418404552,0.03301343169311524,0.07464897422198359,0.16394381519998777,-0.2766750990563561,0.3343491508076189,0.3088222444057464,1.6573270559310913,1.0880812406539917,0.4064443111419678,-0.6128734946250916,0.3202858567237854
1749057570.3626685,2.578398334888088,-2.1057689409907216,-0.39236975256805096,-1.5929731784360486,5.321454954990855,-5.41975294159836,0.021811617268373325,0.03318021221136842,0.07515416293228658,0.16471150184959482,-0.27777481665986653,0.3359641363378829,0.3075595498085022,1.6640697717666626,1.094797968864441,0.4168988466262817,-0.6252196431159973,0.3308926224708557
1749057570.3627057,2.578440607182387,-2.105701867683854,-0.3922233836211086,-1.5926446570573565,5.320894881948082,-5.4190746519568735,0.022000269398130354,0.033368291251135565,0.07560165298381125,0.16552941245058894,-0.2789040991115045,0.33771138158905245,0.3437695503234863,1.66221821308136,1.0993716716766355,0.4177161455154419,-0.6295177340507507,0.336447149515152
1749057570.362742,2.578483367005108,-2.10563517232745,-0.392077150771529,-1.5923145834945898,5.320330505488029,-5.418393775474419,0.02219157358307823,0.03356913035546772,0.07598787187314732,0.166402748654241,-0.2800694013453009,0.3395906080630791,0.3071655631065368,1.6642041206359863,1.0972472429275513,0.4144247472286224,-0.5855416655540466,0.2860580086708069
1749057570.3627791,2.5785265677760845,-2.105568811111504,-0.3919310112109742,-1.5919827304024579,5.319761657199283,-5.417710003329087,0.022382335292892668,0.033773818839396536,0.07631444995856476,0.16733305392443906,-0.2812701851115102,0.3415952794279551,0.299675703048706,1.6714836359024048,1.086140751838684,0.4611961543560028,-0.6005132794380188,0.2801153361797333
1749057570.36282,2.578570170302305,-2.105502732452896,-0.3917848770634606,-1.5916488723601776,5.319188326652582,-5.4170230113976805,0.02257058258958771,0.03397408619103168,0.07658828121959026,0.16831873294984442,-0.2824997167919702,0.3437133819572601,0.3221033811569214,1.67189621925354,1.089360594749451,0.4062502980232239,-0.6357476711273193,0.2791070640087127
1749057570.3628576,2.578614158268756,-2.1054368732844213,-0.3916386158422469,-1.5913127971005754,5.318610667817844,-5.416332462421356,0.022755694651502872,0.03416321155354779,0.07682102782683008,0.16935583147135677,-0.2837468150806035,0.3459281166882735,0.2905147671699524,1.6480053663253784,1.10601007938385,0.437260091304779,-0.6363247632980347,0.298719972372055
1749057570.3628943,2.5786585482832716,-2.105371155356683,-0.3914920561833165,-1.590974317692799,5.318028986562552,-5.415638011326751,0.022938255402092877,0.03433667775481305,0.07702811208134984,0.17043881079866546,-0.28499824130844775,0.3482184230355446,0.3219882845878601,1.620318055152893,1.0693279504776,0.4227416217327118,-0.644782304763794,0.3347206115722656
1749057570.3629313,2.5787033914780833,-2.1053054836793392,-0.3913449979464981,-1.5906332841405944,5.317443710549366,-5.414939316588383,0.023119656331908392,0.03449245352702122,0.0772273093008484,0.17156110960262175,-0.28624143002174846,0.35055943305912834,0.3289363980293274,1.653018593788147,1.0968859195709229,0.4391532242298126,-0.6588987708091736,0.336256206035614
1749057570.3629682,2.578748765951119,-2.1052397487836307,-0.39119722516562033,-1.5902895925020435,5.3168553456683565,-5.414236058589048,0.023301544593002505,0.0346308660125926,0.07743711555337376,0.17271541518739794,-0.28746721202831443,0.35292308939954226,0.3215648531913757,1.647749662399292,1.1089603900909424,0.4411640763282776,-0.5958784222602844,0.3260273337364197
1749057570.3630054,2.578794761837791,-2.1051738334208308,-0.3910485200543523,-1.589943189635995,5.316264425228909,-5.41352796339039,0.023485252983893347,0.034754123385877245,0.07767510258439977,0.17389371694271452,-0.28867208740655276,0.35527918278628845,0.3236646652221679,1.6245999336242676,1.1200214624404907,0.4569178819656372,-0.5668617486953735,0.3444392681121826
1749057570.363042,2.5788414626029885,-2.1051076228309156,-0.39089867629404307,-1.5895940721143393,5.315671458769592,-5.412814828027835,0.023671340173634422,0.034865624557568156,0.0779564675877016,0.17508731584336112,-0.2898595789387277,0.35759697621161335,0.3141981065273285,1.6628071069717407,1.09962797164917,0.4640475809574127,-0.5835952162742615,0.3402513861656189
1749057570.3631606,2.5788889268252038,-2.1050410163271214,-0.3907475100698412,-1.5892422787309186,5.315076886516889,-5.412096542228771,0.023859325803923363,0.03496922472810697,0.07829292673023341,0.17628697011500877,-0.2910403444510163,0.35984742507239104,0.3214046955108642,1.672530174255371,1.1150672435760498,0.4610386788845062,-0.5909145474433899,0.3571709990501404
1749057570.3643873,2.5789371742895395,-2.104973937297614,-0.39059486774429575,-1.5888878772870973,5.314481043842615,-5.411373101736805,0.02404765386572063,0.035068608962575416,0.0786920083056285,0.17748327181817528,-0.2922310294117819,0.3620058149642486,0.3173575103282928,1.6770540475845337,1.1211031675338743,0.4909176826477051,-0.6237220764160156,0.3650818467140198
1749057570.406289,2.5789861789145245,-2.1049063390728735,-0.3904406297073051,-1.5885309475872096,5.313884138208451,-5.410644610082149,0.02423387604769573,0.035166865906363504,0.07915671224453828,0.17866722097693594,-0.29345215128304303,0.3640544506693275,0.3118691742420196,1.647565245628357,1.1059118509292605,0.4755116105079651,-0.615265965461731,0.2996401786804199
1749057570.406336,2.5790358694946875,-2.10483820515622,-0.3902847107803941,-1.5881715634101128,5.313286239506649,-5.4099112682302035,0.024415014019291147,0.03526626802056718,0.07968544943516725,0.17983085874125668,-0.29472547110704417,0.365984896186025,0.3251797258853912,1.62483549118042,1.1026843786239624,0.4464840888977051,-0.584229052066803,0.2856955826282501
1749057570.4063892,2.579086137879072,-2.1047695436724583,-0.39012705827042,-1.5878097765097254,5.312687283509495,-5.409173354303945,0.02458803099524392,0.03536819342471506,0.08027217395906427,0.1809677824304699,-0.29607129431521234,0.367799266019847,0.311682254076004,1.64695942401886,1.093920350074768,0.456886887550354,-0.588293731212616,0.2809019088745117
1749057570.4064326,2.579136852989742,-2.104700377330629,-0.3899676489686577,-1.5874456055475905,5.312087087040806,-5.408431197353518,0.02475032113531391,0.03547310690305735,0.08090666912793561,0.182073401568325,-0.29750604671041214,0.36951024014084805,0.2778261303901672,1.6604236364364624,1.1202938556671145,0.4514156877994537,-0.5870892405509949,0.3098590672016144
1749057570.4064713,2.5791878778955613,-2.104630731424544,-0.3898064860261773,-1.5870790322538328,5.311485372273871,-5.40768514914138,0.024900119395002713,0.035580556717585796,0.08157501273668868,0.18314488956347041,-0.29904040037809515,0.37113976067282123,0.3101659417152405,1.6716912984848022,1.1182000637054443,0.471352070569992,-0.6295070648193359,0.3123027086257934
1749057570.40651,2.5792390863203805,-2.104560622883535,-0.3896435960832436,-1.586710005935064,5.310881796552523,-5.406935556591358,0.0250367518933568,0.03568920350441478,0.08226028682552844,0.18418090278678356,-0.3006781902177686,0.3727166463325197,0.2949711382389068,1.6630752086639404,1.1120800971984863,0.4703289866447449,-0.6436247229576111,0.3042063117027282
1749057570.4065473,2.579290375083054,-2.104490052816877,-0.38947902673323714,-1.5863384558274405,5.310275983826202,-5.406182736211069,0.025160686826532233,0.035796934643123744,0.08294358550709215,0.1851812225458077,-0.3024162796439473,0.374273531957405,0.2984389960765838,1.6854413747787476,1.0883233547210691,0.4803116917610168,-0.6075215339660645,0.3155196607112884
1749057570.4065847,2.5793416702290766,-2.1044190037431463,-0.3893128444882651,-1.5859643091258688,5.309667554278664,-5.405426951248763,0.025273396373377055,0.035901113227813794,0.08360531271386659,0.18614648546496443,-0.30424532781876756,0.3758435763939394,0.3033045530319214,1.687628149986267,1.103546977043152,0.4804005026817322,-0.5651846528053284,0.3301741778850555
1749057570.4066222,2.579392926479892,-2.1043474415299626,-0.38914513360737035,-1.5855875112463411,5.309056149685963,-5.404668392453364,0.025377081674653513,0.0359989745597044,0.08422668084226341,0.1870781069256348,-0.3061511348512624,0.3774573137964239,0.3020790815353393,1.666618585586548,1.092068433761597,0.455954372882843,-0.5531302094459534,0.3130988478660583
1749057570.4066594,2.5794441213095554,-2.10427532138657,-0.3889759960318885,-1.5852080443406136,5.308441453165405,-5.403907163631507,0.02547433051321494,0.03608813675067777,0.08479125901016497,0.18797840806008514,-0.3081160771797587,0.3791399101362038,0.3035332858562469,1.6743651628494265,1.0530226230621338,0.5076658725738525,-0.5497068166732788,0.292624682188034
1749057570.406697,2.5794952460669736,-2.104202596846929,-0.3888055521116969,-1.5848259404258613,5.307823203166856,-5.403143273470204,0.025567770028537832,0.036167157257119456,0.08528639179920341,0.18885087061172046,-0.3101202447991666,0.38090898452277666,0.2952178120613098,1.6861786842346191,1.0882718563079834,0.4793897867202759,-0.6024003624916077,0.2769823670387268
1749057570.4067342,2.5795462970448604,-2.1041292302144714,-0.38863394109903293,-1.5844412866165845,5.307201202582332,-5.402376635062268,0.025659756954242618,0.03623605782816114,0.08570431249683669,0.18970039035638378,-0.31214221565843014,0.38277309545361743,0.3007723093032837,1.702933669090271,1.0689973831176758,0.4859177470207214,-0.6310805678367615,0.3060662746429443
1749057570.4067724,2.5795972691741,-2.1040552024248442,-0.3884613200053295,-1.5840542215753952,5.306575324234334,-5.401607073960733,0.02575212875744193,0.036296751671499206,0.08604280867973689,0.19053338684070534,-0.31415972471041587,0.3847309746455824,0.2971100211143493,1.6822770833969116,1.0759973526000977,0.4664849042892456,-0.6195461750030518,0.3293622434139251
1749057570.406809,2.5796481540910094,-2.1039805201095394,-0.3882878596777455,-1.5836649240226233,5.305945513481602,-5.4008343444936395,0.02584602744144128,0.036353317092017175,0.08630536141170628,0.1913576537031186,-0.31615057661584844,0.3867715862812073,0.3071272373199463,1.7454019784927368,1.1010239124298096,0.4887006878852844,-0.6292373538017273,0.3480496406555176
1749057570.406846,2.5796989429460693,-2.1039052181664837,-0.38811373782782455,-1.5832735954894406,5.305311787615349,-5.400058153027102,0.02594180459173083,0.03641205778395499,0.08650075312125365,0.19218188884254878,-0.31809397359654074,0.38887505629251423,0.2974144220352173,1.6715415716171265,1.06445574760437,0.4776310920715332,-0.5896576046943665,0.2931298613548279
1749057570.4068828,2.5797496328500724,-2.1038293572730447,-0.387939129811418,-1.5828804401929508,5.304674230875445,-5.399278186283543,0.026039017245590552,0.03648128438544856,0.08664219855449375,0.19301490760268986,-0.31997215047361255,0.39101443113429996,0.3061681687831878,1.692460536956787,1.081785798072815,0.4583666026592254,-0.596196711063385,0.3011536300182342
1749057570.4069197,2.579800234678315,-2.1037530170083096,-0.3877641986301256,-1.5824856450656284,5.304032983879385,-5.398494142528651,0.02613652192551447,0.03657077243428336,0.0867460949991041,0.19386460136371672,-0.3217720244659201,0.3931581063348482,0.2879193723201751,1.6751714944839478,1.0804964303970337,0.4448496103286743,-0.5864248275756836,0.3029135763645172
