nimar13/UR3e_dataset_trayectorias/trayectorias_ejecutadas_filtradas/trapezoidal_func/trayectoria_071_result_filtrado.csv
timestamp,q1,q2,q3,q4,q5,q6,qd1,qd2,qd3,qd4,qd5,qd6,tau1,tau2,tau3,tau4,tau5,tau6
1749055449.6143396,4.25545646053015,-1.2257987889593105,-1.5404494911531657,-4.121270915243458,4.389369486923725,-2.6312447017643392,0.012459567963425016,0.0006996275368789314,-0.010480331957209045,-0.013790502221864316,0.007955662349085998,-0.007383582886069168,0.2033562660217285,0.60138338804245,0.7715747356414795,-0.0752880275249481,0.1153457015752792,-0.1136566549539566
1749055449.6143875,4.255460672797215,-1.2257931849069297,-1.540451986469578,-4.12128153609605,4.389374803875335,-2.631243364526297,0.01032815930742572,0.0006150557304200736,-0.008803485944295718,-0.0119610085564861,0.006624750023931819,-0.006105612053928826,0.213576465845108,0.5758048892021179,0.8059801459312439,-0.0824098736047744,0.0988022983074188,-0.108308270573616
1749055449.6144297,4.255464574374101,-1.2257876546868431,-1.5404542833545942,-4.1212916890202465,4.389379858566526,-2.631242357545572,0.008217247765338742,0.0005358984040553491,-0.007163377427650391,-0.010174938834664022,0.005328928331954014,-0.00485716459870299,0.213576465845108,0.5758048892021179,0.8059801459312439,-0.0824098736047744,0.0988022983074188,-0.108308270573616
1749055449.6144688,4.255467746044447,-1.2257822605740756,-1.5404561511624937,-4.12130088834678,4.389384381709744,-2.631241825641764,0.006153132813642263,0.00046732156172698576,-0.0055970990209882315,-0.008467568157620096,0.004098519511084793,-0.0036678817848388298,0.1400604546070099,0.5994131565093994,0.8165121674537659,-0.0510919690132141,0.0476470440626144,-0.1032930165529251
1749055449.614514,4.255469823750389,-1.2257770354947752,-1.5404573934168355,-4.121308728807955,4.3893881598394495,-2.6312418536084676,0.004162755632814239,0.00041434322372843846,-0.004137638932334455,-0.006869322871370472,0.0029594064973038313,-0.002563605025521543,0.1435276567935943,0.5896695256233215,0.8105708956718445,-0.0237419456243515,0.0511280447244644,-0.0930639654397964
1749055449.6145835,4.255470524529354,-1.225771978326106,-1.5404578642066762,-4.12131491557727,4.389391054576581,-2.631242454022981,0.0022732367113270703,0.0003814780695805191,-0.0028120946538777196,-0.0054042648785065876,0.0019316337716092404,-0.0015648420601485273,0.1435276567935943,0.5896695256233215,0.8105708956718445,-0.0237419456243515,0.0511280447244644,-0.0930639654397964
1749055449.6146488,4.255469663333954,-1.2257670587948946,-1.540457478257591,-4.121319282093074,4.389393010345374,-2.6312435623268646,0.0005109703592504873,0.0003723597082153475,-0.001640433454740967,-0.004088998512035596,0.0010285821799333572,-0.000685872517739398,0.1413685381412506,0.594671368598938,0.8343084454536438,-0.0031490325927734,0.0216038674116134,-0.0800819993019104
1749055449.614716,4.255467159971246,-1.2257622303808147,-1.5404562143669598,-4.121321793844517,4.389394049973155,-2.63124504060796,-0.001099605680469412,0.0003893690883376315,-0.0006349212922785632,-0.002932145787643634,0.00025676749356656493,6.546878898785731e-05,0.1857737004756927,0.6113947033882141,0.8538306355476379,0.0283033996820449,0.0221020430326461,-0.0722254961729049
1749055449.6147835,4.255463036091064,-1.2257574478753217,-1.540454112646414,-4.1213225379940495,4.3893942598171645,-2.631246690393443,-0.0025373500460707543,0.00043330539388089056,0.00019977853678817533,-0.0019344841329459316,-0.0003837723584202532,0.0006874111373555777,0.1200131401419639,0.6191079020500183,0.880668580532074,0.0232119783759117,0.0044283419847488,-0.0542065948247909
1749055449.61485,4.255457403109638,-1.225752685361359,-1.540451266547743,-4.121321700726897,4.389393768078213,-2.63124827322643,-0.0037856209971280207,0.0005031410191747733,0.0008659518606578937,-0.0010897528370839868,-0.0008986057180210688,0.0011834391629762706,0.1200131401419639,0.6191079020500183,0.880668580532074,0.0232119783759117,0.0044283419847488,-0.0542065948247909
1749055449.6149063,4.255450443222006,-1.2257479504833786,-1.5404478111076836,-4.121319536188246,4.3893927211312525,-2.6312495364303645,-0.004833150296732718,0.0005959034867461091,0.0013718093615824572,-0.0003860337088743956,-0.0012976969692104884,0.0015612641248924882,0.1235255375504493,0.6096032857894897,0.8794586658477783,0.0347542911767959,-0.0151517242193222,-0.0568560510873794
1749055449.614978,4.25544238666111,-1.225743291937538,-1.5404439091533926,-4.121316332069159,4.389391262525006,-2.631250240776239,-0.005674507930698112,0.0007067230565624007,0.001730284505318078,0.00019247636684187452,-0.001594013326264555,0.001831767143580532,0.0835660099983215,0.6181536316871643,0.8666992783546448,0.0606817826628685,-0.0231577903032302,-0.036142349243164
1749055449.615044,4.255433488570828,-1.225738798804141,-1.5404397371864162,-4.12131237689158,4.389389517810907,-2.6312501868441975,-0.006310182570829584,0.000829074255106635,0.001957804092421953,0.0006635347693958228,-0.0018020896268150365,0.0020080446956789156,0.0658817067742347,0.596907913684845,0.888500452041626,0.0878273844718933,-0.0295504033565521,-0.0399936288595199
1749055449.6151068,4.255424008234231,-1.22573459222241,-1.5404354723044205,-4.121307933061277,4.389387586176697,-2.631249237306853,-0.006746343832482315,0.0009552221768703137,0.002073115138954689,0.0010450052300179761,-0.0019366710201693936,0.0021046018434968446,0.0928078442811966,0.6038824915885925,0.8809337019920349,0.0897022262215614,-0.0369896590709686,-0.0374167710542678
1749055449.6151657,4.25541419233354,-1.2257308115283805,-1.5404312809754896,-4.121303218290507,4.389385537916593,-2.6312473327073045,-0.006994334984436324,0.0010768605904536985,0.0020961955686544125,0.0013533049854729951,-0.002011541736308792,0.00213666536179476,0.0928078442811966,0.6038824915885925,0.8809337019920349,0.0897022262215614,-0.0369896590709686,-0.0374167710542678
1749055449.6152062,4.255404262926714,-1.2257275978801911,-1.5404273099273635,-4.121298396351303,4.389383415807557,-2.6312444986390697,-0.007069916891891551,0.0011859000892469227,0.0020472516408569824,0.00160230610655321,-0.002038641629599812,0.002119557179357477,0.0928078442811966,0.6038824915885925,0.8809337019920349,0.0897022262215614,-0.0369896590709686,-0.0374167710542678
1749055449.6152442,4.255394410201646,-1.225725078259212,-1.5404236790842578,-4.121293576576982,4.389381238567813,-2.6312408430394663,-0.00699228528977939,0.0012753330153843796,0.001945808941375316,0.0018027749058256491,-0.0020275524771595677,0.0020680845781104584,0.087485447525978,0.5712515115737915,0.9088010787963868,0.1027833372354507,-0.0483235567808151,-0.0244911164045333
1749055449.6152818,4.255384789786832,-1.2257233516710944,-1.5404204765454743,-4.121288820413928,4.389379005277619,-2.6312365438119816,-0.006782916952348258,0.001340072124375037,0.0018099192927656614,0.0019623395679702455,-0.0019853922174261885,0.0019959489004941194,0.0972827672958374,0.5749279856681824,0.9176362752914428,0.0855994224548339,-0.0806473344564437,-0.0399684011936187
1749055449.6153188,4.255375524203202,-1.2257224779883322,-1.540417755882573,-4.121284152807457,4.389376700417177,-2.6312318288223144,-0.006464342761130122,0.001377642412703108,0.0016555176364500977,0.0020858834617576124,-0.0019170942135276028,0.0019152205488354326,0.0972827672958374,0.5749279856681824,0.9176362752914428,0.0855994224548339,-0.0806473344564437,-0.0399684011936187
1749055449.6153564,4.255366707661895,-1.2257224689979591,-1.5404155361210818,-4.121279576154705,4.389374299702655,-2.6312269516959566,-0.006058973429748989,0.0013886141347610602,0.0014959622322924379,0.002176201830143132,-0.0018259874861620577,0.0018359504189534024,0.0406796149909496,0.574594259262085,0.919757604598999,0.0916820019483566,-0.0575843453407287,-0.0270369350910186
1749055449.615394,4.255358412893281,-1.2257232813516856,-1.5404138044875848,-4.12127508467908,4.3893717770171,-2.6312221671451876,-0.005588107082109832,0.0013767037133837572,0.0013417779238014962,0.002234751591464642,-0.00171455005814113,0.0017659756465827842,0.036075435578823,0.5668464303016663,0.9215261936187744,0.1209780648350715,-0.0444093942642211,-0.0309449955821037
1749055449.6154466,4.255350698421763,-1.225724811994995,-1.5404125215537134,-4.12127067716647,4.3893691124336165,-2.6312177087794697,-0.005071227956079129,0.0013485236652888053,0.0012006023933243003,0.0022623596199350406,-0.001585192294873128,0.001710935370038443,0.0579278841614723,0.5901011228561401,0.9334654808044434,0.1073684319853782,-0.0677073523402214,-0.027216725051403
1749055449.6156173,4.255343614826795,-1.225726897428562,-1.5404116280626245,-4.121266366119114,4.38936630075124,-2.6312137711729053,-0.004525665366453723,0.0013130115087930628,0.0010773169818716545,0.0022598125719222937,-0.0014409419606508825,0.0016744540889814803,0.0678657591342926,0.5946958065032959,0.930033266544342,0.1278934031724929,-0.0480905473232269,-0.0283865556120872
1749055449.61739,4.255337208683013,-1.2257293182261857,-1.540411052571634,-4.121262181806179,4.389363359258438,-2.6312104970702594,-0.003966627901918955,0.0012805999043380607,0.0009743298460888034,0.0022283121007733546,-0.0012859384473964297,0.0016583939157019383,0.0678657591342926,0.5946958065032959,0.930033266544342,0.1278934031724929,-0.0480905473232269,-0.0283865556120872
1749055449.6582942,4.255331522875444,-1.2257318096570027,-1.5404107190895175,-4.121258170590623,4.389360332815301,-2.6312079701484485,-0.0034075726602299386,0.0012622088363161204,0.0008919693660679314,0.002169826976913239,-0.0011256845959235872,0.0016630439547979357,0.029988432303071,0.5908703207969666,0.9305514693260192,0.1184270530939102,-0.059888482093811,-0.0398913547396659
1749055449.6583407,4.25532659239132,-1.2257340783154458,-1.540410554107288,-4.1212543881083885,4.389357294268451,-2.6312062134420264,-0.0028608266567458776,0.0012681531048745608,0.0008289393712094883,0.002087394527921398,-0.0009670380073188686,0.001687123970729412,0.0426189713180065,0.5885851979255676,0.9390905499458312,0.0974777191877365,-0.059791199862957,-0.0349408909678459
1749055449.658382,4.255322435978964,-1.2257358234756803,-1.540410492698458,-4.121250888938607,4.38935433914125,-2.631205193211604,-0.0023383518432485853,0.001307068514202913,0.0007827859629068083,0.0019854130618924873,-0.0008179461859300982,0.0017275331270061168,0.0426189713180065,0.5885851979255676,0.9390905499458312,0.0974777191877365,-0.059791199862957,-0.0349408909678459
1749055449.6584213,4.2553190456679015,-1.225736760682208,-1.540410483509073,-4.121247714975554,4.389351575290309,-2.6312048277450946,-0.0018525325692372785,0.0013849659027084943,0.0007503297408727011,0.001869930588895806,-0.0006869441564559789,0.001778855512726155,0.0290803387761116,0.6089730262756348,0.9252923130989076,0.1065191701054573,-0.0444276332855224,-0.0411668047308921
1749055449.658459,4.25531637693091,-1.225736644393657,-1.5404104923914572,-4.12124488474078,4.389349109878215,-2.6312050004479564,-0.00141686113576321,0.001504518723577829,0.0007280271820313931,0.0017488875578184743,-0.0005824435621623695,0.0018327166084332084,0.0073197744786739,0.6060564517974854,0.9330530166625975,0.1135251820087432,-0.0663341805338859,-0.0115921422839164
1749055449.658501,4.255314341818195,-1.2257352867631024,-1.5404105042885552,-4.121242385539667,4.38934703666387,-2.6312055765945073,-0.001046404300338243,0.0016646731385675545,0.0007122393087340036,0.001632233668063837,-0.0005118527396428985,0.001877147922553754,0.0073197744786739,0.6060564517974854,0.9330530166625975,0.1135251820087432,-0.0663341805338859,-0.0115921422839164
1749055449.65854,4.255312806267513,-1.2257325707442988,-1.5404105229414768,-4.121240169774086,4.389345426048422,-2.631206423057687,-0.0007579529568296192,0.0018606375041686865,0.0006994017315480218,0.001531833112350845,-0.0004805810248415909,0.001896148378655708,0.0256590228527784,0.622298002243042,0.9388275146484376,0.1225223466753959,-0.0533235818147659,-0.042783997952938
1749055449.6585777,4.255311591707203,-1.2257284570227285,-1.5404105681611722,-4.1212381557684274,4.389344319121187,-2.631207429905749,-0.0005697875349242558,0.002084260736070458,0.0006861041457835168,0.001461107056545803,-0.0004909979092474951,0.0018696253672212605,0.0160586666315794,0.5997076034545898,0.9190372228622437,0.118639275431633,-0.0871604084968566,-0.0478734299540519
1749055449.6586154,4.255310480304508,-1.2257229851463927,-1.5404106707889211,-4.121236232192249,4.389343725952824,-2.6312085319781713,-0.0005010308608235905,0.002324750875726013,0.0006690968555400851,0.0014344219054309773,-0.000541435781593177,0.0017738577100167643,0.0244525671005249,0.5949247479438782,0.925924837589264,0.154181569814682,-0.048142597079277,-0.0658732876181602
1749055449.658653,4.255309222768744,-1.2257162694680974,-1.5404108660451954,-4.121234264085934,4.389343627951693,-2.631209727921104,-0.0005706072297555215,0.002569630327673067,0.0006452463477362713,0.0014662890661130265,-0.0006253394460441118,0.0015825554031789345,0.0101249627768993,0.600548505783081,0.9139186143875122,0.1423234194517135,-0.0470738559961319,-0.0618477538228035
1749055449.65869,4.255307547490581,-1.2257084904005184,-1.5404111865451682,-4.121232098283108,4.389343983978202,-2.6312110941261535,-0.0007958789387528056,0.0028057941862373735,0.0006114622808393274,0.001570475608343328,-0.0007306723747899573,0.0012685072233669257,0.0101249627768993,0.600548505783081,0.9139186143875122,0.1423234194517135,-0.0470738559961319,-0.0618477538228035
1749055449.6587267,4.2553051699923605,-1.2256998814933548,-1.5404116564862609,-4.121229566838122,4.389344739743577,-2.631212791550275,-0.0011910839053771362,0.0030205458883458074,0.0005646159496246122,0.0017591307397545803,-0.0008396863290676955,0.0008057168157860031,0.0090423114597797,0.608978271484375,0.9177817106246948,0.1328414380550384,-0.0615269541740417,-0.0515591576695442
1749055449.6587648,4.255301802078057,-1.2256907131432104,-1.540412288181258,-4.121226488421551,4.389345839823516,-2.6312150642575096,-0.0017657419918957835,0.0032025203632808836,0.0005014667021687615,0.0020420158817140814,-0.0009291466881848914,0.0001718408046691782,-0.0045485459268093,0.5817617177963257,0.8781394958496094,0.1351975947618484,-0.0145376101136207,-0.103315569460392
1749055449.6588016,4.255297160435053,-1.2256812741333767,-1.5404130814045613,-4.12122266886386,4.389347241561945,-2.631218229621663,-0.0025232237934873706,0.003342443854147028,0.00041860865733698254,0.002425894933634401,-0.0009710801779658406,-0.0006493296487954087,-0.0045485459268093,0.5817617177963257,0.8781394958496094,0.1351975947618484,-0.0145376101136207,-0.103315569460392
1749055449.6588385,4.255290974532647,-1.225671852396691,-1.5404140253421024,-4.121217902636661,4.389348930098261,-2.631222661318018,-0.0034596746107932257,0.003433703577320916,0.00031244543707192467,0.002914107628170051,-0.0009340743367106421,-0.0016656467822522643,0.0104102306067943,0.5890984535217285,0.8559561967849731,0.167273998260498,0.0239720195531845,-0.1368396282196045
1749055449.6588752,4.255282993579141,-1.2256627163058975,-1.5404151025654615,-4.12121197685997,4.389350933450324,-2.6312287670714385,-0.004563452647104044,0.003472709868047841,0.00017919552663559304,0.0035063249974368813,-0.0007851093328958439,-0.002874950203064914,0.0048947744071483,0.6057677268981934,0.8276334404945374,0.1528851687908172,0.029173195362091,-0.1484905481338501
1749055449.6589117,4.255272992297116,-1.2256540975801005,-1.5404162944094553,-4.121204678528609,4.389353336037124,-2.631236963316798,-0.005815180581647719,0.003459039694849379,1.4925835315792115e-05,0.004198475206774893,-0.0004918447467370784,-0.004264236409959952,-0.031980637460947,0.5711774826049805,0.8349208831787109,0.1812101453542709,0.039451390504837,-0.1588324606418609
1749055449.658949,4.255260775448278,-1.2256461768616251,-1.5404175872812478,-4.121195804517475,4.3893562885435315,-2.6312476488114958,-0.007188444918489041,0.0033953615395696203,-0.0001843932321325724,0.004982821714880372,-2.5221263010187408e-05,-0.005809817691296215,-0.060477390885353,0.5799801349639893,0.8041431903839111,0.1642700433731079,0.0588361173868179,-0.1652989238500595
1749055449.6589854,4.255246181316331,-1.2256390732388913,-1.5404189795922854,-4.1211851730779,4.389360011985978,-2.6312611793521583,-0.008651128723083193,0.003287156820207662,-0.00042282030302905565,0.005848166070591804,0.0006378228028855799,-0.00747851221158301,-0.101559579372406,0.5900092720985413,0.7959636449813843,0.1651259660720825,0.0781096667051315,-0.171932652592659
1749055449.6590223,4.255229084578421,-1.2256328390875773,-1.540420489036453,-4.121172635225841,4.389364794460318,-2.6312778460105526,-0.010167329259340559,0.0031422661159842664,-0.0007043702651808586,0.006780140006917167,0.0015117680675120406,-0.009229794124419452,-0.101559579372406,0.5900092720985413,0.7959636449813843,0.1651259660720825,0.0781096667051315,-0.171932652592659
1749055449.6594143,4.255209398879259,-1.2256274611357354,-1.5404221597784733,-4.121158084541745,4.3893709801590735,-2.6312978592505147,-0.011699771131046942,0.0029702945184179944,-0.0010329329725490574,0.007761558139679433,0.0026003366207271003,-0.011018749877526464,-0.0919360518455505,0.5762953758239746,0.7974627017974854,0.1799540519714355,0.1041194945573806,-0.207661360502243
1749055449.6613965,4.255187078800587,-1.225622867635179,-1.5404240688269584,-4.121141464186117,4.38937895124691,-2.631321340784186,-0.013212560921823047,0.0027819100418265824,-0.0014121615819407784,0.00877282620422563,0.0038949868740194194,-0.012799622466961768,-0.0919360518455505,0.5762953758239746,0.7974627017974854,0.1799540519714355,0.1041194945573806,-0.207661360502243
1749055449.706322,4.255162120084259,-1.2256189404108988,-1.540426330606956,-4.121122770283042,4.389389103758431,-2.63134832419215,-0.014674046901890355,0.0025880680435489537,-0.0018452931645770402,0.009792428843272735,0.005374307592340199,-0.014529650837554883,-0.1015078574419021,0.5655501484870911,0.7684438228607178,0.1704859137535095,0.164876326918602,-0.2018976062536239
1749055449.7063696,4.255134556527554,-1.2256155299356981,-1.540429098693497,-4.121102051380418,4.389401819204326,-2.6313787641715414,-0.016059473393761875,0.0023992004803550936,-0.00233487076431123,0.010797540930270029,0.007004471724830079,-0.01617282062136815,-0.0650862753391265,0.5563017129898071,0.7463226318359375,0.2012555599212646,0.173996016383171,-0.1821999996900558
1749055449.7064106,4.255104452347202,-1.2256124716573051,-1.5404325639028973,-4.121079404486607,4.389417434404177,-2.631412552944393,-0.01735308844990619,0.0022244254858806616,-0.002882370952341733,0.01176480963882551,0.008740822964260011,-0.017703072050924022,-0.0938512906432151,0.5681867599487305,0.7398533225059509,0.1897422969341278,0.1969970315694809,-0.1579035073518753
1749055449.7064502,4.255071889957965,-1.2256096021993326,-1.5404369484086033,-4.121054968836787,4.389436212868291,-2.6314495413518912,-0.018549405538766356,0.0020708555968783383,-0.003487784921401045,0.012671339876025643,0.01053056005241777,-0.019106523121882917,-0.0725108087062835,0.5957103967666626,0.7327713966369629,0.197933554649353,0.2083806246519088,-0.1684726178646087
1749055449.7064888,4.255036954558808,-1.2256067741500838,-1.5404424961120806,-4.12102891860942,4.389458321279366,-2.631489561808737,-0.019653441647533396,0.0019430976391297088,-0.004149225361941597,0.013495885043836775,0.012316361377508888,-0.020382396661217314,-0.085244633257389,0.6119446158409119,0.7266408801078796,0.1967382282018661,0.2194563746452331,-0.172911912202835
1749055449.7065277,4.254999718018039,-1.2256038678873242,-1.5404494599813283,-4.121001455256624,4.389483814181818,-2.631532450439491,-0.020679922611288606,0.001843027444505767,-0.004862624626379169,0.014220201861766457,0.014040671497394625,-0.021542558874660084,-0.085244633257389,0.6119446158409119,0.7266408801078796,0.1967382282018661,0.2194563746452331,-0.172911912202835
1749055449.706566,4.254960224925923,-1.2256007989023674,-1.5404580873453277,-4.120972799349114,4.3895126290145985,-2.6315780660227963,-0.021651602555199743,0.001769882713261078,-0.005621565288401373,0.014830477491567127,0.015650269917583892,-0.022609805095773556,-0.1251606494188308,0.5768077373504639,0.7030641436576843,0.2201691418886184,0.1952632814645767,-0.17835234105587
1749055449.7066047,4.254918483447301,-1.225597519920715,-1.5404686042286468,-4.120943181436012,4.389544592171062,-2.631626303600202,-0.02259694311279352,0.0017206576882914093,-0.006417261699355253,0.01531868650328043,0.017100671369045854,-0.023615193366077807,-0.1301420629024505,0.5711683034896851,0.7123139500617981,0.1871292293071746,0.1936345845460891,-0.18404021859169
1749055449.706643,4.254874462911943,-1.2255940184996872,-1.5404811998250676,-4.1209128317021255,4.389579435030653,-2.6316771008506596,-0.023547431572308836,0.0016907230430551895,-0.0072386982599533705,0.01568369593877022,0.018359877985245028,-0.024594801473940997,-0.1333802640438079,0.5667402744293213,0.7024912238121033,0.1936559230089187,0.1743663698434829,-0.1838088035583496
1749055449.7066815,4.254828098802248,-1.2255903118650768,-1.540496012171762,-4.120881968926265,4.389616817467377,-2.6317304360514697,-0.024534803809630034,0.0016745530904956319,-0.008072923323790388,0.01593192781627843,0.01941104225691977,-0.02558628552037225,-0.1607227176427841,0.5798165202140808,0.6917487978935242,0.1937896609306335,0.1782324463129043,-0.1949191391468048
1749055449.7067192,4.254779304013884,-1.2255864408914803,-1.5405131160180738,-4.120850789787933,4.389656355820426,-2.6317863179477197,-0.025588403391419445,0.0016664340403436276,-0.008905491821135186,0.016077426774342853,0.020253723810449636,-0.0266255809828142,-0.1607227176427841,0.5798165202140808,0.6917487978935242,0.1937896609306335,0.1782324463129043,-0.1949191391468048
1749055449.7067575,4.254727983630884,-1.2255824643861892,-1.5405325138416568,-4.120819459525215,4.389697652745824,-2.6318447697856486,-0.026732872919016402,0.0016610535149471535,-0.00972104119068609,0.01614126443740975,0.020903611818775356,-0.027744031524765886,-0.1640076637268066,0.5960791110992432,0.7101837992668152,0.184026688337326,0.1596307307481765,-0.1857618689537048
1749055449.7067952,4.254674049626721,-1.2255784537731507,-1.5405541309174844,-4.120788104349425,4.389740327144738,-2.6319058114793736,-0.02798634544112901,0.0016539205046949483,-0.010503972355991821,0.016150318478253118,0.0213907851213393,-0.02896616011403748,-0.1640076637268066,0.5960791110992432,0.7101837992668152,0.184026688337326,0.1596307307481765,-0.1857618689537048
1749055449.7068331,4.25461743188751,-1.2255744875803116,-1.5405778152239669,-4.120756805186749,4.389784042859648,-2.631969444902382,-0.029359277515858227,0.001641616158791374,-0.011239195720361536,0.01613556178137733,0.02175674797017448,-0.030308214559769356,-0.1847353875637054,0.5878082513809204,0.6986725330352783,0.1817647665739059,0.1727050095796585,-0.1779850423336029
1749055449.706871,4.254558082425056,-1.22557064526991,-1.5406033428316654,-4.1207255916858,4.389828534851921,-2.6320356472536126,-0.030854029456381982,0.001621911362425635,-0.011912901730464786,0.01613006010259631,0.02205059180015196,-0.03177753961920586,-0.1880273073911667,0.582261323928833,0.6862510442733765,0.2079266160726547,0.1680250763893127,-0.1862465441226959
1749055449.7069092,4.2544959706265315,-1.2255670007781199,-1.540630429278989,-4.1206944354350465,4.389873631219962,-2.632104376003653,-0.03246524020803433,0.0015937985142034032,-0.012513324894798129,0.016166895769562196,0.022324692888625042,-0.03337276219901664,-0.1853578388690948,0.5917655229568481,0.705287516117096,0.1843418180942535,0.1808694154024124,-0.1898891627788543
1749055449.7069466,4.2544310692079845,-1.225563616899588,-1.5406587470163708,-4.120663242130811,4.389919268912189,-2.6321755860910896,-0.03418095754107921,0.0015574746078135962,-0.013031470139254544,0.016277216646307633,0.022630369064298977,-0.03508471748764146,-0.2468487024307251,0.5924930572509766,0.7107707262039185,0.204592615365982,0.1865270137786865,-0.1939828395843505
1749055449.706984,4.254363333116474,-1.2255605416630033,-1.5406879479761517,-4.12063184373548,4.389965500739619,-2.632249256484022,-0.035984376854049774,0.0015142900440617592,-0.01346174795183601,0.01648856406895105,0.02301389119954328,-0.03689797717565325,-0.2144412994384765,0.5682339668273926,0.6916895508766174,0.2335332334041595,0.1765341609716415,-0.1815329492092132
1749055449.707021,4.254292676106224,-1.2255578070711683,-1.5407176889136842,-4.120599992923313,4.390012491704886,-2.6323254201629154,-0.03785594106155355,0.001466654648309177,-0.013802435298137081,0.016823568156779333,0.02351318083370898,-0.038792772648236246,-0.2232511043548584,0.6068930625915527,0.7075271010398865,0.2420948147773742,0.1915868371725082,-0.1902249157428741
1749055449.7070584,4.25421895106086,-1.2255554295660607,-1.5407476561561433,-4.120567362858117,4.3900605038258895,-2.63240419014996,-0.03977549691096786,0.0014178801342444077,-0.014055873990444832,0.017299025348648828,0.024155431584963125,-0.0407470680152119,-0.2368095964193344,0.5857977867126465,0.691256046295166,0.2392709702253341,0.1877230256795883,-0.2013052105903625
1749055449.707096,4.2541419398921985,-1.225553410924887,-1.5407775864178666,-4.120533555293123,4.39010987031573,-2.6324857747380905,-0.041724215658632054,0.0013719417230528322,-0.014228352033494648,0.017925312028591173,0.02495578214311708,-0.0427385532687058,-0.2506553828716278,0.5817880630493164,0.7093793749809265,0.228596806526184,0.1960776597261428,-0.1936935186386108
1749055449.707134,4.254061357190532,-1.2255517383187904,-1.540807281255502,-4.120498118976799,4.390160961800993,-2.632570477054844,-0.04368606260251907,0.0013331572758666153,-0.014329671944808432,0.01870606166911389,0.025917056513657374,-0.044746381718106965,-0.2335384488105774,0.6154309511184692,0.7120054960250854,0.2475381791591644,0.1952154785394668,-0.2086307555437088
1749055449.7074535,4.25397686914508,-1.2255503829331924,-1.5408366139609064,-4.120460578430707,4.390214148723003,-2.6326586768820657,-0.04564870382802425,0.0013058020526630744,-0.014372464767504898,0.019638050568347193,0.027030485614627547,-0.04675253422854931,-0.2701976895332336,0.5902817249298096,0.7225832343101501,0.2647067308425903,0.2000679075717926,-0.2074957191944122
1749055449.709375,4.253888126101339,-1.2255492975141533,-1.5408655288918245,-4.120420470696765,4.3902697647562885,-2.6327507959203214,-0.04760383219429926,0.0012936943265867116,-0.014371339805920175,0.02071128748746643,0.028277247060405703,-0.048742743023941416,-0.2701976895332336,0.5902817249298096,0.7225832343101501,0.2647067308425903,0.2000679075717926,-0.2074957191944122
1749055449.754326,4.2537948040569695,-1.22554841399057,-1.5408940344044075,-4.120377385329357,4.390328075947286,-2.632847251167899,-0.0495469671502967,0.0012997979430850299,-0.014341965658839193,0.021909355220447336,0.02963061828100494,-0.050706960099776745,-0.2502821683883667,0.6319921016693115,0.710794985294342,0.2632443904876709,0.2139318585395813,-0.2001148164272308
1749055449.7543726,4.253696648056141,-1.2255476425526346,-1.5409221915208016,-4.120331001564938,4.390389259499986,-2.6329484040697464,-0.05147684089325925,0.0013258909784377086,-0.014300166925875565,0.0232100744178105,0.03105853054746245,-0.052639410561178046,-0.2789341807365417,0.6078788042068481,0.7312440872192383,0.2744274735450744,0.2218010276556015,-0.2398265600204467
1749055449.7544138,4.253593509547196,-1.2255468731909098,-1.540950100823885,-4.120281116789819,4.3904533947269995,-2.633054514496185,-0.05339452625022981,0.0013723448342783451,-0.014261103738276167,0.024586536672821322,0.032526320591737296,-0.05453830962231957,-0.2772596478462219,0.6060647368431091,0.7130939960479736,0.2612320482730865,0.2009734660387039,-0.2370829284191131
1749055449.7544549,4.25348537072185,-1.2255459800417494,-1.5409778896383348,-4.120227662040429,4.390520466691995,-2.633165707821871,-0.055302480497572665,0.0014380464188690773,-0.01423858465868691,0.026008497461464945,0.03399948424538589,-0.056405329209887084,-0.2772596478462219,0.6060647368431091,0.7130939960479736,0.2612320482730865,0.2009734660387039,-0.2370829284191131
1749055449.7544942,4.253372351125065,-1.2255448283496857,-1.5410057007543065,-4.120170702600881,4.390590381063317,-2.633281960952189,-0.057203670343948264,0.0015204788985292888,-0.014244549090914183,0.027444060187883177,0.03544624224692515,-0.05824489082231608,-0.3023980259895324,0.6260762810707092,0.7082260847091675,0.2703679502010345,0.2175084054470062,-0.2086451947689056
1749055449.754533,4.253254694441804,-1.225543283532622,-1.5410336833884528,-4.1201104240623385,4.390662987414444,-2.633403110151419,-0.05910091139754074,0.0016159553726329506,-0.014288740343450127,0.028861543354561887,0.036839742843340455,-0.06006336157738061,-0.3095636963844299,0.5912166237831116,0.6875767111778259,0.261473149061203,0.2013680934906005,-0.2099693417549133
1749055449.7545724,4.253132736030667,-1.2255412215375394,-1.541061986861497,-4.120047106198045,4.390738107677205,-2.633528880354644,-0.06099650545323055,0.0017199773445788354,-0.014378570111626833,0.03023140288143739,0.03815975067796458,-0.06186824065422528,-0.3327484130859375,0.6049914360046387,0.7141487002372742,0.2599948048591614,0.1921851634979248,-0.2352186292409896
1749055449.754626,4.253006854684986,-1.2255385393325464,-1.5410907572028691,-4.119981088663117,4.390815566129698,-2.6336589322049737,-0.06289219235076071,0.0018276711463695511,-0.014519148733003778,0.03152806807740425,0.039393700317708356,-0.0636674181455126,-0.3327484130859375,0.6049914360046387,0.7141487002372742,0.2599948048591614,0.1921851634979248,-0.2352186292409896
1749055449.754668,4.252877414988451,-1.2255351641397016,-1.5411201362828086,-4.1199127335519465,4.39089521704423,-2.6337929197668832,-0.0647893582485032,0.001934247113724775,-0.014713431314463348,0.03273154158238247,0.04053702963772108,-0.06546855372898519,-0.3280661106109619,0.6297183632850647,0.6953003406524658,0.2609558403491974,0.1725671887397766,-0.2451749145984649
1749055449.7547069,4.252744708833456,-1.2255310600513003,-1.5411502622599629,-4.119842389863585,4.390976966384715,-2.633930549550095,-0.06668937798138075,0.0020354310894066894,-0.01496242028317594,0.03382862136386433,0.04159276734374684,-0.0672785741849559,-0.329380065202713,0.6182061433792114,0.6976507902145386,0.2552693486213684,0.19394052028656,-0.2242543995380401
1749055449.7547452,4.252608905693372,-1.2255262310653936,-1.5411812695128322,-4.119770364080873,4.3910607848870455,-2.634071630633508,-0.06859393434062738,0.002127830334803289,-0.015265376233376206,0.034813630986218244,0.04257043711440915,-0.06910325259980833,-0.3091096580028534,0.5950107574462891,0.6792148351669312,0.2546868324279785,0.205044537782669,-0.2421838343143463
1749055449.754783,4.252470020557787,-1.2255207201885114,-1.5412132862368397,-4.119696899827446,4.3911467110201565,-2.634216106553625,-0.07050516363525285,0.0022092063181976427,-0.015620014779728644,0.03568858726683063,0.043484448160503106,-0.07094682449177325,-0.3618216812610626,0.6155389547348022,0.6753329038619995,0.2478483021259308,0.2295587509870529,-0.2206770777702331
1749055449.75482,4.252327905550055,-1.2255146048023118,-1.5412464287746674,-4.119622168098438,4.391234843407127,-2.6343640624966413,-0.0724255298206113,0.002278630721173683,-0.01602269287909508,0.0364627856227083,0.04435223759670593,-0.07281161854369865,-0.3618216812610626,0.6155389547348022,0.6753329038619995,0.2478483021259308,0.2295587509870529,-0.2206770777702331
1749055449.7548578,4.2521822666468045,-1.225507988897313,-1.5412807932103352,-4.119546267923827,4.3913253235218175,-2.6345157059201636,-0.07435741733513376,0.002336504313275709,-0.016468601174963036,0.03715183550905736,0.045192465813648365,-0.0746977172937768,-0.3741699159145355,0.5870227217674255,0.6693873405456543,0.2426729500293731,0.2173188477754593,-0.2283340990543365
1749055449.7548974,4.2520327023004665,-1.2255009932458507,-1.5413164460200774,-4.11946923596024,4.391418310969107,-2.6346713237232384,-0.07630252457952148,0.002384430887566409,-0.016951976896106166,0.037776221383580805,0.04602350849461058,-0.0766026937709829,-0.390118658542633,0.5863475799560547,0.6739192605018616,0.236095905303955,0.208876758813858,-0.2270952016115188
1749055449.7549374,4.251878757605305,-1.2254937451090242,-1.541353415999375,-4.119391062817848,4.391513955029566,-2.634831223114783,-0.07826120590433992,0.0024249625279647072,-0.017466342906142688,0.03835949806894491,0.046862360413036916,-0.07852148407275487,-0.390118658542633,0.5863475799560547,0.6739192605018616,0.236095905303955,0.208876758813858,-0.2270952016115188
1749055449.7549746,4.251719986028126,-1.2254863691550562,-1.5413916893222983,-4.119311713582925,4.391612367084608,-2.6349956660556346,-0.08023194016793479,0.00246125921513212,-0.018004773428223198,0.038926267269817745,0.047723937913058116,-0.08044645989993456,-0.4237323701381683,0.6246583461761475,0.6605110168457031,0.2663784325122833,0.1974686533212661,-0.2180240154266357
1749055449.755011,4.251556009980519,-1.225478980510845,-1.5414312089693911,-4.1192311494148095,4.391713598895199,-2.635164808684309,-0.08221109748830341,0.0024967221367589777,-0.01856018794859573,0.03950013070506188,0.04862069676687278,-0.08236776246822797,-0.4237323701381683,0.6246583461761475,0.6605110168457031,0.2663784325122833,0.1974686533212661,-0.2180240154266357
1749055449.7550492,4.2513865715177115,-1.2254716796648615,-1.5414718792441884,-4.119149346394179,4.391817631080931,-2.635338657047989,-0.08419312366920381,0.0025346575268227413,-0.019125674238347105,0.040101851880172484,0.04956246766722725,-0.08427394429085983,-0.3852141499519348,0.6169362664222717,0.6629520654678345,0.258582592010498,0.2054066509008407,-0.2320304214954376
1749055449.7551076,4.251211565763795,-1.2254645482505002,-1.5415135755684481,-4.119066307708332,4.391924374076451,-2.6355170480719488,-0.08617115981279987,0.002578005948040569,-0.01969483289939498,0.0407479460600583,0.05055641455804862,-0.0861529363583543,-0.4081721007823944,0.6191983222961426,0.6548304557800293,0.2738471627235412,0.2166592925786972,-0.2300117760896682
1749055449.755148,4.251031052733912,-1.2254576451358612,-1.5415561589015476,-4.118982066404526,4.392033680563263,-2.635699659884873,-0.08813799032731792,0.0026291395846018257,-0.020262121148055753,0.04144984385130222,0.0516070240401128,-0.08799331215573487,-0.3857135474681854,0.5711098313331604,0.6491991281509399,0.287904143333435,0.2002549916505813,-0.2386269867420196
1749055449.7551854,4.250845247577215,-1.225451003301818,-1.5415994929692634,-4.1188966782926055,4.3921453651558,-2.635886049270935,-0.09008711917019861,0.002689705296421253,-0.020823158814290133,0.042213664769685307,0.05271605731734679,-0.08978574518948719,-0.4155465364456177,0.5954576730728149,0.6673665046691895,0.2785648107528686,0.2177111059427261,-0.2042207419872284
1749055449.7553804,4.250654493318741,-1.2254446287300278,-1.5416434614682544,-4.118810207217899,4.392259225695961,-2.6360757082190434,-0.09201375038201003,0.0027604910644247866,-0.021374950575635116,0.04304053485918248,0.053882455957422526,-0.09152446397973968,-0.4213068783283233,0.6092292666435242,0.6688319444656372,0.2830458283424377,0.2357527911663055,-0.2108544707298278
1749055449.7573571,4.250459222411521,-1.2254385023864058,-1.5416879821012879,-4.118722706625403,4.3923750616229285,-2.6362681284416896,-0.0939154909838344,0.0028413176437248854,-0.021915980695660368,0.04392731092140686,0.055102262180805626,-0.0932084504982091,-0.3968120515346527,0.5985875725746155,0.6656996011734009,0.2603812515735626,0.2165387421846389,-0.2388320416212082
1749055449.798278,4.250259913639994,-1.2254325855622945,-1.5417330149360895,-4.118634201569558,4.392492687407128,-2.636462862890957,-0.09579266952502932,0.002930984475874855,-0.022446153923824538,0.044867537864858954,0.056368644940443836,-0.09484215041012403,-0.3907020986080169,0.6099580526351929,0.6551523208618164,0.2730444073677063,0.2186432182788849,-0.205923780798912
1749055449.798325,4.250057049909768,-1.225426827812374,-1.5417785639854482,-4.118544674456631,4.392611941165046,-2.636659575646203,-0.09764824207311225,0.003027305767893264,-0.022966585617266853,0.045852467894915226,0.05767210194848959,-0.09643554880953097,-0.4084421694278717,0.5937126874923706,0.6461749076843262,0.2830213904380798,0.2178058475255966,-0.2267951816320419
1749055449.7983656,4.249851080941731,-1.2254211759243632,-1.5418246725594371,-4.118454056491996,4.39273268963067,-2.636858074733203,-0.099487327708543,0.0031272540667228494,-0.023479272948475967,0.0468720118111132,0.059000869630439094,-0.09800355805745833,-0.4208725094795227,0.6141443848609924,0.6536768674850464,0.2832393050193786,0.239184632897377,-0.2182801216840744
1749055449.7984054,4.249642393388954,-1.22541558208489,-1.5418714141776173,-4.118362225550572,4.392854831123894,-2.6370583255680966,-0.10131647642540453,0.003227199173576605,-0.023986694756717292,0.04791555764823065,0.06034155034590093,-0.09956473891541082,-0.4218372106552124,0.615808367729187,0.6527421474456787,0.2998654544353485,0.2459960579872131,-0.2076415717601776
1749055449.798444,4.24943128976598,-1.225410009768613,-1.5419188812339084,-4.1182690102832025,4.392978298363204,-2.6372604453501514,-0.10314281653507754,0.0033232084920229825,-0.024491390076023887,0.048972647261410616,0.06167995165126804,-0.10113944581506369,-0.4418234229087829,0.5968929529190063,0.6376246809959412,0.3028118908405304,0.2466330081224441,-0.2277500331401825
1749055449.7984834,4.249217976788938,-1.2254044366554528,-1.5419671732910973,-4.118174199783872,4.393103062575396,-2.6374646806835513,-0.1049732399747537,0.0034113686321950083,-0.024995563578334278,0.05003351948794877,0.06300209922852562,-0.10274756139879752,-0.4120092689990997,0.6193736791610718,0.6484445929527283,0.2738225162029266,0.2316281497478485,-0.2195901572704315
1749055449.798522,4.249002563022729,-1.225398854656066,-1.5420163863066028,-4.118077557937125,4.3932291390277385,-2.637671372037272,-0.10681375142937426,0.003488092914829047,-0.025500763390213822,0.05108951185517922,0.06429532923883009,-0.10440605500322958,-0.4095851182937622,0.6120831966400146,0.6456457376480103,0.3023810088634491,0.2245014607906341,-0.2039784491062164
1749055449.79856,4.2487850650105035,-1.2253932675422305,-1.5420666036581634,-4.117978841364168,4.393356592324135,-2.6378809096060336,-0.10866904159844055,0.003550388465564156,-0.026007667628104796,0.05213329484601746,0.0655493138985167,-0.10612665868238488,-0.4051079750061035,0.5949782729148865,0.6651655435562134,0.3034206926822662,0.2196289896965026,-0.2565707862377167
1749055449.7985978,4.248565420241483,-1.2253876867208189,-1.5421178896591603,-4.117877819434609,4.393485538650716,-2.638093686050455,-0.11054227741372306,0.00359606640816253,-0.02651599965020548,0.053158926071445525,0.06675685857164616,-0.10791400234222842,-0.4014690220355987,0.5828913450241089,0.6446011662483215,0.3161594569683075,0.2117940485477447,-0.2577783763408661
1749055449.798636,4.2483435042146445,-1.2253821256758761,-1.5421702861820765,-4.11777429410854,4.393616142370778,-2.6383100525583516,-0.11243506120492144,0.0036238871050372,-0.0270245772103587,0.05416175708527089,0.06791434392239871,-0.10976456471653852,-0.4014690220355987,0.5828913450241089,0.6446011662483215,0.3161594569683075,0.2117940485477447,-0.2577783763408661
1749055449.798674,4.248119147812453,-1.2253765937833137,-1.5422238127611212,-4.117668116833736,4.393748605815458,-2.638530285001242,-0.11434750188064831,0.003633637764286619,-0.027531491377982067,0.05513827378008396,0.06902176273491652,-0.11166673348106539,-0.3958487510681152,0.6019649505615234,0.6392305493354797,0.3138066232204437,0.2083870023488998,-0.2231905609369278
1749055449.798712,4.247892151500063,-1.2253710905186217,-1.5422784698726728,-4.117559200033841,4.393883152982247,-2.6387545652592803,-0.11627834797863629,0.0036261426693722583,-0.028034397652648108,0.05608596842351998,0.07008239148965938,-0.11360209795221891,-0.3909973502159118,0.6032937169075012,0.6620327234268188,0.2955927848815918,0.2304184585809707,-0.2306897342205047
1749055449.798749,4.24766229541529,-1.2253656013479912,-1.5423342441337722,-4.117447522182035,4.394020009202047,-2.63898297855288,-0.11822513607589034,0.003603208150995953,-0.02853087782682811,0.05700331402724461,0.07110221137811494,-0.11554785176209884,-0.4089072048664093,0.5835540294647217,0.6438450813293457,0.2991275787353515,0.2297948002815246,-0.2363675087690353
1749055449.7987876,4.24742934788889,-1.2253600966118834,-1.5423911135736732,-4.117333127298921,4.394159379304881,-2.6392155228412477,-0.12018430730574428,0.0035675052266227773,-0.029018809336947737,0.057889857202912565,0.07208922872555877,-0.11747994120130373,-0.4245120882987976,0.578618049621582,0.6423788070678711,0.3002763986587524,0.2546029984951019,-0.2193561792373657
1749055449.798825,4.247193076515059,-1.2253545341972285,-1.5424490514866638,-4.11721612061112,4.394301426869506,-2.6394521241107087,-0.12215126062294779,0.003522393429913166,-0.029496676330613144,0.058746396897211284,0.07305283020831885,-0.11937643832732628,-0.3722510635852813,0.5778903961181641,0.6521311402320862,0.3056790232658386,0.240667387843132,-0.2186096906661987
1749055449.7988622,4.24695326401286,-1.2253488656740348,-1.542508028475023,-4.117096661482429,4.394446257419579,-2.6396926528562448,-0.12412036176424217,0.0034716924396958385,-0.029963775323192176,0.05957519348665022,0.07400325037795011,-0.12122058368589729,-0.3722510635852813,0.5778903961181641,0.6521311402320862,0.3056790232658386,0.240667387843132,-0.2186096906661987
1749055449.7989,4.24670972684951,-1.2253430443069637,-1.5425680134629618,-4.1169749532786915,4.394593908926882,-2.6399369408129996,-0.12608499520382258,0.0034194147916347924,-0.030420298565835408,0.06038015071795777,0.07495115341335278,-0.12300302308538352,-0.4361575841903686,0.5816298127174377,0.6374584436416626,0.305661678314209,0.2268008887767791,-0.2383917719125747
1749055449.798937,4.246462330783393,-1.2253370326719004,-1.542628975169631,-4.116851228841583,4.394744352921096,-2.6401848004024973,-0.12803778865143298,0.0033694810204693442,-0.03086731015349638,0.06116691537756118,0.07590727110113059,-0.1247229227052838,-0.4361575841903686,0.5816298127174377,0.6374584436416626,0.305661678314209,0.2268008887767791,-0.2383917719125747
1749055449.7989748,4.24621099686433,-1.2253308079043435,-1.5426908854583778,-4.116725730654697,4.394897507970288,-2.640436050089808,-0.1299711192095576,0.003325445334792684,-0.031306650995397124,0.061942839300653724,0.07688201532620896,-0.1263878450039574,-0.430549681186676,0.5910403728485107,0.6534770727157593,0.2973248064517975,0.2187319844961166,-0.2106423676013946
1749055449.7990124,4.245955694789464,-1.2253243636868616,-1.5427537249936525,-4.116598686610172,4.395053264151442,-2.640690546050404,-0.13187792123139044,0.003290263822124878,-0.031740806304416856,0.06271675292548869,0.07788499522092107,-0.12801246646256045,-0.4195348024368286,0.6113980412483215,0.6535953283309937,0.3065620064735412,0.2263267934322357,-0.206312671303749
1749055449.7993894,4.24569642612658,-1.2253177093376557,-1.542817490085011,-4.116470284692708,4.395211513304921,-2.640948215557554,-0.13375268731204604,0.003266135927665166,-0.03217274687298216,0.06349851556347896,0.07892440433505453,-0.1296163881003405,-0.4103634059429168,0.6172611117362976,0.6377378702163696,0.3132851719856262,0.2403870671987533,-0.2338919043540954
1749055449.8013637,4.245433204641144,-1.2253108671554316,-1.5428821983681809,-4.11634065163544,4.395372176962606,-2.6412090832602333,-0.13559244463185652,0.0032544401203219615,-0.03260573664469673,0.06429833012102147,0.08000628965661265,-0.13122140823472714,-0.4434118568897247,0.5978970527648926,0.6306220293045044,0.2953485250473022,0.2387677431106567,-0.2331932336091995
1749055449.8422885,4.24516604220534,-1.2253038692562066,-1.5429478908151295,-4.116209840638329,4.39553522350466,-2.641473280740053,-0.13739745825670002,0.0032557659541328104,-0.03304310243262581,0.06512583575514495,0.08113376591698712,-0.13284868069896508,-0.4302291870117187,0.5766547322273254,0.631207287311554,0.3173403143882751,0.2098804712295532,-0.2449870258569717
1749055449.842337,4.244894945999496,-1.2252967546955071,-1.5430146284861535,-4.116077831408572,4.395700669040835,-2.641741033179003,-0.1391714755415359,0.0032700235656489027,-0.03348797962365486,0.06598902772437555,0.08230629587754627,-0.13451617159482643,-0.3947519958019256,0.590180516242981,0.6423394680023193,0.3107534050941467,0.2564536929130554,-0.2618716359138489
1749055449.842378,4.244619927333486,-1.2252895670488224,-1.5430824839750563,-4.115944542719572,4.395868561769325,-2.6420126233925547,-0.14092144327180392,0.003296597759273274,-0.03394306054101889,0.06689310228733356,0.08351921654324367,-0.13623676404607213,-0.3947519958019256,0.590180516242981,0.6423394680023193,0.3107534050941467,0.2564536929130554,-0.2618716359138489
1749055449.8424227,4.244341016667104,-1.2252823521668217,-1.5431515291724216,-4.115809854290533,4.396038955006412,-2.642288340632117,-0.1426567522556357,0.00333451261469374,-0.034410372633458516,0.06783937329045014,0.08476372316422366,-0.1380172531142071,-0.4063499271869659,0.6136335730552673,0.6431607604026794,0.3128692507743835,0.2590710520744324,-0.2311167418956756
1749055449.8424623,4.244058276009935,-1.2252751557996187,-1.5432218221985932,-4.115673632264508,4.3962118774361825,-2.642568426548756,-0.1443881644889195,0.0033825813466857716,-0.034891108211358025,0.06882443821650412,0.08602747333630704,-0.1398583261130026,-0.4426552355289459,0.6136310696601868,0.6325500011444092,0.3253182470798492,0.2248646467924118,-0.2701539397239685
1749055449.8425047,4.243771801062541,-1.2252680211064133,-1.5432933965510982,-4.115535752286073,4.396387308967056,-2.642853030902998,-0.1461266382665465,0.0034395276241791215,-0.035385521067507544,0.06983977395308305,0.0872958154167322,-0.141755442200711,-0.4547086358070373,0.5996699929237366,0.6336820125579834,0.3184889554977417,0.2056895345449447,-0.246551901102066
1749055449.8425434,4.243481710466508,-1.2252609862486163,-1.543366254716892,-4.115396116302525,4.396565167482104,-2.643142185236532,-0.14788226787628003,0.003504072715842176,-0.03589289790307078,0.07087191181176777,0.08855343748036258,-0.1437003361944725,-0.4547086358070373,0.5996699929237366,0.6336820125579834,0.3184889554977417,0.2056895345449447,-0.246551901102066
1749055449.8425813,4.24318812456079,-1.2252540820461155,-1.54344036740762,-4.115254661984992,4.396745308202744,-2.6434357973597837,-0.14966348976676966,0.0035749862038961,-0.03641160517317123,0.07190327558384649,0.08978609769822446,-0.145682734914737,-0.4511895477771759,0.6104468703269958,0.6296352744102478,0.3134512305259704,0.2375280559062957,-0.2538076043128967
1749055449.8426197,4.242891138421143,-1.225247329449996,-1.5435156786162871,-4.1151113652777385,4.396927535196677,-2.6437336660634236,-0.15147659675442773,0.003651098969785616,-0.03693920682389188,0.0729136708490739,0.09098211499361898,-0.14769185350376476,-0.4272554218769073,0.6084386706352234,0.6282220482826233,0.3171763718128204,0.2281868457794189,-0.2502071261405945
1749055449.8426569,4.242590794204086,-1.2252407368160132,-1.543592115770755,-4.114966236855762,4.397111623474937,-2.644035513629397,-0.15332549512870888,0.0037312799050170627,-0.03747264339087648,0.07388230819629045,0.09213343525873045,-0.14971734949446003,-0.4272554218769073,0.6084386706352234,0.6282220482826233,0.3171763718128204,0.2281868457794189,-0.2502071261405945
1749055449.8426986,4.242287056796192,-1.2252342974766723,-1.5436696034413766,-4.1148193129224255,4.397297349317391,-2.6443410323453618,-0.15521159215946198,0.003814386122322683,-0.03800845372248431,0.0747901541529479,0.0932362390036326,-0.1517496079554633,-0.4582558870315552,0.6209185719490051,0.6458434462547302,0.3237428069114685,0.2586443126201629,-0.2588662505149841
1749055449.8427374,4.241979794556727,-1.2252279883876422,-1.543748078635798,-4.1146706404797095,4.397484525745572,-2.644649940028563,-0.15713373055677876,0.003899209587743642,-0.03854300760586378,0.07562234203398778,0.09429114700756108,-0.15377944267429514,-0.4582558870315552,0.6209185719490051,0.6458434462547302,0.3237428069114685,0.2586443126201629,-0.2588662505149841
1749055449.8427746,4.24166876505496,-1.2252217704928758,-1.5438275055832342,-4.11452025772038,4.3976730392093115,-2.6449620381162577,-0.1590881536377245,0.003984452179879094,-0.03907271083168349,0.07637033282859547,0.09530310387698827,-0.15579747243349182,-0.4044107794761657,0.6026625633239746,0.6409503817558289,0.2688442170619964,0.246901199221611,-0.2728145718574524
1749055449.842811,4.241353606545421,-1.225215591070428,-1.5439078877227466,-4.1143681719625835,4.397862882421744,-2.6452772639734627,-0.1610685411317802,0.004068754491398448,-0.03959415734441255,0.07703349682593222,0.09628099967157826,-0.15779353330842558,-0.4927868843078613,0.6198977828025818,0.6283811330795288,0.2916364967823028,0.2362412363290786,-0.2725754380226135
1749055449.8428483,4.241033839253555,-1.2252093878017272,-1.543989274403966,-4.114214339783584,4.3980541774668795,-2.645595727870923,-0.16306618277480872,0.004150780635924523,-0.040104234156536266,0.07761982008113856,0.09723705033659838,-0.15975648902525794,-0.4927868843078613,0.6198977828025818,0.6283811330795288,0.2916364967823028,0.2362412363290786,-0.2725754380226135
1749055449.8428848,4.240708883129114,-1.2252030937715384,-1.5440717600026674,-4.114058655125239,4.3982471835823205,-2.6459177259716826,-0.16507035397079095,0.004229337572674916,-0.04060020804303194,0.07814555512165766,0.09818592268688903,-0.16167468669408927,-0.4469922184944153,0.6286298632621765,0.6932128071784973,0.3244233727455139,0.2612155675888061,-0.2605456411838531
1749055449.8429215,4.240378098141495,-1.2251966423619163,-1.5441554739961698,-4.113900950325361,4.398442285320211,-2.646243723330476,-0.16706891696476078,0.004303499688275066,-0.0410798160610433,0.078633817452696,0.09914358471513654,-0.16353709725194354,-0.4269514977931976,0.628523588180542,0.6676151752471924,0.3134840726852417,0.2343745678663253,-0.2292220741510391
1749055449.8429627,4.240040849949166,-1.2251899712327097,-1.5442405618988544,-4.113741012778985,4.3986399586130975,-2.6465743040982943,-0.16904909925813474,0.004372717529887736,-0.041541357166623494,0.07911231374893546,0.1001258915215293,-0.165334940442372,-0.4568321108818054,0.6208902597427368,0.6651960611343384,0.3068316578865051,0.2317011356353759,-0.2391293942928314
1749055449.843001,4.239696598872738,-1.2251830250014917,-1.5443271586480458,-4.113578616846393,4.398840715032685,-2.646910090164324,-0.1709983425766025,0.004436900177915881,-0.041983772824844515,0.07961050954561018,0.1011469601658577,-0.1670633996280739,-0.4568321108818054,0.6208902597427368,0.6651960611343384,0.3068316578865051,0.2317011356353759,-0.2391293942928314
1749055449.843037,4.239345003301819,-1.2251757564785632,-1.5444153579429347,-4.113413566797909,4.399045029211103,-2.6472516358861404,-0.1729051121698985,0.004496463808629309,-0.0424067163646921,0.08015659323175336,0.10221743429418727,-0.16872294927770415,-0.41768479347229,0.5994565486907959,0.670772910118103,0.3338585793972015,0.2432137578725814,-0.2068908512592315
1749055449.8433554,4.238986020795466,-1.2251681264308405,-1.5445051827559226,-4.11324574276223,4.399253260383115,-2.6475993145893137,-0.17475959817720535,0.004552335362658858,-0.042810614259177135,0.08077460217778576,0.1033428096290451,-0.1703198807743743,-0.41768479347229,0.5994565486907959,0.670772910118103,0.3338585793972015,0.2432137578725814,-0.2068908512592315
1749055449.845343,4.238619984321038,-1.2251601021021128,-1.5445965630992282,-4.113075139395836,4.399465583682084,-2.6479532186683503,-0.1765542893318727,0.004605896869709712,-0.04319670097195063,0.08148206205441344,0.10452208262973484,-0.17186580370761853,-0.41768479347229,0.5994565486907959,0.670772910118103,0.3338585793972015,0.2432137578725814,-0.2068908512592315
1749055449.8862906,4.238247630865681,-1.2251516551328265,-1.544689326656149,-4.112901887474225,4.399681947396396,-2.6483130960890877,-0.17828443099501404,0.004658860391966831,-0.04356698667325059,0.08228842625410598,0.10574704286395233,-0.17337616748719772,-0.4672351479530334,0.6037736535072327,0.6768592596054077,0.3398100435733795,0.2545721232891083,-0.2511725723743438
1749055449.886337,4.237870067505415,-1.225142759909291,-1.5447832057424842,-4.112726252258124,4.399902067301193,-2.6486783399525353,-0.17994838447682124,0.00471307827056786,-0.04392412295946577,0.08319446565491284,0.10700249201897113,-0.17486812215394204,-0.4175896048545837,0.6136420369148254,0.668398380279541,0.3242711126804352,0.2715665102005005,-0.2502133548259735
1749055449.886378,4.237488675227908,-1.2251333934801178,-1.5448778603741862,-4.11254860873105,4.400125459335154,-2.6490480350779455,-0.18154787602296654,0.004770311474746093,-0.044271161916944676,0.08419258260688112,0.10826752771117881,-0.17635823369644,-0.40239217877388,0.588188111782074,0.6752916574478149,0.3310920000076294,0.2829826474189758,-0.2854030132293701
1749055449.886417,4.237104967168147,-1.2251235377630871,-1.5449729133176724,-4.1123694000249085,4.400351501675255,-2.6494210515112018,-0.183088078798096,0.004831988826746914,-0.04461123483847261,0.08526788716780083,0.1095178239098357,-0.17786060845277388,-0.4786158502101898,0.6240385174751282,0.6825969219207764,0.3560590147972107,0.281661182641983,-0.2995415031909942
1749055449.8864553,4.236720427333055,-1.2251131838341236,-1.5450679907513791,-4.112189088311814,4.4005795118186946,-2.6497961664396645,-0.18457745107108625,0.004898987123988151,-0.04494719553679848,0.08639983297321888,0.11072863676053717,-0.1793858314746123,-0.4127615988254547,0.5927134156227112,0.6688637733459473,0.3622025847434997,0.258387804031372,-0.2603567838668823
1749055449.8864937,4.23633635566728,-1.225102337081333,-1.5451627621786996,-4.112008106508737,4.400808824912978,-2.6501721952740933,-0.18602728186054276,0.00497145329778417,-0.045281281743011145,0.08756423706144,0.11187811586491914,-0.1809408314907179,-0.403964638710022,0.598930299282074,0.6744693517684937,0.3714193999767303,0.2460303604602813,-0.2773015201091766
1749055449.8865314,4.235953738972634,-1.2250910215136037,-1.545256974611737,-4.1118268163678,4.401038863473926,-2.6505481161616764,-0.18745095558035202,0.005048685003039629,-0.04561485062540807,0.08873552809213098,0.11295043338313081,-0.18252946731965258,-0.4302102029323578,0.6133175492286682,0.6790454387664795,0.3386955857276916,0.2523880302906036,-0.2558976411819458
1749055449.8865757,4.235573159298501,-1.2250792818483631,-1.5453504777068303,-4.111645475875799,4.401269192552687,-2.650923176094924,-0.1888630089319241,0.005129089375166465,-0.04594823927644822,0.08988904709788767,0.11393826137618114,-0.18415342385722241,-0.4274082481861114,0.6087291836738586,0.6816196441650391,0.3486011922359466,0.2703652381896972,-0.2420001775026321
1749055449.8866153,4.235194744546123,-1.2250671830029383,-1.545443237996791,-4.111464216968318,4.401499557050918,-2.651296969838685,-0.19027809254712816,0.005210245044197815,-0.046280784449021166,0.09100319831892256,0.11484421737753954,-0.1858129892135312,-0.4398537278175354,0.6250003576278687,0.6812094449996948,0.3444840908050537,0.2588887810707092,-0.2504438161849975
1749055449.8866527,4.234818161247963,-1.2250548076822108,-1.5455353415931836,-4.1112830334195465,4.40172989949963,-2.651669485416409,-0.19170995341599031,0.005289088098912926,-0.0466110093240069,0.09206125723718935,0.11568103392525526,-0.18750743843667173,-0.4691076576709747,0.6090832352638245,0.676629900932312,0.3472643494606018,0.2463841289281845,-0.2337246090173721
1749055449.8866904,4.234442647004293,-1.2250422532057736,-1.5456269857553173,-4.111101778502071,4.401960357797456,-2.652041112300227,-0.19317052446254138,0.005362220261871855,-0.04693695623610392,0.09305268302161762,0.11647036912662673,-0.1892349872145709,-0.4396457970142364,0.5999122262001038,0.6812670826911926,0.3368165493011474,0.2530781626701355,-0.2719619572162628
1749055449.8867283,4.234067079224574,-1.2250296283161455,-1.5457184604724714,-4.1109201725342555,4.402191243424213,-2.652412610963446,-0.1946691644266785,0.0054263006393831005,-0.04725662098780005,0.09397381942074401,0.11724035451709454,-0.19099250465063755,-0.440905213356018,0.5964621901512146,0.66935133934021,0.3572809994220733,0.2679197788238525,-0.2934160828590393
1749055449.8867664,4.233690076373286,-1.2250170498991795,-1.5458101216346412,-4.110737821185475,4.402423001656978,-2.652785045163797,-0.1962120604858618,0.0054784484460461465,-0.04756842886318348,0.09482789570374923,0.11802216589465174,-0.19277530616624916,-0.4242092072963714,0.5895525217056274,0.684477686882019,0.3253391981124878,0.2509733438491821,-0.2913111746311188
1749055449.8868046,4.233310126658501,-1.225004639017784,-1.5459023576407278,-4.110554245603233,4.402656156625042,-2.653159681176205,-0.1978018045302434,0.005516575283938753,-0.04787168250456675,0.09562428637161163,0.11884607853604628,-0.19457732874077188,-0.43925741314888,0.6017300486564636,0.6866077184677124,0.3383976221084595,0.2966827154159546,-0.3004125952720642
1749055449.8868415,4.232925736297039,-1.2249925157120976,-1.545995551718102,-4.110368924486923,4.402891245977363,-2.653537861259311,-0.1994371748168771,0.005539591274346145,-0.048166908477980885,0.09637707502969214,0.11973759053657951,-0.19639181747586157,-0.4597929716110229,0.6038804650306702,0.6831011772155762,0.3326827883720398,0.3205050230026245,-0.2684736251831054
1749055449.8868787,4.2325355849896145,-1.2249807924565004,-1.5460900430014284,-4.110181345971158,4.403128752479926,-2.653920862405042,-0.20111317135099438,0.005547475266630276,-0.04845603895099116,0.09710307757045541,0.1207142226424693,-0.19821239804395285,-0.4597929716110229,0.6038804650306702,0.6831011772155762,0.3326827883720398,0.3205050230026245,-0.2684736251831054
1749055449.8869233,4.232138670960058,-1.2249695666564078,-1.5461860904503772,-4.109991063948421,4.403369042266969,-2.6543097559813456,-0.20282134847834343,0.005541237172025314,-0.04874239038516019,0.09781957482952801,0.12178349611229349,-0.20003419264050698,-0.4242546558380127,0.5976980924606323,0.6706460118293762,0.3524520397186279,0.2599368691444397,-0.2250053137540817
1749055449.8869622,4.231734424305661,-1.2249589129504166,-1.5462838444986422,-4.109797750410245,4.403612320336628,-2.6547052876286488,-0.20455046965426357,0.0055228106978812246,-0.04903043587816111,0.09854205561740548,0.12294235802998989,-0.2018545546630126,-0.4242546558380127,0.5976980924606323,0.6706460118293762,0.3524520397186279,0.2599368691444397,-0.2250053137540817
1749055449.8869994,4.23132276834727,-1.2249488763312997,-1.5463833312343263,-4.109601234129042,4.40385861207268,-2.6551077970141517,-0.2062874891935167,0.005494901114076498,-0.0493254010741359,0.09928227131723065,0.12417803608593586,-0.20367308684650973,-0.4329967498779297,0.5896660089492798,0.6922289729118347,0.3176693916320801,0.2521911859512329,-0.2169433832168579
1749055449.887036,4.230904115540932,-1.2249394671444862,-1.5464844524643835,-4.109401517690422,4.404107775090719,-2.655517192099253,-0.2080188379422399,0.005460796130867462,-0.04963273938862274,0.10004686318831349,0.12547006403632072,-0.20549084894370287,-0.4452261626720428,0.5918518304824829,0.6375911235809326,0.3563074469566345,0.2811694145202636,-0.2641680240631103
1749055449.8874023,4.230479296556026,-1.2249306587646298,-1.5465870022557362,-4.109198769603397,4.404359539439913,-2.6559329826394453,-0.20973193764995793,0.005424146681099889,-0.04995755981492944,0.10083675314643134,0.12679308263758926,-0.2073089786092013,-0.4571565389633178,0.592670738697052,0.6601647138595581,0.3848817944526672,0.2850829362869262,-0.2925730347633362
1749055449.8893845,4.230049435195383,-1.2249223882515585,-1.5466906971503769,-4.108993294530468,4.404613567691839,-2.6563543651923385,-0.21141678973825873,0.005388736697585295,-0.050304086413301245,0.10164739180019593,0.1281199720344501,-0.20912721444918353,-0.4703460037708282,0.5947273373603821,0.6694204211235046,0.3635312020778656,0.263425201177597,-0.3268759846687317
1749055449.930291,4.229615792561749,-1.2249145597766378,-1.5467952145425103,-4.108785489706602,4.404869522086916,-2.65678034188913,-0.21306740545024563,0.005358267190428582,-0.05067521727328885,0.10246983884259393,0.12942486890413993,-0.21094288966416336,-0.4299817681312561,0.5831584930419922,0.6576435565948486,0.3635562658309936,0.2557262778282165,-0.3002206981182098
1749055449.9303415,4.229179606779172,-1.2249070502863324,-1.5469002328462815,-4.108575796919439,4.4051271255948965,-2.6572098519460345,-0.21468281299920264,0.0053361649359579206,-0.05107222910363915,0.10329252571321121,0.13068565685221709,-0.2127508029637096,-0.3963573276996612,0.58028644323349,0.6365854144096375,0.3479406833648681,0.2363692224025726,-0.2883074879646301
1749055449.9303832,4.228741949646923,-1.2248997167562554,-1.5470054681175525,-4.10836465709309,4.4053862072079415,-2.6576418982194894,-0.21626742777091898,0.005325400440267198,-0.051494659148501584,0.10410344321120854,0.13188561910117208,-0.21454404105665087,-0.4419280290603637,0.5778969526290894,0.6481702923774719,0.3648322224617004,0.2583649158477783,-0.2912173569202423
1749055449.9304368,4.22830361253463,-1.2248924043842468,-1.5471107038562737,-4.108152470604664,4.405646727138326,-2.658075657531842,-0.2178306980383282,0.005328291643525226,-0.05194039019863991,0.10489243037545301,0.13301412638780982,-0.21631548570083464,-0.4419280290603637,0.5778969526290894,0.6481702923774719,0.3648322224617004,0.2583649158477783,-0.2912173569202423
1749055449.9304986,4.2278650251802095,-1.2248849551270329,-1.5472158127691877,-4.107939563169458,4.405908782793254,-2.6585105694751077,-0.21938609091424072,0.005346293164152801,-0.05240594707024165,0.10565322816586063,0.1340664598226644,-0.2180595449271535,-0.4630477428436279,0.6136264204978943,0.6629360318183899,0.3476082980632782,0.2705071568489074,-0.256142109632492
1749055449.930563,4.227426206819353,-1.224877216170476,-1.547320770367134,-4.107726156127374,4.406172599487811,-2.6589464011823174,-0.2209495918239689,0.00537980860492736,-0.05288697356379752,0.10638500243926531,0.135043048409592,-0.2197736664588921,-0.4496778547763824,0.6139636635780334,0.6583446860313416,0.3692255318164825,0.2891538739204407,-0.2794266939163208
1749055449.9306087,4.2269867506181535,-1.2248690482254587,-1.5474256599882714,-4.107512341748022,4.406438509707348,-2.659383284036322,-0.2225379155356378,0.005428083342895401,-0.05337881312417161,0.10709311866963234,0.13594846672575023,-0.221459369825884,-0.4616635739803314,0.5917566418647766,0.6509647369384766,0.3655044436454773,0.2725673615932464,-0.3082966208457947
1749055449.930648,4.226545846196588,-1.2248603337535848,-1.5475306679770267,-4.107298067116674,4.40670692265925,-2.6598217152156196,-0.22416659252791507,0.005489219448855411,-0.05387708770851201,0.10778903735518672,0.1367904912308616,-0.22312274942301988,-0.4898860454559326,0.6130773425102234,0.6642890572547913,0.3114714026451111,0.2747276127338409,-0.3097238540649414
1749055449.9306865,4.2261023453137305,-1.224850985135641,-1.5476360678238485,-4.1070831315255685,4.406978284808688,-2.660262517430751,-0.22584806573482655,0.005560314297522074,-0.05437816917396434,0.10848928436605117,0.13757939605420688,-0.22477453158313015,-0.4346674680709839,0.5797362327575684,0.6530228853225708,0.3577267527580261,0.2884668707847595,-0.3217673897743225
1749055449.9307249,4.225654870116179,-1.2248409523449426,-1.5477421937396307,-4.1068672007176685,4.407253033538041,-2.6607067564155575,-0.2275899493935936,0.005637689792912474,-0.054879463461305976,0.10921355960780384,0.13832752716596478,-0.22642975585467665,-0.4346674680709839,0.5797362327575684,0.6530228853225708,0.3577267527580261,0.2884668707847595,-0.3217673897743225
1749055449.9307697,4.225201954383166,-1.2248302290293944,-1.5478494065548172,-4.106649837663878,4.407531548832028,-2.661155625019156,-0.22939364755846373,0.005717172021940996,-0.05537947077150208,0.10998219565375289,0.13904907259288474,-0.22810702626781024,-0.4640367031097412,0.6021326184272766,0.6682557463645935,0.3546666204929352,0.273357093334198,-0.222427636384964
1749055449.9308157,4.224742200706221,-1.224818855446952,-1.5479580565416622,-4.10643054580016,4.407814109756807,-2.6616103101558526,-0.23125355659392685,0.005794398917850881,-0.05587763270621809,0.11081332253969617,0.1397598808256739,-0.2298271469825345,-0.4640367031097412,0.6021326184272766,0.6682557463645935,0.3546666204929352,0.273357093334198,-0.222427636384964
1749055449.9308538,4.224274433959703,-1.224806916858172,-1.5480684479159308,-4.106208818675016,4.408100861968068,-2.6620718609410274,-0.2331570451963122,0.005865154089660105,-0.05637401711909586,0.11172016807865157,0.14047717454034708,-0.23161094825502365,-0.4616621136665344,0.601327121257782,0.6395349502563477,0.3342114090919494,0.2812781929969787,-0.265358954668045
1749055449.9308927,4.223797833788352,-1.2247945367594555,-1.548180808679107,-4.1059841903024425,4.4083917997108415,-2.6625410733352175,-0.23508531281222542,0.0059257267811928145,-0.05686891370329008,0.11270890339057531,0.14121903933165034,-0.23347630768922212,-0.4843370914459228,0.6099663972854614,0.6495038866996765,0.3786642551422119,0.2661364376544952,-0.2651435732841491
1749055449.9309304,4.223312032978975,-1.2247818653578961,-1.5482952681708575,-4.105756281853577,4.408686762715462,-2.663018402049274,-0.2370151012085663,0.005973278489429652,-0.05736241589778844,0.11377735955170767,0.1420036137367936,-0.23543473093385053,-0.4843370914459228,0.6099663972854614,0.6495038866996765,0.3786642551422119,0.2661364376544952,-0.2651435732841491
1749055449.930968,4.222817171197565,-1.2247690645785096,-1.5484118441031276,-4.105524840684777,4.408985447282617,-2.663503907828565,-0.23892111253382428,0.006006173622475423,-0.057854055929464424,0.11491482291721464,0.14284796170143396,-0.23748818773157282,-0.5127156376838684,0.6191322207450867,0.6357495784759521,0.3464801907539367,0.2649106979370117,-0.3366665244102478
1749055449.9310052,4.2223138953793224,-1.2247562914911179,-1.5485304407774272,-4.105289766942417,4.409287431453301,-2.6639972471397417,-0.24077888556741453,0.006024223029391028,-0.058342554698254424,0.1161029731427096,0.14376667769881216,-0.23962700564895775,-0.4385361075401306,0.6196496486663818,0.6071470975875854,0.3811292946338653,0.240907222032547,-0.3375918865203857
1749055449.9310422,4.221803303636116,-1.224743682285775,-1.5486508594700974,-4.10505112340361,4.409592213409693,-2.6644977074274743,-0.24256778771245188,0.0060287977156173985,-0.05882574929728665,0.11731786435978006,0.14477035611905714,-0.24182943713232916,-0.46603524684906,0.6081957817077637,0.6205616593360901,0.3683682978153229,0.2763695418834686,-0.3117639720439911
1749055449.93108,4.221286840489844,-1.2247313387430054,-1.548772819931461,-4.104809127452933,4.409899258440606,-2.6650042823632485,-0.24427369879074423,0.006022786442530917,-0.05930074912975726,0.11853268028343625,0.14586412978231628,-0.2440631173466456,-0.536329984664917,0.6006426811218262,0.6061691045761108,0.3630409836769104,0.2812628448009491,-0.3109718561172485
1749055449.931117,4.22076616178068,-1.2247193185216274,-1.5488959895992793,-4.104564128392748,4.4102080457740165,-2.665515772398316,-0.2458909459111119,0.006010388301056512,-0.059764330142120195,0.11972084494156367,0.14704651668858906,-0.2462881877992358,-0.4709453880786896,0.6109694242477417,0.6167816519737244,0.3582065403461456,0.2682386934757232,-0.3068915903568268
1749055449.9314234,4.220242990937291,-1.2247076297871207,-1.5490200160060856,-4.104316575598194,4.41051810633661,-2.66603089265626,-0.24742314796969,0.005996750040955948,-0.06021351618878665,0.12085898493324046,0.14830879225233876,-0.2484615437402211,-0.4376767575740814,0.5957555770874023,0.6374846696853638,0.3580320477485657,0.2692304253578186,-0.2909746170043945
1749055449.93343,4.2197189843162395,-1.224696230217791,-1.549144558237132,-4.104066982667662,4.410829046322936,-2.66654837356328,-0.24888283164210329,0.005987480152678626,-0.060646244908434885,0.12192925764321935,0.14963504138692046,-0.2505415566282132,-0.4599640369415283,0.6200079917907715,0.6326485276222229,0.3518922924995422,0.3036428689956665,-0.3009262979030609
1749055449.978303,4.219195616673258,-1.2246850304510368,-1.549269314404224,-4.103815891184676,4.411140556477971,-2.6670670458546883,-0.2502899165144378,0.005988094454520601,-0.06106199247901854,0.1229206863764708,0.15100297258164067,-0.25249268430684246,-0.471727192401886,0.6125809550285339,0.6230682134628296,0.3528777360916137,0.3083304166793823,-0.3328948020935058
1749055449.97835,4.218674092026247,-1.2246739021869935,-1.5493940433323168,-4.103563836299171,4.411452410780108,-2.6675859072652357,-0.2516693552501516,0.006003462544896336,-0.06146223811261136,0.12382934171940665,0.15238550465103987,-0.2542894901748471,-0.4681140482425689,0.6018476486206055,0.6333149075508118,0.3539783656597137,0.3180009722709656,-0.3062409162521362
1749055449.978391,4.218155281144713,-1.2246626909173504,-1.549518579827143,-4.103311315327877,4.411764460021907,-2.668104171883134,-0.25304831450895465,0.006037324151449202,-0.0618506744292873,0.12465743507881337,0.1537530449193542,-0.2559196526948239,-0.4937607049942016,0.5836490392684937,0.6304980516433716,0.3517808318138122,0.313684731721878,-0.2751110792160034
1749055449.9784305,4.21763968448511,-1.224651232472701,-1.5496428438469805,-4.103058759869963,4.412076625744665,-2.6686213046056384,-0.2544533063456854,0.006091930284953447,-0.06223310551639529,0.12541160703811208,0.15507624477572232,-0.25738556226980724,-0.5212597846984863,0.6253912448883057,0.627426028251648,0.3737466633319855,0.2851722240447998,-0.2603866755962372
1749055449.978469,4.217127418128056,-1.224639371637702,-1.5497668443612842,-4.102806511541928,4.412388898437579,-2.6691370428205645,-0.25590765755780825,0.006167842461286897,-0.06261702063481527,0.12610085450704522,0.1563288662370631,-0.25870416825589426,-0.5175952315330505,0.6362314820289612,0.6068817973136902,0.3783294558525085,0.2779367566108703,-0.2577996551990509
1749055449.9785068,4.216618219751274,-1.224626980437709,-1.5498906784967696,-4.10255480139778,4.412701341384347,-2.6696514062220587,-0.2574296351658612,0.006263899614837966,-0.06301088802297992,0.12673460061606312,0.15749029782353197,-0.2599049506098103,-0.5030527710914612,0.6287369132041931,0.5929818153381348,0.3758687674999237,0.2674023509025574,-0.2465182244777679
1749055449.9785445,4.216111471733485,-1.2246139735726267,-1.5500145260186426,-4.102303733376059,4.413014098733363,-2.670164694428387,-0.2590314103287404,0.0063773398943308595,-0.06342326880885578,0.1273213506748901,0.1585473029455411,-0.2610262456165284,-0.4860143959522247,0.6314786076545715,0.6153255105018616,0.4057648181915283,0.2668027877807617,-0.2877302467823028
1749055449.9785824,4.215606239073255,-1.2246003187831074,-1.5501386387992993,-4.102053272620794,4.4133274040203165,-2.6706774712961177,-0.26071885864882177,0.006504046882219128,-0.06386188747779618,0.12786821272104193,0.15949477584755423,-0.2621105280278248,-0.4672816395759582,0.6174985766410828,0.5818943977355957,0.387299120426178,0.2503848373889923,-0.3271718919277191
1749055449.9786203,4.215101320805273,-1.2245860405860163,-1.5502633249949918,-4.101803240144744,4.41364158400166,-2.671190534563434,-0.26249203358826817,0.0066388826373465215,-0.06433280090061962,0.1283813284665206,0.16033553141845228,-0.26319947507483227,-0.5144814252853394,0.6122825741767883,0.5938420295715332,0.3760265111923218,0.2879500389099121,-0.3173262476921081
1749055449.978659,4.214595314732906,-1.2245712168751857,-1.5503889280857657,-4.101553315787834,4.413957052545289,-2.671704869603429,-0.2643460776769772,0.006776076350101911,-0.06483978111824878,0.12886700846714846,0.1610793579118733,-0.26432961630014823,-0.5263378620147705,0.6287673115730286,0.57340407371521,0.3471019864082336,0.2799403965473175,-0.3104283213615417
1749055449.9786985,4.214086696012,-1.2245559692427352,-1.5505158014936564,-4.101303051388905,4.414274290706505,-2.672221586716486,-0.2662723498667157,0.006909649917219773,-0.06538397311481556,0.12933316046321702,0.16174165598818488,-0.26552914238530995,-0.5219022035598755,0.5926205515861511,0.6311891674995422,0.3256526887416839,0.2866136133670807,-0.3040391802787781
1749055449.978736,4.213573909643393,-1.224540448976691,-1.5506442801077804,-4.1010518952373625,4.414593812026059,-2.6727418429426457,-0.268259589193368,0.007033865730965863,-0.06596382353903618,0.1297905117266891,0.1623419694308789,-0.2668161360111148,-0.4853121638298034,0.6184725761413574,0.5891684293746948,0.3640451431274414,0.2927035391330719,-0.2790578603744507
1749055449.9787736,4.213055474449942,-1.2245248210245154,-1.5507746508441158,-4.100799227144681,4.414916116039068,-2.673266752390892,-0.2702949694233926,0.007143671131505092,-0.06657522837082006,0.1302531897693513,0.1629026163489866,-0.26819822642207664,-0.4775976538658142,0.5967485308647156,0.5944582223892212,0.3517710268497467,0.2690474689006805,-0.331868827342987
1749055449.9788115,4.21253009115736,-1.224509247957017,-1.5509071253881612,-4.100544401063169,4.415241637134494,-2.673797293727375,-0.2723649446608841,0.00723509833897188,-0.06721183782323335,0.1307384131657018,0.16344750741393033,-0.26967350455599826,-0.4775976538658142,0.5967485308647156,0.5944582223892212,0.3517710268497467,0.2690474689006805,-0.331868827342987
1749055449.9788492,4.211996740919068,-1.2244938756779893,-1.551041819133899,-4.100286789716175,4.415570699150681,-2.6743342285315372,-0.2744558602122173,0.007305572679804693,-0.06786547347101421,0.1312652760385438,0.16400113705664254,-0.27123243589564167,-0.5206801891326904,0.5941569805145264,0.6284723877906799,0.3359216451644897,0.2569055557250976,-0.3105161190032959
1749055449.9788864,4.21145475678054,-1.2244788224444816,-1.5511787403065265,-4.100025824499889,4.415903486775074,-2.674878046624169,-0.27655437632715485,0.007354089556416043,-0.06852662292336155,0.1318528039484297,0.16458767520651338,-0.2728604237179688,-0.5206801891326904,0.5941569805145264,0.6284723877906799,0.3359216451644897,0.2569055557250976,-0.3105161190032959
1749055449.978937,4.210903853399053,-1.2244641723105942,-1.5513177917621104,-4.0997610252852335,4.416240041366854,-2.675428950807421,-0.2786477786709899,0.007381236760175975,-0.06918496798760779,0.13251757969382455,0.16523006129433793,-0.2745405920698223,-0.4726657569408417,0.5924181938171387,0.6264473795890808,0.3537511825561523,0.2337686568498611,-0.283295601606369
1749055449.9789765,4.210344110500427,-1.224449973110191,-1.551458785171452,-4.099492018668246,4.416580281483842,-2.675986883175821,-0.2807242243508968,0.007389058243086885,-0.06982989275371557,0.13327129620283037,0.16594899124692422,-0.27625631102033554,-0.5066659450531006,0.6082508563995361,0.6219146847724915,0.3709634840488434,0.258550226688385,-0.2678299844264984
1749055449.9790142,4.209775918894277,-1.2244362379189235,-1.5516014642227107,-4.099218547943632,4.416924039923857,-2.676551581980933,-0.2827729335692511,0.007380775438608921,-0.07045093247088562,0.13411860981845833,0.1667617007553332,-0.27799303563963673,-0.5264387726783752,0.6201861500740051,0.6221100687980652,0.36786749958992,0.2207267880439758,-0.2935595512390136
1749055449.9790523,4.209199907927494,-1.2244229483431919,-1.5517455314085482,-4.09894048111396,4.417271103451055,-2.6771226482288353,-0.2847843153934127,0.007360400716706558,-0.07103816283010363,0.1350556409596206,0.16768052084760085,-0.2797392045277341,-0.5328755974769592,0.6180015802383423,0.6039322018623352,0.3957453370094299,0.2781751155853271,-0.2838462591171264
1749055449.9790914,4.208616875389934,-1.2244100583167734,-1.5518906727107202,-4.098657822861912,4.417621241269922,-2.6776995997287525,-0.2867500075985827,0.00733229421388153,-0.07158256917624793,0.13606938839135765,0.1687113298612617,-0.2814861983170318,-0.47419473528862,0.6152142882347107,0.6446620225906372,0.3563757836818695,0.2993326783180237,-0.3131742477416992
1749055449.9791284,4.208027735098938,-1.2243974979495398,-1.5520365759888706,-4.0983707328178305,4.417974213292451,-2.678281897505038,-0.28866280578243414,0.007300728530392179,-0.07207645062181815,0.137138188842834,0.16985219469346988,-0.2832275882709012,-0.467877984046936,0.6116780042648315,0.6168056726455688,0.3739120662212372,0.3038639426231384,-0.3144062459468841
1749055449.9793627,4.207433487341204,-1.2243851777162897,-1.5521829415135806,-4.098079547514982,4.418329756663783,-2.6788689414751747,-0.2905164824591878,0.00726952833192607,-0.07251389825569317,0.13823319404431678,0.17109258086700196,-0.2849580241472859,-0.5426739454269409,0.6165162920951843,0.6250463128089905,0.3666841983795166,0.2883369326591491,-0.2886325418949127
1749055449.981404,4.206835206968544,-1.2243729935185863,-1.5523294861375463,-4.097784799054233,4.4186875565812205,-2.6794600445356074,-0.2923055775517762,0.007241835823525252,-0.07289135173987861,0.1393206956680668,0.1724134479160491,-0.28667211253197905,-0.5426739454269409,0.6165162920951843,0.6250463128089905,0.3666841983795166,0.2883369326591491,-0.2886325418949127
1749055450.0223134,4.206234036221093,-1.224360832934865,-1.5524759450332533,-4.097487220965124,4.419047213550729,-2.6800544029991697,-0.2940253206157028,0.007220021019333997,-0.0732081953278158,0.14036503111698456,0.1737883595417937,-0.28836357275522717,-0.5242687463760376,0.599888026714325,0.6353755593299866,0.3569099903106689,0.2918564677238464,-0.319329172372818
1749055450.0223598,4.205631167296136,-1.2243485825999516,-1.5526220754114917,-4.097187732309719,4.419408221548555,-2.680651083224915,-0.2956718150549144,0.007205721010087715,-0.07346730403216979,0.14133174639814633,0.17518551818278333,-0.2900248708088841,-0.5044420957565308,0.6304206252098083,0.649208128452301,0.3483922183513641,0.2680898606777191,-0.3239330351352691
1749055450.0224006,4.205027804850363,-1.224336136323257,-1.5527676647046358,-4.096887395444806,4.419769968317796,-2.6812490378168667,-0.29724246060820253,0.007199967163379588,-0.07367539984325247,0.14219066672742586,0.17657046909706367,-0.29164742485524464,-0.4304276704788208,0.6256757378578186,0.6593263745307922,0.3402904272079468,0.2775284051895141,-0.319968044757843
1749055450.02244,4.204425107936257,-1.2243234031483126,-1.5529125426598644,-4.09658734943101,4.420131761912277,-2.681847153675573,-0.2987364310977353,0.007203347193619657,-0.07384304790135296,0.14291853681876515,0.17790914977830521,-0.29322233371773576,-0.5475584268569946,0.6046996712684631,0.6628963947296143,0.32779461145401,0.2707202434539795,-0.3088749051094055
1749055450.022478,4.203824118274478,-1.2243103140354286,-1.5530565946501838,-4.0962887265630545,4.420492880716194,-2.682444325143947,-0.30015497443310435,0.007216149913162309,-0.07398413971329447,0.14350095316736386,0.17917096550441106,-0.2947414172938248,-0.4981787204742431,0.5962551236152649,0.6793014407157898,0.3193053603172302,0.2708103954792022,-0.2920067608356476
1749055450.0225165,4.203225684244597,-1.2242968256577258,-1.5531997731024891,-4.095992562051151,4.42085263986403,-2.68303954172465,-0.30150135944668194,0.007238454076693821,-0.0741147891904421,0.14393341564601336,0.18033159342911,-0.2961982380283318,-0.4543341994285583,0.6096318364143372,0.6625262498855591,0.3158945739269256,0.2763651013374328,-0.2954995334148407
1749055450.0225549,4.202630389362844,-1.224282920416104,-1.55334210470695,-4.0956997071425505,4.421210464741882,-2.683631979564146,-0.3027803993320599,0.007270146483389972,-0.07425169747611511,0.14422145148816465,0.18137522100831072,-0.29758876772135784,-0.4925140738487243,0.60738605260849,0.6550426483154297,0.3056708574295044,0.2606020271778106,-0.2842929363250732
1749055450.0225928,4.202038493076674,-1.2242686029583398,-1.5534836922217858,-4.095410755112409,4.421565961189629,-2.6842210863194658,-0.30399760634281286,0.007310880524761103,-0.07441018912965743,0.14437988479999564,0.18229592917838652,-0.29891149246804083,-0.513627827167511,0.5949344635009766,0.6277660727500916,0.3147733211517334,0.2478976249694824,-0.3063066601753235
1749055450.0226307,4.201449891261346,-1.224253894451527,-1.5536247107452577,-4.095125987992958,4.421918972307302,-2.684806649186418,-0.30515815754300185,0.007360005269321291,-0.07460223731714437,0.14443141971392548,0.18309798054759785,-0.30016695122775167,-0.537693202495575,0.6297975778579712,0.6214960217475891,0.3127897977828979,0.2468854188919067,-0.3148877620697021
1749055450.0226693,4.200864103249526,-1.224238826182565,-1.5537653989957305,-4.0948453497143875,4.422269613639894,-2.685388836258706,-0.3062659163687832,0.007416502054548616,-0.07483483735610491,0.14440475766898273,0.1837948922272939,-0.30135688754361184,-0.5294020175933838,0.638893187046051,0.6038128137588501,0.3302358388900757,0.2632136046886444,-0.3364876806735992
1749055450.022708,4.20028029081012,-1.224223433962447,-1.553906046323532,-4.094568448662374,4.422618281421104,-2.6859682029330094,-0.30732270898220293,0.007478960841913776,-0.07510903775592076,0.14433246485475076,0.18440734766470912,-0.30248329390230644,-0.5002295970916748,0.6000272035598755,0.6163480877876282,0.2915899157524109,0.2735702395439148,-0.2965099811553955
1749055450.0227468,4.199697311768861,-1.224207754593563,-1.5540469760518971,-4.094294589696678,4.422965631746456,-2.6865456584675176,-0.3083279377946887,0.007545614589035318,-0.07541980924965995,0.1442487506352275,0.1849601882895308,-0.30354762723123924,-0.4923373162746429,0.6246463656425476,0.6144282817840576,0.3157532513141632,0.2543138563632965,-0.3101559281349182
1749055450.0227847,4.199113806594326,-1.2241918253270971,-1.554188525710846,-4.094022832467767,4.423312531975773,-2.6871223931899744,-0.30927852623907953,0.007614430091541616,-0.07575676504847939,0.14418724919379017,0.18547887878110864,-0.3045503926707977,-0.5244908332824707,0.6136289238929749,0.6338561177253723,0.3206590414047241,0.2889903485774994,-0.3151904344558716
1749055450.022823,4.198528310043556,-1.2241756866212299,-1.5543310252765707,-4.093752069377154,4.423659989732927,-2.6876997739834247,-0.31016917359844115,0.007683235771669577,-0.0761055885181076,0.1441788626758384,0.185985933547765,-0.30549117048067687,-0.5244908332824707,0.6136289238929749,0.6338561177253723,0.3206590414047241,0.2889903485774994,-0.3151904344558716
1749055450.0228612,4.197939372853584,-1.2241593875161811,-1.5544747757188784,-4.093481113164753,4.424009069204433,-2.6882792234465738,-0.3109929079216519,0.0077498603821732955,-0.07644991656512153,0.1442497414205502,0.18649781565525778,-0.3063690344760341,-0.4581054449081421,0.6150467395782471,0.6359197497367859,0.3103935718536377,0.2705280780792236,-0.3071560859680176
1749055450.0228994,4.197345673576464,-1.2241429917147633,-1.554620031148683,-4.093208782239888,4.42436080731594,-2.688862103637018,-0.3117418973171399,0.007812264158853475,-0.07677338364543598,0.14441951800110195,0.18702276644817956,-0.3071832053924051,-0.4581054449081421,0.6150467395782471,0.6359197497367859,0.3103935718536377,0.2705280780792236,-0.3071560859680176
1749055450.0229366,4.19674610151177,-1.2241265814982225,-1.5547669875722616,-4.092933973046094,4.424716141890799,-2.689449625024149,-0.3124084210056613,0.007868657633780333,-0.07706154162408609,0.144699940063899,0.18755989579085564,-0.30793372345220626,-0.4740683734416961,0.5936239361763,0.6781591176986694,0.3269122838973999,0.2885812520980835,-0.304525077342987
1749055450.0229738,4.196139799543541,-1.2241102566175317,-1.554915779479619,-4.092655713292223,4.4250758595807556,-2.6900427936413296,-0.31298586370018266,0.007917612627741502,-0.07730341257649413,0.14509404907461676,0.1880996735083241,-0.30862193408886335,-0.5234676003456116,0.6207062602043152,0.6344717144966125,0.3523699641227722,0.301902174949646,-0.2902400493621826
1749055450.0230107,4.195526168961412,-1.2240941266428826,-1.555066482815181,-4.092373196619754,4.425440564274372,-2.6906423957842063,-0.3134696038127118,0.007958170153482418,-0.07749249460568053,0.14559603029771348,0.18862573643098862,-0.3092506617563968,-0.4793958961963653,0.6277238726615906,0.6680207848548889,0.3568930029869079,0.2904756665229797,-0.3071225881576538
1749055450.023049,4.1949048522732815,-1.2240782974807856,-1.5552191203845014,-4.092085805587469,4.425810659473634,-2.691249004917033,-0.31385769491269916,0.007989941528824922,-0.0776271279865171,0.14619181190686165,0.1891176963976353,-0.3098240691180359,-0.4896559417247772,0.6395314931869507,0.6360589861869812,0.3610481321811676,0.281004786491394,-0.3308925926685333
1749055450.0245173,4.194275716581497,-1.2240628547980943,-1.555373665089853,-4.091793131970958,4.426186335057104,-2.691862988342241,-0.31415127041602153,0.008013184793591869,-0.07771023483140956,0.1468604127865547,0.1895544522037866,-0.3103473089274376,-0.4896559417247772,0.6395314931869507,0.6360589861869812,0.3610481321811676,0.281004786491394,-0.3308925926685333
1749055450.0254478,4.193638853785126,-1.2240478480142813,-1.555530038580118,-4.0914949992588285,4.426567552636917,-2.6924844976103204,-0.31435463755082355,0.008028825943854588,-0.07774854519199091,0.14757593217684312,0.1899174316989807,-0.3108261205611109,-0.5313100218772888,0.6140629649162292,0.627303957939148,0.3327167630195617,0.2791520953178406,-0.3090938031673431
1749055450.0662751,4.1929945991577,-1.2240332782427765,-1.5556881065647108,-4.091191484798635,4.426954031339447,-2.6931134418675757,-0.31447506838674566,0.008038394345637426,-0.07775148860912684,0.1483099597404629,0.1901932548764674,-0.3112664842717854,-0.4436666071414947,0.6208158731460571,0.6490906476974487,0.3500027358531952,0.2665399312973022,-0.2957973480224609
1749055450.066321,4.192343557963753,-1.2240190926016958,-1.5558476743779368,-4.090882934004861,4.427345240832679,-2.693749455512109,-0.3145223325811463,0.008043858231417317,-0.07772995091838318,0.14903410113095492,0.1903754902400787,-0.3116743576629834,-0.4436666071414947,0.6208158731460571,0.6490906476974487,0.3500027358531952,0.2665399312973022,-0.2957973480224609
1749055450.066362,4.1916866267437545,-1.2240051861219685,-1.5560084862405774,-4.09056995898583,4.427740408186701,-2.6943918742700395,-0.31450805010939137,0.008047372041334802,-0.07769507742634259,0.14972230105217585,0.19046539605863752,-0.31205543866061175,-0.5026513934135437,0.5990035533905029,0.6369229555130005,0.3370153903961181,0.280854731798172,-0.3046838045120239
1749055450.0664022,4.191024998050113,-1.223991411171574,-1.556170230335911,-4.090253416704461,4.428138542828515,-2.6950397307266494,-0.31444498004182814,0.00805097147719635,-0.07765725941963457,0.15035270648918167,0.19047171771387944,-0.31241486324063317,-0.5026513934135437,0.5990035533905029,0.6369229555130005,0.3370153903961181,0.280854731798172,-0.3046838045120239
1749055450.066442,4.190360139374901,-1.223977592975397,-1.5563325507525874,-4.0899343645335415,4.428538482544367,-2.6956917771470814,-0.31434638373851054,0.008056267042194972,-0.07762538465482349,0.15090891068805576,0.19040971965181624,-0.3127567570888209,-0.4968871772289276,0.6141919493675232,0.6261699795722961,0.3406179547309875,0.2629891335964203,-0.2857737839221954
1749055450.0664809,4.189693739297633,-1.2239635487379856,-1.556495066434159,-4.089613993779081,4.42893896195578,-2.696346540376649,-0.3142255682806483,0.008064188505648981,-0.07760637413164954,0.15138051857629556,0.19029967326591635,-0.31308361179639677,-0.4550645649433136,0.6137025356292725,0.6614285111427307,0.3288362920284271,0.3007962107658386,-0.287217229604721
1749055450.06652,4.189027620494353,-1.2239491074365056,-1.5566573956109424,-4.089293545992157,4.42933870020959,-2.697002407317558,-0.31409562602409097,0.008074821462748702,-0.07760497631586304,0.15176306871650785,0.19016502453357684,-0.3133955441080894,-0.479733407497406,0.6340105533599854,0.6429247856140137,0.3403764963150024,0.2829294800758362,-0.3285994827747345
1749055450.066559,4.188363629914898,-1.2239341276618452,-1.5568191818901962,-4.08897422231477,4.429736497323271,-2.697657729790552,-0.3139692913666487,0.008087358090530074,-0.07762375597335895,0.15205743278454362,0.19003044715523779,-0.3136896025108772,-0.466941773891449,0.611683189868927,0.6520023941993713,0.329937994480133,0.2771214246749878,-0.3084497153759002
1749055450.0665972,4.187703524162607,-1.2239185116819062,-1.5569801169041453,-4.088657099283046,4.430131323677292,-2.6983109305885122,-0.31385878490351016,0.008100161720817338,-0.0776632067136209,0.1522688709579547,0.18991995205630277,-0.31395936315665013,-0.4029082953929901,0.602353572845459,0.6486940979957581,0.3219018280506134,0.2864872813224792,-0.3114060461521148
1749055450.066636,4.187048866310934,-1.223902214765842,-1.5571399557090515,-4.088343062293695,4.430522388925979,-2.69896059461313,-0.31377551462819,0.008110921633214007,-0.07772193672289739,0.152405927921763,0.1898551736723164,-0.31419505402765163,-0.4029082953929901,0.602353572845459,0.6486940979957581,0.3219018280506134,0.2864872813224792,-0.3114060461521148
1749055450.0666745,4.186400941170325,-1.2238852494838095,-1.5572985244312418,-4.088032761499161,4.430909183828044,-2.6996055387775466,-0.3137295538552056,0.008116859563535023,-0.07779691637706233,0.15247931137884757,0.18985390326537785,-0.3143843438276276,-0.4738298952579498,0.6057688593864441,0.6181010603904724,0.3457983732223511,0.2740091979503631,-0.291116327047348
1749055450.066712,4.185760688507816,-1.2238676851411152,-1.5574557225530234,-4.087726588980195,4.431291495481755,-2.70024486325752,-0.31372892290307897,0.008114955810838102,-0.07788381289548998,0.15250083017073598,0.18992890522758915,-0.31451376730609243,-0.5064586400985718,0.6318094730377197,0.6445163488388062,0.3149560987949371,0.2793444395065307,-0.2928843796253204
1749055450.066749,4.185128654091059,-1.2238496428086507,-1.557611522768322,-4.087424674142802,4.4316693990216285,-2.7008779878120484,-0.3137788297105486,0.008102187939271666,-0.07797744696455222,0.15248241435556883,0.19008703472092947,-0.31457060116345065,-0.4068896472454071,0.6207740306854248,0.6390299201011658,0.3220616579055786,0.2542829215526581,-0.2966783344745636
1749055450.0667868,4.184504963464905,-1.223831286681926,-1.557765969782449,-4.087126895470751,4.432043228145293,-2.701504672038301,-0.31388109252972607,0.008075794587772255,-0.07807237681578479,0.15243521873643295,0.19032867414732757,-0.3145449047270984,-0.4989219307899475,0.6021333932876587,0.6316054463386536,0.3433457016944885,0.3174449801445007,-0.3097724318504333
1749055450.066832,4.183889325005286,-1.2238128127158645,-1.557919177653772,-4.086832907605379,4.432413527048981,-2.7021250150299183,-0.31403393360736975,0.008033570294962036,-0.07816355554221287,0.1523688290317481,0.19064752372054386,-0.3144313963383943,-0.5387153625488281,0.5795284509658813,0.6545059084892273,0.3238973617553711,0.3088216483592987,-0.317257285118103
1749055450.0668726,4.183281063448681,-1.223794435514447,-1.5580713247617908,-4.086542181385158,4.4327809894623265,-2.7027394325172223,-0.3142322319120939,0.00797417131784044,-0.07824694663805956,0.15229061866847857,0.19103080174514456,-0.3142308252359934,-0.5387153625488281,0.5795284509658813,0.6545059084892273,0.3238973617553711,0.3088216483592987,-0.317257285118103
1749055450.0669105,4.182679176568826,-1.2237763742891767,-1.5582226462444402,-4.086254052049682,4.433146394474372,-2.7033486159421023,-0.31446820917136975,0.007897389655985245,-0.07831995532714034,0.15220530933116783,0.19145990202801919,-0.3139505269124275,-0.4405910968780517,0.5882758498191833,0.6672928929328918,0.3563622832298279,0.2697320580482483,-0.2750355303287506
1749055450.0669482,4.1820824025074,-1.2237588384912865,-1.5583734246914944,-4.085967769571816,4.43351055012263,-2.703953482322615,-0.31473242100107385,0.007804346357434579,-0.07838155878699452,0.15211477311643248,0.1919115055546926,-0.31360395909731764,-0.3967887461185455,0.5814266204833984,0.6755242347717285,0.3222262561321258,0.2884532213211059,-0.2875102460384369
1749055450.0669858,4.181489286798387,-1.2237420135898993,-1.5585239799814314,-4.0856825461746515,4.433874252607559,-2.704555122704416,-0.3150148510906544,0.007697565379217926,-0.07843208958561677,0.15201810642428093,0.19235907551790338,-0.3132092215925136,-0.3967887461185455,0.5814266204833984,0.6755242347717285,0.3222262561321258,0.2884532213211059,-0.2875102460384369
1749055450.067023,4.180898244172193,-1.2237260474222154,-1.5586746583839115,-4.085397598528817,4.434238263221832,-2.705154752238333,-0.3153058903216236,0.007580909802863965,-0.07847271427234544,0.1519120098951471,0.19277462170028412,-0.31278681543576553,-0.5068475008010864,0.6018746495246887,0.6304851174354553,0.3303032517433166,0.3138019442558288,-0.3247168660163879
1749055450.0673783,4.180307616655226,-1.2237110376823317,-1.5588258200524105,-4.085112184318846,4.434603299354838,-2.705753660233223,-0.31559703684145074,0.007459384547152827,-0.07850472090865626,0.15179150583157044,0.1931306184585447,-0.31235710412753076,-0.4346608817577362,0.5854743123054504,0.6766427755355835,0.3383500277996063,0.296917051076889,-0.3155291974544525
1749055450.0693667,4.179715734178885,-1.2236970216298177,-1.5589778232891789,-4.084825634326037,4.434970031511499,-2.7063531555382374,-0.31588125047332954,0.007338824633180998,-0.0785287685931936,0.15165099889839406,0.1934019707399044,-0.31193802178340563,-0.4603270590305328,0.6121280789375305,0.6427068114280701,0.3764175176620483,0.275947093963623,-0.3190654516220093
1749055450.110282,4.179120984858816,-1.223683969826414,-1.5591310041067323,-4.084537381400122,4.435339076630224,-2.7069545026985096,-0.3161529925035542,0.007225492115616814,-0.07854426008866758,0.15148562673320146,0.19356790581647712,-0.31154349491501976,-0.4603270590305328,0.6121280789375305,0.6427068114280701,0.3764175176620483,0.275947093963623,-0.3190654516220093
1749055450.1103294,4.178521896735209,-1.2236717859617838,-1.5592856513119528,-4.084246985686124,4.435710981208667,-2.707558849578415,-0.31640805386385173,0.00712560501142576,-0.07854898067332945,0.15129275547292587,0.19361362697984433,-0.3111828342886388,-0.5051855444908142,0.6076895594596863,0.6355165839195251,0.3622532486915588,0.2729188799858093,-0.2924058437347412
1749055450.1103704,4.177917223550505,-1.223660313992129,-1.5594419799114259,-4.083954152360245,4.436086194573795,-2.708167155008895,-0.3166433078510475,0.0070448295225669115,-0.07853909885751971,0.1510733813892542,0.19353154227371397,-0.31086109258849504,-0.4559006989002228,0.6098185181617737,0.6735112071037292,0.3714354038238525,0.2487791031599044,-0.2982531189918518
1749055450.1104136,4.177306021708675,-1.2236493520720815,-1.5596001071528618,-4.083658737283217,4.436465037943852,-2.7087801283472643,-0.3168565036915041,0.006987785447742719,-0.07850954617243668,0.15083314704271972,0.19332191038589241,-0.31058015523923366,-0.4559006989002228,0.6098185181617737,0.6735112071037292,0.3714354038238525,0.2487791031599044,-0.2982531189918518
1749055450.1104538,4.17668770741442,-1.2236386710301674,-1.5597600351133372,-4.083360738699626,4.4368476757059705,-2.7093981890234975,-0.3170461480627361,0.0069576319608418355,-0.07845470144963702,0.15058269550218903,0.19299281477030486,-0.3103401761692984,-0.4397144913673401,0.6007583737373352,0.675240695476532,0.3474090695381164,0.24906787276268,-0.3092187047004699
1749055450.1104932,4.176062088182498,-1.2236280343034003,-1.55992164228116,-4.083060277107054,4.437234093283918,-2.710021447924143,-0.3172114435489567,0.006955799968448948,-0.07836922851117793,0.1503371786687941,0.19255944535753647,-0.310140899109207,-0.4672402143478393,0.6127269864082336,0.7057815194129944,0.3456715941429138,0.2578338980674743,-0.2299270927906036
1749055450.1105323,4.175429367536765,-1.2236172165144266,-1.5600846848873817,-4.082757568402182,4.4376240835287915,-2.710649708086305,-0.31735221633755045,0.006981911623558558,-0.07824887794160555,0.15011489457342694,0.19204271745845758,-0.3099824379196599,-0.4672402143478393,0.6127269864082336,0.7057815194129944,0.3456715941429138,0.2578338980674743,-0.2299270927906036
1749055450.1105742,4.1747901256218505,-1.2236060187882971,-1.5602488070923675,-4.082452896856138,4.438017241699425,-2.711282479890405,-0.3174687856282849,0.007033886651490711,-0.07809108167061092,0.14993521043247668,0.19146731549852616,-0.30986525878806415,-0.4696159958839416,0.6108430027961731,0.6803757548332214,0.3573809564113617,0.2758307754993438,-0.2903437316417694
1749055450.1106138,4.174145280967506,-1.223594279833598,-1.5604135582098269,-4.082146593828918,4.438412968930263,-2.711919006237033,-0.3175617766713455,0.007108197410658513,-0.07789525000595421,0.14981608058498586,0.19085934262342866,-0.309789410299841,-0.4696159958839416,0.6108430027961731,0.6803757548332214,0.3573809564113617,0.2758307754993438,-0.2903437316417694
1749055450.1106515,4.1734960378121055,-1.223581882451359,-1.5605784156055003,-4.081839024867469,4.438810486210313,-2.712558297045113,-0.31763191823288184,0.007200217084699307,-0.07766279316204641,0.1497715626356435,0.19024386852934688,-0.3097533839403684,-0.4671294093132019,0.6427794694900513,0.6879253387451172,0.3666983246803283,0.2732853293418884,-0.3047077357769012
1749055450.110689,4.1728438199444655,-1.2235687556003816,-1.560742813041087,-4.081530583316523,4.439208863256267,-2.713199177334141,-0.31767987094901134,0.00730461372504426,-0.07739697022096716,0.14980976169770124,0.18964274432129347,-0.30975318193414725,-0.4711626470088959,0.6442077159881592,0.6843069195747375,0.4109417796134949,0.3044860363006592,-0.3239337801933288
1749055450.1107404,4.172190189669915,-1.2235548726164382,-1.5609061745135973,-4.081221685519871,4.439607066138731,-2.713840354355771,-0.31770610781644976,0.007415765264509134,-0.07710268040175515,0.14993158330452977,0.18907304895721327,-0.3097821066495236,-0.4711626470088959,0.6442077159881592,0.6843069195747375,0.4109417796134949,0.3044860363006592,-0.3239337801933288
1749055450.1107838,4.1715367514790005,-1.2235402465838898,-1.5610679525186004,-4.080912762421383,4.440004023694747,-2.7144805051996115,-0.3177108354728561,0.007528185027248114,-0.07678627361188822,0.1501305450527178,0.18854642920155837,-0.30983150922520636,-0.4535490274429321,0.6123485565185547,0.6843486428260803,0.3931897580623626,0.2671669721603393,-0.3061173558235168
1749055450.1108215,4.170885042730821,-1.2235249239915293,-1.5612276681396768,-4.080604243808848,4.440398708354119,-2.7151183804272065,-0.3176939354231645,0.007636940992455837,-0.07645540679241859,0.1503936952978781,0.18806940771846672,-0.3098923866779157,-0.4535490274429321,0.6123485565185547,0.6843486428260803,0.3931897580623626,0.2671669721603393,-0.3061173558235168
1749055450.1108582,4.17023641591383,-1.2235089776291992,-1.5613849496492038,-4.080296533107409,4.440790224422085,-2.7157529153491056,-0.31765492582652555,0.007738032598028325,-0.07611892652628874,0.15070345357513842,0.18764451369939797,-0.3099574235663437,-0.4859142899513244,0.6127632260322571,0.6879485249519348,0.3879272043704986,0.2283902466297149,-0.2923678159713745
1749055450.110896,4.169591919109069,-1.2234924993583318,-1.5615395665523346,-4.079989972498527,4.4411778958583925,-2.7163833387914424,-0.3175929688340946,0.007828673434400043,-0.07578672344438446,0.15103999051563227,0.18727191438458388,-0.31002290733152627,-0.4859142899513244,0.6127632260322571,0.6879485249519348,0.3879272043704986,0.2283902466297149,-0.2923678159713745
1749055450.1109374,4.168952184652069,-1.223475593117198,-1.5616914564859719,-4.079684800888368,4.441561344732969,-2.7170092678119113,-0.3175069445414009,0.007907428937263972,-0.07546949191748765,0.15138367169979797,0.18695115079644756,-0.3100899349595248,-0.4436566531658172,0.6293758749961853,0.669495165348053,0.3930181860923767,0.2516592442989349,-0.2401832342147827
