nimar13/UR3e_dataset_trayectorias/trayectorias_ejecutadas_filtradas/trapezoidal_func/trayectoria_090_result_filtrado.csv
timestamp,q1,q2,q3,q4,q5,q6,qd1,qd2,qd3,qd4,qd5,qd6,tau1,tau2,tau3,tau4,tau5,tau6
1749055967.278338,-5.796606078035153,-2.0079917802525413,1.5034686855970443,-3.131664759093832,2.9864393455215166,4.153838431305934,0.0008515231318709698,-0.002151753468814829,-0.0003337578229300444,0.00024121777728701468,-7.946883077551462e-05,-0.000947303258107597,-0.0210258569568395,-0.2879614531993866,-0.90831059217453,0.1989284455776214,0.3291131258010864,0.0119917541742324
1749055967.278389,-5.796607484001371,-2.007998400550755,1.5034667164718327,-3.1316687646450285,2.986440013091039,4.153833281966824,0.0007678296104002258,-0.002219131263174624,-0.0003216625424771883,0.00023065673525251106,-7.783990352595693e-05,-0.0008866141666145355,-0.0276530236005783,-0.2879694402217865,-0.910774827003479,0.1811639070510864,0.3420636653900146,0.0177279412746429
1749055967.2784317,-5.796608802492227,-2.0080048596362086,1.503464826548937,-3.1316726128859007,2.986440634824379,4.1538283066402295,0.000684735898356187,-0.0022853131284038242,-0.0003097400993230276,0.0002197645363661413,-7.455304301318793e-05,-0.000826956156017518,-0.0381549671292305,-0.2901959717273712,-0.9005192518234253,0.1952087879180908,0.3510094285011291,0.0168066471815109
1749055967.2784936,-5.796609884672603,-2.0080111237215506,1.5034630623247285,-3.1316761694469086,2.9864411053019086,4.153823717978067,0.0006029297888707056,-0.002347045031192842,-0.00029817061707468426,0.00020864207631249456,-6.938582201517135e-05,-0.0007690503194278279,-0.0381549671292305,-0.2901959717273712,-0.9005192518234253,0.1952087879180908,0.3510094285011291,0.0168066471815109
1749055967.2785618,-5.796610610290984,-2.0080171676075147,1.5034614568748672,-3.131679321998777,2.9864413474330216,4.153819697660192,0.0005230774467598815,-0.0024014442794907244,-0.0002871172823266432,0.0001974318574068418,-6.226802538170282e-05,-0.000713526649730713,-0.0509867072105407,-0.2786285877227783,-0.8954185843467712,0.1782999634742736,0.3524461984634399,0.0040378421545028
1749055967.2786307,-5.796610900647254,-2.0080229731701182,1.5034600285097668,-3.131681986744369,2.986441322390898,4.15381638290141,0.000445808806962938,-0.00244612234710729,-0.0002767173459381234,0.0001863234054309621,-5.332777774441026e-05,-0.0006609032901803966,-0.0605233646929264,-0.2967099249362945,-0.8965692520141602,0.1951048672199249,0.346368134021759,0.0137914717197418
1749055967.2786992,-5.796610724320946,-2.008028529227817,1.5034587809263478,-3.1316841118864307,2.986441033064402,4.153813859081386,0.0003717109299473046,-0.002479205184428498,-0.0002670768287490071,0.00017555484679945873,-4.2928198737544345e-05,-0.0006115737855001721,-0.0479581542313098,-0.2674455344676971,-0.8994724750518799,0.1715696454048156,0.336682915687561,0.0077222138643264
1749055967.2787704,-5.796610096053778,-2.008033832547401,1.5034577048417386,-3.1316856779660314,2.986440520650228,4.153812157839936,0.00030132885794063776,-0.0024992666616375538,-0.00025826887267571953,0.0001654091739555913,-3.168803888445711e-05,-0.0005658030963148733,-0.0608504340052604,-0.2842764258384704,-0.8932700157165527,0.1811361014842987,0.3516783714294433,0.0181549489498138
1749055967.2788408,-5.796609070165566,-2.0080388892910612,1.5034567808669421,-3.131686695594122,2.986439855164438,4.153811259390432,0.00023517055883325933,-0.0025052169762223887,-0.00025033470550834636,0.00015620390749164086,-2.047971373502157e-05,-0.0005237325708246828,-0.0458487793803215,-0.296884685754776,-0.9034101963043212,0.1758314967155456,0.3664302825927734,0.0176966786384582
1749055967.2789116,-5.796607730242412,-2.0080437159971076,1.5034559832474326,-3.1316872014692554,2.986439121615456,4.153811097929539,0.00017370997337778706,-0.002496201924573333,-0.00024328562703420444,0.00014827319455806143,-1.0398839543215862e-05,-0.0004853933606966273,-0.0739033743739128,-0.2786626815795898,-0.891736626625061,0.1718234717845916,0.3553367257118225,0.0107493251562118
1749055967.2789817,-5.796606176937677,-2.0080483393425634,1.5034552840737048,-3.1316872535901266,2.9864384042677496,4.153811569422906,0.00011738135482264228,-0.002471563191924729,-0.0002371045731652589,0.0001419419254902485,-2.700913727217561e-06,-0.00045072689163932534,-0.0432213842868804,-0.2870066463947296,-0.8998836874961853,0.1982272863388061,0.3588720560073852,0.027117371559143
1749055967.2790508,-5.7966045158024215,-2.0080527943303474,1.5034546575981387,-3.131686926310247,2.986437771864605,4.153812541246134,6.655967683431143e-05,-0.0024308839932858546,-0.00023174653878002639,0.00013749224888387135,1.2967493273698378e-06,-0.00041961010634254756,-0.0806888043880462,-0.2727655470371246,-0.9045659899711608,0.1822929978370666,0.3552950620651245,0.0065030604600906
1749055967.279124,-5.7966028469556,-2.0080571209092217,1.5034540843235489,-3.131686305491346,2.986437266700588,4.153813863039147,2.1525804426648785e-05,-0.0023741087053501045,-0.0002271380174663669,0.00013512389980055683,3.4633820073712603e-07,-0.000391882476494774,-0.065738134086132,-0.2757669985294342,-0.890844464302063,0.168203055858612,0.3642356395721435,0.0307044833898544
1749055967.2791958,-5.7966012579278665,-2.00806135924451,1.5034535544508059,-3.1316854836971646,2.9864368997286066,4.153815377887777,-1.757924427820467e-05,-0.002301696802165729,-0.0002231763080054115,0.00013491095003791744,-6.5715342098975445e-06,-0.0003673713739965723,-0.078289695084095,-0.2663784921169281,-0.9065412282943726,0.1888102889060974,0.3628290295600891,0.0340578407049179
1749055967.2792685,-5.796599820270144,-2.008065544024882,1.5034530700628093,-3.1316845553106005,2.9864366524939405,4.153816932808648,-5.080094128991039e-05,-0.002214763941101745,-0.00021972990655563324,0.0001367588286016779,-2.007167018272724e-05,-0.0003459123800342861,-0.0797937512397766,-0.2798573076725006,-0.8920050859451294,0.1627232432365417,0.3707526922225952,0.008067712187767
1749055967.2793405,-5.796598589691787,-2.0080696984757624,1.5034526453098283,-3.1316836116497546,2.9864364851293805,4.1538183876422305,-7.840570394742506e-05,-0.0021151757777212806,-0.00021664121793825853,0.00014036660080532599,-4.018611818332632e-05,-0.00032736151430392803,-0.0776673927903175,-0.275484949350357,-0.8947732448577881,0.1761890649795532,0.3636287450790405,0.0225330740213394
1749055967.2794108,-5.796597608675269,-2.0080738291102715,1.503452304146386,-3.131682736406409,2.9864363484084278,4.153819621910758,-0.0001008914087959868,-0.0020055793018260524,-0.0002137324776964929,0.0001452003721495919,-6.620371195964178e-05,-0.0003115971563331781,-0.0667067170143127,-0.2956632673740387,-0.8891714811325073,0.1722895503044128,0.3603428602218628,0.0197094082832336
1749055967.2794816,-5.796596909954878,-2.0080779224258403,1.5034520758259304,-3.131682001818836,2.986436197048768,4.153820539816077,-0.00011896744181198443,-0.001889368201039096,-0.0002108151338595954,0.00015048412802858943,-9.6550443772231e-05,-0.00029851054245630404,-0.0693524479866027,-0.2744697630405426,-0.8861153721809387,0.1774676442146301,0.3736223578453064,0.0331771224737167
1749055967.2795532,-5.796596519310578,-2.008081944545298,1.5034519890424096,-3.1316814658611287,2.98643600116513,4.15382107399337,-0.00013350451441665226,-0.0017705799783410327,-0.00020770217670427132,0.00015521417240845663,-0.00012873539014526686,-0.0002879850665880375,-0.0640887320041656,-0.2806644439697265,-0.8879590630531311,0.1601887643337249,0.3768156766891479,0.0159033685922622
1749055967.2796228,-5.796596456777083,-2.0080858442729053,1.503452066017146,-3.131681170508185,2.986435753287261,4.153821188598829,-0.00014546037150557758,-0.0016537203887413091,-0.00020422231481667072,0.00015820245839199965,-0.0001593860615241184,-0.0002798660834928594,-0.0642385333776474,-0.2878810167312622,-0.880850613117218,0.1836909353733062,0.3800370097160339,0.0390052944421768
1749055967.2798223,-5.796596736095375,-2.0080895593907178,1.5034523178588477,-3.131681140960847,2.9864354697483244,4.1538208817707165,-0.0001557913077528132,-0.0015435134180409229,-0.00020023467775649454,0.00015815243406025315,-0.00018439335599296705,-0.0002739243895874436,-0.0729278847575187,-0.2796341776847839,-0.888374388217926,0.1640678346157074,0.3728676438331604,0.0193861573934555
1749055967.2804496,-5.796597362616646,-2.0080930253950555,1.503452742152288,-3.1316813856025925,2.9864351869632846,4.1538201867987565,-0.000165360940398954,-0.0014445853027764107,-0.00019564282543620853,0.00015376855622872983,-0.00019917956635740023,-0.0002698179096274436,-0.0877263098955154,-0.2771511077880859,-0.8881157636642456,0.1656277477741241,0.3711051344871521,0.0191575437784194
1749055967.3223083,-5.796598329949697,-2.0080961853861488,1.5034533230166227,-3.131681896391982,2.986434954377702,4.153819170967272,-0.00017485745410137664,-0.0013611059918687246,-0.0001904070352538945,0.00014389743915479985,-0.00019909312452073036,-0.0002670572158507157,-0.0828895717859268,-0.2773523330688476,-0.8951256275177002,0.1539667546749115,0.3750526905059814,0.0263313800096511
1749055967.3223572,-5.7965996158048,-2.008098999577022,1.5034540330978685,-3.131682649462184,2.9864348262611204,4.153817931269881,-0.00018472921481456272,-0.0012964248753899099,-0.00018455393937031066,0.0001276948584067475,-0.00017992123665768698,-0.00026498122135537036,-0.0953892469406127,-0.2899208664894104,-0.891103982925415,0.1537607014179229,0.3628417253494262,0.0240897685289382
1749055967.3223994,-5.796601178004404,-2.0081014528545773,1.5034548365284217,-3.1316836059269297,2.9864348541447168,4.153816586838289,-0.00019514667485424957,-0.0012527441326720499,-0.00017818255814343957,0.00010480869536960711,-0.00013849689426161652,-0.00026274960796493155,-0.0867909267544746,-0.2779075503349304,-0.8939988613128662,0.1676856875419616,0.3761153221130371,0.0266672074794769
1749055967.3224392,-5.796602952221914,-2.0081035590103014,1.503455691953631,-3.1316847130634202,2.986435080903874,4.153815268564158,-0.0002059958778613738,-0.0012308710229489916,-0.00017146567721138404,7.556360321547043e-05,-7.33609824505765e-05,-0.00025935818400503,-0.0678555369377136,-0.2532137632369995,-0.8934978246688843,0.1474844217300415,0.3883159756660461,0.0067212730646133
1749055967.3224792,-5.7966048530076275,-2.0081053607937447,1.5034565550839927,-3.131685905953558,2.986435536588715,4.153814106793606,-0.0002169055113197526,-0.0012300815086725109,-0.00016464542830176774,4.112910961266676e-05,1.4575190406399013e-05,-0.0002536823753344623,-0.0817147046327591,-0.2737857699394226,-0.8909516334533691,0.1563005447387695,0.3707306385040283,0.0167990177869796
1749055967.3225207,-5.796606778835438,-2.008106925767783,1.5034573806479403,-3.1316871094615553,2.986436235398468,4.153813218234049,-0.0002273054303518475,-0.001248114058272336,-0.00015802193920876246,3.64973842104164e-06,0.0001214348203158495,-0.000244552449397461,-0.0944818630814552,-0.2969517111778259,-0.878338098526001,0.1736296713352203,0.3743221759796142,0.0212876945734024
1749055967.3225596,-5.796608620780038,-2.0081083386699796,1.5034581240383869,-3.1316882403975876,2.986437172914021,4.153812693441194,-0.0002365102220692224,-0.0012812966981510404,-0.00015193408630809823,-3.368562223631966e-05,0.0002399247985765616,-0.00023086192930999748,-0.0937258303165435,-0.278860330581665,-0.8866918683052063,0.1671003401279449,0.3886677622795105,0.0197301357984542
1749055967.322598,-5.796610273600878,-2.0081096913256102,1.503458743296213,-3.131689209881037,2.9864383228694984,4.153812586310842,-0.00024381738859897306,-0.0013247960910429477,-0.00014673176446143037,-6.665669740567572e-05,0.0003591084841034195,-0.00021170801143836657,-0.0683990344405174,-0.2983558773994446,-0.8718191981315613,0.1694066822528839,0.3764812350273132,0.0199539214372634
1749055967.322636,-5.796611647547819,-2.0081110712803016,1.5034592021141682,-3.1316899260602233,2.9864396331649115,4.153812906745778,-0.00024860723825304693,-0.0013729684406935485,-0.0001427397102017157,-9.012450105827776e-05,0.0004644755369072741,-0.00018655950962293084,-0.0722332447767257,-0.2963865399360657,-0.877443790435791,0.1722910404205322,0.3732144236564636,0.0203943997621536
1749055967.322674,-5.7966126789736325,-2.0081125505608726,1.5034594740764593,-3.1316902973291736,2.9864410213143753,4.153813617300399,-0.0002504315934726204,-0.0014197883545463512,-0.0001402137707682582,-9.82535293260612e-05,0.0005383666493113693,-0.00015544366170147514,-0.0882258266210556,-0.2869382500648498,-0.8806260228157043,0.168520301580429,0.3678417205810547,0.017928197979927
1749055967.3227117,-5.796613337888543,-2.008114176322641,1.503459547540998,-3.131690236011879,2.9864423700233838,4.153814634416441,-0.00024908093445384335,-0.0014593282982846908,-0.00013929156706204008,-8.484256600737108e-05,0.000560784826860658,-0.0001191381527200099,-0.088433563709259,-0.3024832010269165,-0.871759295463562,0.1798282265663147,0.3657186031341553,0.0282350033521652
1749055967.3227494,-5.7966136310549725,-2.00811596517655,1.5034594299061406,-3.131689662255742,2.9864435240278446,4.153815834734629,-0.0002446234917895674,-0.0014862520373586936,-0.00013994068304722438,-4.3749803732774966e-05,0.0005105883880282972,-7.934973358259535e-05,-0.0967823266983032,-0.3116392493247986,-0.8592979907989502,0.1930567026138305,0.3653602600097656,0.0291315466165542
1749055967.3227878,-5.796613600030751,-2.008117902356711,1.503459149867514,-3.131688507759292,2.986444289582341,4.153817066497106,-0.00023741370868800003,-0.0014962698264607735,-0.00014190872798120716,3.061705106796116e-05,0.00036701565383713395,-3.8857067254236384e-05,-0.0887601897120475,-0.2753446698188782,-0.8479558825492859,0.1825670599937439,0.3496031761169433,0.0262237936258316
1749055967.3228257,-5.796613314500287,-2.0081199457109884,1.5034587566855597,-3.131686719065445,2.9864444379464707,4.153818165139915,-0.00022807055066086272,-0.001486488174328312,-0.00014468073606159688,0.0001427901044022216,0.00011144068146798602,-1.5940096641517117e-06,-0.1000307649374008,-0.2688926458358764,-0.830723762512207,0.2252236008644104,0.33559250831604,0.0110830813646316
1749055967.322863,-5.796612862102476,-2.008122033265158,1.5034583162218162,-3.1316842603626065,2.98644371377291,4.153818971115509,-0.00021742815668153375,-0.0014555849226877062,-0.00014745023204974463,0.00029576731348821006,-0.0002707913943591255,2.734887064021879e-05,-0.0899368450045585,-0.2846298813819885,-0.8287834525108337,0.205865204334259,0.3036286830902099,0.0233069211244583
1749055967.322901,-5.796612336592339,-2.0081240923384716,1.5034579042740959,-3.1316811158234295,2.986441848365301,4.153819347145917,-0.00020646252060527176,-0.0014037608485484004,-0.00014911068616963385,0.0004906401594382397,-0.0007886445568455955,4.1821777910987794e-05,-0.0805269181728363,-0.258428692817688,-0.8125443458557129,0.2226307988166809,0.2921730279922485,0.0084083974361419
1749055967.322939,-5.796611826312473,-2.008126048161466,1.5034575982752179,-3.1316772914067172,2.986438576563043,4.15381919181242,-0.00019619859909670721,-0.001332460608814855,-0.00014827375186352598,0.0007263867000624257,-0.0014440102419419952,3.482112646450917e-05,-0.0901229083538055,-0.2677865028381347,-0.8114743232727051,0.2381502091884613,0.2688210606575012,0.008501186966896
1749055967.3229766,-5.796611404527755,-2.0081278306038928,1.503457468577394,-3.131672815851836,2.9864336550596664,4.1538184469329265,-0.00018760275598905305,-0.001243904048410552,-0.0001433194469893219,0.0009998802949877344,-0.002230886942841669,-1.1993457991611733e-06,-0.0998414903879165,-0.2656287550926208,-0.7979556322097778,0.2434056103229522,0.2336264997720718,0.0089597254991531
1749055967.3230135,-5.79661112245008,-2.008129378585793,1.5034575704486492,-3.1316677403934925,2.9864268796483433,4.153817097515454,-0.00018146597882120154,-0.00114050507849525,-0.0001324813221494062,0.0013061368627925506,-0.003135307336581193,-7.392728227312634e-05,-0.0771044194698333,-0.2499807924032211,-0.7946429252624512,0.2524724304676056,0.2222117334604263,-0.0038061290979385
1749055967.323051,-5.79661100506428,-2.0081306425475267,1.5034579378029422,-3.1316621366135795,2.986418099122783,4.153815164649363,-0.00017828394695752802,-0.0010242692027610748,-0.00011396677320926204,0.001638784763578417,-0.004136119885427715,-0.0001907294150584777,-0.0681945458054542,-0.2567405104637146,-0.8014717698097229,0.2458032667636871,0.2129343897104263,0.0087313503026962
1749055967.3231666,-5.796611049369517,-2.008131585658832,1.5034585796209756,-3.131656092009826,2.9864072240559616,4.153812692927056,-0.0001781407957569353,-0.0008962539995872268,-8.610891374822049e-05,0.0019906999769060537,-0.00520661896216381,-0.0003581694597447621,-0.0643265917897224,-0.2692728638648987,-0.7875069975852966,0.2537525594234466,0.1791706830263137,-0.0042699128389358
1749055967.3243337,-5.796611224590917,-2.0081321841559103,1.5034594797946796,-3.131649703333836,2.9863942292531416,4.153809734747623,-0.00018060421733888277,-0.0007561572737148563,-4.754155030901045e-05,0.002354717765174202,-0.00631689629053755,-0.0005815549448439856,-0.0663644149899482,-0.2238984555006027,-0.7529441714286804,0.2483393400907516,0.150419071316719,0.0029996782541275
1749055967.3665118,-5.796611474341414,-2.008132426556302,1.5034606005783928,-3.1316430682534735,2.98637914926767,4.153806334231305,-0.00018464020042772706,-0.0006020727981980091,2.617125381818587e-06,0.0027243206901983834,-0.007436685724576315,-0.0008645616116730489,-0.0549014098942279,-0.2021570652723312,-0.766265869140625,0.2598377168178558,0.1314478367567062,-0.0106797665357589
1749055967.3665898,-5.796611721160943,-2.0081323110791023,1.5034618890613143,-3.131636276141013,2.986362067025598,4.153802513414662,-0.00018855603001705765,-0.00043042899112572273,6.459261493185204e-05,0.0030942129022087437,-0.008538406413528595,-0.0012089730570569014,-0.0626340806484222,-0.2007991224527359,-0.7554040551185608,0.2727948427200317,0.136034294962883,-0.0214552879333496
1749055967.36666,-5.796611873697325,-2.0081318408311764,1.5034632853876873,-3.131629398794364,2.9863430964732696,4.153798262841605,-0.0001899799225095605,-0.00023610479934104106,0.00013781926232092354,0.003460713856012665,-0.009600072277951935,-0.001614550730063783,-0.0606117285788059,-0.1684822291135788,-0.7554885149002075,0.2702001929283142,0.1329128891229629,-0.007050484418869
1749055967.3667324,-5.796611836007039,-2.0081310170679902,1.503464731099878,-3.131622481853435,2.9863223612018057,4.153793537763077,-0.00018588464632634635,-1.2700572026289624e-05,0.00022086975465747115,0.0038219316302773986,-0.010607726792977877,-0.00207902152674808,-0.0669619813561439,-0.173892006278038,-0.7525008916854858,0.2832194864749908,0.1349894404411316,-0.01314577460289
1749055967.3668027,-5.796611517668337,-2.008129831550057,1.5034661760857662,-3.1316155376949557,2.9862999718032284,4.153788260130485,-0.00017266045146528878,0.0002470706936239556,0.00031147395505296596,0.004177704614858491,-0.011557094920739062,-0.002598152051934826,-0.0419309176504612,-0.1546114534139633,-0.7409088611602783,0.2714821696281433,0.1368855834007263,-0.0199677348136901
1749055967.3668733,-5.796610843063357,-2.0081282592891414,1.5034675831376556,-3.1316085406457335,2.9862760048784454,4.153782325611221,-0.0001462394513257945,0.0005509143464346896,0.0004066440451196483,0.004529333253683283,-0.012454232874319338,-0.003165884689037188,-0.0387462079524993,-0.1447839587926864,-0.7363582849502563,0.2806171774864197,0.1225212961435318,-0.0375837087631225
1749055967.366945,-5.796609758254709,-2.008126252833066,1.5034689298396902,-3.131601425296985,2.986250486165502,4.153775614207247,-0.00010226936524092558,0.0009064501420877374,0.0005029080547909511,0.004879158978347139,-0.01331509200420624,-0.0037745386456672055,-0.0610687211155891,-0.128209039568901,-0.7292174696922302,0.2846149504184723,0.1138836294412612,-0.0397486388683319
1749055967.3670132,-5.796608234247982,-2.0081237389354336,1.5034702080934328,-3.1315940883938334,2.9862233794501427,4.153768002855438,-3.632971239981474e-05,0.0013207033596820859,0.0005966322520367692,0.005230075497117672,-0.014164061757919053,-0.004415104832290556,-0.0333775617182254,-0.1078218817710876,-0.7501629590988159,0.3069799244403839,0.1062736809253692,-0.0555738806724548
1749055967.3670802,-5.7966062660788555,-2.008120618188765,1.5034714219508905,-3.131586394288264,2.9861945819982068,4.153759378460383,5.582109319576524e-05,0.0017995946090700679,0.0006843888614269727,0.00558506622999482,-0.015031683006282751,-0.005077657965192705,-0.0245023164898157,-0.1310667097568512,-0.7315019965171814,0.2824930846691131,0.09214448928833,-0.0363263189792633
1749055967.3671477,-5.796603867958104,-2.008116767989194,1.5034725846155863,-3.1315781835379504,2.9861639263884587,4.153749649901068,0.0001779829626507914,0.0023474060676807137,0.0007633092457076147,0.00594684407913504,-0.01595180816077152,-0.005751865866622392,-0.0286065563559532,-0.0987226665019989,-0.7295624017715454,0.2980172336101532,0.0752710849046707,-0.0257826149463653
1749055967.3672152,-5.796601065493287,-2.008112048928499,1.5034737154784943,-3.131569284020729,2.9861311879238297,4.153738757651192,0.0003332530121665082,0.0029662031943063698,0.0008313647484992567,0.006317628594560135,-0.016958525043071482,-0.006427520513075159,-0.0295272432267665,-0.0601525753736496,-0.7326961755752563,0.2963757812976837,0.0779298394918441,-0.0398468226194381
1749055967.3672814,-5.796597886744971,-2.008106314160129,1.503474837762987,-3.1315595237339564,2.9860960963127177,4.153726679876561,0.0005237835086843865,0.0036552349590015577,0.0008875391387163991,0.0066990464602584366,-0.01808316269803422,-0.007094989450714881,-0.0295272432267665,-0.0601525753736496,-0.7326961755752563,0.2963757812976837,0.0779298394918441,-0.0398468226194381
1749055967.3673482,-5.796594354371197,-2.008099420454268,1.5034759768612085,-3.1315487440949026,2.986058350109425,4.15371343421932,0.0007505730845360848,0.004410401926809149,0.0009318870227934803,0.007092107461650445,-0.019351669186679972,-0.007745513113232363,-0.031494915485382,-0.0408616811037063,-0.712862491607666,0.3007571697235107,0.074957251548767,-0.043528988957405
1749055967.3674142,-5.796590480884543,-2.008091239040286,1.5034771590899911,-3.1315368122167575,2.9860176325146504,4.153699074921833,0.001013298344308679,0.005223923745211133,0.0009654978313556,0.00749720288730698,-0.020782600344472348,-0.00837133736925514,-0.0263101272284984,-0.0401215031743049,-0.7047781944274902,0.3098515570163727,0.0406180173158645,-0.0677795559167862
1749055967.3674808,-5.796586267899342,-2.008081664455625,1.5034784105788515,-3.1315236306370515,2.9859736275055337,4.153683685619184,0.0013101861934557131,0.0060843223509225745,0.000990398059660467,0.007914087544175353,-0.022385881776142605,-0.008965728661216314,-0.0080457953736186,-0.038574643433094,-0.6916403770446777,0.3138420879840851,0.0395196378231048,-0.0389488786458969
1749055967.3675473,-5.796581708755467,-2.0080706202955825,1.5034797562253501,-3.1315091434517828,2.985926035685015,4.153667369144966,0.0016379299914800443,0.006976771800567252,0.0010094253138465718,0.00834182138730236,-0.0241624046718607,-0.009522938318516742,0.0073112053796648,-0.0427369847893714,-0.6955335140228271,0.3117038309574127,0.0250411182641983,-0.0483354330062866
1749055967.3676136,-5.796576792927411,-2.0080580614114916,1.5034812188808513,-3.131493338581646,2.98587458937669,4.153650236731027,0.00199166955955361,0.007883787446471616,0.0010260987490935496,0.008778655653907518,-0.026104409929442036,-0.010038165096699258,0.0147322081029415,-0.0229359939694404,-0.7039098739624023,0.3114290237426758,0.0386181324720382,-0.0458753705024719
1749055967.3676803,-5.796571510559516,-2.008043972602746,1.5034828189751523,-3.1314762466249095,2.9858190662167745,4.153632399350568,0.0023650758632147,0.008786169436437985,0.0010444952974266247,0.009221860814908419,-0.028196534148417753,-0.010507539043772387,0.0378064662218093,-0.0199509933590888,-0.6998167037963867,0.3304579854011535,0.008056417107582,-0.0543591380119323
1749055967.3677475,-5.796565856121878,-2.0080283644217927,1.5034845746386225,-3.1314579371354685,2.9857593000782847,4.153613963220472,0.002750585470076777,0.009664088866011191,0.0010691257736896356,0.009667519373029556,-0.030417346489795646,-0.010928140054894881,0.0528488494455814,0.0115787759423255,-0.6788835525512695,0.3217347860336303,-0.0083745419979095,-0.0617015808820724
1749055967.3678138,-5.796559830993303,-2.008011267287667,1.5034865022229833,-3.131438513144943,2.985695187940906,4.1535950299177555,0.0031398043277642233,0.010498206973668192,0.0011047963577439214,0.010110341724973783,-0.032741183858197645,-0.011298073641908869,0.0329378321766853,0.0159464702010154,-0.6824078559875488,0.3458792567253113,0.012212835252285,-0.0648311525583267
1749055967.367977,-5.796553445086372,-2.0079927252983727,1.503488617123497,-3.1314181045302405,2.9856266914679264,4.153575699919313,0.0035240521167862614,0.01127074093462272,0.0011564419047348392,0.010543591672135942,-0.03514007711768461,-0.011616638862969484,-0.0147726517170667,0.0078763663768768,-0.6730355620384216,0.3504910767078399,-0.0035668984055519,-0.0866016000509262
1749055967.3683672,-5.796546717258494,-2.007972790849463,1.5034909348993146,-3.131396860636947,2.9855538326490034,4.153556077261325,0.003894972816235428,0.011966418158949653,0.0012289247379075863,0.010959211793349362,-0.0375855554477455,-0.011884617409284573,0.0462116077542305,0.0527907907962799,-0.6404449939727783,0.3472605943679809,-0.0095157548785209,-0.0904200971126556
1749055967.410503,-5.796539673848667,-2.0079515208174166,1.503493472695588,-3.1313749424058033,2.98547668385012,4.1535362726913485,0.00424511906374883,0.012573278060200721,0.0013268000024938774,0.011348209207472952,-0.040050138740442616,-0.012104675692179101,0.0383069068193435,0.0429999828338623,-0.6529383659362793,0.3625260889530182,-0.0132915209978818,-0.0852501839399337
1749055967.4105814,-5.796532345026978,-2.0079289750085145,1.5034962508311889,-3.131352514037276,2.9853953536897877,4.153516403221345,0.004568431275289061,0.013083282796925833,0.0014540524328451711,0.011701305741623414,-0.04250839412169135,-0.012281812117077493,0.0305563360452651,0.05916528403759,-0.6264622807502747,0.3683978319168091,-0.0372753962874412,-0.0796486735343933
1749055967.410654,-5.796524759715064,-2.007905217540794,1.5034992942243819,-3.131329734143198,2.985309970940858,4.153496587240878,0.004860560977511997,0.013492695106859541,0.0016138097256308652,0.012009790987482926,-0.044937535191962516,-0.012423727056831336,0.0294391959905624,0.0382863879203796,-0.6445473432540894,0.348393827676773,-0.0513561815023422,-0.0922569930553436
1749055967.4107246,-5.796516940845653,-2.0078803212935297,1.503502633226813,-3.1313067466718185,2.985220668880403,4.153476935773144,0.005119015673811466,0.013802183005760704,0.001808038110331503,0.012266460767099235,-0.047317651478186784,-0.012540970743676862,0.0170500613749027,0.037761703133583,-0.635564386844635,0.3595237731933594,-0.0668583363294601,-0.083758920431137
1749055967.4107945,-5.796508902920825,-2.007854374541565,1.5035063034959177,-3.13128367256385,2.985127572173959,4.153457541434648,0.0053431276063114295,0.014016627620605102,0.0020372309406964675,0.01246649122784099,-0.04963172984775613,-0.01264674638008482,0.0252021141350269,0.0476246550679206,-0.6545901298522949,0.3356088995933532,-0.0737423673272132,-0.075951486825943
1749055967.4108613,-5.796500652999392,-2.0078274879537683,1.5035103447215223,-3.1312606035662087,2.985030787634933,4.1534384670476285,0.005533873557336172,0.014144646678525557,0.0023001138096611106,0.01260810172969342,-0.051865637442509355,-0.012756308285422386,0.047059953212738,0.0626758635044097,-0.6279968023300171,0.3742871880531311,-0.0731754526495933,-0.0920191705226898
1749055967.4109304,-5.796492194789677,-2.0077997997443564,1.5035147982407158,-3.1312375994408863,2.9849303992446012,4.153419735848447,0.005693592620066223,0.01419789369199198,0.002593406328792766,0.012692903195017797,-0.054008176894168036,-0.012885982573022363,0.0388796590268611,0.0868757739663124,-0.6364272832870483,0.365635335445404,-0.0949698314070701,-0.0893396586179733
1749055967.411,-5.796483534174316,-2.0077714770233714,1.503519703731732,-3.1312146889942714,2.984826466933403,4.1534013248735855,0.005825654923781053,0.014190229287197488,0.0029116920000581844,0.012725900196033424,-0.05605123373103599,-0.013051925371670279,0.0480318963527679,0.1002104878425598,-0.6179079413414001,0.3517199754714966,-0.088703915476799,-0.1040580570697784
1749055967.4110682,-5.796474683885355,-2.0077427121780937,1.5035250952552535,-3.1311918743648963,2.9847190280877065,4.153383162328634,0.005934125703829342,0.014136865855055025,0.0032474450194363265,0.012715184045162942,-0.05798995578334318,-0.013268791481732593,0.05036461353302,0.0855669379234314,-0.6170385479927063,0.3801603317260742,-0.0916862040758133,-0.0918576270341873
1749055967.411136,-5.796465665392832,-2.0077137142168806,1.5035309970093786,-3.1311691373457764,2.984608100653477,4.153365128788459,0.006023455376535888,0.014053558992050193,0.003591245624024408,0.012671392167098419,-0.05982286085876018,-0.013548497065791632,0.040408544242382,0.0808504074811935,-0.6264060139656067,0.3519318103790283,-0.092039406299591,-0.098053365945816
1749055967.411203,-5.796456507111724,-2.0076846961869044,1.503537419329867,-3.131146446383262,2.9844936869484506,4.153347061436341,0.006098217308874769,0.013955878980040123,0.003932190942228792,0.01260701203768301,-0.061551772839606826,-0.013899229291928649,0.0510217472910881,0.0862779095768928,-0.6382153630256653,0.3579517006874084,-0.1058490127325058,-0.1060786843299865
1749055967.41127,-5.796447239265581,-2.0076558607227346,1.5035443555633057,-3.13112376307308,2.9843757776806554,4.153328760564539,0.006162910525781106,0.013858567031353995,0.004258485274029555,0.012535595233358263,-0.06318153690817857,-0.014324804212538815,0.0492902025580406,0.0694855153560638,-0.6224831938743591,0.3714658617973327,-0.1109809428453445,-0.1135304570198059
1749055967.411336,-5.796437886713366,-2.0076273860674916,1.5035517803477345,-3.131101047131823,2.9842543560743455,4.153309998081286,0.006221835555770054,0.013774975065300872,0.004558176366108122,0.012470939961329752,-0.0647195364042602,-0.01482441891218501,0.0726147070527076,0.0929121822118759,-0.6413926482200623,0.3546868562698364,-0.1202919483184814,-0.1346129179000854
1749055967.4114025,-5.79642846149228,-2.007599414407506,1.5035596496361174,-3.1310782589373685,2.9841294023296046,4.153290528230892,0.006279032747166621,0.01371659757611126,0.0048199895627475,0.012426303464694224,-0.06617508468718866,-0.01539279313321883,0.0488562062382698,0.0757610946893692,-0.6351009011268616,0.3937825560569763,-0.1014889627695083,-0.1142919063568115
1749055967.4114687,-5.79641895669756,-2.0075720435418396,1.5035679026183741,-3.131055359055315,2.984000898732231,4.153270100596019,0.006338252433984359,0.013692715041879612,0.005034194673837868,0.012413707089709233,-0.06755877551021307,-0.016020654115265327,0.0688609555363655,0.1038484647870063,-0.6404392123222351,0.3809946179389953,-0.1157178729772567,-0.1118257790803909
1749055967.4115343,-5.7964093427436545,-2.0075453222758837,1.503576465513026,-3.1310323047916704,2.9838688354727188,4.153248474693021,0.0064029203401845675,0.013710170343422312,0.005193422061672047,0.012443384272155848,-0.06888186158317094,-0.01669549135822514,0.0828283578157424,0.107826367020607,-0.6424322128295898,0.3801553845405578,-0.1198901608586311,-0.1169819235801696
1749055967.411601,-5.7963995663280805,-2.007519249461991,1.503585256927453,-3.131009044540125,2.9837332167120003,4.1532254346296416,0.00647607258275465,0.013773292080839203,0.005293334289034219,0.012523395426020647,-0.07015571429733797,-0.01740249578835801,0.0649401992559433,0.1144127994775772,-0.6501359343528748,0.3842635750770569,-0.1176542341709137,-0.1153705865144729
1749055967.4116683,-5.796389551889944,-2.0074937761199827,1.503594194155001,-3.1309855113101173,2.9835940658776723,4.1532008019815585,0.006560250657961097,0.013883966194363159,0.005333068069681145,0.012659403236455907,-0.07139139752057551,-0.01812559492521258,0.043709147721529,0.1091488599777221,-0.6427437663078308,0.3920505344867706,-0.135227620601654,-0.1361739784479141
1749055967.411734,-5.79637920522468,-2.007468809733697,1.5036031994890422,-3.1309616172215007,2.9834514288821867,4.153174445402289,0.006657358704611741,0.014041844148897906,0.005315389561352783,0.012854575834073916,-0.07259935763734304,-0.018848498481141784,0.0688030272722244,0.1230653375387191,-0.6478415131568909,0.3856718242168426,-0.1043617278337478,-0.1413475275039672
1749055967.4118006,-5.796368419130582,-2.0074442199213514,1.5036122054653551,-3.130937250798756,2.9833053741958344,4.15314628612413,0.0067684966967939495,0.014244663927057446,0.005246544589713746,0.013109569509322221,-0.07378919867355754,-0.01955567794780497,0.0731801688671112,0.1183371096849441,-0.6391245722770691,0.38338702917099,-0.0966886579990387,-0.1242307722568512
1749055967.412088,-5.796357081221805,-2.007419845082996,1.503621158016652,-3.1309122784226147,2.9831559895008173,4.153116299010102,0.0068937982021965594,0.014488650811144145,0.005135820840598649,0.013422543725587337,-0.07496949270961586,-0.020233217297337302,0.0607156120240688,0.1174144297838211,-0.6410088539123535,0.4080992341041565,-0.126611590385437,-0.1263205260038375
1749055967.4124076,-5.79634508397052,-2.0073954998967816,1.503630017000299,-3.1308865503571983,2.983003375678437,4.153084509141242,0.007032313562220874,0.01476896063595334,0.004994864112228827,0.01378918380732769,-0.07614757956689351,-0.020869485020890564,0.0982263833284378,0.1269731670618057,-0.6424061059951782,0.400634229183197,-0.1040195822715759,-0.146983802318573
1749055967.454314,-5.796332336432472,-2.007370983459529,1.5036387543686984,-3.1308599107669295,2.982847639693127,4.153050984280668,0.007181979242222155,0.015080129117628694,0.004836808117986589,0.014202744810329309,-0.07732933039630273,-0.021455589273114445,0.0817455053329467,0.1549807786941528,-0.6436522603034973,0.4090016484260559,-0.1190154701471328,-0.1413670480251312
1749055967.454363,-5.796318776165912,-2.0073460876816407,1.5036473509642587,-3.130832210479569,2.982688888182178,4.153015824037516,0.007339700296425076,0.015416494800688374,0.004675293690267096,0.014654167572375998,-0.07851887675776889,-0.021985592740494934,0.0595116168260574,0.152372658252716,-0.6111996173858643,0.4046268463134765,-0.1033491045236587,-0.1280981302261352
1749055967.4544048,-5.79630437914358,-2.0073206055871884,1.5036557931517345,-3.1308033209978223,2.9825272231590505,4.152979147072078,0.0075015521565197675,0.015772568525330734,0.004523468710970827,0.015132339363580943,-0.07971833195452335,-0.02245648785754902,0.0679572820663452,0.1653111726045608,-0.6241422891616821,0.4256947636604309,-0.0991290882229805,-0.1683679968118667
1749055967.4544451,-5.7962891654816735,-2.0072943394125318,1.5036640702917055,-3.1307731481805843,2.982362740513051,4.152941078078516,0.0076630880547064436,0.01614332901918348,0.004393066247614294,0.015624568927223408,-0.0809275520557267,-0.022867965143205445,0.0747926980257034,0.1411934494972229,-0.6072458028793335,0.422206163406372,-0.1193165183067321,-0.1606653332710266
1749055967.4544845,-5.796273199616177,-2.0072671084907943,1.503672173684926,-3.1307416438820446,2.9821955314164894,4.152901736375296,0.007819722767867823,0.016524431121257552,0.004293647369357641,0.016117315991197655,-0.08214399980095081,-0.023222035111171293,0.0904504209756851,0.1483345627784729,-0.6165924072265625,0.4183310866355896,-0.1008548885583877,-0.1601916998624801
1749055967.4545372,-5.796256584767019,-2.0072387566751595,1.503680097181981,-3.13070881367094,2.982025686456928,4.152861227620036,0.00796715143805431,0.016912318427291056,0.004232068832717203,0.01659716031291094,-0.08336278302532102,-0.023522571862875145,0.0814521759748458,0.1590745151042938,-0.6183862686157227,0.4377073049545288,-0.1023098826408386,-0.154216468334198
1749055967.4546027,-5.796239452609087,-2.0072091587165386,1.5036878391207982,-3.130674718850675,2.9818533019825675,4.152819639491951,0.00810175361440443,0.017304237124352286,0.004212203806826428,0.017051927402257132,-0.08457693647464896,-0.023774832355875058,0.0782011151313781,0.1925733983516693,-0.6007275581359863,0.4319952726364136,-0.1223618239164352,-0.1624974906444549
1749055967.454671,-5.796221949716324,-2.0071782248976997,1.5036954047785471,-3.130639471653214,2.9816784875299187,4.152777041301836,0.008220928573589699,0.017698156260366374,0.004234914639895776,0.017471828898698596,-0.08577799616318298,-0.023984985183462027,0.0922606885433197,0.1801217049360275,-0.6028675436973572,0.4203409850597381,-0.1242692321538925,-0.148764967918396
1749055967.4547389,-5.796204222722941,-2.0071459034363484,1.5037028084522421,-3.1306032236312946,2.981501372496235,4.1527334865929255,0.008323309660640208,0.018092612764161093,0.004298254438229797,0.01785044445761991,-0.08695687074036587,-0.024159673896341608,0.065461590886116,0.2117853909730911,-0.5913534760475159,0.4246891438961029,-0.1024299412965774,-0.1478142291307449
1749055967.454808,-5.796186404452161,-2.0071121805593606,1.5037100747378356,-3.1305661485854666,2.981322109880128,4.152689017144507,0.00840881615420701,0.018486514190438973,0.004397860213407854,0.018185378973998356,-0.08810494663673393,-0.02430564408583334,0.0698488801717758,0.2349361181259155,-0.597908079624176,0.3965113162994385,-0.124877855181694,-0.1730354130268097
1749055967.4548788,-5.796168603207848,-2.00707707847813,1.5037172391800355,-3.130528422474887,2.981140875184278,4.152643666670713,0.008478526307811053,0.018878943518551437,0.004527493174345739,0.01847847531545357,-0.08921529619545439,-0.024429465924507583,0.0656612813472747,0.2164626717567443,-0.5835685729980469,0.441231906414032,-0.1017640829086303,-0.1750795394182205
1749055967.4549465,-5.7961508966386965,-2.007040651586023,1.5037243486585847,-3.13049020337514,2.9809578593407315,4.152597463071772,0.00853439257425672,0.019269012537457886,0.004679677058366594,0.018735537537584987,-0.09028381676358548,-0.0245373685587952,0.095252588391304,0.2044645845890045,-0.5951493978500366,0.4057754874229431,-0.123753935098648,-0.1748928278684616
1749055967.4550152,-5.796133330376581,-2.0070029810662304,1.503731461521831,-3.1304516144663994,2.980773255603283,4.152550429160482,0.008578855606332468,0.019655799412644327,0.004846379616744048,0.018965598694504125,-0.09131011886802831,-0.024635168219328204,0.0855206400156021,0.2194060534238815,-0.5858199596405029,0.4198804199695587,-0.0690065249800682,-0.1685946583747863
1749055967.4550867,-5.796115920754962,-2.006964167947802,1.5037386469378655,-3.1304127323276236,2.9805872416750883,4.152502582805641,0.008614434087838902,0.020038385047546133,0.005019677340358847,0.01917982826712457,-0.09229799996854814,-0.02472823588133976,0.1096134707331657,0.2402345985174179,-0.5971463322639465,0.4175510704517364,-0.082183189690113,-0.1674486100673675
1749055967.4551563,-5.796098660618982,-2.0069243247241393,1.5037459826303914,-3.130373581815643,2.9803999596549517,4.152453937802129,0.00864336993144419,0.02041598033456879,0.0051923455143854476,0.019390212057893135,-0.09325539884136938,-0.02482143843510706,0.0876498818397522,0.2453824281692505,-0.589423418045044,0.4283349215984344,-0.1187750175595283,-0.1554073840379715
1749055967.4552262,-5.796081527233556,-2.00688356602447,1.5037535503193837,-3.13033413786783,2.9802114971946847,4.1524045062898605,0.008667394572924916,0.020788117191992382,0.005358328416291572,0.019608160278445884,-0.09419383036550301,-0.02491901298274776,0.1038742661476135,0.2413397431373596,-0.5661466121673584,0.4356855154037475,-0.0786928460001945,-0.1650708764791488
1749055967.455295,-5.796064491223491,-2.0068419993464075,1.5037614288356853,-3.1302943337839872,2.980021873260895,4.152354302605357,0.008687653715925206,0.021154860099220695,0.0055130634016921625,0.019843211751785512,-0.09512741290149809,-0.02502438501818563,0.1101531684398651,0.227864533662796,-0.5803708434104919,0.4307515025138855,-0.1016550362110138,-0.1914072036743164
1749055967.4553635,-5.796047525290582,-2.006799717225778,1.5037696857950553,-3.1302540747894896,2.9798310312136107,4.152303347755969,0.008704791522876353,0.021516985297525076,0.0056536483972794635,0.02010199815114513,-0.09607165809891188,-0.025139987086840957,0.1004720255732536,0.2677162885665893,-0.5778555274009705,0.4426817893981933,-0.0932281017303466,-0.1669156849384308
1749055967.455432,-5.79603061131328,-2.0067567921385288,1.503778369429284,-3.1302132548727357,2.9796388407736942,4.152251673596751,0.008719162274635116,0.021876079686997438,0.005778850577883227,0.02038760382090328,-0.09704217722874964,-0.02526714815175672,0.0945291295647621,0.2730534672737121,-0.5925930142402649,0.4620115756988525,-0.0907180309295654,-0.1649622172117233
1749055967.4555013,-5.796013744565914,-2.0067132747724252,1.5037875023529879,-3.130171774223051,2.979445108957067,4.152199326008604,0.008731116147571227,0.02223452998714193,0.005888960355528914,0.02069940152962448,-0.09805341338500007,-0.025406101278710305,0.103989653289318,0.2544354796409607,-0.5991403460502625,0.4380783140659332,-0.104030892252922,-0.1838145554065704
1749055967.4556386,-5.795996934342158,-2.006669195298904,1.5037970787057588,-3.1301295544390966,2.979249598433353,4.152146366572474,0.00874129628893668,0.022595394250111155,0.005985508606009595,0.021033370210509564,-0.09911748509195198,-0.025556116130253048,0.1004405170679092,0.2426160275936126,-0.5836026072502136,0.4309929609298706,-0.1011894345283508,-0.1635899096727371
1749055967.4563725,-5.795980201133033,-2.0066245664238127,1.5038070654117028,-3.1300865491953997,2.979052050463907,4.152092872401556,0.008750882937975409,0.022962165953370677,0.006070887782855488,0.021382824291357874,-0.1002432278817578,-0.02571572647830164,0.100490391254425,0.2653874158859253,-0.5732780694961548,0.4396758675575256,-0.1156513020396232,-0.1569346636533737
1749055967.4983132,-5.795963571331376,-2.006579386737938,1.5038174074658308,-3.1300427490235787,2.9788522088820146,4.15203893403937,0.008761726486901466,0.023338457597629206,0.006147937884031262,0.02173942433217973,-0.10143551796478596,-0.025883006655865595,0.0829402506351471,0.2609557509422302,-0.5805875658988953,0.4483950734138489,-0.0966836065053939,-0.173738032579422
1749055967.4983602,-5.7959470708558465,-2.006533643250238,1.5038280364551764,-3.1299981799291303,2.978649841435449,4.151984651568716,0.008776329206357066,0.023727644949223456,0.006219561325977931,0.022094306636026323,-0.10269493932860302,-0.026055856765020764,0.1145333498716354,0.2833402454853058,-0.5765467286109924,0.4389768540859222,-0.0917803645133972,-0.191165030002594
1749055967.498417,-5.795930719055283,-2.0064873126295923,1.50383888106122,-3.129952896535158,2.9784447551790283,4.151930129197458,0.008797665692633308,0.024132517820041496,0.00628841407837842,0.02243916635271729,-0.10401782372968715,-0.02623227510062415,0.1088064908981323,0.2770157158374786,-0.567643940448761,0.4388539791107178,-0.1167992353439331,-0.178828626871109
1749055967.498459,-5.79591452394807,-2.0064403612973756,1.5038498779845302,-3.129906971237358,2.9782368037065337,4.151875468665224,0.008828867507691922,0.024554976466275896,0.006356696512985707,0.02276715017842149,-0.1053966694884917,-0.026410613572335675,0.1179498136043548,0.2936751246452331,-0.5610576272010803,0.4444127678871155,-0.1356712281703949,-0.1950862854719162
1749055967.4985003,-5.7958984793885335,-2.0063927449739576,1.5038609815683712,-3.129860481337393,2.978025885909451,4.151820761911883,0.008872826871007855,0.02499580134345567,0.006426048998997781,0.023073456150426226,-0.10682092190219239,-0.026589818393361272,0.1124138087034225,0.2921051979064941,-0.5818456411361694,0.4481312036514282,-0.1129006445407867,-0.1862354725599289
1749055967.498557,-5.795882564201699,-2.006344408455957,1.5038721705251878,-3.1298134962451147,2.97781193811106,4.15176608348456,0.008931789369658471,0.025454514613058414,0.006497544327778256,0.023355592602322825,-0.108278049891263,-0.026769651985011942,0.1126167252659797,0.3144278526306152,-0.5668266415596008,0.4323838353157043,-0.1053993254899978,-0.1709360778331756
1749055967.4985988,-5.7958667428799755,-2.0062952862053955,1.5038834506805265,-3.129766066737269,2.977594922947874,4.1517114831397155,0.009007004345486163,0.025929344219688802,0.006571756049930453,0.023613306054305054,-0.10975478514930162,-0.02695087616845776,0.1136807054281234,0.2848753929138183,-0.5811219215393066,0.4503194391727447,-0.1090387254953384,-0.1637234389781952
1749055967.498638,-5.7958509672649114,-2.0062453039189996,1.5038948534342218,-3.129718217989018,2.977374818611846,4.151656979193148,0.009098487716338088,0.026417295714044643,0.006648871782920999,0.02384823821608559,-0.11123834809510755,-0.027135358865559126,0.1443912386894226,0.2840515375137329,-0.5543691515922546,0.4413867890834808,-0.1346486806869506,-0.1758825182914734
1749055967.4986763,-5.795835178741106,-2.006194380865136,1.503906430462022,-3.1296699474851053,2.977151611073452,4.151602553453219,0.00920493108872536,0.02691433812997481,0.006728821506313729,0.024063408692880046,-0.1127175001548833,-0.02732605746725494,0.1353349387645721,0.3116997480392456,-0.5562765598297119,0.442232221364975,-0.119149625301361,-0.176903635263443
1749055967.4987147,-5.795819310730293,-2.0061424325970525,1.503918245768555,-3.129621227909192,2.9769252903286616,4.151548148849564,0.009323767422487418,0.02741571560570031,0.0068113999455008635,0.024262638929369074,-0.11418331302307684,-0.027526840749697128,0.1291520595550537,0.3313010632991791,-0.5618988275527954,0.453885942697525,-0.115832008421421,-0.1760808676481247
1749055967.4987524,-5.795803291484268,-2.006089373832698,1.5039303663676775,-3.1295720140300958,2.9766958503065957,4.151493670806332,0.009451382162078909,0.0279163876326919,0.0068963667327937486,0.024450030803853193,-0.1156295980590002,-0.02774214002843209,0.120832435786724,0.2783662378787994,-0.5585952997207642,0.4354768395423889,-0.1277728080749511,-0.168100506067276
1749055967.4987898,-5.795787047157979,-2.0060351218438397,1.503942852710404,-3.1295222518829156,2.9764632912754885,4.151438992781314,0.009583444368708496,0.028411563888926336,0.006983505745145467,0.024629587293377143,-0.11705298793721369,-0.027976462644013468,0.1485649794340133,0.3083601295948028,-0.5729941725730896,0.4309230744838714,-0.1179489493370056,-0.1846182942390442
1749055967.4988277,-5.795770504997204,-2.005979601136468,1.5039557498247633,-3.1294718883337014,2.976227623398495,4.151383965404936,0.009715323294484136,0.028897252465461733,0.007072629176383458,0.024805016535474914,-0.11845271958555315,-0.02823384223920038,0.1453743577003479,0.2838920354843139,-0.5500304698944092,0.446264386177063,-0.1225060150027275,-0.1957662552595138
1749055967.4988654,-5.79575359642661,-2.0059227498706647,1.5039690801140717,-3.129420879356898,2.9759888701921224,4.1513284278854545,0.009842545787420937,0.029370719099609987,0.007163530434677651,0.02497970748624053,-0.1198302289975145,-0.02851732327983098,0.1284310966730117,0.2885295152664184,-0.565904974937439,0.431262195110321,-0.1429837048053741,-0.1908172369003296
1749055967.4989033,-5.795736259873413,-2.0058645274074687,1.503982838705611,-3.1293691959746512,2.9757470706911815,4.151272220127414,0.009961240066137253,0.029830772863033143,0.007255910597771096,0.025156821646684445,-0.12118871238737568,-0.028828571452782524,0.1365355551242828,0.3123084902763366,-0.5529649257659912,0.4469770193099975,-0.1530338376760482,-0.2002831846475601
1749055967.4989407,-5.795718443183449,-2.0058049213858653,1.503996991970573,-3.1293168276281884,2.975502279138529,4.151215194100419,0.010068511395363222,0.030277833901566933,0.007349308900739777,0.025339422286218737,-0.12253280802489873,-0.029167669927193395,0.1362069696187973,0.3015736043453216,-0.5546478033065796,0.438326895236969,-0.123754397034645,-0.2080953270196914
1749055967.4989784,-5.795700105517513,-2.005743952473184,1.5040114793597028,-3.1292637833754733,2.9752545613196983,4.1511572231107055,0.010162707867656618,0.030713783844605044,0.007443058369818856,0.025530563724328645,-0.12386849520932659,-0.029533117378406384,0.1634275317192077,0.3112984299659729,-0.5469896793365479,0.4395204782485962,-0.1070086807012558,-0.1923435032367706
1749055967.499016,-5.795681218751568,-2.0056816754224283,1.5040262181707673,-3.129210091411808,2.9750039874265553,4.151098207897134,0.01024355101857056,0.031141640969326794,0.007536276316375842,0.02573328508246779,-0.12520320487296277,-0.029922002141993077,0.134666696190834,0.3167325556278229,-0.5599969625473022,0.430241584777832,-0.1116655468940734,-0.1912668049335479
1749055967.4990544,-5.795661768591744,-2.005618175995293,1.5040411105105462,-3.1291557971104638,2.9747506222670967,4.151038079140629,0.010312119972552337,0.03156512796587882,0.007627893560972312,0.025950486026659024,-0.12654603086410435,-0.030330298796483763,0.1241218522191047,0.3248951435089111,-0.5559136271476746,0.4461088478565216,-0.1347443610429763,-0.1757235527038574
1749055967.4990923,-5.795641755738476,-2.005553564261587,1.504056051673332,-3.1291009595190076,2.974494514256759,4.150976796940367,0.010370692224100532,0.031988199136050346,0.00771672303583172,0.02618469528934876,-0.12790786500923626,-0.030753224766409654,0.15114326775074,0.319370836019516,-0.556351363658905,0.4464887976646423,-0.1224265694618225,-0.1798100024461746
1749055967.4992027,-5.795621197403875,-2.00548796539983,1.5040709392981448,-3.1290456463217526,2.9742356847869154,4.15091434858095,0.01042246241011879,0.03241457362700959,0.007801564519365042,0.0264377698808265,-0.12930127343182843,-0.0311856056793146,0.1345467865467071,0.3168597221374511,-0.558510959148407,0.4337211847305298,-0.1132595688104629,-0.1838303953409195
1749055967.5003598,-5.795600129199761,-2.005421509290148,1.5040856827287377,-3.128989927632006,2.9739741194644873,4.150850745942381,0.010471179436679091,0.03284730339828721,0.007881338473582095,0.026710583344844777,-0.13073998178272958,-0.03162222294106981,0.1581815928220749,0.3160173892974853,-0.5508083701133728,0.4478304088115692,-0.1087475419044494,-0.1783289611339569
1749055967.5422895,-5.795578606896667,-2.0053543200670383,1.5041002119120443,-3.1289338693481383,2.9737097624234785,4.150786023119258,0.010520755023936079,0.033288401929850255,0.007955237467121082,0.027002774808936994,-0.1322379201882507,-0.032058142872226775,0.1697552055120468,0.3196251988410949,-0.5578687191009521,0.4491304755210876,-0.0878194719552993,-0.1998828947544098
1749055967.5423388,-5.795556707112283,-2.0052865065914127,1.5041144850699664,-3.128877526950566,2.9734425143375875,4.150720233851673,0.010574898445849783,0.03373856710016511,0.008022875976631363,0.027312631963407965,-0.13380786820064425,-0.032489040827978176,0.1345751583576202,0.3326218128204345,-0.5598391890525818,0.4501897096633911,-0.1453566551208496,-0.1812429279088974
1749055967.5423806,-5.795534525942032,-2.0052181546117827,1.5041284944017663,-3.128820940474467,2.973172234089764,4.150653447957812,0.010636824521937736,0.03419703584771631,0.008084411172805948,0.02763716328105189,-0.13545982520852146,-0.032911529906513866,0.1556693315505981,0.3166836500167846,-0.5504200458526611,0.4628646075725555,-0.1138887256383895,-0.1993480622768402
1749055967.54242,-5.795512174868575,-2.005149321218983,1.5041422692158388,-3.128764131113205,2.9728987436892154,4.150585746212349,0.01070906858171256,0.034661599386300486,0.008140604893446694,0.027972375633147868,-0.13719931044116618,-0.03332348460138709,0.1674167513847351,0.3103524446487427,-0.5648465752601624,0.4359987080097198,-0.1472899168729782,-0.198324829339981
1749055967.5424592,-5.795489773735243,-2.0050800320199613,1.5041558760029858,-3.1287070996193522,2.972621836112152,4.150517213705536,0.010793422527784952,0.035128784877700575,0.008192802174395823,0.028313721041650797,-0.1390258470523241,-0.03372432283197756,0.1616455763578415,0.3153372704982757,-0.5563890337944031,0.4251365661621094,-0.1360680609941482,-0.2037891745567321
1749055967.542498,-5.795467441081396,-2.005010281243731,1.5041694149786276,-3.1286498263722446,2.9723412860524663,4.150447932390402,0.010890977795697867,0.03559417972871473,0.008242812641787162,0.028656627860470348,-0.14093187746490168,-0.034115185224824,0.1508632004261016,0.3152495622634887,-0.5550394058227539,0.4496270418167114,-0.1456362605094909,-0.1918908804655075
1749055967.542537,-5.795445282827356,-2.0049400347661717,1.504183012798522,-3.128592272751147,2.9720568638291907,4.150377974084573,0.011002230104264384,0.036052848425132435,0.008292697369856484,0.028997007322800108,-0.14290229621212874,-0.03449893859227407,0.1585970968008041,0.3093786239624023,-0.5455986261367798,0.425275444984436,-0.148573949933052,-0.189926877617836
1749055967.5425758,-5.795423380999092,-2.004869235822454,1.5041968117828481,-3.1285343834681285,2.97176835271059,4.150307395297759,0.01112718434409195,0.036499777694343816,0.008344483052436054,0.029331639992303853,-0.14491470640305407,-0.03487993995741596,0.1690548062324524,0.3137839436531067,-0.5551037788391113,0.4505812227725982,-0.1441232562065124,-0.1729215383529663
1749055967.542626,-5.795401784382056,-2.0047978129665824,1.504210956843324,-3.128476089735948,2.971475569483851,4.150236234694439,0.011265409821316396,0.03693028794572528,0.008399840458142965,0.029658395390587775,-0.14694043329088924,-0.03526353275987876,0.1472079902887344,0.3117813467979431,-0.555273175239563,0.4515683054924011,-0.1444413959980011,-0.1887718439102172
1749055967.5426817,-5.795380502401016,-2.004725689617604,1.50422558180915,-3.1284173132846624,2.9711783871451947,4.150164513084468,0.011416032362341937,0.03734036461165075,0.008459771205189263,0.02997629774799308,-0.1489462647029694,-0.03565530461110625,0.1953746974468231,0.3215369582176208,-0.5354179739952087,0.4336398243904114,-0.1516813933849334,-0.2091611474752426
1749055967.5427227,-5.795359502525239,-2.004652794273569,1.5042407966879625,-3.1283579710943057,2.970876757343196,4.150092235133487,0.011577689403376409,0.03772688369251072,0.008524348124082507,0.03028548878138691,-0.1508968187884756,-0.036060203156330434,0.1722595691680908,0.3347615599632263,-0.5272253155708313,0.4512811601161957,-0.1525997370481491,-0.2040316313505172
1749055967.542761,-5.795338710827323,-2.004579070200086,1.5042566768202277,-3.1282979803733997,2.9705707291893555,4.150019391734515,0.011748494702881319,0.038087723944184644,0.008592549424906126,0.03058713839109321,-0.15275735597911747,-0.036481662593626875,0.1759514212608337,0.3114603161811828,-0.5470352172851562,0.4537401497364044,-0.154516264796257,-0.2070029973983764
1749055967.542799,-5.7953180153444945,-2.0045044832467376,1.50427325441664,-3.1282372630961484,2.9702604607655134,4.149945962060341,0.011926052466644823,0.03842177219068198,0.008662212725276616,0.030883326907986407,-0.15449676860629846,-0.03692091350790058,0.1927043199539184,0.3196613788604736,-0.5427335500717163,0.4507349729537964,-0.1328219026327133,-0.2135400176048278
1749055967.5428364,-5.795297272304582,-2.0044290265867994,1.5042905129619266,-3.1281757495577853,2.9699462203057334,4.149871914658701,0.012107536229374948,0.038728840553801956,0.00873011848882486,0.031176892041304465,-0.15609042376654655,-0.03737661484436521,0.1752666234970092,0.3603521287441253,-0.5275307893753052,0.4516216814517975,-0.1456937789916992,-0.2073175907135009
1749055967.542874,-5.79527631550528,-2.0043527216216117,1.504308385262499,-3.128113380796912,2.969628375414432,4.149797207611993,0.012289824044922865,0.03900952472030005,0.008792205307565653,0.031471218545174755,-0.15752251950476295,-0.037844864650688904,0.1948351263999939,0.3139634430408478,-0.5351545810699463,0.4372090697288513,-0.1215962842106819,-0.1841820478439331
1749055967.5429115,-5.795254968873608,-2.0042756148670735,1.504326756010638,-3.1280501100190654,2.969307370443489,4.149721788622858,0.012469670118272293,0.03926503605377895,0.008843919126083363,0.03176995431699718,-0.1587876513912537,-0.038319549194171715,0.1683165282011032,0.297184020280838,-0.5396201610565186,0.4495964050292969,-0.1073350608348846,-0.1884093284606933
1749055967.542949,-5.795233061570425,-2.004197771261569,1.5043454693554499,-3.1279859032082133,2.968983693947298,4.149645596475984,0.012643892390758171,0.03949703798859913,0.008880689200421787,0.032076657287991375,-0.15989138141132567,-0.038792919900573604,0.2078907638788223,0.3168148696422577,-0.5301194787025452,0.454856276512146,-0.1240966320037841,-0.19242624938488
1749055967.5429883,-5.795210444214544,-2.00411926502117,1.5043643412399637,-3.1279207390932133,2.96865783961422,4.149568565239364,0.012809558065834427,0.03970751838342009,0.008898497985314037,0.03239440132414785,-0.1608497416838739,-0.039256266197083105,0.1724484860897064,0.3626551628112793,-0.5272701382637024,0.4601679444313049,-0.1133994162082672,-0.1973693072795868
1749055967.5430262,-5.795187004223213,-2.004040169721799,1.5043831754358843,-3.1278546086921537,2.9683302649473937,4.149490631729772,0.012964151137006006,0.039898733545464526,0.008894479690409863,0.032725385939510666,-0.16168775941321617,-0.039700572130246616,0.1782912313938141,0.3189471662044525,-0.5420649647712708,0.4680033922195434,-0.1258128881454467,-0.1875298768281936
1749055967.5430636,-5.795162678138553,-2.0039605493751185,1.504401781467164,-3.127787514777097,2.9680013521832933,4.149411745532172,0.013105709599227314,0.04007324531943971,0.00886745850556552,0.033070600120231934,-0.16243721613783685,-0.04011708338857265,0.174396812915802,0.3147437274456024,-0.5379242897033691,0.4586386978626251,-0.1343652009963989,-0.1920118331909179
1749055967.5431757,-5.795137459067459,-2.003880451870913,1.5044199921094454,-3.127719471690816,2.967671375652681,4.149331879810085,0.013232927324287864,0.0402340291475121,0.008818333679643207,0.03342958751260214,-0.16313392081693578,-0.04049775227379771,0.1908642649650573,0.2953240871429443,-0.5376564264297485,0.4753835201263428,-0.1276194602251052,-0.176047533750534
1749055967.5443127,-5.795111397817801,-2.0037999056151254,1.5044376780182371,-3.127650505911851,2.9673404791729947,4.149251040699375,0.013345225574035174,0.040384584608192074,0.008750236982022458,0.0338003528354109,-0.16381477374173062,-0.04083556568247814,0.2317637801170349,0.3167060315608978,-0.5533110499382019,0.4760360717773437,-0.1161379739642143,-0.195278912782669
1749055967.5863004,-5.795084596987677,-2.0037189197569423,1.5044547573992773,-3.127580657547133,2.967008666132669,4.149169273308481,0.013442806949168919,0.04052897027612172,0.008668421476201487,0.03417943931407482,-0.1645148518007081,-0.04112479368064947,0.2042863965034485,0.3318475782871246,-0.5350589156150818,0.4706777334213257,-0.1374058127403259,-0.1856547594070434
1749055967.5863488,-5.7950571983181804,-2.0036374880096957,1.5044711995336577,-3.1275099825322794,2.966675803654875,4.149086663107462,0.013526702636207458,0.040671720853770695,0.008579879170537338,0.034562191712533975,-0.16526469635890398,-0.041361215491878406,0.2220048904418945,0.3323806226253509,-0.5484497547149658,0.4828118979930877,-0.1181467920541763,-0.2013323754072189
1749055967.5863907,-5.795029364997588,-2.0035555955060866,1.504487022182056,-3.1274385548668815,2.966341640761158,4.149003332523811,0.013598807990272053,0.04081765474461235,0.008492723483477873,0.03494319439596434,-0.1660879540996496,-0.041542370845822255,0.2157737761735916,0.33997842669487,-0.5380364656448364,0.4743428230285644,-0.1452343612909317,-0.2119150459766388
1749055967.5864303,-5.79500126182374,-2.003473227354213,1.5045022839690214,-3.127366467976242,2.96600583911718,4.148919433478862,0.013661878027823279,0.0409716060661272,0.008415407390331428,0.03531683794962557,-0.16699950539510874,-0.041667843573003856,0.192137137055397,0.3067490756511688,-0.5261180400848389,0.4697049558162689,-0.1585893481969833,-0.1780910193920135
1749055967.586469,-5.7949730365356675,-2.003390376925282,1.504517073486495,-3.1272938344313035,2.96566801389352,4.148835137071678,0.013719438119049765,0.04113810947597163,0.008355874258369046,0.03567792880103951,-0.16800421077822028,-0.041739531041539865,0.1938806772232055,0.3255832195281982,-0.5268458724021912,0.4626076221466064,-0.1562004536390304,-0.1805603206157684
1749055967.586508,-5.794944805021923,-2.0033070519106295,1.5045314970694452,-3.1272207835930144,2.9653277812920837,4.148750621675881,0.01377556949865271,0.04132105192824239,0.00832074993552338,0.03602222703747241,-0.1690964085047182,-0.04176181798643727,0.193656325340271,0.3264577388763428,-0.5203804969787598,0.4594384431838989,-0.1684187203645706,-0.1774767935276031
1749055967.586547,-5.794916642036277,-2.003223276992848,1.5045456671178474,-3.1271474569984643,2.964984808099163,4.148666060578993,0.013834557060182238,0.041523303823279234,0.008314678390879269,0.03634679210251641,-0.17026028264384155,-0.04174157257899174,0.1956378519535064,0.3054038882255554,-0.5276117324829102,0.4579812884330749,-0.1293810755014419,-0.1807291805744171
1749055967.5866003,-5.7948885781608634,-2.0031390931517206,1.5045596925423672,-3.127074001490451,2.9646388574714333,4.148581610069861,0.013900429140382198,0.04174635573183997,0.00833987923579057,0.0366500485533564,-0.1714711701816458,-0.04168791224957172,0.2165909707546234,0.3105250000953674,-0.521987795829773,0.4510359764099121,-0.159831017255783,-0.1756251156330108
1749055967.5866408,-5.794860603105461,-2.003054554513999,1.5045736724180547,-3.1270005604147304,2.9642898247994935,4.148497398622348,0.01397646056048255,0.04199000736595299,0.00839596958113679,0.03693156162892643,-0.1726977868104033,-0.041611734776954755,0.2072224915027618,0.345965564250946,-0.5161468982696533,0.4655936360359192,-0.1655135005712509,-0.1847033202648162
1749055967.5866785,-5.794832674596214,-2.0029697239200748,1.504587693261123,-3.1269272636362984,2.9639377585131332,4.148413517712981,0.014064736226482398,0.042252171663663955,0.00848005617654012,0.03719161622929281,-0.17390523510154116,-0.04152506347276981,0.2369822263717651,0.318302720785141,-0.5168638825416565,0.4767009913921356,-0.133480042219162,-0.1765272915363311
1749055967.5867162,-5.794804730966185,-2.00288466808886,1.5046018295827503,-3.126854217354615,2.9635828628828174,4.148330014961073,0.014165871335090926,0.042528858733771976,0.008587075410564204,0.03743077399058155,-0.175058532203535,-0.041440298824058384,0.2250040471553802,0.318136990070343,-0.5117654800415039,0.4758323431015014,-0.1430236995220184,-0.1896858960390091
1749055967.5867534,-5.794776704610032,-2.002799452691119,1.504616146700608,-3.1267814945939794,2.963225482378273,4.14824689042893,0.01427895234137151,0.04281438640235713,0.008710338655980454,0.03764959218430039,-0.1761262883620648,-0.04136948867572963,0.2239897847175598,0.3318366706371307,-0.5137577652931213,0.4751687049865722,-0.1534059196710586,-0.2058640271425247
1749055967.586796,-5.794748533299468,-2.0027141371685233,1.5046307043962037,-3.126709127028523,2.9628660692780224,4.148164096621073,0.014401711045116377,0.04310182670158376,0.008842224616494598,0.03784861552248953,-0.17708411670329444,-0.0413237190620818,0.2205969393253326,0.3170123100280761,-0.4994654357433319,0.4621102213859558,-0.1233308836817741,-0.1960662305355072
1749055967.586858,-5.7947201671439865,-2.0026287690701015,1.50464556000554,-3.126637098694652,2.962505137873961,4.148081541939652,0.014530892221049668,0.04338364829247697,0.008974946806640658,0.03802863633310078,-0.17791737373818295,-0.041312693050130446,0.236197292804718,0.335064947605133,-0.528777539730072,0.4509136974811554,-0.1088642701506614,-0.2092148065567016
1749055967.5868998,-5.7946915704583475,-2.002543378059416,1.5046607698893215,-3.1265653421241097,2.9621432098841596,4.147999096621497,0.014662739546433205,0.04365247047283996,0.009101313754662973,0.03819111704425744,-0.17862291653808168,-0.04134451837381925,0.2171115577220916,0.3120817244052887,-0.5053625702857971,0.4580817818641662,-0.1147552877664566,-0.2040348052978515
1749055967.5869384,-5.794662719412011,-2.0024579703487997,1.5046763887413546,-3.1264937374113893,2.9617807566335883,4.1479166000281715,0.014793511785811812,0.04390182489050038,0.009215396214340178,0.03833861768365707,-0.17920970741730832,-0.04142568005505117,0.228605717420578,0.3212898373603821,-0.5200021862983704,0.4422394037246704,-0.1243879720568656,-0.2252078205347061
1749055967.5869763,-5.794633597451389,-2.002372524736602,1.5046924666567894,-3.1264221147207807,2.9614181442736607,4.14783386857156,0.014919949096633784,0.044126831902829636,0.009313026866622404,0.03847507169842485,-0.1796982757493758,-0.04156113888314988,0.2196892201900482,0.3197170495986938,-0.5089033842086792,0.4481081664562225,-0.1138674095273017,-0.213064044713974
1749055967.587014,-5.794604190750672,-2.0022869912702728,1.5047090443296234,-3.1263502607460185,2.9610555886792365,4.1477507041289625,0.015039629699721172,0.044324725938497914,0.009392085726988315,0.038605789749185625,-0.1801192107527584,-0.04175447322592,0.2440631985664367,0.311292290687561,-0.5065629482269287,0.4426891505718231,-0.1059339791536331,-0.2075411081314087
1749055967.5870516,-5.7945744854642705,-2.002201292871058,1.504726147305331,-3.1262779295394694,2.960693126202723,4.147666903177806,0.015151180393848348,0.044495190341471175,0.009452560081383416,0.038737130953133615,-0.1805109565660715,-0.04200797639630555,0.1979145854711532,0.2980696558952331,-0.5002548098564148,0.4369307458400726,-0.136723443865776,-0.2122750282287597
1749055967.5870888,-5.794544467697963,-2.002115329601973,1.504743780739137,-3.1262048577425685,2.9603306047509452,4.147582266919389,0.015254325631406263,0.04464048171662272,0.009496398774104435,0.03887585787814081,-0.18091719259785224,-0.042322642920325615,0.2272444069385528,0.3048501014709472,-0.5210345387458801,0.444288969039917,-0.1313083171844482,-0.2131073027849197
1749055967.5871968,-5.794514126239423,-2.0020289851232187,1.5047619262407566,-3.126130783536828,2.959967696821242,4.1474966123751225,0.015349781237803563,0.0447653455281684,0.009527200397537265,0.03902827437990848,-0.18138403403377726,-0.04269802378069791,0.2323595285415649,0.3597290813922882,-0.4999834895133972,0.4530760943889618,-0.140651524066925,-0.2375796735286712
1749055967.5883613,-5.794483457345527,-2.001942135062696,1.504780541931187,-3.126055467809477,2.9596039328048875,4.14740978395335,0.015439023700355462,0.04487675366700982,0.009549784236169933,0.039199315437690466,-0.18195722212864432,-0.04313198820134229,0.2265842854976654,0.3343435525894165,-0.4945897161960602,0.4734445810317993,-0.1243835464119911,-0.2210436165332794
1749055967.6343465,-5.794452470279356,-2.0018546569114686,1.5047995659651305,-3.125978715336074,2.959238749568604,4.147321664466682,0.015523990609109351,0.044983514354479,0.009569694806581432,0.03939179394769239,-0.18267941802693716,-0.0436204755958528,0.2288293540477752,0.3293552696704864,-0.5121983885765076,0.4685772061347961,-0.1503408700227737,-0.2207327783107757
1749055967.634395,-5.794421191867137,-2.0017664403582027,1.50481892284582,-3.1259003933023113,2.9588715463046893,4.147232184104178,0.015606782278270642,0.04509579322425608,0.009592686010598001,0.039605991622161746,-0.1835876790086248,-0.0441573389586828,0.2288293540477752,0.3293552696704864,-0.5121983885765076,0.4685772061347961,-0.1503408700227737,-0.2207327783107757
1749055967.6344366,-5.794389668275593,-2.0016773961598595,1.504838531214736,-3.1258204443300555,2.9585017376262868,4.147141325533475,0.015689431042183757,0.04522455076041172,0.009624219791636177,0.03983970297830312,-0.18471119173647416,-0.044734367910003944,0.2421583533287048,0.3431106209754944,-0.4984137415885925,0.4666827321052551,-0.143946573138237,-0.2413059175014495
1749055967.634482,-5.794357962711661,-2.0015874615312637,1.504858311633794,-3.1257388916892768,2.9581287946077373,4.147049123528857,0.015773781859706657,0.045380881763925275,0.009669001995878966,0.04008872233169953,-0.18606936099429103,-0.045341546370120916,0.2334611117839813,0.3647561967372894,-0.5000144839286804,0.4510796666145324,-0.1467872858047485,-0.2276165187358856
1749055967.6345303,-5.7943261488347835,-2.001496600981959,1.5048781931627573,-3.125655835780659,2.95775226890623,4.146955658624914,0.01586149020962005,0.04557525643750181,0.009730570634069548,0.040347647471291284,-0.18767038369449632,-0.04596755825948287,0.2314689308404922,0.3440472483634949,-0.4894688427448272,0.4730679392814636,-0.1809979379177093,-0.226383239030838
1749055967.6345713,-5.794294300942061,-2.0014048029488505,1.5048981180282943,-3.1255714427640293,2.957371801128851,4.146861045793002,0.015954102770558396,0.04581669484913903,0.009810948912148513,0.04061080612834457,-0.18951045522749152,-0.046600510212229225,0.2374696135520935,0.3538039326667785,-0.5054282546043396,0.4458467960357666,-0.2021617889404297,-0.2118869125843048
1749055967.6346104,-5.794262482828538,-2.0013120735233865,1.5049180441249161,-3.1254859274301894,2.9569871184700465,4.146765420028345,0.016053159673923144,0.04611193669279555,0.009910375593820176,0.04087311419442846,-0.19157374519216683,-0.047228797525479156,0.2241521179676056,0.3479225635528564,-0.4978936910629272,0.4661095142364502,-0.1781013756990432,-0.207681730389595
1749055967.6346517,-5.794230737322454,-2.0012184287641,1.504937945385656,-3.125399532646431,2.956598026937026,4.146668920666883,0.01616025457964461,0.04646469327907499,0.010027131268767827,0.04113073400129829,-0.19383322720612278,-0.04784200848720607,0.2215325087308883,0.3379994630813598,-0.4889722168445587,0.4507366418838501,-0.1518338620662689,-0.2441441267728805
1749055967.634693,-5.794199078023678,-2.0011238869463686,1.5049578102734833,-3.1253125074080055,2.956204401812715,4.14657167578193,0.016277008370018227,0.046875088574266775,0.01015749333326034,0.041381479554208324,-0.19625234562143215,-0.04843175206395395,0.2422332912683487,0.3934590220451355,-0.4657731056213379,0.4644096195697784,-0.1924571692943573,-0.2323339283466339
1749055967.6347315,-5.794167484179282,-2.001028461953015,1.5049776388695772,-3.125225085326096,2.95580617820718,4.146473787795652,0.016404944165415797,0.04733939820965951,0.010295867468045195,0.04162497848194885,-0.19878737272272629,-0.048992302505253674,0.2383623123168945,0.3837186098098755,-0.4734821319580078,0.4676014482975006,-0.1810440570116043,-0.20663483440876
1749055967.63477,-5.794135899276856,-2.0009321586963935,1.5049974392382852,-3.1251374654255777,2.955403342203506,4.146375321577945,0.016545284347670382,0.04785016443079793,0.010435142300982227,0.04186263184629207,-0.201390198815554,-0.049520971745792695,0.243328720331192,0.3799566328525543,-0.4834513068199157,0.4566594064235687,-0.1888414919376373,-0.2168443202972412
1749055967.634808,-5.794104233833788,-2.0008349708348,1.5050172237563497,-3.1250497971615236,2.954995922298417,4.14627629642933,0.01669871397452482,0.04839670113120817,0.010567283922773146,0.04209741515605449,-0.20401124606799945,-0.05001814220271753,0.2471662759780883,0.3744130432605743,-0.4701495170593261,0.439123272895813,-0.1769282817840576,-0.1796008795499801
1749055967.6348455,-5.794072372673623,-2.000736880374092,1.5050370058686948,-3.1249621712672138,2.9545839807158045,4.146176683138614,0.016865163339770048,0.048965926488999445,0.010684132436645802,0.04233354929752996,-0.20660222438720144,-0.050486924426582695,0.2594034075736999,0.3581684231758117,-0.4895662367343902,0.4541983008384704,-0.1768816709518432,-0.1894358992576599
1749055967.6348834,-5.794040186376644,-2.000637858416102,1.505056797513808,-3.1248746172486164,2.9541676046787444,4.146076406785859,0.01704365627175148,0.049543400558464,0.010778304709046152,0.04257605509414729,-0.2091185431982382,-0.050932452698047734,0.2400447577238083,0.3601985275745392,-0.4850188791751861,0.4439683258533478,-0.1952360570430755,-0.2190928310155868
1749055967.6349216,-5.794007545649364,-2.0005378663862685,1.5050766074418558,-3.124787107212447,2.95374689851451,4.1459753552724425,0.017232254721631212,0.050114421350795094,0.01084406952185107,0.04283020431871874,-0.21152131207341077,-0.051360891582396324,0.2397248148918151,0.3416930437088012,-0.484125554561615,0.4678094685077667,-0.1760083436965942,-0.1915058195590973
1749055967.6349597,-5.793974336532249,-2.000436857393547,1.5050964407306673,-3.124699564721397,2.953321978128237,4.1458733927876565,0.017428109355392317,0.050665045206152094,0.010878056335411671,0.043100897606750524,-0.21377894195910044,-0.05177827872628642,0.2559105157852173,0.3294007480144501,-0.4909816980361938,0.4534359276294708,-0.1790536642074585,-0.209040105342865
1749055967.6349971,-5.793940474028246,-2.0003347778696523,1.5051162997819998,-3.1246118768792885,2.952892969523902,4.145770376707397,0.017627606456174755,0.05118293229830753,0.010879686355162576,0.04339202659720245,-0.21586835527653692,-0.05218935880990334,0.2624833285808563,0.375658243894577,-0.4849746823310852,0.4645435512065887,-0.1461680233478546,-0.2126890867948532
1749055967.635038,-5.7939059119467435,-2.0002315701590123,1.5051361868205695,-3.1245239078566946,2.952460012403527,4.145666176002401,0.017826589826278275,0.05165796117307417,0.010851265478311492,0.043705897256795294,-0.21777574289809162,-0.052596573898961746,0.2571470439434051,0.3483639359474182,-0.4804838895797729,0.4628337323665619,-0.1441448628902435,-0.2166286259889602
1749055967.6350768,-5.793870647434317,-2.0001271769306266,1.5051561074132649,-3.1244355123546645,2.952023268561095,4.145560689208836,0.018020634133666735,0.05208259582621919,0.01079773920088299,0.04404279111057446,-0.21949673489883517,-0.0529993745871801,0.2535889446735382,0.3251020014286041,-0.4818456768989563,0.4690626263618469,-0.1269184648990631,-0.2170283496379852
1749055967.6351144,-5.793834719632369,-2.0000215479235424,1.505176073995245,-3.1243465479110095,2.9515829332900703,4.145453860220954,0.018205348995785138,0.05245202029484964,0.010726163786716519,0.04440071833099072,-0.22103585160364028,-0.05339399500063261,0.2583810091018677,0.3660959601402282,-0.4927954375743866,0.4666878581047058,-0.1509949117898941,-0.2143686860799789
1749055967.635152,-5.7937982028628605,-1.9999146488433042,1.5051961081909686,-3.1242568854125863,2.951139246835711,4.145345690408386,0.01837669538205563,0.052764079653426915,0.010644983328102835,0.044775379781985904,-0.2224052009752303,-0.05377377299403189,0.2501684129238128,0.3181625306606293,-0.4875232279300689,0.455464243888855,-0.1406615674495697,-0.2176481336355209
1749055967.6351893,-5.793761195479893,-1.9998064716199213,1.505216241012858,-3.124166417581351,2.9506925023979136,4.1452362457996665,0.018531293469637725,0.053019079189620566,0.010563214372308425,0.045160322786939384,-0.2236225566701041,-0.05412999304471246,0.2514036297798157,0.3145594298839569,-0.4781189560890198,0.4711710512638092,-0.1710416078567505,-0.1982391327619552
1749055967.635297,-5.7937238060654215,-1.9996970448193234,1.5052365106686576,-3.12407506539657,2.9502430475113632,4.145125658352665,0.018666692807725392,0.053219491156547824,0.010489632714801677,0.04554726501786133,-0.22470911669706672,-0.054453111847199254,0.256979763507843,0.2953774929046631,-0.4811049699783325,0.4771774411201477,-0.1880085468292236,-0.2048437297344207
1749055967.6363962,-5.793686139049915,-1.9995864426056171,1.5052569584473428,-3.1239827823852733,2.949791276719794,4.145014120727747,0.0187815680588298,0.053369609543703636,0.01043203959110324,0.04592656937976698,-0.22568733018469742,-0.05473413673637642,0.2433992326259613,0.3488636612892151,-0.4729349017143249,0.444973349571228,-0.1845260113477707,-0.1744335144758224
1749055967.6785305,-5.793648281998845,-1.999474790362951,1.5052776236909224,-3.123889556667565,2.949337615032167,4.144901874583926,0.018875808882463006,0.05347519073839004,0.010396664407226903,0.04628785701530286,-0.22657914515414085,-0.05496589848348674,0.2596349418163299,0.3166671395301819,-0.4719762206077575,0.4472355842590332,-0.1586576253175735,-0.1864035427570343
1749055967.678615,-5.793610296605661,-1.9993622652265401,1.5052985389231215,-3.1237954107824293,2.9488824933335374,4.144789193170137,0.018950494767698074,0.053543117818173086,0.010387741973109042,0.046620730898509224,-0.2274048874435399,-0.05514400903460272,0.2924838066101074,0.3081621825695038,-0.4826130270957947,0.4609363377094269,-0.1490908563137054,-0.1914251446723938
1749055967.6786897,-5.793572214858249,-1.9992490904003504,1.5053197257441662,-3.1237003995853603,2.9484263183086323,4.144676359645417,0.019007772710120746,0.05358111460644451,0.010407284930133133,0.046915558964859765,-0.22818279834123248,-0.05526740803330937,0.2690083384513855,0.3165123164653778,-0.4720152616500854,0.488287091255188,-0.1544525325298309,-0.2055840939283371
1749055967.6787558,-5.7935340408875815,-1.99913552302026,1.5053411914542811,-3.1236046066792147,2.947969440224555,4.144563643060271,0.019050669929950415,0.053597512627582784,0.010455055691493492,0.047164249270057114,-0.2289291145711691,-0.05533852611850662,0.2590706348419189,0.317144513130188,-0.4728671610355377,0.4517226815223694,-0.1357482373714447,-0.2024356126785278
1749055967.6788166,-5.793495757721333,-1.9990218363451806,1.5053629260789236,-3.123508139804374,2.9475121221652927,4.144451274449682,0.019082868562159072,0.053601053410217696,0.010528725421066573,0.04736094420959702,-0.22965850768970383,-0.05536316065642154,0.2685400247573852,0.3141935467720032,-0.4759323000907898,0.4517599940299988,-0.1528027355670929,-0.1826844811439514
1749055967.6788776,-5.793457336933005,-1.9989082982265616,1.5053848997980552,-3.123411125438026,2.947054514294224,4.1443394259911335,0.019108453167041125,0.053600698329448186,0.010624191965121002,0.047502567379181335,-0.2303846937752229,-0.05535014747169921,0.2593055963516235,0.3364131450653076,-0.4759280085563659,0.4447818696498871,-0.1647795438766479,-0.1853440254926681
1749055967.678938,-5.793418748581132,-1.998795148866407,1.5054070614471637,-3.123313702596013,2.9465966365756873,4.1442281962032395,0.019131631109176064,0.053605416606525326,0.010736017333870997,0.04758918059592668,-0.2311210339534672,-0.055310864062027836,0.2714999318122864,0.3228564858436584,-0.4712087512016296,0.4683670699596405,-0.1609863936901092,-0.1863915920257568
1749055967.678996,-5.793379969121358,-1.9986825813126716,1.5054293391851374,-3.1232160155532744,2.9461383729114137,4.144117603332528,0.019156432030636734,0.053623927546224914,0.010857938690375104,0.04762414556123587,-0.23188094427056397,-0.055258578607297465,0.2589677274227142,0.2942399382591247,-0.4794750809669494,0.4598383903503418,-0.130889892578125,-0.1925889700651168
1749055967.6790562,-5.793340985890741,-1.9985707276206943,1.5054516442295978,-3.123118205166179,2.9456794784430675,4.144007587584924,0.019186413663500098,0.053664386605788754,0.010983403454755106,0.047614111249646776,-0.23267793059223882,-0.05520768435585018,0.2811011970043182,0.3195557594299316,-0.4757128357887268,0.4577144682407379,-0.1414032280445099,-0.2093827724456787
1749055967.679116,-5.793301797965818,-1.9984596523274216,1.505473877808234,-3.1230203989877134,2.945219599733886,4.143898021252339,0.019224419740324843,0.05373402487074363,0.011106080068152193,0.04756883947744689,-0.23352509678100147,-0.05517289840845211,0.2949584722518921,0.3155632019042969,-0.4879874885082245,0.4407406449317932,-0.1234698742628097,-0.1919643133878708
1749055967.6791754,-5.793262414431291,-1.9983493534153178,1.5054959405482988,-3.1229227012274436,2.9447583052679054,4.14378872454954,0.019272433159932188,0.0538387719697725,0.011220303870043831,0.047500839169436586,-0.23443407369924532,-0.05516851547250581,0.2906102538108825,0.3240088224411011,-0.4805112481117248,0.4386787712574005,-0.1264616698026657,-0.2152827680110931
1749055967.6792347,-5.793222851888186,-1.998239769695387,1.5055177428196638,-3.1228251841841064,2.9442951221400557,4.143679484342086,0.019331543057214115,0.053982905537734736,0.011321431665345546,0.04742474053872118,-0.23541347976472474,-0.05520777850109561,0.2843274474143982,0.3061599731445312,-0.4777221381664276,0.4323214888572693,-0.1448747515678405,-0.2060257494449615
1749055967.6792972,-5.793183132815209,-1.9981307925956793,1.5055392142982107,-3.1227278826382063,2.9438295744774665,4.143570072910642,0.019402015554279763,0.054168770406405005,0.011406093365888412,0.0473563483863085,-0.2364672056899273,-0.05530237683511898,0.2969551384449005,0.3373583853244781,-0.4836534857749939,0.4464590847492218,-0.149334117770195,-0.2047652453184127
1749055967.6793666,-5.7931432852900935,-1.9980222798874319,1.5055603112871436,-3.1226307919901344,2.943361219854662,4.143460264314909,0.019483441202131836,0.05439659879318431,0.011472339280502324,0.04731138751458492,-0.23759294917837798,-0.055462031712253994,0.253164678812027,0.3243487179279327,-0.4836978912353515,0.4605389237403869,-0.1932464987039566,-0.1956004500389099
1749055967.6794355,-5.7931033434760915,-1.9979140692746133,1.5055810209851872,-3.122533870157287,2.94288968112326,4.143349846592038,0.019574928149619742,0.05466444691781904,0.011519686779452046,0.04730406895454678,-0.23878144736901796,-0.055694097386570995,0.286301702260971,0.2986766397953033,-0.4808940887451172,0.4594570398330688,-0.1717409193515777,-0.1995150595903396
1749055967.6795037,-5.793063347858446,-1.997805990857894,1.5056013626446005,-3.122437042782214,2.942414671948219,4.143238628841673,0.019675309646072083,0.05496825408671466,0.011549073666988607,0.04734570775402546,-0.24001673360253378,-0.056003112204299994,0.278299868106842,0.3289667963981628,-0.4848456978797912,0.4710387587547302,-0.1643899828195572,-0.2184034436941146
1749055967.6795714,-5.7930233442770165,-1.9976978783663892,1.5056213861441048,-3.1223402111604353,2.941936014527491,4.143126443267444,0.019783333379469692,0.05530203363644824,0.011562730030011023,0.047443657336386204,-0.241277503809556,-0.05639028601998186,0.2963851988315582,0.3390443325042724,-0.4801850318908691,0.464576780796051,-0.1647813320159912,-0.206790879368782
1749055967.6796403,-5.792983380911605,-1.9975895790206153,1.5056411687160114,-3.122243262204318,2.9414536478091353,4.1430131434088935,0.019897802910402912,0.05565821467209116,0.011563983925828488,0.047600774159595,-0.24253939901976865,-0.056852986191114535,0.2586082518100738,0.3473581671714782,-0.4567713737487793,0.4855255484580993,-0.1376116424798965,-0.2194277346134185
1749055967.6797082,-5.792943502663333,-1.997480961204193,1.5056608103896758,-3.1221460795077425,2.940967624831762,4.142898600658909,0.020017652944945032,0.05602814799552638,0.011557016583124921,0.04781551435108103,-0.24377780079775244,-0.05738433853579841,0.2724803388118744,0.3481120467185974,-0.466397225856781,0.4680479764938354,-0.1700002998113632,-0.2220894694328308
1749055967.679777,-5.792903743179088,-1.9973719186054115,1.505680428385748,-3.122048554151998,2.9404780989795216,4.142782701218363,0.020141959650792938,0.05640275453589868,0.01154658054079154,0.04808263485229004,-0.2449706680152194,-0.057973058851004566,0.277495414018631,0.3303410708904266,-0.472567617893219,0.4692713916301727,-0.1629004925489425,-0.2100203931331634
1749055967.6799614,-5.792864115849051,-1.9972623697082552,1.5057001505248349,-3.121950593447098,2.939985300510947,4.1426653449871935,0.020269907431553016,0.05677324710321102,0.011537691523164936,0.04839436153769313,-0.24610101013842905,-0.05860357940781237,0.2672988474369049,0.3127732574939728,-0.4821802973747253,0.4693631827831268,-0.1630788147449493,-0.1816605925559997
1749055967.6803958,-5.792824605838635,-1.997152252458106,1.5057201077795255,-3.121852125705111,2.939489506027275,4.142546447179728,0.020400742160302625,0.057131831624124337,0.011535303091999908,0.0487418123927376,-0.24715871842181905,-0.05925646921142751,0.2839767634868622,0.3033722937107086,-0.4786619544029236,0.4849862456321716,-0.1587213277816772,-0.1567796021699905
1749055967.7223034,-5.792785165332546,-1.9970415151941203,1.5057404263091356,-3.1217530998310257,2.9389910042836442,4.142425943097322,0.020533730800579717,0.05747230729088586,0.011543974150911965,0.0491164267798439,-0.24814158074704423,-0.05990911097956907,0.2720042169094085,0.3176373243331909,-0.4738889932632446,0.4721136093139648,-0.1482261717319488,-0.1957455426454544
1749055967.7223525,-5.792745713753796,-1.9969301059841789,1.5057612195965346,-3.1216534799908735,2.938490061943581,4.142303796195671,0.020668128506357984,0.05779052078000017,0.011567545660982859,0.04951115250566287,-0.24905536773042514,-0.06053661689796205,0.2777982354164123,0.3083996176719665,-0.4804326891899109,0.4456112086772918,-0.1309444457292556,-0.1993748694658279
1749055967.7223938,-5.792706143774881,-1.9968179628663258,1.505782581532794,-3.1215532372251893,2.9379868927642128,4.142180008828566,0.02080314447020625,0.0580846637620204,0.011608853785675123,0.04992118650516563,-0.24991294208415252,-0.06111301851921526,0.2740147113800049,0.3175053000450134,-0.4618111252784729,0.473137617111206,-0.0979428440332412,-0.1919349282979965
1749055967.7224336,-5.792666332570923,-1.9967050070839663,1.505804581262585,-3.121452340774282,2.937481633546156,4.14205463387525,0.02093790256129913,0.058355420212801865,0.011669517040158912,0.05034415376712425,-0.25073246246177366,-0.06161279079642153,0.2855681777000427,0.3320696651935577,-0.458193838596344,0.4834578931331634,-0.1278892755508422,-0.1842892318964004
1749055967.722473,-5.792626156447117,-1.9965911405019028,1.505827260252825,-3.1213507516569883,2.936974329977529,4.141927784497408,0.021071403686189233,0.05860596703432542,0.01174983698347355,0.05077972569108252,-0.2515349292393621,-0.062012715213847255,0.2618074417114258,0.3346993923187256,-0.4629634618759155,0.4852525591850281,-0.1477666199207306,-0.1864587515592575
1749055967.7225118,-5.792585506215123,-1.9964762474278006,1.5058506315760436,-3.121248419940825,2.9364649348880665,4.1417996390820315,0.02120250460479811,0.058841815565346046,0.011848838525668636,0.05122879072945683,-0.2523414938559032,-0.062293966786868105,0.2815557718276977,0.3281302154064178,-0.4671922922134399,0.4728221595287323,-0.1540149897336959,-0.1711890697479248
1749055967.72255,-5.792544300675752,-1.9963602003009895,1.5058746810397245,-3.121145285814161,2.935953320045464,4.141670439057131,0.02132992940227791,0.059070467719806244,0.011964447240044942,0.05169236993759829,-0.2531710352095946,-0.06244419035426854,0.2808498442173004,0.3170818388462066,-0.4699217081069946,0.493253231048584,-0.1431005299091339,-0.1679768711328506
1749055967.7225883,-5.792502496112977,-1.9962428682714852,1.5058993696558456,-3.1210412836258894,2.935439300485729,4.141540478458766,0.021452326051143302,0.05930086390826712,0.012093767224632724,0.05217051179030958,-0.2540384285254421,-0.06245926814194363,0.2920985817909241,0.3620434999465942,-0.4675253033638,0.4967211484909057,-0.1606601327657699,-0.1719591915607452
1749055967.7226272,-5.792460090491313,-1.9961241276293615,1.5059246370908659,-3.1209363477098018,2.9349226680076845,4.141410085592477,0.02156837393640361,0.05954262782475006,0.012233398362679154,0.05266140764949736,-0.25495370665393385,-0.062344484961406384,0.2708683013916015,0.3054766356945038,-0.4765645563602447,0.5014857053756714,-0.1015523523092269,-0.1618615090847015
1749055967.7226672,-5.792417121897473,-1.996003873251401,1.5059504060986058,-3.1208304188716682,2.9344032287024655,4.141279598545259,0.021676939437970378,0.059805160421487036,0.012379727385352726,0.053160935024276684,-0.25592204970559185,-0.06211485926125419,0.2665013372898102,0.361844539642334,-0.4638342261314392,0.4982529282569885,-0.1407914757728576,-0.1684953868389129
1749055967.7227092,-5.792373661696418,-1.9958820303820308,1.505976588177507,-3.1207234505631076,2.933880838748256,4.141149337341839,0.021777264790608725,0.06009668711728825,0.012529146107792178,0.053662749720197064,-0.25694437753567895,-0.06179451728683163,0.2970749139785766,0.3781022131443023,-0.4538482427597046,0.4981895089149475,-0.1531752198934555,-0.1625468283891677
1749055967.7227476,-5.792329803819997,-1.995758565827805,1.5060030904667363,-3.120615413833466,2.93335543302618,4.141019576053616,0.021869162597048655,0.0604233982495427,0.012678185390317159,0.05415892134263703,-0.25801832508496664,-0.06141512636220654,0.2823613584041595,0.3728542923927307,-0.4523293375968933,0.4889443218708038,-0.1618648022413253,-0.1482424437999725
1749055967.722786,-5.792285652295321,-1.9956334970620588,1.506029823310188,-3.1205063002068045,2.932827041980281,4.1408905181908615,0.021953179932833272,0.06078882119614506,0.012823588978660443,0.05464097919465664,-0.25913948841356443,-0.06101354108835403,0.2700632810592651,0.313489019870758,-0.4595888257026672,0.4949686527252197,-0.1954866647720337,-0.1765787303447723
1749055967.7228231,-5.792241309223402,-1.9955068972732677,1.5060567074593798,-3.1203961218128056,2.932295793443892,4.14076227835812,0.022030695130674658,0.06119351797907886,0.012962371044022886,0.055101149871155594,-0.26030290995110084,-0.06062892628601871,0.2622116208076477,0.3767522871494293,-0.4625343680381775,0.4898906350135803,-0.173388734459877,-0.1704398542642593
1749055967.7228606,-5.792196864805429,-1.9953788945230837,1.506083679887615,-3.120284908491526,2.9317618980476574,4.140634872597401,0.022103915957371396,0.061635139613431957,0.013091897798817188,0.055533540027310854,-0.2615047396743002,-0.060299691540564956,0.2746827602386474,0.351355642080307,-0.4614845812320709,0.509787380695343,-0.1534540206193924,-0.1803654283285141
1749055967.7228987,-5.7921523899590035,-1.9952496640521709,1.506110697554419,-3.120172702236159,2.931225619288925,4.140508219127269,0.022175758956908688,0.06210881737858554,0.013210012466458539,0.05593503633357015,-0.26274387924129256,-0.06006059665994666,0.2716855406761169,0.3534505665302276,-0.4643047451972961,0.5100639462471008,-0.1406422257423401,-0.1744460165500641
1749055967.7229364,-5.792107931199215,-1.9951194141859705,1.5061377388945063,-3.1200595501315402,2.9306872319779123,4.140382150096064,0.022249607890888427,0.06260783224861555,0.01331519655360924,0.056305742065890486,-0.2640232878544154,-0.05994035516354193,0.2729608118534088,0.3656252026557922,-0.464838445186615,0.4785863161087036,-0.1422688663005828,-0.195114403963089
1749055967.7229743,-5.792063507281642,-1.9949883678061606,1.5061648031200672,-3.119945497499079,2.930146974989246,4.140256433315198,0.02232897426015381,0.06312446509548253,0.013406739085056291,0.05664884222251678,-0.2653506196085708,-0.0599599759813389,0.2786465585231781,0.3464778959751129,-0.4685909748077392,0.492716372013092,-0.1459820866584777,-0.1782813370227813
1749055967.7230115,-5.792019107546589,-1.9948567424211219,1.5061919076179315,-3.119830582862931,2.929605005593419,4.140130800983652,0.02241710757141136,0.0636508993563967,0.013484873353789072,0.0569698936883186,-0.2667380180829833,-0.0601319640356346,0.2674567997455597,0.3330608010292053,-0.4723228812217712,0.4935257136821747,-0.1876896172761917,-0.1652351915836334
1749055967.723049,-5.791974692466313,-1.9947247320680133,1.5062190838709308,-3.1197148356499027,2.9290613629792595,4.140004980848339,0.022516616795510924,0.06418004352892819,0.013550838271818228,0.05727566896614479,-0.26820113889724884,-0.06046037702050495,0.2758000195026397,0.3446010649204254,-0.4575830101966858,0.5085265636444092,-0.1911247968673706,-0.1783992946147918
1749055967.72316,-5.791930197166394,-1.9945924935390238,1.5062463724254478,-3.1195982766966557,2.9285159477853897,4.139878724666767,0.022629163801848984,0.06470616789564002,0.01360682799696798,0.05757280552285449,-0.2697576564412863,-0.06094162690444301,0.2870291173458099,0.3450846970081329,-0.4645943939685821,0.5008655786514282,-0.1843555569648742,-0.1951356381177902
1749055967.7243817,-5.791885538571481,-1.9944601381427356,1.5062738173616617,-3.1194809210616246,2.9279685222119296,4.139751829359709,0.022755280190776096,0.06522529512320231,0.013655807689672684,0.05786657329901447,-0.27142553538816283,-0.061565828059199745,0.2985176146030426,0.3263189792633056,-0.4659991860389709,0.5145995616912842,-0.1742711663246154,-0.1948665082454681
1749055967.7663171,-5.791840626271129,-1.99432772901269,1.5063014605371408,-3.1193627823724364,2.9274187315222777,4.139624147652369,0.022894345350553316,0.06573533081642678,0.013701193692504807,0.058160035405150086,-0.2732212391723208,-0.062318436840881605,0.2846670150756836,0.3237716257572174,-0.4587367177009582,0.5050422549247742,-0.1635724008083343,-0.171915978193283
1749055967.7663682,-5.791795376114907,-1.9941952831410155,1.506329335823232,-3.1192438778674267,2.926866143314588,4.13949558704864,0.023044741065775334,0.06623595911529952,0.013746422950168187,0.05845375348840045,-0.2751579306486166,-0.06318191041100876,0.2780945301055908,0.3425339162349701,-0.464052140712738,0.5016806721687317,-0.1830942183732986,-0.2002395838499069
1749055967.7664104,-5.791749724206271,-1.994062776672396,1.5063574637734973,-3.1191242333581823,2.9263102973389565,4.139366098293325,0.023204161502806967,0.06672835913936163,0.013794466454727814,0.05874603161079562,-0.2772437018484997,-0.06413714077152342,0.2914290428161621,0.3381088972091675,-0.465214192867279,0.484163761138916,-0.2124283909797668,-0.2002191841602325
1749055967.7664502,-5.791703638180797,-1.9939301515435808,1.506385847442013,-3.1190038874981734,2.9257507570059107,4.139235656497189,0.023370014824196806,0.06721481667580304,0.01384736594213812,0.05903356324343959,-0.2794799590184057,-0.06516448802860716,0.2923057377338409,0.3136903941631317,-0.4635042548179626,0.4967529475688934,-0.2463517636060714,-0.2053221017122268
1749055967.7664888,-5.791657123051515,-1.9937973217179052,1.5064144701071684,-3.118882894868735,2.925187154329221,4.1391042393342605,0.023539822739807065,0.06769830276827922,0.0139058816300488,0.05931228822565045,-0.28186020340549367,-0.06624433392551471,0.2663157880306244,0.3498608767986297,-0.4553267061710357,0.4730586409568786,-0.2308116853237152,-0.2058956027030944
1749055967.7665277,-5.791610220258344,-1.993664178187648,1.506443295374235,-3.1187613274263386,2.9246192224033445,4.138971806985253,0.023711521995457927,0.06818206452930359,0.01396932793537902,0.05957828336452587,-0.28436948342213436,-0.06735718693578018,0.2581223845481872,0.3161173462867737,-0.4461353123188019,0.515192449092865,-0.2370212376117706,-0.2100604474544525
1749055967.766566,-5.791563000137437,-1.9935305930335272,1.506472269667416,-3.1186392738640523,2.9240468126531156,4.1388382879023355,0.02388359995092659,0.0686692365435893,0.01403564595736816,0.05982856568300398,-0.2869847042588474,-0.06848346696239216,0.2730763852596283,0.3346001207828522,-0.4690971672534942,0.4839489459991455,-0.2305919528007507,-0.2007655650377273
1749055967.7666042,-5.791515549353631,-1.993396423431953,1.5065013267130698,-3.11851683651237,2.9234698968419717,4.138703573234254,0.024055046759342405,0.06916245402709423,0.014101718636459497,0.06006173537222839,-0.28967581322899183,-0.06960315562097394,0.2948202192783355,0.3439560532569885,-0.450632095336914,0.4900908768177032,-0.243966519832611,-0.2110969275236129
1749055967.7666423,-5.791467955757965,-1.9932615164061473,1.506530393431382,-3.1183941255847514,2.9228885555061694,4.138567521104427,0.024225163639812305,0.06966344448541793,0.01416388350815347,0.060278407354251905,-0.2924077259076354,-0.07069551790137743,0.306114912033081,0.2934664785861969,-0.4730173349380493,0.4794361889362335,-0.2317773997783661,-0.2019043266773224
1749055967.766682,-5.791420293402898,-1.993125714670153,1.5065593966501278,-3.118271250859631,2.922302955198415,4.138429970083907,0.024393311184364847,0.0701725935972409,0.014218553957901923,0.06048139257483692,-0.295142773402427,-0.07173909843359223,0.3195605874061584,0.3547033965587616,-0.4594774842262268,0.4889143705368042,-0.241657093167305,-0.222937524318695
1749055967.7667236,-5.791372609926967,-1.9929888634870492,1.5065882700520326,-3.1181483111967885,2.9217133171487646,4.138290759393616,0.02455869594313649,0.0706885193924056,0.014262838423898357,0.06067561775419321,-0.297843416226441,-0.07271216264777332,0.3182758390903473,0.313896119594574,-0.4760609865188598,0.4994573593139648,-0.2408007234334945,-0.2043345123529434
1749055967.7667625,-5.791324917609689,-1.9928508180743887,1.5066169607128173,-3.1180253825270503,2.921119880176826,4.138149752003499,0.024720270130820416,0.07120773708599945,0.01429505314032634,0.0608678162865072,-0.3004749429992971,-0.07359366290058231,0.3003830313682556,0.3112304806709289,-0.4703658521175384,0.4964318573474884,-0.2364129871129989,-0.2074673175811767
1749055967.7668002,-5.791277188717724,-1.992711450634505,1.5066454345920277,-3.1179025051836753,2.920522861289049,4.13800685631114,0.02487676892385848,0.07172453070240954,0.014315052173225729,0.06106605823911453,-0.3030078480305177,-0.07436466740011598,0.3005709052085876,0.3340848088264465,-0.477025032043457,0.5255210995674133,-0.1878059208393097,-0.1767613589763641
1749055967.7668378,-5.791229355461005,-1.9925706557833198,1.506673680447498,-3.1177796717674258,2.919922418267863,4.137862042587692,0.025026857965001818,0.07223114098369285,0.014324337984467268,0.06127919110015438,-0.3054195974858909,-0.07501005148166034,0.2908198535442352,0.339415043592453,-0.4597206115722656,0.5123657584190369,-0.2028030604124069,-0.1888384222984314
1749055967.7668748,-5.791181314664742,-1.9924283534112692,1.5067017117634303,-3.117656817153967,2.9193186190664777,4.137715351506008,0.02516933351380863,0.07271832931604148,0.014325954406484515,0.06151623501035808,-0.30769558519906665,-0.07552018216700755,0.305263876914978,0.3160604834556579,-0.4754610061645508,0.5200315117835999,-0.2097678333520889,-0.2169167697429657
1749055967.7669127,-5.791132936931698,-1.9922844889008453,1.506729566389577,-3.1175338126382117,2.9187114224927013,4.13756689336903,0.025303315529277396,0.07317630091280876,0.014324192280922736,0.06178573295101981,-0.3098292400312359,-0.07589235170574285,0.2912233769893646,0.3424402177333832,-0.4702554047107696,0.4904442131519317,-0.2508204281330108,-0.212432250380516
1749055967.7669506,-5.7910840796078835,-1.99213903172146,1.5067573037684152,-3.1174104663456426,2.9181006737088255,4.13741683800584,0.02542839120115975,0.07359588640250037,0.014324153742247235,0.06209502138550087,-0.3118214182318077,-0.07613179628147132,0.3033030331134796,0.2873932123184204,-0.4470788538455963,0.4898168742656708,-0.2224514782428741,-0.2053102254867553
1749055967.7669885,-5.79103460230768,-1.991991974173659,1.506784999849753,-3.1172865316795932,2.9174861168626363,4.13726539670464,0.02554469047689627,0.0739698097990885,0.014331228212686875,0.06244939203635391,-0.31367932069306415,-0.07625220338509123,0.3047627806663513,0.2653414905071258,-0.4560757875442505,0.5082873106002808,-0.2113556265830993,-0.2124093323945999
1749055967.7670257,-5.790984383228308,-1.991843332146933,1.506812739969826,-3.1171617246348053,2.9168674255153393,4.137112798827361,0.025652895983663635,0.07429383535992001,0.014350536556404907,0.06285118286716301,-0.3154151841538638,-0.07627562835624506,0.2774353623390198,0.2992138266563415,-0.4564091861248016,0.5124626755714417,-0.1881905198097229,-0.1848344951868057
1749055967.7670624,-5.790933334236282,-1.991693149101967,1.506840610213529,-3.1170357494487066,2.9162442488843374,4.136959266613139,0.02575420182752192,0.07456760195162092,0.014386401159172208,0.06329894178410789,-0.3170449415058168,-0.0762317320732619,0.3225097358226776,0.3194592595100403,-0.4685910046100616,0.5247634649276733,-0.1610021889209747,-0.1914049983024597
1749055967.7671795,-5.790881412849225,-1.9915415030525414,1.5068686882166231,-3.1169083304743315,2.915616268043847,4.136804991869837,0.025850238938922316,0.07479501387401921,0.014441897580333558,0.06378688217089318,-0.318586982821855,-0.07615626690829738,0.2937913835048675,0.2434538006782531,-0.470207154750824,0.5275013446807861,-0.2161126434803009,-0.1964070498943328
