nimar13/UR3e_dataset_trayectorias/trayectorias_ejecutadas_filtradas/trapezoidal_func/trayectoria_002_result_filtrado.csv
timestamp,q1,q2,q3,q4,q5,q6,qd1,qd2,qd3,qd4,qd5,qd6,tau1,tau2,tau3,tau4,tau5,tau6
1749053448.1382658,-1.9469423935673984,-1.7304112225556356,2.5765905036131693,-3.825456101876917,-1.14038785738905,-5.271627590228551,0.0016879183037845872,-0.0011812112221590185,0.00031571891356898163,-0.0006665720941401442,0.0001580897591036184,-0.0002050342280575688,-0.1293244063854217,-0.7341592311859131,-0.6924710869789124,-0.5685360431671143,-0.0831946209073066,-0.1092370897531509
1749053448.1383116,-1.9469444667063518,-1.7304079832513823,2.5765947689274,-3.825457874555159,-1.1403805715786894,-5.2716222480025285,0.0016910584177882977,-0.001052887747455205,0.00030116666896485265,-0.00025455080857459837,0.0002958310374787377,0.00021880262723599547,-0.1104824095964431,-0.7289442420005798,-0.6977754235267639,-0.5593341588973999,-0.0712148994207382,-0.0794252455234527
1749053448.1383617,-1.946946215855865,-1.7304047067369253,2.576598876567082,-3.825459561497721,-1.140373538834941,-5.271617077005327,0.0016910801803900494,-0.0009313459111327312,0.000286915818001513,0.0001416056100818694,0.00042791153351133174,0.0006348315795083153,-0.129364788532257,-0.7513359189033508,-0.7022983431816101,-0.5429587960243225,-0.0689796358346939,-0.0871425718069076
1749053448.138404,-1.9469473964141624,-1.7304014724608237,2.5766027116283703,-3.825461056204556,-1.1403669846400724,-5.2716121468508454,0.001684266200224362,-0.0008218200300677634,0.00027315832847492555,0.0005063287837582194,0.0005482706041658308,0.001031373642966776,-0.104774996638298,-0.7555450797080994,-0.7037539482116699,-0.5425294637680054,-0.080539584159851,-0.0691183656454086
1749053448.1384416,-1.9469478177390933,-1.7303983798883922,2.5766061705433096,-3.8254622700412733,-1.140361087842758,-5.271607507398779,0.0016672613849646554,-0.0007289379242625751,0.0002600581839274332,0.0008260715620804267,0.000651816484907854,0.0013975412003218658,-0.0876390635967254,-0.7422816157341003,-0.7150278091430664,-0.5436329245567322,-0.0742621347308158,-0.0870248228311538
1749053448.1384797,-1.9469473603474625,-1.7303955472583028,2.5766091633773187,-3.8254631386940217,-1.1403559691918732,-5.2716031863980275,0.0016373372291340021,-0.0006564639454447782,0.0002477429788468482,0.0010901884028408707,0.0007347940010026554,0.0017238910355927997,-0.1076065599918365,-0.7331400513648987,-0.6903464198112488,-0.5359969139099121,-0.0565661787986755,-0.0663571208715438
1749053448.1385164,-1.946945986095143,-1.7303931052160142,2.5766116166252826,-3.8254636249243554,-1.1403516881509534,-5.271599188163807,0.0015926621250349706,-0.000607070756201807,0.00023629829957556788,0.0012915988078184915,0.0007949931234914675,0.0020030214268184294,-0.1119549870491027,-0.7684022784233093,-0.7134672403335571,-0.5363964438438416,-0.0682718753814697,-0.0830794274806976
1749053448.1385536,-1.9469437406496608,-1.730391186628989,2.576613476752397,-3.8254637176109516,-1.1403482475973934,-5.271595494253173,0.0015325286810403968,-0.0005821538838568361,0.00022576530559644464,0.001427166393333324,0.0008317844354624226,0.0022300153000112725,-0.134170651435852,-0.7383565306663513,-0.7043522000312805,-0.5322162508964539,-0.0395765304565429,-0.0602647066116333
1749053448.138591,-1.9469407481602958,-1.730389914547586,2.576614714155997,-3.825463427800326,-1.140345604469472,-5.271592066825165,0.0014574795738670331,-0.0005817046657622804,0.00021614159086656804,0.001497749058946348,0.0008459956779748627,0.002402634792758961,-0.1152323186397552,-0.752314567565918,-0.7025371193885803,-0.5416393280029297,-0.0586871951818466,-0.0686649233102798
1749053448.1386278,-1.9469371987034954,-1.7303893901456262,2.576615326770545,-3.825462783003448,-1.140343683502316,-5.271588854728674,0.0013692890989439029,-0.0006042579270564224,0.0002073851160989821,0.0015079124677812076,0.0008396654978036422,0.0025212220804593133,-0.111812487244606,-0.7457371950149536,-0.706127941608429,-0.5196253061294556,-0.0496445298194885,-0.0699185878038406
1749053448.138665,-1.9469333298622302,-1.7303896820681064,2.5766153423683194,-3.8254618212116474,-1.1403423911458037,-5.271585801704626,0.0012707919263942398,-0.0006469302344563854,0.0001994207812865431,0.0014653422082825803,0.0008157221170154641,0.0025883355582462927,-0.110963374376297,-0.7668406367301941,-0.7286416292190552,-0.5466697216033936,-0.0626364350318908,-0.0723886489868164
1749053448.138702,-1.9469294045873269,-1.730390818378562,2.5766148187470304,-3.825460586002843,-1.1403416274711524,-5.271582855534586,0.0011655865850803441,-0.0007055624418551259,0.00019214905673976948,0.0013800288500878716,0.000777636765744296,0.002608214152874252,-0.105389267206192,-0.7550173401832581,-0.719204843044281,-0.5209839940071106,-0.0424606651067733,-0.0416429117321968
1749053448.1387398,-1.946925688049558,-1.7303927821082863,2.5766138413703357,-3.8254591236221316,-1.140341294921408,-5.271579976620851,0.0010576649052125111,-0.0007749752101104704,0.00018545600263355472,0.0012633255010753121,0.0007290966297495101,0.002586190196965923,-0.0963937938213348,-0.7769774794578552,-0.7073665261268616,-0.5243101716041565,-0.0559821426868438,-0.0487623699009418
1749053448.1387956,-1.9469224262018527,-1.7303955108743934,2.576612518457546,-3.825457482158182,-1.1403413036911725,-5.271577144545281,0.0009510263539621785,-0.0008493358884495801,0.00017922396792382876,0.0011269849503573559,0.0006737313667644405,0.002528157987783802,-0.1104637831449508,-0.7482268214225769,-0.6966015696525574,-0.5170601606369019,-0.0580491125583648,-0.0615386851131916
1749053448.1388383,-1.9469198281252993,-1.7303989002441393,2.576610973861147,-3.825455712182953,-1.1403415741174903,-5.271574361633037,0.0008493304291255284,-0.0009226177099106354,0.00017334225470094647,0.000982273651198981,0.0006149128613844277,0.002440162345927489,-0.1328841596841812,-0.7426677346229553,-0.7042748928070068,-0.5274192690849304,-0.0518926978111267,-0.0487149693071842
1749053448.1388762,-1.946918053209484,-1.7304028100804625,2.576609338375635,-3.8254538677793617,-1.1403420367296313,-5.2715716531444485,0.0007556248178180259,-0.0009891094156582341,0.00016771705106223466,0.0008392370231936223,0.0005556328531109922,0.002328117836035085,-0.1391968131065368,-0.7473586201667786,-0.7084521055221558,-0.5244958996772766,-0.0640149563550949,-0.0385647676885128
1749053448.1389253,-1.9469172032951927,-1.7304070733167585,2.5766077404859433,-3.825452006907772,-1.1403426306574198,-5.271569064126129,0.0006721668568962893,-0.0010439126295244364,0.00016227996650138783,0.0007061611366997032,0.0004984504409960951,0.002197623897843315,-0.1050702035427093,-0.7460891008377075,-0.7046722769737244,-0.5402213931083679,-0.0732584297657013,-0.0554520972073078
1749053448.1389658,-1.9469173194390264,-1.7304115070338175,2.576606297807135,-3.825450190486998,-1.1403433011506212,-5.271566653211691,0.0006003372072678926,-0.001083356040784341,0.00015699454651856986,0.0005892462637893478,0.0004454929492272456,0.002053819492853214,-0.1251911222934723,-0.7467350363731384,-0.7203696370124817,-0.5299979448318481,-0.0635533258318901,-0.0702669471502304
1749053448.139003,-1.946918382961542,-1.7304159256772877,2.5766051101960645,-3.8254484800953703,-1.1403439971634513,-5.271564484100746,0.0005406322417528641,-0.0011052660472016674,0.00015186020136708045,0.0004924830802928264,0.0003984894311155032,0.0019012296585093423,-0.1303485333919525,-0.7538034319877625,-0.7052435278892517,-0.5233254432678223,-0.049987107515335,-0.0757849067449569
1749053448.1390405,-1.9469203205989227,-1.7304201555794179,2.576604254724099,-3.825446934528653,-1.1403446701318316,-5.2715626161481115,0.0004927162049677793,-0.0011090600914742056,0.00014691306609416671,0.0004177050356899317,0.0003588155087932582,0.0017435883436157623,-0.1233907788991928,-0.719826877117157,-0.6960064172744751,-0.5298039317131042,-0.0415896326303482,-0.0548559017479419
1749053448.1393995,-1.9469230134620212,-1.7304240490369995,2.5766037820476244,-3.825445605559849,-1.140345274841611,-5.271561096014741,0.0004555136776895593,-0.0010956617480456137,0.0001422234267410256,0.00036478074715980965,0.0003275303848949461,0.0015836592644468107,-0.1257479935884475,-0.7394754886627197,-0.6933896541595459,-0.5309355854988098,-0.04136523604393,-0.0821962505578994
1749053448.1415727,-1.9469263089309774,-1.73042749563917,2.57660371382293,-3.8254445333521687,-1.1403457725443964,-5.271559952139325,0.0004273249308254301,-0.0010672654335647986,0.0001378895125016366,0.0003319070621455952,0.00030539100412265455,0.00142310261328573,-0.1562022566795349,-0.7336777448654175,-0.7054793238639832,-0.5208433270454407,-0.0612537339329719,-0.0642862319946289
1749053448.1863017,-1.9469300338971969,-1.7304304287245114,2.576604041482064,-3.825443742205404,-1.1403461355523767,-5.271559192892889,0.0004059499918128241,-0.0010269971275297717,0.00013402767490300633,0.00031596515151402407,0.0002928340058060963,0.0012624435291977052,-0.0949435085058212,-0.741277277469635,-0.7047012448310852,-0.5304878950119019,-0.0733851790428161,-0.0653447061777114
1749053448.1863463,-1.946934007510756,-1.730432825816134,2.5766047271942676,-3.825443237532588,-1.1403463518607793,-5.2715588081870335,0.0003888109947751801,-0.0009785241938849644,0.0001307592560244025,0.0003129071256616761,0.00028992286631437735,0.0011011904373781098,-0.1183773279190063,-0.7414411902427673,-0.6873716711997986,-0.524617075920105,-0.041261151432991,-0.0580946095287799
1749053448.1863854,-1.946938052110375,-1.7304347033235927,2.5766057077851396,-3.82544300497569,-1.1403464280955875,-5.271558773468345,0.0003730662136215658,-0.0009256642122396291,0.0001281947831964291,0.000318147718998848,0.00029626496965263,0.0009381330082033364,-0.1311742663383484,-0.7508612275123596,-0.690626859664917,-0.5337234139442444,-0.0756751000881195,-0.0758214443922042
1749053448.1864238,-1.9469420019946542,-1.7304361071364474,2.576606901868693,-3.8254430123038574,-1.1403463893174286,-5.2715590545259765,0.0003557127209298734,-0.0008720333221857321,0.00012641650144690488,0.0003269431505378115,0.0003109106431028664,0.0007718254003888526,-0.1396311670541763,-0.7325002551078796,-0.697204053401947,-0.5452288389205933,-0.0625093281269073,-0.0689567178487777
1749053448.186461,-1.9469457104824162,-1.730437101429829,2.5766082196907885,-3.8254432141772896,-1.140346275002122,-5.271559611349582,0.00033367754707198276,-0.0008207629449159273,0.00012546063896270543,0.0003347461172110791,0.00033225275103727496,0.0006012338683728291,-0.1406987309455871,-0.7320300936698914,-0.6873496770858765,-0.54407799243927,-0.074237585067749,-0.0461916364729404
1749053448.1864977,-1.9469490558760691,-1.7304377579191852,2.576609574402305,-3.825443559031891,-1.140346131715913,-5.27156039957762,0.0003038991913892437,-0.0007743026626533486,0.00012530115453751175,0.00033753108907238214,0.0003579505204648259,0.000426500667726207,-0.1139357089996337,-0.7469533085823059,-0.6844366788864136,-0.5418095588684082,-0.0700941383838653,-0.0761900842189788
1749053448.186535,-1.9469519465567944,-1.7304381472165897,2.5766108929435596,-3.8254439964806206,-1.1403460040967752,-5.271561368973433,0.0002634020807162766,-0.0007343172390027749,0.00012583698804633788,0.00033208709937651657,0.0003849041644596316,0.0002497505231379521,-0.1414257287979126,-0.7477505803108215,-0.6767668128013611,-0.5425867438316345,-0.0627433806657791,-0.0705517083406448
1749053448.1865714,-1.9469543248970043,-1.730438333217224,2.576612124629395,-3.8254444831995253,-1.140345926285724,-5.271562459502417,0.0002093661368332449,-0.0007016767503582546,0.0001268849662677961,0.0003162759064282968,0.00040930694509628646,7.584506488603759e-05,-0.1447046101093292,-0.7494836449623108,-0.6782101392745972,-0.5452190637588501,-0.077978141605854,-0.0673776865005493
1749053448.186608,-1.9469561693450368,-1.7304383707709752,2.5766132458528204,-3.825444985648547,-1.1403459158496196,-5.271563596367264,0.00013919236634947268,-0.0006765302940987445,0.0001281804444870341,0.00028925198989254654,0.00042679809737648414,-8.702141716077753e-05,-0.1633176803588867,-0.7558273673057556,-0.6871016621589661,-0.5359673500061035,-0.0839491561055183,-0.0706920474767685
1749053448.1866446,-1.9469574940771255,-1.7304383063244444,2.5766142599401896,-3.8254454790598422,-1.1403459716049367,-5.271564685507473,5.056336452690818e-05,-0.0006584460923887801,0.00012938742971723699,0.00025163792416736517,0.0004327332644677738,-0.0002269917149510714,-0.1598058342933654,-0.7701628804206848,-0.6702256798744202,-0.5512077212333679,-0.0965232253074646,-0.0823173820972442
1749053448.1866808,-1.9469583460114173,-1.7304381807847962,2.5766151920623743,-3.8254459433022556,-1.1403460757699395,-5.271565610743169,-5.850561683539916e-05,-0.0006465945145431365,0.00013011928450245704,0.00020564511421984334,0.00042257881180819446,-0.0003285744828962223,-0.1740338802337646,-0.769322395324707,-0.6834836602210999,-0.5428633093833923,-0.0925717577338218,-0.0613253600895404
1749053448.1867166,-1.9469587996503899,-1.73043803357495,2.5766160801838334,-3.8254463569483366,-1.1403461998957292,-5.2715662332656565,-0.00018963357799644417,-0.0006399461808862451,0.00012997012531649574,0.00015512672963951345,0.00039242299123058325,-0.0003730987019730082,-0.155381441116333,-0.7258962988853455,-0.6781806349754333,-0.5456703901290894,-0.0823393315076828,-0.0903955101966857
1749053448.1867528,-1.9469589509131804,-1.7304379067259965,2.5766169640004084,-3.82544669108737,-1.14034631330775,-5.271566393764827,-0.0003440701825639509,-0.0006374560608073581,0.0001285557435938313,0.00010554802794730089,0.0003395812190429126,-0.00033962091423111806,-0.1690540313720703,-0.7361828088760376,-0.677334725856781,-0.560949444770813,-0.0821085423231124,-0.0726751387119293
1749053448.1867883,-1.9469589113746324,-1.7304378478963813,2.576617874262319,-3.825446904359261,-1.1403463922291648,-5.271565917164278,-0.0005227314076441494,-0.0006382079321132692,0.00012556144344533476,6.386012782971367e-05,0.0002632559396745772,-0.0002062623987829112,-0.2130416333675384,-0.7441998720169067,-0.6785010695457458,-0.5372591018676758,-0.089869275689125,-0.0547394342720508
1749053448.1868248,-1.9469588038340357,-1.7304379113836923,2.576618824646345,-3.825446940387075,-1.1403464273392794,-5.271564619668585,-0.0007262740838179465,-0.0006415022663945005,0.0001207928549819456,3.826744633498005e-05,0.00016519529630709475,4.810292377701636e-05,-0.1872214376926422,-0.7364329099655151,-0.680509626865387,-0.5245395302772522,-0.0737792328000068,-0.0593490116298198
1749053448.186861,-1.946958759218047,-1.7304381564640734,2.576619807596785,-3.825446728250411,-1.1403464276265494,-5.271562317650001,-0.000955189529087834,-0.0006468826261905906,0.0001142247466502429,3.788682407608111e-05,5.028107961469444e-05,0.0004419462488976158,-0.2052639126777649,-0.7252446413040161,-0.6681364178657532,-0.5271618962287903,-0.0870493352413177,-0.0253452770411968
1749053448.186897,-1.9469589142077555,-1.7304386428453733,2.5766207945974107,-3.825446186007658,-1.1403464192515953,-5.271558837830782,-0.001209873796898851,-0.0006541074053485223,0.00010604217198015563,7.230765313088973e-05,-7.303266491447373e-05,0.000989154179430214,-0.2057048082351684,-0.7468224167823792,-0.6707113981246948,-0.5359866619110107,-0.0971062332391738,-0.0498914457857608
1749053448.1869333,-1.9469594090111357,-1.7304394237784118,2.576621740422052,-3.8254452266983616,-1.1403464393146208,-5.2715540281047035,-0.0014906219240648016,-0.0006630823163222944,9.666791050591893e-05,0.0001510762296784522,-0.00019251124991055528,0.0016972929906512858,-0.2222395837306976,-0.7506519556045532,-0.6711127758026123,-0.5347577929496765,-0.0694661140441894,-0.0383893810212612
1749053448.1869695,-1.9469603850528823,-1.7304405382661012,2.5766225902110027,-3.82544376573814,-1.140346525296117,-5.271547768065046,-0.0017975115514656265,-0.0006737733105091703,8.677011847300105e-05,0.0002831424100180804,-0.0002922355524217931,0.0025662964351230643,-0.2355483174324035,-0.755448043346405,-0.6755241751670837,-0.5296872854232788,-0.0679829642176628,-0.0369669757783412
1749053448.187014,-1.9469619825102755,-1.7304420043361235,2.576623287861399,-3.8254417281527413,-1.1403467013836932,-5.2715399780166825,-0.0021301848846403755,-0.0006861194584699236,7.724449895334788e-05,0.0004763199013171556,-0.00035306052229831585,0.0035877790809264497,-0.2578540444374084,-0.7590838670730591,-0.684440016746521,-0.5046860575675964,-0.0768850520253181,-0.025268442928791
1749053448.1870513,-1.9469643374044139,-1.7304438150970212,2.5766237842353625,-3.8254390538825005,-1.1403469632562433,-5.271530625193194,-0.0024875831609554406,-0.0006999608532616664,6.916626791288421e-05,0.0007368196964201221,-0.00035346636331621466,0.004745112853840513,-0.2441590726375579,-0.7395297884941101,-0.6719587445259094,-0.5011135339736938,-0.0505078583955764,-0.0336268693208694
1749053448.1870875,-1.9469675776380517,-1.7304459383570465,2.576624043951488,-3.8254356996993777,-1.1403472633552372,-5.271519726084753,-0.002867707827280511,-0.0007149884936558917,6.37088358352798e-05,0.0010689149171138656,-0.00027079546233041424,0.0060143172776158955,-0.2461107671260833,-0.7535998821258545,-0.6817942261695862,-0.4851765036582947,-0.0574516952037811,-0.0144417360424995
1749053448.1873646,-1.946971817442643,-1.7304483194113478,2.5766240498798467,-3.82543163712492,-1.1403474989636289,-5.271507344012882,-0.003267468813709739,-0.0007307128853493095,6.202848203976869e-05,0.0014747797843338015,-8.282318650081218e-05,0.007365727456505287,-0.2333529889583587,-0.7489385604858398,-0.6871339678764343,-0.4815426468849182,-0.0464861392974853,-0.0127583649009466
1749053448.1895132,-1.946977150378284,-1.7304508857370298,2.5766238048873036,-3.825426846744315,-1.1403475052289678,-5.271493581293571,-0.003682647182394504,-0.0007464384273022462,6.511732305588367e-05,0.00195451207653134,0.00023043771829178153,0.008766333200661806,-0.2675131559371948,-0.7410315275192261,-0.6868047118186951,-0.4884353578090668,-0.0276395604014396,0.023067407310009
1749053448.2302835,-1.9469836419984232,-1.7304535521529003,2.5766233308651483,-3.825421310015344,-1.1403470546485837,-5.271478565725118,-0.004107972805389883,-0.000761225422766604,7.36304184696162e-05,0.0025063002764653007,0.0006848447748885377,0.010182623315971433,-0.2713837623596191,-0.7463986873626709,-0.6818339228630066,-0.4803405106067657,-0.0103795379400253,0.0295064523816108
1749053448.2303298,-1.9469913239191674,-1.7304562254844664,2.5766226654550475,-3.8254149999230354,-1.1403458636817287,-5.271462431958543,-0.00453731202363996,-0.0007738244417430076,8.76966609864948e-05,0.0031266491163509007,0.0012903250468793359,0.011583707961884975,-0.2632424235343933,-0.7678667306900024,-0.7034668922424316,-0.4544645845890045,0.0039621442556381,0.0398111380636692
1749053448.2303696,-1.9470001908696022,-1.7304588084716084,2.5766218570399304,-3.825407871880379,-1.1403436061901238,-5.271445299410792,-0.004963964842199167,-0.0007825789823011826,0.00010672680267416651,0.003810556057495675,0.0020493592404927994,0.012944427577080093,-0.2646630406379699,-0.7422771453857422,-0.7051585912704468,-0.4581836760044098,0.0155778676271438,0.0395506136119365
1749053448.2304077,-1.9470102014091157,-1.7304612030348707,2.576620958597096,-3.825399856421093,-1.140339932472764,-5.271427249246729,-0.005381064046512026,-0.000785307476237173,0.000129235133353691,0.004551556273589227,0.0029559314524230398,0.014248105083530072,-0.2866080105304718,-0.7278337478637695,-0.7007818818092346,-0.4531901776790619,0.019290879368782,0.0322688072919845
1749053448.2304442,-1.9470212819434392,-1.7304633129321212,2.5766200211363572,-3.825390855406987,-1.1403344919498661,-5.271408303132569,-0.005782043040632223,-0.0007791886975207611,0.00015269345880102898,0.005341621137282556,0.0039950884239046795,0.015488582619630563,-0.2711757719516754,-0.7257838249206543,-0.7088536620140076,-0.4437622129917145,0.0375088900327682,0.0296827815473079
1749053448.2304811,-1.9470333330795924,-1.730465045645387,2.5766190876672814,-3.8253807432841866,-1.1403269571791186,-5.271388405892355,-0.006161111094151818,-0.0007606817719031453,0.0001734366402155437,0.006170977442173172,0.005143199500664996,0.016671225606422615,-0.2448600232601165,-0.6950713396072388,-0.716840922832489,-0.4151986837387085,0.0442167818546295,0.0273062624037265
1749053448.230518,-1.9470462374085324,-1.7304663135121359,2.576618188684453,-3.8253693741127686,-1.1403170468882962,-5.271367413232712,-0.006513664589685908,-0.0007255121147997954,0.00018663764360651275,0.007027979055153035,0.006368950524245327,0.017812686795841276,-0.2868289053440094,-0.7160056233406067,-0.7287161946296692,-0.4023793935775757,0.0446357727050781,0.036761101335287
1749053448.230554,-1.9470598681372657,-1.7304670346495943,2.576617339791035,-3.825356593844783,-1.1403045461202317,-5.271345084912196,-0.006836578085501055,-0.0006687481231139973,0.00018636654544910457,0.007899188076711406,0.007635047365307388,0.018939394067288617,-0.2582404911518097,-0.6872628331184387,-0.7298492193222046,-0.4132766723632812,0.050596460700035,0.0392650812864303
1749053448.2305908,-1.947074098158233,-1.7304671345562936,2.576616541423843,-3.8253422560444035,-1.1402893222707655,-5.271321083474564,-0.007128351330806139,-0.0005849816420614081,0.00016574213355637925,0.008769800113705234,0.008900550171727792,0.020084924594912356,-0.2795429229736328,-0.6742432117462158,-0.7581022381782532,-0.3820518255233764,0.0610295683145523,0.0434764623641967
1749053448.2306273,-1.9470888090462852,-1.7304665490338882,2.576615780063443,-3.825326238252005,-1.140271336311785,-5.271294978732023,-0.007389121748707711,-0.0004686100818956427,0.00011717661089368667,0.009624479281561406,0.010123709691166178,0.021286604090076294,-0.2795429229736328,-0.6742432117462158,-0.7581022381782532,-0.3820518255233764,0.0610295683145523,0.0434764623641967
1749053448.2306638,-1.9471038992890863,-1.7304652285178532,2.5766150300177237,-3.825308455742865,-1.1402506485459503,-5.271266258137764,-0.007620571942222548,-0.00031420178770655196,3.270369394232107e-05,0.010448566473819462,0.011265128957039211,0.022581779982221068,-0.2690562903881073,-0.6407741904258728,-0.7740602493286133,-0.3832245469093323,0.0827404409646987,0.0905066654086113
1749053448.2307005,-1.9471192908954384,-1.7304631433984958,2.57661425481674,-3.825288869795256,-1.1402274181146594,-5.271234342950852,-0.00782576308022052,-0.00011691126853169751,-9.563088747348053e-05,0.011229513549504041,0.012291016871626911,0.024004240413822393,-0.2723868191242218,-0.6187924146652222,-0.7925460934638977,-0.3731299042701721,0.1082838326692581,0.0957856103777885
1749053448.2307367,-1.9471349334219277,-1.7304602893842431,2.5766134073699534,-3.825267488827561,-1.1402018955123105,-5.271198609850813,-0.008008912643802059,0.00012710028815513197,-0.00027534761691111356,0.01195830615159208,0.013176233784780193,0.025581187859648427,-0.3088431656360626,-0.6163147687911987,-0.7984535098075867,-0.3707949519157409,0.1102093309164047,0.1055856868624687
1749053448.2307737,-1.9471508045925956,-1.7304566913056287,2.5766124283059213,-3.825244362497688,-1.140174407488272,-5.271158417319732,-0.008175120296249673,0.0004202890094973165,-0.0005131169709375168,0.012630599660773236,0.013906776727588116,0.02733104872405623,-0.2676703929901123,-0.5878686308860779,-0.8349431157112122,-0.3710367679595947,0.088884100317955,0.1099965795874595
1749053448.2308145,-1.9471669073309446,-1.7304524034124338,2.576611242389708,-3.8252195704403356,-1.1401453339862027,-5.271113135440901,-0.008330040150881346,0.0007634442355964114,-0.0008143828469221523,0.013247327351110063,0.014481349660066214,0.02926224474131137,-0.2503755688667297,-0.5678228139877319,-0.8432444334030151,-0.3557595014572143,0.0860313028097152,0.0968078076839447
1749053448.230852,-1.9471832640707258,-1.7304475048042256,2.5766097536198385,-3.82519320828449,-1.1401150776342182,-5.271062176940708,-0.008479506970742337,0.0011555314353943113,-0.0011830448602396858,0.013814641410590104,0.014911736508501864,0.03137290618045132,-0.2718748450279236,-0.542283296585083,-0.8263363242149353,-0.3626309037208557,0.0867497473955154,0.1220786422491073
1749053448.230889,-1.9471999099868866,-1.7304420900741329,2.576607840373557,-3.825165373805522,-1.1400840279479485,-5.271005026841699,-0.00862914250786576,0.0015936732470236564,-0.0016211929534602325,0.014343182202924395,0.015221844940677335,0.03365139880308606,-0.2884065210819244,-0.5939770340919495,-0.8411880135536194,-0.3528503775596618,0.0982547849416732,0.1370377540588379
1749053448.2309258,-1.9472168867298372,-1.7304362566517575,2.576605352434639,-3.825136155606856,-1.1400525242294048,-5.270941268222117,-0.008783982412492996,0.0020732494518833546,-0.002128864724268937,0.014846798444945766,0.01544549355230608,0.03607747928226059,-0.2522498369216919,-0.5532732605934143,-0.8639956116676331,-0.3488389551639557,0.1084152907133102,0.1391536295413971
1749053448.2309694,-1.9472342375493876,-1.730430090969499,2.576602111638931,-3.8251056257993974,-1.1400208221772046,-5.270870602067151,-0.008948163064029322,0.0025880772416120965,-0.0027037982297717193,0.015340933984288643,0.015623221536855565,0.038623883595702596,-0.2876172959804535,-0.5441668629646301,-0.870578944683075,-0.3502830862998962,0.1190684884786605,0.142084315419197
1749053448.2310064,-1.9472520039572574,-1.7304236554991894,2.576597917237056,-3.8250738370125172,-1.1399890689598187,-5.270792859813915,-0.009124693102734201,0.0031306407082927644,-0.0033411898634850006,0.015840943641484383,0.01579854530395404,0.04125817268328051,-0.2823611199855804,-0.5164391994476318,-0.9038127660751344,-0.3480729162693023,0.1276680678129196,0.1765609383583068
1749053448.2313166,-1.9472702236553494,-1.7304169783648533,2.5765925561331784,-3.8250408229782193,-1.1399572901198716,-5.270708007883171,-0.009315316069616117,0.0036923658332808254,-0.004033515688409373,0.016360597425772904,0.016014134770750983,0.04394468924180329,-0.2888306081295013,-0.4843859076499939,-0.910546600818634,-0.333583652973175,0.1279370039701461,0.1638753712177276
1749053448.2333524,-1.9472889293534459,-1.730410046878557,2.5765858172215874,-3.8250066010963164,-1.1399253896484869,-5.270616144215163,-0.009520454877851066,0.004263953876242958,-0.00477049643494987,0.01691098297292135,0.016308337530972147,0.04664650660330988,-0.2951477468013763,-0.5191184878349304,-0.9049110412597656,-0.3167086243629455,0.1388192623853683,0.1871555894613266
1749053448.2742877,-1.9473081481507426,-1.7304028059179215,2.5765775083942466,-3.8249711750412785,-1.1398931623958366,-5.270517487520373,-0.009739217870531808,0.004835770859389123,-0.005539262413288413,0.01749993165770457,0.016712371366089808,0.04932727300661315,-0.2825957834720611,-0.5088809728622437,-0.9140949845314026,-0.3123165667057037,0.1447535008192062,0.1930064260959625
1749053448.2743328,-1.947327901194245,-1.7303951615122,2.57656747453294,-3.8249345358237035,-1.1398603162460288,-5.270412360572857,-0.009969442386671731,0.005398259202875036,-0.006324724895816002,0.01813198980855415,0.0172483721094387,0.051952873458658407,-0.2761533260345459,-0.4973188638687134,-0.925122618675232,-0.3168390989303589,0.1522226929664611,0.2058984190225601
1749053448.274372,-1.9473482032986256,-1.7303869894217336,2.5765556147541546,-3.824896660735058,-1.1398265006324888,-5.27030116929927,-0.01020775737665849,0.005942325534713889,-0.007110125175273653,0.018808850526020982,0.017928359367796055,0.05449284643388794,-0.2892316579818725,-0.4776287674903869,-0.921838402748108,-0.3116473853588104,0.1542083472013473,0.1959699392318725
1749053448.2744098,-1.9473690622007043,-1.7303781479324327,2.5765418970711824,-3.8248575108146468,-1.1397913379891182,-5.27018437950551,-0.010449660519283628,0.0064596806426486415,-0.007877731746515198,0.01953007602833494,0.01875408612747891,0.05692150404689725,-0.2641636729240417,-0.4650004506111145,-0.9571346640586852,-0.2939538955688476,0.165172204375267,0.2087744921445846
1749053448.2744465,-1.9473904772558133,-1.7303684934605346,2.576526368442581,-3.8248170282396594,-1.1397544552635812,-5.270062492854648,-0.010689622100966098,0.006943139817319277,-0.008609670859472908,0.020293897694662996,0.019717668559445393,0.05921871550644766,-0.2687524259090423,-0.4467282891273498,-0.9334766864776612,-0.304749071598053,0.1734566241502761,0.1749687939882278
1749053448.2744842,-1.9474124376313349,-1.7303578969269209,2.5765091581711284,-3.824775135056124,-1.1397155132838381,-5.269936023382801,-0.010921240071045368,0.0073869023331930685,-0.009288872044514621,0.021097892046337278,0.02080284197580674,0.06137032950580451,-0.2990676760673523,-0.4439836740493774,-0.9422559142112732,-0.2545751929283142,0.1801133751869201,0.2008512020111084
1749053448.274521,-1.947434920163364,-1.730346258551985,2.5764904731082794,-3.8247317341703653,-1.139674232278619,-5.269805475639935,-0.011137472775632927,0.0077868123720764,-0.009900077896888012,0.021939388431873392,0.021986659610864545,0.06336823448885177,-0.2723246812820434,-0.4366316795349121,-0.9393924474716188,-0.2635724544525146,0.1655872464179992,0.1941346228122711
1749053448.2745588,-1.9474578869123806,-1.730333519013784,2.5764705841922697,-3.8246867129478597,-1.1396304120853116,-5.269671325509887,-0.011330967067646767,0.00814058013923511,-0.01043082779995973,0.022815547771425266,0.02324144980199337,0.06521008456869844,-0.2904869019985199,-0.4612121880054474,-0.947246789932251,-0.2768243551254272,0.1985898613929748,0.1923412978649139
1749053448.2745955,-1.9474812824247831,-1.7303196656385544,2.5764498053523783,-3.8246399493657863,-1.1395839456491845,-5.269534004741121,-0.011494482117040114,0.008447928870825133,-0.010872305614094344,0.023723139972954166,0.024536872564175884,0.06689874558440757,-0.2719665467739105,-0.4352697432041168,-0.940850794315338,-0.2707099616527557,0.1995780766010284,0.1885898858308792
1749053448.2746327,-1.947505031118489,-1.7303047330802674,2.576428467334932,-3.8245913203746813,-1.139534824569884,-5.269393890007568,-0.011621388048475435,0.008710633604451292,-0.011219950407806554,0.024658124742201165,0.025841953203532025,0.06844153105612272,-0.2559011280536651,-0.4212931096553802,-0.9523687958717346,-0.251311719417572,0.1907633244991302,0.1845412254333496
1749053448.2746696,-1.9475290358256339,-1.7302887986817341,2.5764068899616066,-3.824540711787937,-1.1394831359319744,-5.269251296848246,-0.011706199890155101,0.008932426542107378,-0.011473758245782211,0.025615192553789363,0.027126999412963267,0.06984930261153421,-0.2574535012245178,-0.4073270261287689,-0.9448923468589784,-0.2247623056173324,0.2071025222539901,0.1606783717870712
1749053448.274706,-1.9475531788118838,-1.7302719734447018,2.576385356375866,-3.8244880286452676,-1.1394290505946982,-5.269106478233086,-0.011745095538203035,0.009118756825833633,-0.011638240704006422,0.026587435321675443,0.02836532033603632,0.07113551949998126,-0.2519550025463104,-0.4350042045116424,-0.9485151171684264,-0.2331557869911193,0.2168640196323394,0.1882348805665969
1749053448.274742,-1.9475773263272413,-1.7302543900980993,2.5763640921797966,-3.824433204755854,-1.1393728043195748,-5.268959627003518,-0.01173636207718865,0.009276405717906422,-0.01172204539668573,0.027566284164789453,0.029534666668581892,0.0723153448443027,-0.2823446094989776,-0.4153545200824737,-0.9553327560424804,-0.2395147681236267,0.2084263861179351,0.192433625459671
1749053448.274778,-1.9476013369851835,-1.730236189898964,2.576343251481359,-3.8243762101430034,-1.1393146741140199,-5.268810881203271,-0.011680716612777406,0.009412971620559622,-0.011737280193189528,0.028541785912382774,0.03061831250054953,0.07340492604345565,-0.2637084424495697,-0.4013988971710205,-0.9578760266304016,-0.2345388233661651,0.1985849291086197,0.1943492442369461
1749053448.274814,-1.9476250731433058,-1.7302175096458106,2.576322910976225,-3.824317055363112,-1.139254952635676,-5.268660331301538,-0.011581454485658936,0.009536256445296465,-0.011698611926083182,0.029503213606611532,0.031605713342061,0.07442092391094512,-0.2565049231052398,-0.3979486227035522,-0.9761905670166016,-0.2353391498327255,0.2230207324028015,0.1876230090856552
1749053448.27485,-1.9476484133505736,-1.730198470299162,2.5763030722027236,-3.824255792059389,-1.1391939234674886,-5.268508028282981,-0.011444389429613825,0.009653604774905407,-0.011622230638265197,0.0304399400697498,0.03249270403351529,0.07538027084977288,-0.275516152381897,-0.3858973979949951,-0.9696113467216492,-0.2176756113767624,0.2016092091798782,0.1718961000442505
1749053448.274886,-1.9476712634206836,-1.73017916869071,2.5762836710434627,-3.8241925095350213,-1.139131839675855,-5.268353991425013,-0.011277568627054745,0.009771263948432205,-0.01152478059995014,0.03134245675652192,0.03328123938585659,0.07630004720583716,-0.2631457149982452,-0.3713525533676147,-0.9605360627174376,-0.2210960388183593,0.230456918478012,0.1779259145259857
1749053448.274922,-1.947693564065533,-1.7301596736876328,2.5762645926382506,-3.824127327515225,-1.1390689073366194,-5.268198214573157,-0.01109077098717106,0.009893841661059753,-0.011422357664076576,0.03220339176353748,0.03397872031897649,0.07719733726967302,-0.2503829002380371,-0.3674380779266357,-0.9930896759033204,-0.2150823324918747,0.249540239572525,0.2083398103713989
1749053448.274958,-1.9477152940324838,-1.7301400274206267,2.576245689329297,-3.8240603856279214,-1.139005274751542,-5.268040670165,-0.010894825827576426,0.010023934759843102,-0.011329658531512094,0.03301836970585828,0.03459698159578445,0.07808897287318897,-0.2537503242492676,-0.3466755151748657,-0.9869884252548218,-0.2341322898864746,0.2182666510343551,0.2061263024806976
1749053448.274994,-1.947736468835205,-1.7301202508915412,2.5762267990996124,-3.8239918305649963,-1.1389410271877287,-5.267881310972593,-0.010700816323901748,0.01016198502868851,-0.011259341614077796,0.03378656572895562,0.03515103835410095,0.07899114529789011,-0.2617221772670746,-0.3638663291931152,-0.990127682685852,-0.2179405242204666,0.2244763970375061,0.1887196898460388
1749053448.275477,-1.947757135985909,-1.7301003521610199,2.5762077621426287,-3.8239218023643105,-1.138876186449161,-5.26772007010647,-0.010519252981868647,0.010306385576639411,-0.011221622441274452,0.034510840074035994,0.03565769602663204,0.07991890757835649,-0.2634402513504028,-0.348490834236145,-0.9856763482093812,-0.2328591048717498,0.2360048741102218,0.2021366953849792
1749053448.2774146,-1.947777367914037,-1.7300803350010603,2.5761884337191416,-3.823850421557239,-1.138810714412813,-5.267556860126383,-0.010359312474053303,0.010453823794845652,-0.011224085858191601,0.03519739669594852,0.03613412968860177,0.0808855888450325,-0.3144142627716064,-0.3514401316642761,-0.9887850284576416,-0.2198996245861053,0.2355570644140243,0.2007342725992202
1749053448.3182878,-1.9477972536547827,-1.7300602063107307,2.576168692285524,-3.8237777789039527,-1.1387445195922228,-5.267391572291613,-0.010228232690549125,0.010599815064041179,-0.011271667869045866,0.035854982245376504,0.03659654546081079,0.08190213575013583,-0.2878148555755615,-0.3166099786758423,-1.0121233463287354,-0.221176728606224,0.2663930058479309,0.2039210498332977
1749053448.3183377,-1.947816890256448,-1.7300399811709726,2.5761484428606374,-3.8237039291563217,-1.13867746574485,-5.267224077130839,-0.010130934232245849,0.01073936061928535,-0.011366754409215255,0.03649372012085274,0.037059046803432076,0.08297641340817369,-0.2683925926685333,-0.3103854060173034,-0.9987353086471558,-0.2274636924266815,0.251531720161438,0.2445216178894043
1749053448.3183784,-1.9478363748496976,-1.7300196847871452,2.5761276164981557,-3.8236288898401223,-1.1386093816641574,-5.267054227508432,-0.010069903540177064,0.010867649965234767,-0.01150935890532938,0.03712374475327391,0.03753282461912537,0.0841125349397011,-0.2888520061969757,-0.3557864427566528,-1.0165424346923828,-0.2125118374824524,0.2695929408073425,0.2059158235788345
1749053448.318417,-1.947855798280687,-1.7299993509112273,2.5761061672877252,-3.823552645389419,-1.1385400716582605,-5.266881865045733,-0.010045331073471157,0.010980719725549612,-0.011697359436252013,0.03775384408110288,0.03802575407257957,0.08531032307356863,-0.2675317227840423,-0.3635028898715973,-1.0207300186157229,-0.2100903242826461,0.2715551257133484,0.1982234418392181
1749053448.3184552,-1.9478752408774902,-1.72997901699288,2.5760840683712436,-3.8234751560531413,-1.138469326607786,-5.266706830075988,-0.010055462489548736,0.011075983099061385,-0.011926788577051147,0.03839031197527065,0.03854241264680077,0.08656502505425565,-0.2878832519054413,-0.3293944001197815,-1.0222103595733645,-0.2178555876016616,0.2605809569358825,0.2063910663127899
1749053448.3184946,-1.947894770324939,-1.7299587172047493,2.576061308114569,-3.8233963700284272,-1.1383969356522374,-5.266528974445775,-0.010097100716315876,0.011152566958510557,-0.012192174501565524,0.03903615274298136,0.039084455224594375,0.08786739937976362,-0.2412407100200653,-0.3226651847362518,-1.0243335962295532,-0.2305826842784881,0.261309802532196,0.2209741473197937
1749053448.318535,-1.9479144411373173,-1.7299384751285098,2.576037887044234,-3.8233162366954727,-1.1383226984489578,-5.266348175714603,-0.0101661896199834,0.01121143391096711,-0.012486933141884047,0.03969069335558288,0.03965122565576697,0.08920426941378583,-0.2836511135101318,-0.3265694975852966,-1.0267685651779177,-0.2075603306293487,0.2761259078979492,0.2191596329212188
1749053448.3185728,-1.9479342951119498,-1.7299182978870604,2.5760138156280945,-3.823234718950739,-1.1382464377280905,-5.266164350851714,-0.010258408259577587,0.0112553061550943,-0.012803807075508388,0.040349587078596316,0.040240470476231686,0.09055959322673944,-0.2771671116352081,-0.3221720457077026,-1.030012607574463,-0.229163572192192,0.2713412344455719,0.2400621622800827
1749053448.3186097,-1.9479543622889186,-1.729898172913822,2.5759891125820347,-3.82315180330925,-1.1381680115780233,-5.265977467427869,-0.010369708156090438,0.011288429936120382,-0.013135335964193308,0.041005157576663225,0.04084903991622522,0.09191602777440878,-0.2646263241767883,-0.2954941391944885,-1.0344613790512085,-0.2215358018875122,0.2889150381088257,0.2211370468139648
1749053448.318647,-1.9479746621152976,-1.729878067715253,2.575963803195831,-3.8230675071503457,-1.1380873245392262,-5.265787550472111,-0.010496740010486148,0.011316221681467526,-0.013474329596508908,0.04164702932856679,0.04147348825532442,0.09325687097381086,-0.2678694128990173,-0.3158494532108307,-1.0453176498413086,-0.2392739802598953,0.2787818014621734,0.2275615632534027
1749053448.318684,-1.9479952047252294,-1.7298579323032623,2.575937917173049,-3.8229818828021735,-1.1380043363361039,-5.26559468348464,-0.01063713992923079,0.011344829225186835,-0.013814305934341619,0.04226300050776104,0.04211051046725171,0.09456816481470212,-0.2600543797016144,-0.3247981369495392,-1.0370486974716189,-0.2370774298906326,0.3011451959609985,0.1997217983007431
1749053448.3187208,-1.9480159924917446,-1.7298377036997314,2.575911485656574,-3.822895018177729,-1.1379190671084616,-5.265399002537896,-0.010789668726023643,0.011380636262108114,-0.014149857332011347,0.042840122901836815,0.042757189147622894,0.09584066494579634,-0.2606254816055298,-0.298857033252716,-1.0452704429626465,-0.2491483092308044,0.2850357294082641,0.2030643075704574
1749053448.3187566,-1.9480370220632723,-1.7298173119559093,2.575884537458934,-3.8228070337988815,-1.1378315982038782,-5.265200683134547,-0.01095421397252746,0.011429743846338944,-0.014476915002029614,0.043365947264019544,0.04341108069310643,0.09707135435687941,-0.2785843908786773,-0.3011255264282226,-1.0413955450057983,-0.2243841886520385,0.3158698081970215,0.196414977312088
1749053448.3187964,-1.9480582869174434,-1.7297966870855916,2.575857094929676,-3.8227180764818773,-1.1377420677731178,-5.264999920670881,-0.011131675188055449,0.011497477719236841,-0.014792890671100383,0.04382986294196262,0.044070217853073836,0.09826422308643089,-0.2797943949699402,-0.2885940074920654,-1.0485390424728394,-0.2548391222953796,0.3134816586971283,0.187921330332756
1749053448.3188329,-1.9480797803744316,-1.729775765974572,2.575829170211101,-3.8226283105052583,-1.1376506606935235,-5.264796906700422,-0.01132376240299957,0.011587980409514687,-0.015096685480216853,0.04422441293972145,0.04473311442692364,0.0994301618346909,-0.3082415759563446,-0.2906922996044159,-1.0455652475357056,-0.2506341338157654,0.3160934448242187,0.2171211093664169
1749053448.318872,-1.9481014992247947,-1.729754498058984,2.57580076273464,-3.822537907429903,-1.1375575930507034,-5.264591804135187,-0.011532745257340084,0.011703938111791524,-0.015388570659210019,0.044546425128797404,0.045398820286003,0.10058599399964602,-0.2695527076721191,-0.2843631207942962,-1.0442997217178345,-0.2816579341888428,0.3076759874820709,0.2200058251619339
1749053448.3189096,-1.948123448393432,-1.7297328488696715,2.575771858580683,-3.8224470357631377,-1.1374630925379925,-5.264384724751308,-0.011761187128010329,0.011846466057228913,-0.015669960461163278,0.044797797283130415,0.04606701530642838,0.1017528240255056,-0.2908738255500793,-0.2771057188510895,-1.061789631843567,-0.2592772841453552,0.2874107956886291,0.1921987682580948
1749053448.3189464,-1.9481456469663947,-1.7297108013836835,2.5757424317709576,-3.822355851414835,-1.1373673771909905,-5.264175711959507,-0.012011685281262459,0.012015147764177933,-0.01594311140481659,0.04498581664514339,0.046738084895181276,0.10295395368800281,-0.3162043690681457,-0.2509658336639404,-1.0528888702392578,-0.2702448070049286,0.3282315731048584,0.2153090536594391
1749053448.3189828,-1.9481681352533908,-1.729688355881154,2.5757124469475965,-3.8222644895263067,-1.1372706353364672,-5.263964730913221,-0.012286621839695751,0.01220820564344904,-0.016210789521697706,0.04512296588326355,0.047413111934421465,0.10421262629811819,-0.3190509080886841,-0.2742829322814941,-1.0410438776016235,-0.2638380825519562,0.3330390751361847,0.2267711162567138
1749053448.3190196,-1.9481909815818357,-1.7296655290498375,2.575681862554165,-3.8221730578546578,-1.137173009396789,-5.263751666795118,-0.012587920951698221,0.01242277405743906,-0.016475947131028092,0.04522624145120811,0.048093749568191055,0.10554984971626467,-0.2665288150310516,-0.273247480392456,-1.06024432182312,-0.2782433032989502,0.3318745493888855,0.2252703160047531
1749053448.31939,-1.9482142868285903,-1.7296423523671316,2.5756506336990292,-3.8220816314787918,-1.1370745854971316,-5.26353633081697,-0.012916807181233328,0.012655245011680388,-0.016741442480947,0.04531607208287126,0.04878198350814538,0.10698253288997991,-0.2793730795383453,-0.2642799317836761,-1.056737780570984,-0.2685023546218872,0.2961580455303192,0.2368165701627731
1749053448.3213875,-1.9482381847278079,-1.7296188689398213,2.575618714231084,-3.8219902482729515,-1.1369753899437876,-5.263318472480408,-0.013273566079825922,0.012901655217449392,-0.017009821191293708,0.04541496884295016,0.04947982489532638,0.1085221224622977,-0.2869195640087127,-0.2587323784828186,-1.058892011642456,-0.2375769466161728,0.3151238858699798,0.2302512377500534
1749053448.3622713,-1.9482628366417307,-1.7295951277581127,2.5755860579590566,-3.821898904621881,-1.1368753926700925,-5.263097796226198,-0.013657319517726713,0.013158079647434314,-0.01728316225865414,0.04554606063891961,0.05018898376718613,0.11017384291712802,-0.3046742677688598,-0.2415434122085571,-1.0572118759155271,-0.2483149915933609,0.3093361258506775,0.252605676651001
1749053448.3623164,-1.9482884204861064,-1.72957117495901,2.5755526192360194,-3.8218075513130096,-1.1367745166959886,-5.262873980619803,-0.014065845146549037,0.01342099318312161,-0.017562978787905706,0.04573166711721633,0.05091056496853094,0.11193655837040643,-0.3006178140640259,-0.2615018784999847,-1.0511813163757324,-0.250866025686264,0.3266787230968475,0.2712115943431854
1749053448.3623564,-1.948315114740547,-1.729547042800486,2.5755183533422494,-3.821716090156029,-1.1366726516992731,-5.262646698327107,-0.014495484448563996,0.013687561883627351,-0.017850157350461707,0.04599203503431346,0.05164481475272763,0.11380321301671058,-0.3302443325519562,-0.2611579298973083,-1.0661427974700928,-0.2395795136690139,0.3064671754837036,0.2534361481666565
1749053448.362395,-1.9483430796979788,-1.729522738090277,2.5754832173231708,-3.8216243722441923,-1.1365696692224208,-5.262415635155269,-0.014941186556220992,0.013955831029915872,-0.018144919852525,0.04634432170682837,0.05239093492825749,0.1157617655139564,-0.3162429332733154,-0.2431352883577346,-1.0529932975769043,-0.2507269382476806,0.3101550042629242,0.2283113449811935
1749053448.3624332,-1.9483724389013342,-1.7294982324546913,2.575447172058572,-3.821532198713734,-1.1364654369239913,-5.262180506498671,-0.015396719741346054,0.014224788925194427,-0.018446797603692208,0.046801862021755805,0.053146975498378636,0.11779649755363243,-0.3389894962310791,-0.2298610806465149,-1.067196488380432,-0.2388104945421219,0.3305215239524841,0.2513728439807892
1749053448.3624752,-1.9484032638301658,-1.729473456843227,2.575410186069013,-3.8214393245168337,-1.136359829614327,-5.261941069821529,-0.015855051295100432,0.01449430222774666,-0.018754617909947466,0.04737371906222852,0.05390981695424194,0.11988955508759783,-0.3292511105537414,-0.2237240970134735,-1.072792887687683,-0.2473463267087936,0.3205941021442413,0.2475641965866089
1749053448.362512,-1.9484355643387876,-1.7294483019236524,2.575372240835467,-3.821345465335856,-1.1362527357376357,-5.261697132375661,-0.01630885711757562,0.014764937104869426,-0.01906651504796082,0.04806450642286092,0.05467525459963978,0.1220225800527396,-0.3250709772109985,-0.2407848238945007,-1.0896376371383667,-0.2136568427085876,0.3098590672016144,0.2392588108778
1749053448.3625493,-1.9484692862349262,-1.729422624720404,2.5753333365767213,-3.8212503074132,-1.13614405956572,-5.26144855406538,-0.016751087274977584,0.015037696496954934,-0.01937998457738162,0.04887448036535067,0.055438190633099745,0.12417829291138628,-0.3121411502361297,-0.2378448843955993,-1.0738520622253418,-0.184350773692131,0.3192226886749267,0.2472809553146362
1749053448.362586,-1.9485043159907622,-1.7293962605034132,2.575293497007119,-3.8211535196556814,-1.136033721134566,-5.261195245987697,-0.01717549803486522,0.015313714442777663,-0.019692000747978368,0.04979990502917716,0.056192924701064045,0.1263418737607921,-0.3096452951431274,-0.2313173413276672,-1.0896143913269043,-0.2030390799045562,0.3120115399360657,0.2579306066036224
1749053448.3626227,-1.9485404913343005,-1.729369038105311,2.5752527718237177,-3.8210547668974706,-1.1359216568100408,-5.260937165597161,-0.01757707214977258,0.015593952742837347,-0.019999212980319092,0.0508336632189772,0.05693352204370988,0.1285019816318152,-0.3005370199680328,-0.2362181842327118,-1.0732791423797607,-0.2023402750492096,0.3206425905227661,0.2483592927455902
1749053448.36266,-1.948577615733962,-1.7293407967028382,2.5752112363567807,-3.820953722958517,-1.1358078226153117,-5.260674309820778,-0.017952279794534832,0.01587894304955306,-0.020298228058541312,0.051966021334736545,0.05765423928661163,0.13065128071515084,-0.3003376126289367,-0.2215155661106109,-1.079311728477478,-0.1961290538311004,0.3169901371002197,0.2711256146430969
1749053448.3626962,-1.9486154746216102,-1.72931140226844,2.575168988536383,-3.820850082421493,-1.135692200515535,-5.260406707874329,-0.018299166503144792,0.016168609880349988,-0.020585964774084593,0.05318540001173114,0.058349995018343086,0.13278640999234376,-0.2803470492362976,-0.2156742215156555,-1.0786824226379397,-0.2044868022203445,0.3152939081192016,0.2481431663036346
1749053448.3627331,-1.9486538515277383,-1.7292807619514303,2.5751261437600808,-3.8207435707940833,-1.1355748059171686,-5.260134415798779,-0.01861728180268015,0.016462199236243178,-0.020860038276265452,0.05447899012430302,0.059016871014210846,0.13490741517749885,-0.2959545850753784,-0.1961293965578079,-1.0693362951278689,-0.1935328990221023,0.3194597959518432,0.2562862932682037
1749053448.3627698,-1.948692543030412,-1.729248834639401,2.575082828320122,-3.8206339534559435,-1.1354556936683389,-5.259857514460902,-0.018907482272960942,0.016758324335729255,-0.021119106130777283,0.05583309275736423,0.05965261421764262,0.1370167403027714,-0.2746043503284454,-0.1911305785179138,-1.0577529668807983,-0.2160090953111648,0.2967954277992248,0.2606032192707062
1749053448.362807,-1.94873137221067,-1.7292156362371784,2.5750391718884655,-3.8205210440250683,-1.1353349600855085,-5.259576111715032,-0.019171656025435982,0.01705512367506189,-0.02136310410614404,0.05723313858974597,0.06025708870484858,0.13911794170564518,-0.3014686703681946,-0.2042578905820846,-1.087387204170227,-0.1904655843973159,0.3279995322227478,0.257569670677185
1749053448.362844,-1.9487702006398884,-1.729181238903232,2.574995299438355,-3.8204047124306486,-1.1352127396502285,-5.2592903478025885,-0.019412420948232086,0.017350508117409243,-0.021593322143992413,0.05866344171200856,0.06083261701017643,0.1412143294257898,-0.314291387796402,-0.1997691690921783,-1.0888944864273071,-0.1901391446590423,0.3236992955207824,0.2634429037570953
1749053448.362881,-1.9488089385191067,-1.7291457643440493,2.5749513231330674,-3.8202848924384942,-1.1350891963763796,-5.259000401447672,-0.019632846385677007,0.017642457589072572,-0.021812309488216046,0.0601068363909213,0.06138415967786665,0.14330775052114716,-0.3283509612083435,-0.1876702308654785,-1.0682991743087769,-0.1898495852947235,0.3126795291900635,0.2683487236499786
1749053448.3629174,-1.9488475516954005,-1.729109371980039,2.5749073350121665,-3.820161588060492,-1.1349645107517312,-5.258706493096605,-0.01983623763955164,0.017929319279167796,-0.0220236359220378,0.06154439010626153,0.0619193061969122,0.14539770592776333,-0.3362908363342285,-0.1881594657897949,-1.0772676467895508,-0.1980721354484558,0.3179198801517486,0.2676303684711456
1749053448.3629537,-1.9488860636243541,-1.7290722433388404,2.5748634013813034,-3.8200348781666587,-1.134838863400309,-5.258408881771741,-0.020026004128926453,0.018210058322473306,-0.022231562660879365,0.06295536216395764,0.06244807912649241,0.14748094470781836,-0.305547297000885,-0.2218121290206909,-1.0924686193466189,-0.1821135878562927,0.3420013189315796,0.2638339698314667
1749053448.3629894,-1.9489245506730042,-1.7290345645700633,2.574819559493546,-3.8199049184429645,-1.1347124166763185,-5.258107853256442,-0.020205606518457868,0.01848441533620323,-0.022440690292308222,0.06431750949600544,0.06298257480102766,0.1495516098533888,-0.2999681234359741,-0.2094239294528961,-1.0893281698226929,-0.2101784199476242,0.321803867816925,0.267752468585968
1749053448.3633797,-1.9489631306002047,-1.7289965094472968,2.5747758165265178,-3.8197719396181724,-1.1345852957327898,-5.25780369955586,-0.020378553814612142,0.018752933664418953,-0.022655651946100957,0.06560777156575787,0.0635364652111892,0.15160191885526203,-0.298595517873764,-0.1991720795631408,-1.1012024879455566,-0.2141148447990417,0.3201562166213989,0.2684486508369446
1749053448.3653543,-1.9490019460122925,-1.7289582252123903,2.5747321502279634,-3.819636240878956,-1.1344575709810791,-5.257496691970137,-0.02054841082123598,0.019016839576259076,-0.022880901084461787,0.0668033129494776,0.06412436010645704,0.1536232642297635,-0.3030908107757568,-0.1832870692014694,-1.114279866218567,-0.2048808932304382,0.3010496497154236,0.268299251794815
1749053448.4062748,-1.9490411460876338,-1.728919822850238,2.5746885102053225,-3.8194981777263517,-1.1343292438464403,-5.257187051675395,-0.02071878332937833,0.019277791632700516,-0.02312060090485456,0.06788285860698458,0.06476099665165085,0.15560754116751424,-0.306325614452362,-0.1919668167829513,-1.080304503440857,-0.2269780039787292,0.3063906729221344,0.2347130328416824
1749053448.40632,-1.9490808700602873,-1.728881372170479,2.574644818956257,-3.819358144160255,-1.1342002374101066,-5.256874921966633,-0.02089326247101028,0.01953754715565653,-0.0233785710209886,0.0688282147726472,0.06546022993017882,0.15754846893970956,-0.3151457607746124,-0.2001033723354339,-1.092912197113037,-0.2548201978206634,0.3376403748989105,0.2584312856197357
1749053448.40636,-1.949121234813983,-1.7288429010233892,2.5746009723525396,-3.819216549994307,-1.1340703932761482,-5.256560345624809,-0.02107532018144964,0.01979760824386071,-0.02365821868910679,0.06962582943465513,0.06623386158148806,0.15944267236332638,-0.3056137263774872,-0.1930240541696548,-1.0936081409454346,-0.2492156773805618,0.3395323455333709,0.2456406205892563
1749053448.4063983,-1.9491623273305358,-1.7288043974902827,2.574556840024608,-3.8190737952263842,-1.1339394758231849,-5.256243250005153,-0.021268156697110723,0.02005890509612778,-0.023962399671974107,0.07026821968027258,0.0670904276381841,0.16129033320116942,-0.3270836174488067,-0.1839027851819992,-1.1150007247924805,-0.2505722045898437,0.3282109498977661,0.2433940768241882
1749053448.4064355,-1.9492042016107378,-1.7287658140228124,2.5745122665885223,-3.8189302443940027,-1.1338071845488418,-5.255923441957484,-0.021474514110687622,0.02032155994807041,-0.02429320741201482,0.07075509111258657,0.06803410858367823,0.1630953092991648,-0.2951294183731079,-0.1936437487602234,-1.1111252307891846,-0.2566656768321991,0.3413283228874206,0.2455643564462661
1749053448.406473,-1.9492468792827597,-1.7287270730249664,2.574467074780886,-3.818786204238306,-1.1336731743274004,-5.255600614479912,-0.021696484301375447,0.02058475876276786,-0.024651739089723755,0.07109400425324248,0.069063904750256,0.1648647302541446,-0.3208249807357788,-0.177598088979721,-1.1130857467651367,-0.2622117102146148,0.3395051658153534,0.2276707589626312
1749053448.4065094,-1.9492903530721137,-1.7286880739035515,2.574421071333613,-3.8186419075013514,-1.1335370823145383,-5.255274366432861,-0.021935346926655046,0.02084674192673318,-0.02503790000131801,0.07130049661485247,0.07017317200904474,0.16660817942794207,-0.3092713952064514,-0.2100303173065185,-1.0999021530151367,-0.2709426879882812,0.3391412496566772,0.2387149930000305
1749053448.406546,-1.9493345922884495,-1.7286487019132109,2.5743740559000985,-3.818497504451955,-1.133398559278313,-5.254944235153269,-0.022191468763984163,0.021104910061523825,-0.025450286020037474,0.07139762987831696,0.0713495786336755,0.1683366449700174,-0.3087924718856811,-0.1913456469774246,-1.1151061058044434,-0.2796936631202698,0.3623051345348358,0.2610486149787903
1749053448.4065826,-1.9493795494948758,-1.7286088390696766,2.5743258326578284,-3.8183530622279305,-1.133257302479594,-5.254609739551869,-0.02246428085016096,0.021356030137421104,-0.02588615609186122,0.07141498988329248,0.07257553217839642,0.17006146287861784,-0.3287075757980346,-0.1918863654136657,-1.132487654685974,-0.2705166935920715,0.3488032221794128,0.2470049858093261
1749053448.406619,-1.9494251676585368,-1.7285683768393696,2.574276223547928,-3.8182085707193183,-1.1331130868616424,-5.254270429004739,-0.022752332084857694,0.021596524069387522,-0.026341491019603303,0.07138722200004385,0.07382910711259813,0.17179347173137252,-0.317030668258667,-0.179933026432991,-1.093748927116394,-0.2810471057891845,0.3527198433876037,0.2742234468460083
1749053448.4066556,-1.94947138725698,-1.7285272292182055,2.5742250817004164,-3.8180639527145197,-1.1329657910992759,-5.2539259317130425,-0.023053407276762125,0.021822823987749894,-0.0268111260317643,0.0713522258114531,0.07508545250752463,0.1735425374757803,-0.3276269435882568,-0.1734634190797805,-1.1074941158294678,-0.2612016201019287,0.3564223051071167,0.2890926003456116
1749053448.4066918,-1.9495181529837007,-1.7284853436325196,2.574172303541212,-3.817919075427062,-1.1328154148501923,-5.253575995276247,-0.023364697835147618,0.02203177646869794,-0.02728893599623426,0.07134913972590218,0.07631858279057448,0.17531749607738617,-0.3276269435882568,-0.1734634190797805,-1.1074941158294678,-0.2612016201019287,0.3564223051071167,0.2890926003456116
1749053448.4067278,-1.949565419891732,-1.7284427066329915,2.574117838266961,-3.8177737604544357,-1.1326620835869978,-5.253220512147054,-0.02368301758944147,0.022221066748687582,-0.02776805158767316,0.07141621183146007,0.07750338876787664,0.1771264320537082,-0.3209441900253296,-0.1821791529655456,-1.117281198501587,-0.2793615162372589,0.3324811160564422,0.2722755372524261
1749053448.4067633,-1.949613158822602,-1.7283993422309265,2.574061693675228,-3.8176277901814637,-1.1325060385206134,-5.252859524443907,-0.024005054074466285,0.022389617610088553,-0.02824109957796574,0.07158860522238572,0.07861767364657327,0.1789770927135349,-0.316070944070816,-0.1877022534608841,-1.104317307472229,-0.2875976860523224,0.3355627357959747,0.2728276252746582
1749053448.406799,-1.9496613605527968,-1.728355302801763,2.5740039377686608,-3.817480910868262,-1.1323476118672722,-5.252493207025635,-0.02432763392807824,0.022537906187631462,-0.028700478267538666,0.07189617195150538,0.07964401487618829,0.18087716506657509,-0.3151194453239441,-0.1887424290180206,-1.1039314270019531,-0.2576964795589447,0.3378552496433258,0.2784571647644043
1749053448.4068356,-1.949710037629159,-1.7283106547579523,2.573944696064965,-3.8173328351651747,-1.1321871910458408,-5.252121833132945,-0.024647967028820217,0.02266814290137956,-0.029138679649000188,0.07236128273739358,0.08057126491394156,0.18283415702374176,-0.3275895714759826,-0.1622426360845565,-1.0961573123931885,-0.2588910162448883,0.3341406583786011,0.2706385850906372
1749053448.4068713,-1.9497592230177476,-1.7282654625660754,2.5738841448904215,-3.817183247896511,-1.132025177536041,-5.251745730282942,-0.02496382810275663,0.022784270596993762,-0.029548651966083264,0.07299689954382851,0.08139552855540025,0.1848547432315409,-0.3078467845916748,-0.1820950210094452,-1.100083351135254,-0.2465334087610244,0.3251087665557861,0.28261199593544
1749053448.406907,-1.9498089654436994,-1.7282197747882748,2.573822500996862,-3.8170318180143332,-1.1318619464165098,-5.251365234431814,-0.02527364217226444,0.022891764934622763,-0.029924178315827808,0.07380515124687355,0.08212049243004996,0.18694361903830126,-0.3281595706939697,-0.18674997985363,-1.1088714599609375,-0.2380236685276031,0.2954190969467163,0.2740615010261535
1749053448.4069426,-1.9498593220440292,-1.7281736149763016,2.573760007886307,-3.8168782174441755,-1.1316978116444099,-5.250980649084239,-0.025576460693478884,0.02299724619291048,-0.030260242192911357,0.07477665474503581,0.08275703993133667,0.1891020847550788,-0.3109075725078583,-0.1632972508668899,-1.0852032899856567,-0.2655834257602691,0.3215867877006531,0.2763065993785858
1749053448.4069786,-1.9499103493664212,-1.728126978826391,2.5736969195614785,-3.81672214526037,-1.1315330005554491,-5.250592214432061,-0.02587184366341247,0.023107944085410323,-0.03055335550126843,0.07589072562057157,0.08332217372592425,0.1913267017601175,-0.3294222354888916,-0.1683832108974456,-1.088953971862793,-0.2353278547525406,0.3243539035320282,0.3068592548370361
1749053448.4073925,-1.9499620939682043,-1.7280798374065496,2.573633482979451,-3.8165633539563646,-1.1313676391513314,-5.25020008994375,-0.026159688399194334,0.02323108124922199,-0.03080182887254665,0.07711651180173161,0.08383738030564238,0.193608388694923,-0.311793178319931,-0.146719604730606,-1.0881870985031128,-0.2308457344770431,0.3342646360397339,0.3003557920455932
1749053448.4093688,-1.9500145839975618,-1.728032145015132,2.5735699209625214,-3.816401673835061,-1.1312017479947865,-5.249804351821073,-0.026440053324270102,0.02337324889878691,-0.031005964495888272,0.07841500920039408,0.08432665983130981,0.19593224456154487,-0.297386109828949,-0.1387958526611328,-1.0843939781188965,-0.2245909720659256,0.3190314173698425,0.2966796159744262
1749053448.4503398,-1.9500678230460229,-1.727983849623738,2.5735064175152145,-3.8162370317650205,-1.1310352475285104,-5.249405004421061,-0.0267130116407573,0.023539842503592534,-0.031168150029024174,0.07974186520803964,0.08481446029365806,0.19827821503857185,-0.3065598607063293,-0.1420344859361648,-1.077769160270691,-0.2422480881214141,0.3263469338417053,0.2785480320453644
1749053448.4503906,-1.95012178716325,-1.7279349037515535,2.573443107337171,-3.8160694615059754,-1.130867971446562,-5.249002002496426,-0.026978552261972936,0.023734614956029295,-0.03129283188055858,0.08105080023277056,0.08532370455285826,0.20062251979361265,-0.312686413526535,-0.1553498208522796,-1.0813682079315186,-0.248142123222351,0.326670378446579,0.2771775126457214
1749053448.4504323,-1.950176425297842,-1.7278852738188903,2.5733800707496757,-3.815899104139845,-1.130699686886908,-5.248595279459088,-0.02723654140335339,0.02395938950243246,-0.03138635089876018,0.08229737098283349,0.08587404057955422,0.20293960421628127,-0.3249821066856384,-0.161570593714714,-1.079194188117981,-0.2622383534908294,0.3311579525470733,0.2254107147455215
1749053448.4504707,-1.9502316627294618,-1.7278349466162677,2.5733173343207554,-3.8157261985233255,-1.1305301200932238,-5.248184776277238,-0.027486761283715782,0.02421394821413719,-0.031456635977968404,0.08344270402872493,0.08648042244811699,0.20520431308944306,-0.3259930610656738,-0.1317720413208007,-1.067212700843811,-0.25761279463768,0.3605497181415558,0.2507784962654114
1749053448.4505134,-1.9502874065302989,-1.7277839325099331,2.5732548764320375,-3.815551062888709,-1.1303589855151916,-5.247770466193123,-0.027729031890407416,0.024496077758603553,-0.031512769908697266,0.08445679123642819,0.0871521277236793,0.2073940106094445,-0.3201079964637756,-0.1588180512189865,-1.0677101612091064,-0.2817688286304474,0.345940500497818,0.250793844461441
1749053448.4505522,-1.950343552003545,-1.727732265938368,2.5731926361972346,-3.8153740696036094,-1.1301860152750483,-5.247352371825233,-0.027963393702139017,0.0248017302587597,-0.03156446151031223,0.08532097301366921,0.08789229391528657,0.20949045842378547,-0.3322520852088928,-0.1410961598157882,-1.1000268459320068,-0.2755623161792755,0.3397735059261322,0.2905736863613128
1749053448.4505894,-1.9503999894653812,-1.7276800040688505,2.573130523738896,-3.8151956155821667,-1.1300109852296134,-5.246930572795481,-0.028190301590252438,0.025125258602459163,-0.03162147265601283,0.08602932572527153,0.08869799896074697,0.2114813495891983,-0.339143693447113,-0.1339453905820846,-1.0904117822647097,-0.2584108710289001,0.3542600870132446,0.2802740931510925
1749053448.4506264,-1.9504566114349409,-1.7276272241253556,2.5730684299560593,-3.8150160910365156,-1.1298337342612736,-5.246505203405869,-0.028410769275605537,0.025459711390766956,-0.0316930532446922,0.08658879544942191,0.08956084169438464,0.21336142143086187,-0.3046291470527649,-0.1229412406682968,-1.1049424409866333,-0.2738562822341919,0.3495640456676483,0.2635764479637146
1749053448.450663,-1.950513320803504,-1.7275740193845006,2.5730062345330684,-3.81483584937197,-1.1296541750112574,-5.246076441088342,-0.02862641051829183,0.02579720384304128,-0.03178742906079612,0.0870180642660752,0.09046792349503056,0.21513301857071032,-0.31383216381073,-0.1419315338134765,-1.1093599796295166,-0.2748792767524719,0.3458430469036102,0.2716226875782013
1749053448.450704,-1.950570040399791,-1.727520493673295,2.57294381179884,-3.8146551810748903,-1.1294722962517845,-5.245644487608575,-0.028839343566467845,0.026129391995648284,-0.031911369615917624,0.08734527946719373,0.09140309870921996,0.2168058977720909,-0.3195324540138244,-0.1340974867343902,-1.1133841276168823,-0.3167340755462646,0.3554997444152832,0.2624017000198364
1749053448.4507408,-1.9506267235471728,-1.727466754410602,2.572881034742435,-3.814474294194274,-1.1292881585255146,-5.245209546377189,-0.029051958070892666,0.02644805466530729,-0.03206984162112013,0.08760490057669466,0.0923483490919409,0.21839605023615788,-0.3326547145843506,-0.168871521949768,-1.079096436500549,-0.2666268944740295,0.3732258379459381,0.2324040979146957
1749053448.450777,-1.9506833642779269,-1.7274129045245163,2.572817777773137,-3.814293303325915,-1.1291018851250179,-5.244771800257699,-0.029266579490216382,0.0267457410021294,-0.032265734902106456,0.08783401087538689,0.09328515040382647,0.21992343980957182,-0.3099505007266998,-0.1251623630523681,-1.07999849319458,-0.271308958530426,0.3593897819519043,0.232245072722435
1749053448.4508133,-1.950740005344566,-1.727359033859617,2.5727539188066775,-3.814112228057311,-1.128913650158879,-5.244331394256702,-0.029485086631435842,0.027016397039561622,-0.03249964067038664,0.08806849508386883,0.09419573538117842,0.2214088145307963,-0.3117901086807251,-0.1681552678346634,-1.0936434268951416,-0.2637199759483337,0.3601031601428985,0.2406118214130401
1749053448.4508493,-1.9507967421337125,-1.7273052110317868,2.572689341248067,-3.813931000909165,-1.1287236649196022,-5.2438884262396455,-0.02970853720529649,0.027255864003872077,-0.03276967726807825,0.0883394925552284,0.09506419797360566,0.22287005166740426,-0.342524766921997,-0.1601345837116241,-1.1065233945846558,-0.2523847222328186,0.3558931946754455,0.2763094305992126
1749053448.450885,-1.9508537209843888,-1.727251476889573,2.572623936469174,-3.813749483903973,-1.1285321635133647,-5.243442946901203,-0.029936847625305532,0.02746215238460742,-0.03307139020908906,0.0886704786132963,0.09587740427321732,0.2243187115359461,-0.3299708366394043,-0.1670363545417785,-1.104682683944702,-0.2729850113391876,0.3474037945270538,0.2843859195709228
1749053448.4509225,-1.9509111311718312,-1.727197840493071,2.572557607280585,-3.813567491873221,-1.1283393887660444,-5.242994968338303,-0.030168568421264034,0.02763543820841485,-0.033397774872942015,0.08907521542737644,0.09662566852281004,0.2257575028009179,-0.3130597770214081,-0.1395947039127349,-1.0986732244491575,-0.2848389148712158,0.336944580078125,0.2891837954521179
1749053448.4509604,-1.950969190675761,-1.7271442779806423,2.5724902726695875,-3.8133848196928586,-1.1281455793890323,-5.242544479082287,-0.030400791880491346,0.02777779146583669,-0.033739460115434765,0.0895567005155699,0.09730313751886617,0.22717917817257788,-0.3238040506839752,-0.1342199444770813,-1.1007754802703855,-0.2472524046897888,0.3383741974830627,0.2843160033226013
1749053448.4509962,-1.9510281265195166,-1.7270907343309443,2.572421873887256,-3.8132012702479012,-1.127950958986497,-5.242091462553654,-0.030629217550484502,0.02789270643905324,-0.03408505860115158,0.09010717127554091,0.0979078307070923,0.22856704671268518,-0.3195428550243377,-0.1451603323221206,-1.0802795886993408,-0.2400036454200744,0.3605839610099792,0.2555723786354065
1749053448.4510326,-1.9510881510022617,-1.7270371279749124,2.5723523818179257,-3.8130166801918106,-1.1277557269364042,-5.241635915774816,-0.030848386613880723,0.027984531792803923,-0.03442166338996047,0.09070918011227967,0.09844131435860526,0.22989692971459755,-0.3215997815132141,-0.1279519498348236,-1.0964678525924685,-0.241483986377716,0.3247879445552826,0.2269754558801651
1749053448.451072,-1.9511494358416817,-1.7269833581786187,2.5722818052491707,-3.812830941111823,-1.127560050909427,-5.241177865656997,-0.031052083070598067,0.028057888629029207,-0.0347354685987147,0.09133768179984439,0.0989080363785078,0.23114013025869706,-0.336004763841629,-0.1396661847829818,-1.0959776639938354,-0.2621865570545196,0.3374847769737243,0.2480699568986892
1749053448.45144,-1.9512120871388872,-1.7269293148779763,2.5722101990814172,-3.8126440141079847,-1.1273640609351565,-5.240717380805256,-0.03123388612938332,0.028117138178353557,-0.03501250849597922,0.09196296012268794,0.09931440619432975,0.23226690465618605,-0.3185461759567261,-0.1298398673534393,-1.092888116836548,-0.2555720210075378,0.3449784219264984,0.2424081414937973
1749053448.4533913,-1.9512761247736754,-1.7268748902611435,2.572137670874654,-3.8124559360831074,-1.1271678452588267,-5.2402545772431335,-0.031387836006742796,0.028165939699574507,-0.03523951815229179,0.09255411079706305,0.0996677654746689,0.23324999235395658,-0.311607301235199,-0.1396491229534149,-1.085898995399475,-0.245236724615097,0.370179146528244,0.2939611971378326
1749053448.4985638,-1.9513414698414222,-1.7268199909621456,2.572064383809914,-3.812266816630677,-1.1269714484380462,-5.239789616895951,-0.03150914322953305,0.028206926434541847,-0.035404896427323515,0.09308273376455961,0.09997543213766802,0.2340678750409663,-0.3120781183242798,-0.1702238321304321,-1.079501032829285,-0.2326254844665527,0.3354357779026031,0.2861885726451874
1749053448.4986424,-1.9514079428407576,-1.7267645493086279,2.5719905544098625,-3.8120768254545725,-1.1267748720244408,-5.239322698553839,-0.0315948452259216,0.028241515873232016,-0.03549970445941012,0.09352646514952571,0.10024397439034366,0.2347074928645567,-0.3086893260478973,-0.158215656876564,-1.0715711116790771,-0.2473848313093185,0.3295607566833496,0.2397409677505493
1749053448.4987133,-1.9514752736191785,-1.7267085319277535,2.5719164441468894,-3.8118861714641925,-1.1265780777865924,-5.238854042607755,-0.03164431247689483,0.028269859038216893,-0.03551859146686359,0.09387197335411991,0.10047878679150798,0.23516612708591703,-0.2845972776412964,-0.127772718667984,-1.084700345993042,-0.2567967474460602,0.3694914877414703,0.2172302156686782
1749053448.4987838,-1.9515431220027462,-1.7266519444506974,2.5718423450696632,-3.8116950757365244,-1.1263809930227608,-5.238383872671857,-0.03165953009732173,0.02829092642237063,-0.03546052785202498,0.09411705409520721,0.10068395184981783,0.235452139776673,-0.2979262173175812,-0.1452142298221588,-1.0786367654800415,-0.2761318385601043,0.3322513699531555,0.2110065519809723
1749053448.4988532,-1.9516111063316208,-1.72659483183997,2.5717685605487395,-3.8115037413432784,-1.126183517454133,-5.2379123982965465,-0.03164511415555256,0.028302725558350717,-0.03532924024525379,0.09427151112187526,0.1008623255277647,0.2355843457778408,-0.306477427482605,-0.1594740003347396,-1.0519120693206787,-0.2760795354843139,0.3595117330551147,0.2072261571884155
1749053448.4989226,-1.9516788364064859,-1.7265372744700977,2.5716953830505425,-3.8113123235943593,-1.125985531539767,-5.237439802614044,-0.031608054539996766,0.028302639049133185,-0.03513327149105222,0.0943566242038133,0.10101577704962345,0.23559002340734492,-0.3157398700714111,-0.1459822654724121,-1.0595287084579468,-0.2565233707427978,0.3543204069137573,0.2144494950771331
1749053448.4989908,-1.951745947467149,-1.7264793804427971,2.5716230713330077,-3.8111209044653864,-1.1257869063925103,-5.236966237091357,-0.031557206955909,0.028287854653591113,-0.03488562618216534,0.09440317586404622,0.10114551355857873,0.23550188718548334,-0.3120559155941009,-0.1642587184906005,-1.0617703199386597,-0.2669543623924255,0.3426711857318878,0.2732206284999847
1749053448.4990592,-1.9518121321023925,-1.7264212750014023,2.571551829431655,-3.8109294748200186,-1.125587515367875,-5.236491823397067,-0.03150258589850046,0.02825583626600654,-0.03460300862535053,0.09444819994605838,0.10125242208255188,0.2353546141798437,-0.3221870362758636,-0.1559467315673828,-1.082060933113098,-0.2664717435836792,0.3710862696170807,0.2489745318889618
1749053448.4991274,-1.9518771671191262,-1.7263630883492869,2.571481789366467,-3.8107379275280664,-1.1253872468498405,-5.236016660530057,-0.03145453466330625,0.02820477505954138,-0.034304708000776514,0.09453079027170845,0.10133737662083547,0.23518160885050693,-0.308060348033905,-0.1380526721477508,-1.0580768585205078,-0.2410112768411636,0.343615859746933,0.2759799063205719
1749053448.4991958,-1.9519409326838943,-1.7263049434258901,2.571412999040548,-3.8105460636157127,-1.125186017124145,-5.23554083427659,-0.031422863399186825,0.028133974967988615,-0.034011223639307364,0.09468743676475129,0.10140148610406695,0.23501256459468328,-0.3103676438331604,-0.151351973414421,-1.0721769332885742,-0.2631391286849975,0.3613775670528412,0.2572932541370392
1749053448.499244,-1.9520034217996234,-1.7262469451544478,2.5713454165457463,-3.8103536119959225,-1.1249837818757864,-5.2350644258598535,-0.0314160501443717,0.028044152180183454,-0.03374274684269688,0.09494742414651322,0.10144628171543334,0.23487209811162785,-0.3053932189941406,-0.1347675919532776,-1.0571571588516235,-0.2571902871131897,0.3389143645763397,0.2393347024917602
1749053448.4992974,-1.9520647392884416,-1.7261891724558007,2.5712789118366883,-3.810160261212657,-1.12478054485477,-5.2345875171841705,-0.03144059267050983,0.027937638889751346,-0.03351763009045769,0.09532884066302266,0.10147385076252748,0.23477943069390478,-0.3034831881523132,-0.1431984603404998,-1.0881280899047852,-0.235798180103302,0.3525331616401672,0.223930537700653
1749053448.499345,-1.9521250906592507,-1.726131674007542,2.571213276174599,-3.809965699463668,-1.1245763623968494,-5.234110191153693,-0.03150058003944767,0.02781847087422925,-0.03335098662308709,0.09583571784863278,0.10148693290353161,0.2347488928749256,-0.3215798735618591,-0.1667168289422989,-1.0886719226837158,-0.2203898727893829,0.3348601758480072,0.2250492572784423
1749053448.4993875,-1.952184762375204,-1.7260744682586684,2.5711482388245424,-3.8097696575590883,-1.1243713426299449,-5.233632526918549,-0.03159752121836875,0.027692325564065486,-0.03325356848590798,0.09645674887447575,0.10148901243516946,0.23479098291735803,-0.3219961822032928,-0.183512195944786,-1.0913110971450806,-0.2176725566387176,0.352660983800888,0.2464229762554168
1749053448.4994256,-1.9522440959222123,-1.7260175474728625,2.5710834894505292,-3.80957194893202,-1.1241656385911187,-5.233154591147878,-0.03173042683555052,0.027566282906387976,-0.03323105442081379,0.09716587794020255,0.1014844442945592,0.23491377020393506,-0.3046842217445373,-0.1554657518863678,-1.1094350814819336,-0.2233814150094986,0.3436441123485565,0.265619695186615
1749053448.499462,-1.9523034585416346,-1.725960884671728,2.571018703841813,-3.809372501484453,-1.1239594353335483,-5.2326764270802295,-0.031896098523865934,0.027448410308130212,-0.03328383248376042,0.09792481304940859,0.10147861442722951,0.23512449864518453,-0.3109069466590881,-0.1535883843898773,-1.0980764627456665,-0.2349614351987838,0.3228628039360046,0.2775966227054596
1749053448.4994977,-1.9523632134616642,-1.7259044417242175,2.5709535702242863,-3.8091713774934335,-1.1237529320925048,-5.2321980430756305,-0.032089553166809226,0.0273472146421005,-0.033407295506992354,0.09868724801713903,0.10147807817355879,0.23543122786657852,-0.2970921993255615,-0.126087874174118,-1.109055757522583,-0.2284373790025711,0.3459160327911377,0.2783642709255218
1749053448.499534,-1.9524236919531723,-1.7258481768471308,2.5708878133720847,-3.8089687792727234,-1.1235463212370558,-5.231719402103757,-0.03230451016936995,0.027271038129243957,-0.033592600220983655,0.09940435217062571,0.10149059787411509,0.2358442524502009,-0.3385521471500397,-0.1608398407697677,-1.0977120399475098,-0.2392848432064056,0.3294669091701507,0.2358415871858596
1749053448.49957,-1.9524851687391014,-1.7257920502784956,2.5708212138610693,-3.8087650394117407,-1.1233397660751812,-5.231240413461176,-0.03253389663555941,0.027227480653457554,-0.03382778896785529,0.10003091215791807,0.10152503194710731,0.23637694642277185,-0.3161899447441101,-0.1695356965065002,-1.0869903564453125,-0.2650577127933502,0.33761927485466,0.2242456078529358
1749053448.499606,-1.9525478417220024,-1.7257360274274622,2.57075362018088,-3.8085605954937525,-1.1231333798165164,-5.230760927948152,-0.03277035569697069,0.02722290590618328,-0.034099142630664846,0.1005313812127905,0.10159107573617536,0.23704569102255058,-0.310936838388443,-0.1398375928401947,-1.0963046550750732,-0.2793364226818084,0.3450751900672912,0.2137476205825805
1749053448.4996417,-1.9526118170998616,-1.7256800792624734,2.5706849523166913,-3.8083559507129046,-1.1229272080256674,-5.2302807373748665,-0.03300675388918528,0.02726205267958393,-0.034392622036531685,0.1008850345561077,0.10169887948902721,0.2378687027936091,-0.3497391641139984,-0.1291308999061584,-1.1172499656677246,-0.2802987694740295,0.3454397320747375,0.2429102063179016
1749053448.4996774,-1.9526771014449749,-1.7256241802260985,2.570615196842786,-3.8081516237547706,-1.1227212165670926,-5.2297995784982145,-0.033236672854237384,0.027347750780585288,-0.03469525532152943,0.10108949443267605,0.10185856696841909,0.23886384966116328,-0.3190995752811432,-0.1402731239795684,-1.1121381521224976,-0.2877810895442962,0.336706668138504,0.2749970555305481
1749053448.4997878,-1.9527436024713067,-1.725568304551828,2.5705443951143123,-3.80794809309041,-1.1225152864609853,-5.229317140647504,-0.033454855888596965,0.027480741568828484,-0.034996335052699876,0.10116208450994027,0.10207966797245445,0.2400458273357435,-0.3229870498180389,-0.1189666390419006,-1.098252534866333,-0.2936128675937652,0.3470582365989685,0.2921363711357116
1749053448.501378,-1.9528111395900223,-1.7255124222310714,2.570472627210402,-3.8077457418548057,-1.1223092163314312,-5.228833075738584,-0.033657577592453435,0.027659615295463298,-0.03528830194944617,0.10113875864022102,0.10237047444521923,0.24142325691730465,-0.3173346817493438,-0.1300401389598846,-1.0854569673538208,-0.3025938868522644,0.3334531486034393,0.2893353998661041
1749053448.542276,-1.9528794640624048,-1.7254564958014744,2.5703999945149074,-3.807544809556035,-1.1221027322086816,-5.228347009183954,-0.03384291728066104,0.02788088744497596,-0.03556721784114765,0.1010706695563524,0.10273733717478484,0.24299629124782143,-0.3276172578334808,-0.1181541234254837,-1.087152361869812,-0.2888011038303375,0.3205583095550537,0.3028098046779632
1749053448.5423212,-1.9529482869528254,-1.7254004786536334,2.570326603366678,-3.8073453561147006,-1.1218955035765121,-5.227858550353077,-0.03401092806628886,0.02813923747021653,-0.03583277694251873,0.10101876288191239,0.1031839386790719,0.2447551925538947,-0.290091335773468,-0.1295142471790313,-1.121731519699097,-0.2748951911926269,0.3496312499046325,0.29571333527565
1749053448.5423613,-1.9530173116764424,-1.7253443149345746,2.5702525515855803,-3.807147242341174,-1.1216871641972659,-5.227367301697345,-0.034163686277320755,0.028427922572114645,-0.03608787219874538,0.10104706906149709,0.10371060888039639,0.24668013337498337,-0.3069183528423309,-0.1235439553856849,-1.1035834550857544,-0.2280134260654449,0.3588366210460663,0.2654103636741638
1749053448.5423996,-1.9530862672345966,-1.7252879405529704,2.5701779192117074,-3.806950129130268,-1.1214773364856898,-5.226872866293638,-0.03430518817353939,0.028739354066539005,-0.036337803648945684,0.10121556860147275,0.10431378733558978,0.24874225196942285,-0.3129037618637085,-0.1243787109851837,-1.1149879693984983,-0.2137989550828933,0.3656413555145263,0.3067234754562378
1749053448.5424438,-1.9531549382864049,-1.7252312843582258,2.5701027643306564,-3.806753495639982,-1.1212656585054976,-5.226374854183023,-0.03444106015740255,0.029065787419143153,-0.03658925839551833,0.10157356516990047,0.10498575856753613,0.2509058130774292,-0.3118681311607361,-0.1095015332102775,-1.115704894065857,-0.2314964532852172,0.3703112006187439,0.3113813102245331
1749053448.542487,-1.9532231886767328,-1.7251742684535192,2.5700271241341444,-3.8065566747438413,-1.1210518124547857,-5.225872888393895,-0.03457807534059219,0.029400040370160856,-0.036849195146418566,0.10215439846282405,0.10571477485800876,0.25313120011620077,-0.2901104092597961,-0.1227357983589172,-1.0826927423477173,-0.1977528482675552,0.3607800006866455,0.2929803133010864
1749053448.5425248,-1.9532909757728096,-1.7251168070121532,2.56995102040885,-3.8063589022789968,-1.1208355527390526,-5.225366611872932,-0.03472350880652602,0.029736130776175207,-0.037123750628613825,0.10297210869266953,0.10648563511532559,0.25537838005857466,-0.3183952569961548,-0.103632315993309,-1.1043031215667725,-0.187228262424469,0.3539688289165497,0.2734378278255462
1749053448.5425618,-1.9533583540933581,-1.7250588038275194,2.569874467726615,-3.8061593752106577,-1.1206167308010004,-5.224855696499448,-0.034884400516184036,0.030069726744014588,-0.03741727898313392,0.10402039042398757,0.10728073250694396,0.25761041810812024,-0.323589026927948,-0.1512586325407028,-1.1370670795440674,-0.1875696778297424,0.3676247000694275,0.2795465588569641
1749053448.5425987,-1.9534254682112486,-1.7250001497901024,2.569797482060628,-3.805957312931131,-1.120395313264298,-5.224339854780897,-0.03506682089439171,0.030398328259883946,-0.037731641451313025,0.10527387796516262,0.10808153665381943,0.25979658663389577,-0.3026393353939056,-0.1152586787939071,-1.1267915964126587,-0.2015430927276611,0.3881460726261139,0.2613925039768219
1749053448.5426357,-1.9534925363354068,-1.7249407221511739,2.569720087648487,-3.8057520156498112,-1.1201713900079113,-5.223818853910961,-0.035275241515285403,0.030721146118328397,-0.0380658533864477,0.10669150490691297,0.10887042784343458,0.2619146489190733,-0.3211992383003235,-0.1116026192903518,-1.1086465120315552,-0.1812217682600021,0.3324865996837616,0.2287926971912384
1749053448.5426726,-1.9535598268877186,-1.7248803874575058,2.5696423206760755,-3.80554291436089,-1.119945169647057,-5.223292530989229,-0.03551209625890214,0.031038700200461483,-0.038416142123756006,0.10822141710369747,0.10963272403595703,0.2639520254357943,-0.3262670338153839,-0.1097478494048118,-1.117667555809021,-0.1973849236965179,0.3538585305213928,0.2787466645240783
1749053448.5427096,-1.953627630828069,-1.724819009244867,2.5695642294151946,-3.805329608201686,-1.1197169614397553,-5.2227608076001015,-0.03577758237235814,0.03135221186189528,-0.038776386054912515,0.10980674164643736,0.11035864228019036,0.2659057502637679,-0.3494788706302643,-0.1381003260612487,-1.0970160961151123,-0.192532405257225,0.3539847731590271,0.2805206477642059
1749053448.542746,-1.953696232754305,-1.724756460164193,2.569485871353875,-3.8051118868535143,-1.1194871446065602,-5.222223701796473,-0.03606970784499454,0.031662899710615075,-0.03913883623474972,0.1113914470137312,0.11104486945664707,0.26778134510194385,-0.3193166255950928,-0.1123210489749908,-1.1069624423980713,-0.2109863013029098,0.3746824264526367,0.2784610390663147
1749053448.5427823,-1.953765883881081,-1.7246926367802693,2.5694073083869924,-3.8048897375026938,-1.1192561280998157,-5.221681335943877,-0.0363845503628176,0.031971296457560375,-0.03949499461467229,0.11292556610901618,0.11169543402156046,0.2695909084271287,-0.3269021809101105,-0.1104528456926345,-1.1040327548980713,-0.1989446729421615,0.3470228910446167,0.2952346503734588
1749053448.542819,-1.9538367795794718,-1.7246274744942853,2.569328601301383,-3.8046633373210423,-1.1190243055272653,-5.221133939619374,-0.03671666184723246,0.03227669406185513,-0.03983652918396118,0.11436917989513781,0.11232166746076669,0.2713507844115807,-0.3251866400241852,-0.0869286432862281,-1.1101224422454834,-0.2123012393712997,0.3238773047924042,0.2656114101409912
1749053448.5428553,-1.9539090432606887,-1.7245609601896652,2.5692498046600796,-3.804433033333059,-1.1187920107943394,-5.220581847285536,-0.037059541309595496,0.032576807096772034,-0.04015612411940845,0.11569475723700194,0.11294118343954772,0.27307914139682177,-0.307747483253479,-0.0999726578593254,-1.0976717472076416,-0.2124363183975219,0.3538146018981933,0.2633393108844757
1749053448.5428915,-1.9539827174116537,-1.7244931409761861,2.569170962837206,-3.804199312194548,-1.1185594799735437,-5.220025490543325,-0.03740611122187646,0.03286771824860616,-0.040448181414303584,0.11688769334737371,0.11357595315752506,0.2747937056104022,-0.3226950168609619,-0.0966587662696838,-1.0989596843719482,-0.208935409784317,0.384363055229187,0.3002887964248657
1749053448.5429268,-1.954057761834933,-1.7244241281750796,2.5690921074807904,-3.8039627630206683,-1.1183268241603652,-5.2194653847496655,-0.037749158112193336,0.033144126161498345,-0.04070931081824014,0.11794515551548845,0.11424969394627167,0.27650981976051714,-0.3462480306625366,-0.1161471456289291,-1.1007184982299805,-0.2162765860557556,0.3681973814964294,0.2911804914474487
1749053448.542963,-1.954134058646452,-1.7243540960610586,2.569013256199385,-3.80372403673129,-1.1180940167928688,-5.218902109985058,-0.038081720105107214,0.03339986131050744,-0.04093857161620507,0.11887359250251141,0.11498488526505603,0.2782389501198352,-0.3195821046829223,-0.1466521620750427,-1.0811526775360107,-0.184551864862442,0.3642664849758148,0.2945336401462555
1749053448.5429986,-1.9542114233174612,-1.7242832750031711,2.568934411914544,-3.803483805125407,-1.11786089701656,-5.218336286549227,-0.03839741562230546,0.033628591293256335,-0.0411374628519702,0.1196854485766503,0.1157997616886739,0.279987733926435,-0.2844652533531189,-0.1240004003047943,-1.1038835048675537,-0.2101120799779892,0.3663097620010376,0.2863215804100036
1749053448.543372,-1.95428962092796,-1.72421193891995,2.5688555622191043,-3.803242722154143,-1.1176271882734836,-5.217768544977444,-0.038690713089867976,0.033824616102758935,-0.0413096921363185,0.1203957089223607,0.11670561710713487,0.281757616746062,-0.3140555918216705,-0.1421250402927398,-1.1084293127059937,-0.1996487081050872,0.3795305490493774,0.2844133377075195
1749053448.5463,-1.9543683865928259,-1.7241403875501868,2.5687766782430734,-3.8030013889440912,-1.1173925289987354,-5.217199490180709,-0.03895714721989539,0.03398365355293991,-0.041460778016857276,0.1210188807335909,0.11770472119667202,0.2835450713698678,-0.3370081186294555,-0.1118721216917038,-1.108237385749817,-0.159681811928749,0.4053925275802612,0.2886578440666199
1749053448.594632,-1.9544474485712693,-1.7240689247700187,2.5686977128322206,-3.80276032320971,-1.1171565107909305,-5.216629659347861,-0.03919349140183041,0.034103524649231665,-0.04159755104219137,0.12156689483302471,0.11878911743873312,0.28534232851128594,-0.326854795217514,-0.1180716753005981,-1.09460711479187,-0.1928086280822754,0.3956501185894012,0.2698333263397217
1749053448.5946834,-1.954526552056025,-1.723997834820507,2.568618598154956,-3.8025199329410087,-1.1169187188419438,-5.216059474116861,-0.03939789035913878,0.0341846599588588,-0.041727617892174586,0.12204820752352621,0.11994051913481774,0.2871384985819517,-0.3245852887630462,-0.1302456855773925,-1.125364065170288,-0.2107467949390411,0.3815199136734009,0.297245055437088
1749053448.5947232,-1.9546054814291627,-1.7239273587255919,2.568539243137131,-3.802280493984071,-1.1166787695668239,-5.215489189216625,-0.03956994158474068,0.034230359191956744,-0.04185885063770573,0.12246811645564686,0.12113140523773074,0.28892093059984264,-0.2954393327236175,-0.139700561761856,-1.1181645393371582,-0.1975890398025512,0.3921530544757843,0.2887139320373535
1749053448.5947623,-1.9546840789930084,-1.7238576733500408,2.5684595313847005,-3.8020421316225494,-1.1164363411993916,-5.214918842136022,-0.03971070134602556,0.03424675304953537,-0.04199895744445483,0.12283004573362756,0.12232724353084043,0.29067664234594215,-0.2778357863426208,-0.1547526121139526,-1.1287541389465332,-0.2074980735778808,0.3868941366672516,0.2896059453487396
1749053448.5947995,-1.9547622585789364,-1.7237888754688713,2.5683793204443797,-3.8018048073755257,-1.1161911946318626,-5.214348210955141,-0.03982259851609151,0.03424244742663263,-0.042155165470545354,0.12313738405825628,0.12348959293291822,0.2923936638209277,-0.3278379738330841,-0.1482472419738769,-1.123759150505066,-0.2243998646736145,0.3729783594608307,0.2940628230571747
1749053448.5948377,-1.954840012769982,-1.7237209729149794,2.568298443348038,-3.801568313430705,-1.115943183749149,-5.213776789357525,-0.03990926873617142,0.034227876347955676,-0.04233399787825311,0.12339540180775266,0.12457971468179355,0.2940621550096559,-0.3343969583511352,-0.1182686164975166,-1.105234980583191,-0.2362829744815826,0.3788153529167175,0.2676222324371338
1749053448.5948746,-1.9549174128727413,-1.7236538843395564,2.5682167133861684,-3.801332277917054,-1.1156922565369771,-5.2132037881265845,-0.03997534953626958,0.034214439444943415,-0.042541084485481294,0.1236128047151273,0.12556226497935968,0.29567518170027296,-0.3214951455593109,-0.1216436326503753,-1.1113674640655518,-0.2194714695215225,0.3615899384021759,0.2913818359375
1749053448.594912,-1.9549946013882242,-1.7235874482085227,2.56813393286824,-3.8010961842590714,-1.1154384499853545,-5.212628170762976,-0.04002627698741097,0.0342135337794839,-0.04278094569526673,0.12380257841929616,0.12640864012087938,0.297229067337118,-0.3006613254547119,-0.1108428090810775,-1.1319260597229004,-0.2430076897144317,0.3573007583618164,0.3043384253978729
1749053448.5949488,-1.9550717773915751,-1.7235214402455812,2.568049906170298,-3.800859406910019,-1.115181882877608,-5.212048727236887,-0.04006809778571735,0.034235596728827984,-0.04305673018663873,0.12398192367048314,0.12709959867273674,0.2987232960784645,-0.3151486217975616,-0.1451507210731506,-1.116563320159912,-0.2396286725997924,0.3598853647708893,0.3083852529525757
1749053448.594986,-1.9551491757954689,-1.7234555969587684,2.567964456705613,-3.8006212636773165,-1.114922750428731,-5.211464184337798,-0.040107284916147685,0.034289260533889365,-0.04336992871664188,0.12417125529282444,0.12762689444149722,0.3001600124052514,-0.3155392110347748,-0.1244758069515228,-1.1218481063842771,-0.2223617136478424,0.3596954345703125,0.2839393615722656
1749053448.5950232,-1.9552270421248232,-1.7233896417772645,2.567877446590048,-3.8003810816445918,-1.1146613230110878,-5.210873343742932,-0.040150537430794116,0.03438069669119651,-0.043720099403789195,0.12439241645423885,0.12799380198542357,0.30154322269301786,-0.3418583571910858,-0.1166359782218933,-1.126400351524353,-0.1936018764972686,0.3399595320224762,0.2888041138648987
1749053448.5950592,-1.9553056053580373,-1.7233233099312246,2.5677887965514863,-3.800138269619518,-1.1143979478694357,-5.210275230271717,-0.040204548763555704,0.03451321244324221,-0.04410463500487559,0.12466641650006187,0.12821457024262323,0.3028778473428795,-0.3418583571910858,-0.1166359782218933,-1.126400351524353,-0.1936018764972686,0.3399595320224762,0.2888041138648987
1749053448.5950956,-1.9553850524286118,-1.723256368438815,2.5676985022304653,-3.799892385979347,-1.1141330486242562,-5.20966922463437,-0.040275733590758984,0.034687145500302524,-0.044518606243132745,0.1250110973663841,0.12831296782837423,0.30416880036071686,-0.3111001551151275,-0.1216691881418228,-1.130333423614502,-0.2048066109418869,0.350821316242218,0.2841031551361084
1749053448.5951314,-1.9554655085550745,-1.7231886285812041,2.5676066424318247,-3.799643188831105,-1.1138671148400092,-5.209055152004905,-0.04036991121253285,0.03490006887563554,-0.04495473071990934,0.125439144404649,0.12832016795818676,0.30542027104309655,-0.3301394283771515,-0.0973805710673332,-1.1274536848068235,-0.1907224655151367,0.3303285837173462,0.2615485489368438
1749053448.595168,-1.955547026897162,-1.7231199502931989,2.5675133762551643,-3.799390657923518,-1.1136006758071137,-5.208433305500859,-0.04049195705963161,0.03514726236780318,-0.04540352580492341,0.12595679324835127,0.12827225527441224,0.3066353326450841,-0.343591958284378,-0.1387775987386703,-1.111481785774231,-0.1573158800601959,0.3288384675979614,0.3008307218551636
1749053448.595204,-1.9556295889009483,-1.7230502403647148,2.567418929152022,-3.799134984625691,-1.1133342589157604,-5.207804401509762,-0.04064545007654436,0.03542235363572402,-0.04585369125644653,0.1265634697994545,0.12820761973595382,0.30781592119113915,-0.3373547792434692,-0.1130700036883354,-1.1223512887954712,-0.1586833149194717,0.3331499993801117,0.2746201753616333
1749053448.5952394,-1.9557131140818629,-1.7229794477944615,2.5673235709823086,-3.7988765339771287,-1.11306833948731,-5.207169482251428,-0.040832355343531995,0.03571801131446721,-0.046292735582247745,0.12725244192783736,0.128164442738201,0.3089631515881471,-0.3480584621429443,-0.0870362669229507,-1.1142246723175049,-0.1611992567777633,0.3269728124141693,0.2851687669754028
1749053448.5952766,-1.9557974763150894,-1.7229075592649714,2.56722759034524,-3.7986157875889974,-1.1128032915160468,-5.206529790095934,-0.04105278553803336,0.03602659757489891,-0.04670782225742889,0.1280123659617543,0.1281784052625631,0.31007789283170895,-0.3470780253410339,-0.0869723781943321,-1.1137279272079468,-0.1731188297271728,0.3381194174289703,0.2969034910202026
1749053448.5953128,-1.955882523344493,-1.7228345961411802,2.567131268898692,-3.798353277359323,-1.1125393473450447,-5.205886636742342,-0.04130488402166063,0.036340737095057224,-0.04708677837456508,0.12882941924920363,0.128280693528223,0.3111615135113491,-0.352596640586853,-0.1225098296999931,-1.0984127521514893,-0.1772540509700775,0.3469454646110534,0.2726084589958191
1749053448.5953493,-1.9559680965054445,-1.722760612704072,2.567034858302132,-3.798089519108238,-1.1122765714673122,-5.205241283897978,-0.04158486662174797,0.03665379555119021,-0.04741918161123771,0.12968958093441185,0.12849635976096432,0.31221672242017656,-0.3393416404724121,-0.1092840954661369,-1.0952212810516355,-0.1872814297676086,0.3326603174209595,0.2891004681587219
1749053448.5953856,-1.9560540480311395,-1.7226856941595179,2.566938561600028,-3.7978249536658395,-1.1120148511083028,-5.204594845485299,-0.041887245169587556,0.03696026500971067,-0.04769741922595545,0.13058059275381312,0.12884309857084134,0.3132484410202382,-0.3482435345649719,-0.0719117373228073,-1.0874189138412476,-0.1789211928844452,0.3377017974853515,0.2922260463237762
1749053448.5954304,-1.9561402538828547,-1.7226099526483083,2.566842520223091,-3.79755990106418,-1.1117539040744797,-5.203948216220331,-0.04220523360064186,0.037256041433030504,-0.04791759481640757,0.1314932033186063,0.1293305027014555,0.3142646290009344,-0.3407172560691833,-0.1103206276893615,-1.084409236907959,-0.1894196271896362,0.3519245982170105,0.2865940928459167
1749053448.5954669,-1.9562266210779582,-1.7225335200854697,2.566746807161129,-3.7972945314546993,-1.1114933024271292,-5.203302027564359,-0.04253131042856987,0.03753857524323018,-0.04808015149605022,0.13242145812167755,0.1299598599366237,0.31527694325910033,-0.3537291884422302,-0.1095766574144363,-1.072797417640686,-0.178646445274353,0.3752433657646179,0.2891464233398437
1749053448.5955029,-1.956313089886946,-1.722456537776942,2.5666514263610063,-3.797028854439327,-1.111232509115079,-5.202656629410741,-0.042857881007563825,0.037806887845433734,-0.04819009456036696,0.13336201548415058,0.1307245404608498,0.31630107327251095,-0.3114196360111236,-0.0981949120759964,-1.0631636381149292,-0.1707362830638885,0.3663731813430786,0.2571335136890411
1749053448.595621,-1.9563996325213595,-1.7223791438359446,2.566556318053598,-3.7967627267814374,-1.1109709238637742,-5.202012094372492,-0.04317795320114096,0.03806146760000373,-0.048256737804082975,0.13431269905796756,0.13161098424743525,0.3173565898923453,-0.3201243877410888,-0.0989249646663665,-1.0753720998764038,-0.1695865094661712,0.3665496706962585,0.2765642404556274
1749053448.5973651,-1.956486250431785,-1.7223014601216633,2.56646136935733,-3.796495876836676,-1.1107079340563761,-5.201368240822901,-0.04348572583368118,0.03830407309659575,-0.04829296032551805,0.1352706785562365,0.13260022044952605,0.31846618434355833,-0.3490356504917145,-0.1187977790832519,-1.0737006664276123,-0.1885537058115005,0.3714077472686767,0.3060060143470764
1749053448.6423037,-1.9565729718124611,-1.7222235806462245,2.566366429100081,-3.7962279424535015,-1.1104429658060264,-5.200724670410745,-0.043777004817817676,0.03853746933400543,-0.04831403199676007,0.13623074962311252,0.13366975426076488,0.3196542652966211,-0.30317422747612,-0.1246049776673317,-1.0798132419586182,-0.1444621533155441,0.3792938888072967,0.2839640378952026
1749053448.6423495,-1.9566598496725494,-1.7221455631233742,2.566271325451257,-3.7959585176948494,-1.1101755301397302,-5.200080815466805,-0.04404939846335966,0.038765111317422024,-0.04833613043482268,0.13718414767652293,0.1347955859620287,0.3209450112359473,-0.3283977806568146,-0.085391029715538,-1.065925121307373,-0.139889657497406,0.4023806452751159,0.2839725613594055
1749053448.6423888,-1.9567469595994331,-1.7220674246644052,2.5661758846824982,-3.795687202718423,-1.1099052595745,-5.1994359917262205,-0.044302277164487494,0.03899078718726674,-0.04837472024903384,0.13811820370666153,0.13595411503140753,0.32236010188863196,-0.2951366305351257,-0.1124503687024116,-1.0740445852279663,-0.1613912880420684,0.3684383928775787,0.3100025653839111
1749053448.642439,-1.9568343957697107,-1.7219891418580429,2.566079949159057,-3.7954136507044596,-1.1096319313707859,-5.198789452181281,-0.0445365085969212,0.0392182400879959,-0.048442995946800634,0.13901696492783416,0.137123719899105,0.32391643428401184,-0.3347867131233215,-0.1031952947378158,-1.1058751344680786,-0.1635040193796157,0.3726807534694671,0.3184912800788879
1749053448.6424797,-1.9569222641155004,-1.7219106549570988,2.5659833926498647,-3.7951376061311013,-1.109355475190694,-5.198140438421714,-0.04475401590173469,0.03945078863480249,-0.04855060043722934,0.13986269427183204,0.13828586246967003,0.32562415157395586,-0.3415009379386902,-0.1205629110336303,-1.1015331745147705,-0.1640016734600067,0.3743181824684143,0.3449553251266479
1749053448.6425247,-1.9570106726494423,-1.7218318757360176,2.565886131404534,-3.7948589301673388,-1.1090759647367854,-5.197488226392322,-0.04495725402723983,0.03969095684715469,-0.048702803364592415,0.14063798031159902,0.13942564079311462,0.3274852743435499,-0.335640549659729,-0.1171666011214256,-1.0881386995315552,-0.1902873367071151,0.3798168003559112,0.3204073309898376
1749053448.642563,-1.957099720214286,-1.7217526985110554,2.5657881300873564,-3.794577611196148,-1.1087935951572314,-5.1968321643602335,-0.045148725866812,0.03994012469475035,-0.048900242134402826,0.14132807717419724,0.14053181122463546,0.32949312366127775,-0.3508565127849579,-0.1102364882826805,-1.0635145902633667,-0.1983060538768768,0.3856130838394165,0.3230303227901459
1749053448.6426003,-1.957189485554032,-1.7216730134888987,2.5656894023137227,-3.794293760851566,-1.1085086501786,-5.196171702214691,-0.045330640884144895,0.040198234305538455,-0.04913921678103472,0.14192305947385916,0.14159640751649838,0.33163258648316846,-0.3509500920772552,-0.0950792282819747,-1.0989218950271606,-0.1991796046495437,0.3704790472984314,0.2992540895938873
1749053448.6426375,-1.9572800182441226,-1.7215927209949702,2.5655900060648285,-3.7940075979749674,-1.108221464451794,-5.1955064126427555,-0.04550477130938706,0.04046361900603258,-0.049412441481666534,0.14241940917621057,0.14261416445095887,0.33388115139350666,-0.3336779475212097,-0.1053325086832046,-1.0960023403167725,-0.2336204051971435,0.3921261727809906,0.3154769241809845
1749053448.6426775,-1.9573713322283803,-1.7215117445908832,2.56549003469225,-3.7937194243908885,-1.1079323870046793,-5.194836005596171,-0.04567251387728474,0.040733027944094315,-0.04971011864814058,0.1428207481174867,0.14358198120125706,0.33621057453301406,-0.3605914711952209,-0.1078981906175613,-1.0848400592803955,-0.2100001722574234,0.3798237442970276,0.3079336583614349
1749053448.6427147,-1.9574634023463102,-1.7214300411131516,2.565389604617843,-3.7934295971500624,-1.107641750845369,-5.1941603374301675,-0.045835125084062164,0.04100188239128942,-0.05002119399999824,0.1431375899585681,0.1444986221705925,0.3385890088033651,-0.3273934721946716,-0.0986986309289932,-1.0844249725341797,-0.2001494169235229,0.3927858471870422,0.3232426643371582
1749053448.6427512,-1.95755616440927,-1.7213476064174404,2.565288841209004,-3.7931385015599126,-1.1073498517934781,-5.193479415193053,-0.04599406039676014,0.04126474294785702,-0.05033464276413908,0.14338618221629534,0.1453647538152362,0.34098340637474644,-0.3381895124912262,-0.1021860316395759,-1.086014747619629,-0.2002944648265838,0.3754483461380005,0.3280770778656006
1749053448.6427877,-1.957649519451617,-1.721264476701284,2.5651878646067234,-3.792846527917238,-1.1070569369638554,-5.192793395200736,-0.046151319320309296,0.041515921820170464,-0.0506406314308186,0.143586689331847,0.14618327986624674,0.3433619750543814,-0.3276994824409485,-0.111566886305809,-1.0648581981658936,-0.1798971593379974,0.3567624390125274,0.3102409541606903
1749053448.6428242,-1.9577433422365822,-1.7211807260318324,2.5650867773297423,-3.79255405290317,-1.10676320082495,-5.192102573993033,-0.046309692534269,0.04175015142235665,-0.05093141775895278,0.14376108093339346,0.14695980838030198,0.34569645839856866,-0.3270784020423889,-0.1262886524200439,-1.0726385116577148,-0.1849164962768554,0.3607803583145141,0.3116086721420288
