nimar13/UR3e_dataset_trayectorias/trayectorias_ejecutadas_filtradas/trapezoidal_func/trayectoria_201_result_filtrado.csv
timestamp,q1,q2,q3,q4,q5,q6,qd1,qd2,qd3,qd4,qd5,qd6,tau1,tau2,tau3,tau4,tau5,tau6
1749059118.4903204,1.6915956868546171,-2.1027270899645965,0.37725530868612456,5.402897063654153,-1.8422823222344349,2.049623878065072,0.00022055816171387302,1.5007767197193079e-05,-0.0002875885461702159,0.0016350671900675878,-0.0002445396077615592,0.0003554750306155077,0.1758128255605697,0.405655026435852,-0.2354448139667511,-0.5036417841911316,-0.1965789794921875,0.0942637175321579
1749059118.4903777,1.6915922822399152,-2.1027283218810937,0.37726201279700394,5.402893465774647,-1.842277749381113,2.0496226178243298,0.00014388654064819266,2.972682767353903e-05,-0.00027486038089199154,0.0011328182020474554,-3.2005469957088466e-05,0.00020348654145645203,0.1758128255605697,0.405655026435852,-0.2354448139667511,-0.5036417841911316,-0.1965789794921875,0.0942637175321579
1749059118.490439,1.691588922053946,-2.1027294814134643,0.37726840180753946,5.402889875975098,-1.8422732144727048,2.049621301489387,6.999647988749843e-05,4.3839147791884e-05,-0.0002620820434206253,0.0006393348632544008,0.00018059634626213275,5.3315925927056335e-05,0.15546315908432,0.4015272855758667,-0.2419471144676208,-0.5267319679260254,-0.1817950010299682,0.0868100225925445
1749059118.4904842,1.6915857143092958,-2.102730516129217,0.3772741621317914,5.402886242255614,-1.8422687940118865,2.049619933816061,1.506249148966866e-06,5.6868088121618135e-05,-0.0002493573299273148,0.00016460985005407013,0.0003895137124754136,-9.236829888528295e-05,0.1537180095911026,0.394248366355896,-0.2199451029300689,-0.5595402717590332,-0.1709222197532653,0.0774624347686767
1749059118.490523,1.6915827654803257,-2.102731393910388,0.3772790327802265,5.402882515689765,-1.8422645656560062,2.0496185140887078,-5.9407365765477214e-05,6.84234234488221e-05,-0.0002367987635586,-0.0002816584498795402,0.000590752120531504,-0.00023087537044855493,0.1537180095911026,0.394248366355896,-0.2199451029300689,-0.5595402717590332,-0.1709222197532653,0.0774624347686767
1749059118.490562,1.6915801765729224,-2.102732103132712,0.37728282309981737,5.40287865453246,-1.8422606023442087,2.049617035609129,-0.00011115481436466092,7.822812432299967e-05,-0.00022453001870299222,-0.0006904344763918221,0.0007802316794596083,-0.0003595390336793045,0.168282464146614,0.410906434059143,-0.2274273633956909,-0.5580899715423584,-0.1624693274497985,0.0662087574601173
1749059118.490604,1.691578038515763,-2.102732649659694,0.37728542215811056,5.40287462802153,-1.8422569671905884,2.049615489025055,-0.00015280950823058628,8.613367589489059e-05,-0.0002126877079114723,-0.0010538127419479236,0.0009539846034435694,-0.00047579879259147996,0.1553904116153717,0.3978734016418457,-0.2381535172462463,-0.5845286250114441,-0.1479047536849975,0.0728403329849243
1749059118.4906433,1.6915764270113494,-2.102733051348426,0.3772867992736946,5.402870419750436,-1.8422537094542202,2.049613868438328,-0.00018411124434513298,9.212255819608884e-05,-0.00020142195612352025,-0.001365532464256291,0.0011083585840914432,-0.000577313782298792,0.1571591943502426,0.3940004110336303,-0.2328588366508484,-0.5715886950492859,-0.1520349681377411,0.0851909816265106
1749059118.490681,1.6915753974656984,-2.1027333312201346,0.3772869967778836,5.4028660303710145,-1.8422508616800082,2.049612178557274,-0.00020540580139986748,9.629803174265193e-05,-0.0001908950569375263,-0.0016214480349741305,0.001240184705783632,-0.0006620997479916106,0.1535973697900772,0.3905245661735534,-0.2349519729614257,-0.5907150506973267,-0.1524327993392944,0.0895269215106964
1749059118.490718,1.6915749809538432,-2.1027335107711296,0.3772861172534469,5.402861479255888,-1.8422484379362243,2.0496104410376033,-0.0002175361831500388,9.886273514304007e-05,-0.00018127749744598377,-0.001819849404938741,0.0013468857445487954,-0.0007286711118139531,0.1535973697900772,0.3905245661735534,-0.2349519729614257,-0.5907150506973267,-0.1524327993392944,0.0895269215106964
1749059118.4907591,1.6915751820290417,-2.102733604849445,0.3772843079329694,5.402856804715579,-1.842246433036798,2.0496086983382615,-0.0002217039893735298,0.00010008873961734698,-0.00017274074668135797,-0.0019615508696030092,0.0014265320566112013,-0.0007761639673446992,0.1275083273649215,0.3924785256385803,-0.2275178432464599,-0.5853677988052368,-0.1241830959916114,0.0717861056327819
1749059118.4907978,1.691575978602301,-2.1027336189073353,0.3772817446889231,5.40285206254457,-1.8422448226748511,2.04960701379284,-0.0002193194167614044,0.00010028253129520863,-0.00016544637886613185,-0.0020497219034056563,0.0014778771838130638,-0.0008044168467477901,0.1239048838615417,0.3958587646484375,-0.2579285204410553,-0.6077626943588257,-0.1422892808914184,0.0797743499279022
1749059118.4908354,1.6915773235344,-2.102733548590383,0.37727861733325213,5.4028473230423355,-1.8422435643753046,2.049605467260398,-0.0002118565732293873,9.974878585056387e-05,-0.00015953137587283758,-0.0020894940667352353,0.0015004094401506038,-0.0008139950370549699,0.1239048838615417,0.3958587646484375,-0.2579285204410553,-0.6077626943588257,-0.1422892808914184,0.0797743499279022
1749059118.4908724,1.6915791473706792,-2.102733381157707,0.37727511705613975,5.40284266698772,-1.8422425991674063,2.0496041466674906,-0.00020072785374543423,9.875674704430786e-05,-0.00015508991159707551,-0.0020874194124014095,0.001494438446571519,-0.0008061566453884542,0.1406086832284927,0.4013765454292297,-0.2483102083206176,-0.6014957427978516,-0.121968887746334,0.0691065788269043
1749059118.490913,1.6915813618350728,-2.102733098381401,0.37727142614166653,5.402838181129685,-1.8422418541128107,2.0496031367095044,-0.00018718744933143543,9.751261888914295e-05,-0.00015215261416933102,-0.002050868577337217,0.001461205637595857,-0.0007827692976042041,0.1461879611015319,0.3827655911445617,-0.2535645365715027,-0.6058114767074585,-0.1360256969928741,0.0766345337033271
1749059118.490952,1.6915838640437628,-2.1027326809847775,0.3772677098875761,5.4028339536159065,-1.842241246273741,2.049602506627688,-0.000172269978579929,9.614074112927787e-05,-0.0001506651795690335,-0.0019874452160878182,0.0014029785325557049,-0.000746192935490207,0.1461879611015319,0.3827655911445617,-0.2535645365715027,-0.6058114767074585,-0.1360256969928741,0.0766345337033271
1749059118.4909892,1.6915865416632856,-2.102732114765113,0.3772641107949079,5.402830069543385,-1.842240688908764,2.049602299207679,-0.00015676609024559707,9.467549866745086e-05,-0.000150469104754682,-0.0019044699438492034,0.0013230744091967288,-0.0006991464532490642,0.1461570262908935,0.3847237825393677,-0.2451105117797851,-0.6193279027938843,-0.1318443119525909,0.0849952101707458
1749059118.4910264,1.6915892793040839,-2.102731397992347,0.3772607451436095,5.402826606577991,-1.8422401001734061,2.04960252295798,-0.0001412329521678347,9.306493086577854e-05,-0.00015128798440359838,-0.0018085650788014862,0.0012257684811052597,-0.0006445741421025736,0.1589567810297012,0.3698304295539856,-0.2435785830020904,-0.6215322613716125,-0.1431547999382019,0.0763340443372726
1749059118.491068,1.6915919661975556,-2.1027305487075765,0.37725770186434326,5.4028236304652735,-1.8422394134711433,2.049603148826649,-0.00012603404978396606,9.118587321969127e-05,-0.00015272309496117695,-0.0017053584702538674,0.0011160710758046657,-0.0005855229737642996,0.1757160127162933,0.3663169741630554,-0.2449848353862762,-0.6148994565010071,-0.1248921975493431,0.0748340189456939
1749059118.4911065,1.6915945045676521,-2.1027296098125277,0.3772550434203124,5.402821190356028,-1.8422385875086646,2.0496041119499706,-0.00011139993394657632,8.886923720186283e-05,-0.0001542618175480566,-0.0015993178240675196,0.0009993940088846806,-0.0005250355499586444,0.1423798352479934,0.3825496435165405,-0.2594529986381531,-0.6215225458145142,-0.1280831098556518,0.1036052852869033
1749059118.4911437,1.6915968173061053,-2.1027286498920956,0.37725280841368947,5.4028193141470044,-1.8422376137358443,2.049605318111585,-9.749969847507972e-05,8.593281748622588e-05,-0.0001553018140462522,-0.0014937185396619367,0.0008811542347937525,-0.0004660580089935477,0.1423798352479934,0.3825496435165405,-0.2594529986381531,-0.6215225458145142,-0.1280831098556518,0.1036052852869033
1749059118.49118,1.6915988531409003,-2.1027277585753104,0.3772510156104622,5.402818004297628,-1.842236519388062,2.049606653993346,-8.45121118688267e-05,8.221798383356952e-05,-0.0001551927185761301,-0.0013907340565066165,0.0007663752450990976,-0.00041135817060132713,0.1553445309400558,0.3737541437149048,-0.2468758523464203,-0.6064790487289429,-0.1248472854495048,0.0727648437023162
1749059118.4912958,1.6916005878043663,-2.102727036535566,0.3772496687900806,5.402817234740311,-1.8422353654170012,2.0496079997951964,-7.268546784322934e-05,7.762598954694363e-05,-0.0001532954015783773,-0.0012916205996059847,0.0006593429362498725,-0.0003634467233653437,0.1386712044477462,0.3751503825187683,-0.2601103186607361,-0.6172624230384827,-0.1273422539234161,0.084757462143898
1749059118.4923763,1.691602020653334,-2.1027265815345655,0.37724876141530916,5.402816949622569,-1.8422342395250582,2.049609242301228,-6.237635010025215e-05,7.214953681972549e-05,-0.000149056692770213,-0.001196954657403335,0.0005633571415847795,-0.0003244933914011963,0.1237878054380416,0.3703482747077942,-0.259700208902359,-0.6153815388679504,-0.1261545717716217,0.0954822599887847
1749059118.538312,1.6916031674619512,-2.102726472942967,0.37724827993007615,5.402817064702768,-1.8422332449198588,2.049610286232537,-5.405962691676994e-05,6.589560524128026e-05,-0.00014209508809913163,-0.0011068778981943987,0.0004805994515248608,-0.00029623114446588656,0.1722926944494247,0.3566676378250122,-0.2461357712745666,-0.6013251543045044,-0.1249632909893989,0.0790947750210762
1749059118.5383718,1.691604051298896,-2.1027267577447835,0.3772482047130993,5.402817472100485,-1.8422324856352776,2.0496110621273966,-4.8305044727812273e-05,5.909619004964045e-05,-0.00013229081268814933,-0.0010213122027621627,0.00041211822168820474,-0.0002798448170750784,0.1628068834543228,0.3721126914024353,-0.2691077291965484,-0.6097268462181091,-0.1320984363555908,0.0933244377374649
1749059118.5384164,1.6916046939930791,-2.1027274409992094,0.37724850834329754,5.402818048604016,-1.8422320499856235,2.0496115299972217,-4.571960451335184e-05,5.2104401321812406e-05,-0.0001198720013448573,-0.0009401226556715577,0.0003579160745227353,-0.00027584563357501454,0.1629429310560226,0.360845148563385,-0.2711251378059387,-0.6251331567764282,-0.1357680559158325,0.0884836614131927
1749059118.5384555,1.6916051103763952,-2.102728482990635,0.3772491517660427,5.4028186668998,-1.8422319948147186,2.0496116790780055,-4.685914085646698e-05,4.5374360234790134e-05,-0.00010548782951073575,-0.0008632219353027766,0.0003171150419381754,-0.00028393942025730577,0.1534648835659027,0.3623629212379455,-0.2554617524147033,-0.6066156625747681,-0.1361255049705505,0.1015341281890869
1749059118.5384932,1.6916053064563679,-2.1027298039105697,0.3772500798814747,5.402819208220805,-1.8422323336702016,2.0496115245630153,-5.2116697958501826e-05,3.942457048129696e-05,-9.025919551822011e-05,-0.0007906211667239074,0.00028817000107302543,-0.0003029029279718569,0.1552629172801971,0.3626092672348022,-0.2608013749122619,-0.6147069334983826,-0.1397766768932342,0.0989798605442047
1749059118.5385313,1.6916052813836215,-2.102731295209774,0.37725121853691973,5.402819574415831,-1.842233031242742,2.049611102215177,-6.15989576906034e-05,3.4786001243321095e-05,-7.579807241307721e-05,-0.00072243890613289,0.00026910146547093084,-0.0003304888114454596,0.166513904929161,0.3532953262329101,-0.273670494556427,-0.6210576295852661,-0.1408657431602478,0.0898877084255218
1749059118.5385687,1.6916050320038298,-2.102732835280207,0.37725247461392925,5.402819697550161,-1.8422340048660832,2.049610461613611,-7.500487864435451e-05,3.193794851911421e-05,-6.418805164505685e-05,-0.0006588821927585217,0.0002577226150371966,-0.00036338446950052067,0.1925534456968307,0.3306522369384765,-0.2631028592586517,-0.6030235290527344,-0.1364066004753112,0.0918999016284942
1749059118.5386064,1.6916045582957167,-2.1027343064053095,0.377253740012744,5.402819545769378,-1.8422351324666868,2.049609658812871,-9.152276906337561e-05,3.123660248765101e-05,-5.792103895124523e-05,-0.0006002127055170101,0.00025184111979794586,-0.00039725220475359706,0.1760380417108535,0.3512752056121826,-0.2683307230472564,-0.6248223781585693,-0.1392332017421722,0.0994351655244827
1749059118.538645,1.6916038682024177,-2.102735610116989,0.37725489927752975,5.402819124926495,-1.8422362654228464,2.049608749392757,-0.00010976312030094936,3.284274968757272e-05,-5.978862530520522e-05,-0.0005467082810674859,0.0002494226525455112,-0.0004268771776378596,0.1907951086759567,0.3302385210990906,-0.2802782356739044,-0.620316743850708,-0.1483887434005737,0.0786356627941131
1749059118.5386848,1.691602980935081,-2.102736678870122,0.3772558397426352,5.402818476033107,-1.8422372442415895,2.049607783071285,-0.00012774442559292982,3.6655899925813814e-05,-7.273135949246847e-05,-0.0004986265513293685,0.0002487091998243524,-0.0004464447811243282,0.1742126792669296,0.3482005596160888,-0.2762916684150696,-0.596001148223877,-0.1413342952728271,0.094960868358612
1749059118.5387228,1.691601928306245,-2.1027374827960896,0.3772564625537455,5.402817668917024,-1.842237914772557,2.049606800980497,-0.00014294760365288992,4.226236490052382e-05,-9.965487900737342e-05,-0.00045617410619625795,0.0002482908345793716,-0.000449960034510349,0.1759647727012634,0.335071861743927,-0.2752176821231842,-0.6001166105270386,-0.136019766330719,0.1159776300191879
1749059118.5387602,1.6916007539341984,-2.102738031055724,0.37725669265402245,5.40281679280151,-1.8422381429533115,2.049605836115536,-0.00015245128707101023,4.890459971439432e-05,-0.000143228206564143,-0.00041948191274672887,0.00024713415553098884,-0.00043180847744697095,0.203803613781929,0.3396208882331848,-0.2935415804386139,-0.606802225112915,-0.1548916101455688,0.1047919243574142
1749059118.538798,1.6915995104349737,-2.1027383680374903,0.3772564857465842,5.40281594503378,-1.8422378267431143,2.0496049164203143,-0.00015315494348556544,5.547852209276093e-05,-0.0002056856008797383,-0.0003885859475871759,0.00024457391749611873,-0.0003874414009086641,0.203803613781929,0.3396208882331848,-0.2935415804386139,-0.606802225112915,-0.1548916101455688,0.1047919243574142
1749059118.5388353,1.6915982550644746,-2.1027385652581216,0.3772558305357087,5.402815219679772,-1.8422369046577645,2.049604068968643,-0.00014208945233877053,6.056445546711832e-05,-0.0002886576841439007,-0.0003634110819523269,0.00024027637570089752,-0.00031414915636470987,0.1980561167001724,0.3268322348594665,-0.2845174074172973,-0.6100281476974487,-0.1518584489822387,0.1123933941125869
1749059118.5388715,1.6915970446140696,-2.10273871017,0.37725474548948335,5.402814697706046,-1.842235360873228,2.049603323287836,-0.00011680540499216135,6.249560918839614e-05,-0.0003930582407911279,-0.00034375606157001,0.0002341835850882182,-0.00021186637178252692,0.2148714661598205,0.3159213662147522,-0.2992330193519592,-0.618438720703125,-0.1588196754455566,0.0880394279956817
1749059118.5389085,1.6915959306072046,-2.102738893245812,0.37725327077069204,5.402814439787635,-1.842233227088497,2.0496027121600298,-7.581850779446075e-05,5.9465358190163294e-05,-0.0005190482284815536,-0.00032927791582695366,0.00022644755050898674,-8.393436772945912e-05,0.2018540948629379,0.3068225383758545,-0.2977545261383056,-0.5975775718688965,-0.155895859003067,0.1162023767828941
1749059118.5389488,1.6915949558581562,-2.1027391949323837,0.37725145717772457,5.40281448184471,-1.8422305813224675,2.0496022689300486,-1.9080105786296393e-05,4.96707987059595e-05,-0.0006660870864356915,-0.0003194753469074678,0.00021736204699251795,6.226847583507026e-05,0.222384825348854,0.3347954750061035,-0.2892293930053711,-0.595517635345459,-0.1592702269554138,0.116952508687973
1749059118.538987,1.6915941530631147,-2.102739674337517,0.37724935446711755,5.402814832911218,-1.8422275437998694,2.049602021154875,5.15695415938416e-05,3.148519425720704e-05,-0.0008330646175543796,-0.00031367243931499955,0.0002072984197112051,0.00021492543918076682,0.2205246239900589,0.3193287849426269,-0.291667640209198,-0.605914831161499,-0.1765777170658111,0.0958490818738937
1749059118.5390236,1.6915935452678126,-2.1027403614915894,0.3772470013621016,5.402815475098155,-1.8422242701111662,2.049601981211033,0.00013201551118129163,3.6464732469497017e-06,-0.0010184900956549648,-0.0003110060065785427,0.00019664993822414225,0.00035770471650744894,0.2186371833086013,0.3069713115692138,-0.285555362701416,-0.5948033332824707,-0.1643118858337402,0.1147061586380004
1749059118.5390608,1.691593147112419,-2.1027412544155775,0.37724441905730366,5.402816365819318,-1.8422209417297426,2.049602135130455,0.0002156043570774201,-3.4556316221072906e-05,-0.0012207067883417304,-0.00031042162035557866,0.00018578748727934708,0.00047008948159626377,0.188940554857254,0.2698503136634826,-0.278677225112915,-0.5937834978103638,-0.1614606082439422,0.124465525150299
1749059118.5390975,1.6915929652643935,-2.102742321160229,0.3772416091706888,5.402817442527546,-1.8422177538073063,2.0496024313946073,0.0002930555893585835,-8.312087642939251e-05,-0.0014381028083465786,-0.00031068450509687127,0.00017502769294301763,0.0005281708575019734,0.1961400061845779,0.3066217303276062,-0.2951893210411072,-0.602358341217041,-0.1714469790458679,0.1114166304469108
1749059118.539135,1.6915929967357055,-2.1027435059345776,0.3772385560248524,5.402818629739752,-1.8422149004060437,2.0496027716930656,0.000352594946143032,-0.00014121837113506032,-0.0016692968552126318,-0.00031041178154522423,0.00016461315633950246,0.0005059204358110951,0.1924581974744796,0.297189712524414,-0.3034470677375793,-0.5913643836975098,-0.1627622246742248,0.1012908369302749
1749059118.5392532,1.69159322463953,-2.102744737864679,0.37723523213677024,5.4028198473811235,-1.8422125581617752,2.049603005738662,0.00038034196617796123,-0.00020715283954871958,-0.0019132809218540604,-0.0003081318317386764,0.0001547034072935125,0.0003769076606323933,0.1701513975858688,0.2715886831283569,-0.293069064617157,-0.6009526252746582,-0.1836153864860534,0.0738024935126304
1749059118.540388,1.6915936119965747,-2.1027459409159417,0.3772316051220068,5.402821018995471,-1.8422108703372768,2.0496029320206515,0.00036096314228781744,-0.0002784126523895624,-0.0021694997203608023,-0.0003023747354197356,0.0001453745573621722,0.00011636756507968993,0.1701513975858688,0.2715886831283569,-0.293069064617157,-0.6009526252746582,-0.1836153864860534,0.0738024935126304
1749059118.58631,1.6915940951136779,-2.102747043775025,0.37722764405270426,5.402822078481574,-1.8422099336349558,2.049602305689452,0.000278574111278729,-0.0003518239886074052,-0.002437845981821732,-0.0002917947742492496,0.00013662543323748785,-0.0002965382798693871,0.1720864921808242,0.264433205127716,-0.2941483557224273,-0.5896618366241455,-0.1860765218734741,0.081704244017601
1749059118.5863688,1.6915945783757789,-2.1027479886267857,0.377223323664969,5.402822974565088,-1.8422097897012404,2.0496008534727075,0.00011784186741792156,-0.0004238014551688404,-0.002718560566504895,-0.00027532203803711024,0.00012838815810777175,-0.0008764820205747071,0.1518149226903915,0.2764145135879516,-0.3006234169006347,-0.5844821333885193,-0.1836260259151458,0.0742463991045951
1749059118.5864117,1.6915949318145633,-2.102748737701938,0.37721862554479174,5.402823672823564,-1.8422104222479811,2.049598293869946,-0.00013479577420732957,-0.0004906715946419223,-0.0030120468154203666,-0.0002523355280198846,0.00012054159756594929,-0.001630006758226537,0.1481063365936279,0.2881883382797241,-0.3032020032405853,-0.5945953726768494,-0.1900088191032409,0.0323906689882278
1749059118.5864515,1.6915949920692723,-2.102749276493921,0.37721353629092047,5.40282415553943,-1.8422117597374086,2.0495943596430446,-0.0004899064654577727,-0.000549025946892029,-0.0033186308719069363,-0.00022284534659605044,0.00011292659928883909,-0.0025541092051796963,0.1239072531461715,0.2866796255111694,-0.3095152080059051,-0.5919209718704224,-0.2076869904994964,0.0433482155203819
1749059118.5864906,1.6915945669956145,-2.102749612954109,0.3772080433560217,5.402824419902614,-1.8422136830233113,2.0495888195322545,-0.000953968731220895,-0.0005960498606821057,-0.0036383132939188483,-0.00018766716500079832,0.00010536234731705847,-0.0036356062615304887,0.0941652208566665,0.271303653717041,-0.3150180876255035,-0.595983624458313,-0.1993738412857055,0.0428452007472515
1749059118.5865283,1.6915934440915297,-2.102749772838179,0.377202129602293,5.402824475064483,-1.8422160371075873,2.0495814969652404,-0.001528542603371554,-0.000629777479964551,-0.003970557209027294,-0.00014856874997959597,9.766336281136151e-05,-0.004851442289626649,0.0884582996368408,0.2843607068061828,-0.3124292194843292,-0.5886040925979614,-0.2186793684959411,0.021016389131546
1749059118.5865667,1.6915914024668421,-2.1027497924908927,0.3771957676802912,5.4028243383196335,-1.8422186460082894,2.049572284287867,-0.002209818779414589,-0.0006492403608907209,-0.004314146633595511,-0.00010836650682587603,8.965673272690957e-05,-0.006169968940603253,0.0476611144840717,0.2700213193893432,-0.3090920746326446,-0.594495415687561,-0.2153732478618621,0.0114787686616182
1749059118.5866086,1.6915882270982274,-2.102749711268802,0.37718891536287824,5.4028240305100175,-1.8422213296257928,2.049561151144643,-0.002988608860444533,-0.0006544988904189239,-0.004667132321052274,-7.095034999300996e-05,8.119901593092507e-05,-0.0075530964176234285,0.0476611144840717,0.2700213193893432,-0.3090920746326446,-0.594495415687561,-0.2153732478618621,0.0114787686616182
1749059118.5866466,1.6915837231026312,-2.1027495659450413,0.3771815128868449,5.40282357079821,-1.8422239213586984,2.049548145545902,-0.003850772352747406,-0.0006465646657899823,-0.005026868855587727,-4.121823648455824e-05,7.219195489715487e-05,-0.008959118741212217,0.017981519922614,0.26707923412323,-0.3211709260940552,-0.6088443994522095,-0.2218064665794372,-0.0068411570973694
1749059118.586688,1.6915777274307893,-2.102749388575362,0.37717348300588366,5.402822971193461,-1.842226284735437,2.04953338668326,-0.004778017709205494,-0.0006272353107715097,-0.005390138519512784,-2.490770660746504e-05,6.259573483099754e-05,-0.010345972583593101,0.0305473916232585,0.3006715178489685,-0.3121618926525116,-0.6047641038894653,-0.2126289010047912,-0.0262113139033317
1749059118.586727,1.691570116042402,-2.1027492078176344,0.37716473393760597,5.402822231479107,-1.8422283265901143,2.0495170497737147,-0.005748985351989319,-0.0005988709253707488,-0.005753353769791813,-2.832084413792234e-05,5.2438266271095405e-05,-0.01167467320488619,0.0250517204403877,0.2775676250457763,-0.32655069231987,-0.6068023443222046,-0.2100004851818084,-0.0358795896172523
1749059118.5867648,1.691560806015643,-2.1027490523249837,0.3771551649250352,5.402821335355188,-1.842230004184474,2.04949934443301,-0.006740522287292542,-0.00056414401665487,-0.0061128296249064636,-5.7950906625619705e-05,4.181890706611071e-05,-0.012912645015438023,0.0056983791291713,0.2843292951583862,-0.3269896805286407,-0.6138133406639099,-0.2255507111549377,-0.0244397744536399
1749059118.586802,1.691549753469347,-2.102748954163194,0.37714467374552363,5.402820248526613,-1.8422313248095799,2.049480488772297,-0.007729074980230334,-0.0005257926589569568,-0.006465115856459414,-0.00012003268699261955,3.090519763845861e-05,-0.014036625240474639,-0.0042229415848851,0.2826542258262634,-0.3268293440341949,-0.6139950752258301,-0.2181208133697509,-0.0392122976481914
1749059118.5868385,1.691536948941318,-2.1027489504416472,0.3771331650997594,5.402818919032406,-1.8422323383116446,2.0494606817315244,-0.008692138298386809,-0.0004864007666151755,-0.0068073675726513854,-0.00022005304575239867,1.9921660428195826e-05,-0.015034803876375725,-0.0085744140669703,0.2583982348442077,-0.3297787010669708,-0.6249690651893616,-0.2102432548999786,-0.0386868827044963
1749059118.586876,1.6915224117333627,-2.1027490822781125,0.3771205585652012,5.402817279512415,-1.842233124586959,2.0494400764043776,-0.009609692318172146,-0.0004482217325547531,-0.007137707749564059,-0.00036227096405572234,9.130712547346106e-06,-0.015907913033388052,-0.0337587222456932,0.2939621806144714,-0.3212728202342987,-0.6393965482711792,-0.2170594334602356,-0.0085396263748407
1749059118.5869124,1.6915061839766836,-2.1027493913013195,0.3771067950185444,5.402815250776733,-1.8422337787179557,2.0494187572030924,-0.01046554223132306,-0.00041305429943255177,-0.007455510023845516,-0.0005493051843305857,-1.1926772829038144e-06,-0.016669103330950365,-0.0373818352818489,0.2823801636695862,-0.3258595764636993,-0.636660099029541,-0.2212427258491516,-0.0322706326842308
1749059118.586949,1.6914883243389816,-2.102749914630683,0.37709184109017396,5.402812746208385,-1.8422343961478136,2.0493967234443224,-0.011248462021339976,-0.00038217331763939523,-0.007761527700548572,-0.0007818485569621491,-1.0789181314513794e-05,-0.017342615895125413,-0.0392966791987419,0.2684929966926574,-0.3205299973487854,-0.6452535390853882,-0.2219994664192199,-0.0148753952234983
1749059118.586985,1.6914689009320218,-2.10275067953845,0.37707569184406914,5.4028096769335985,-1.8422350596099875,2.049373881267539,-0.011953033838696527,-0.00035631294615267553,-0.008057824944889361,-0.0010585579774578895,-1.9441609559669873e-05,-0.01796142925822398,-0.0374734550714492,0.2884460091590881,-0.331631600856781,-0.6724306344985962,-0.2181156873703003,-0.0380482822656631
1749059118.5870223,1.6914479833069112,-2.10275169891628,0.37705837206336923,5.4028059578577246,-1.8422358289169019,2.0493500447928934,-0.012580072557795472,-0.0003356956489027193,-0.008347513734441514,-0.0013761459545511075,-2.6995356944408602e-05,-0.01856418940225902,-0.0715372487902641,0.2950039505958557,-0.3113221824169159,-0.6498022079467773,-0.2163151204586029,-0.0612935163080692
1749059118.587059,1.6914256342193301,-2.102752968303489,0.37703993625151455,5.402801514378273,-1.842236734329368,2.0493249461440564,-0.0131365381301838,-0.0003200971936831196,-0.00863434139720948,-0.0017296689052774328,-3.3369910609680994e-05,-0.019191797082956305,-0.039700012654066,0.306786835193634,-0.3210443258285522,-0.6627599000930786,-0.218557596206665,-0.0741125270724296
1749059118.5870955,1.6914019026493798,-2.102754464709932,0.377020467039163,5.402796289069594,-1.842237773991783,2.0492982525515053,-0.013634881009428904,-0.00030893620202423577,-0.008922196436279171,-0.002112978193571433,-3.856053332408082e-05,-0.019884032892109132,-0.0706713050603866,0.2996203303337097,-0.3295760750770569,-0.680129885673523,-0.2067552208900451,-0.0693879723548889
1749059118.587136,1.691376819900377,-2.1027561470808016,0.37700007149580667,5.40279024723226,-1.8422389157082966,2.0492695875818256,-0.014091840990576789,-0.00030137681471176676,-0.009214606394826932,-0.002519281013317431,-4.263101985863482e-05,-0.020676563273296228,-0.0782883539795875,0.3049927353858948,-0.3087843656539917,-0.6665570139884949,-0.217996060848236,-0.0803828686475753
1749059118.5872505,1.6913504001475967,-2.1027579581431786,0.37697887508267897,5.402783380086765,-1.8422401029910327,2.0492385530769943,-0.014526811075759784,-0.0002964343311841148,-0.009514293695900391,-0.0029417494772491335,-4.569958863240288e-05,-0.02159860145540971,-0.0879154801368713,0.3068157434463501,-0.3095241785049438,-0.6774274110794067,-0.230430394411087,-0.0898244753479957
1749059118.588412,1.6913226455928632,-2.102759827346909,0.376957013542978,5.402775704627286,-1.8422412646545931,2.049204748863045,-0.014959957618826564,-0.0002930755204889485,-0.009822836078727415,-0.0033741120775255765,-4.792046616202449e-05,-0.022671400241397244,-0.0869947597384452,0.2658724784851074,-0.3175539970397949,-0.6804086565971375,-0.2047481536865234,-0.1225240528583526
1749059118.6302729,1.691293554882504,-2.1027616745583786,0.37693462356337876,5.402767259769471,-1.8422423263485224,2.049167788444083,-0.015410332039237095,-0.00029030720424753003,-0.010140456391578106,-0.003811159252644781,-4.946366279157249e-05,-0.023907634884079893,-0.0712056905031204,0.3013409376144409,-0.3107639849185943,-0.6748001575469971,-0.2066358029842376,-0.1081533432006836
1749059118.6303198,1.6912631323464926,-2.1027634142754477,0.37691183321412225,5.402758099279706,-1.8422432217824525,2.0491273101456517,-0.015894209254512532,-0.00028724866010060367,-0.010465953609392712,-0.004249098078327814,-5.049504645306087e-05,-0.025311610413657124,-0.1163485273718833,0.3201517462730407,-0.3230423629283905,-0.6776872873306274,-0.2164250314235687,-0.1200953349471092
1749059118.6303606,1.6912313953992033,-2.102764960405004,0.3768887529392306,5.402748282707872,-1.8422439014793295,2.0490829840244826,-0.016423850664804302,-0.00028318548649620734,-0.0107967844801742,-0.00468570643094101,-5.115837013337147e-05,-0.026880126395005772,-0.1125118732452392,0.3103595972061157,-0.3309806585311889,-0.6911447048187256,-0.2098147869110107,-0.1239582970738411
1749059118.6303992,1.6911983780955688,-2.102766231717757,0.3768654675611522,5.402737865859928,-1.842244337698884,2.0490345152101908,-0.017006826925977526,-0.0002776046392937969,-0.011129303181208534,-0.005120265777899687,-5.156058804778462e-05,-0.028603778046833044,-0.1433237940073013,0.2960677742958069,-0.3315584659576416,-0.6942068338394165,-0.2181185483932495,-0.1264975368976593
1749059118.6304371,1.6911641299005196,-2.102767157836868,0.37684202975309083,5.402726892196419,-1.8422445252649868,2.0489816444071596,-0.017645955035642053,-0.000270212016588827,-0.011459154875024647,-0.005553287295389786,-5.176160983480109e-05,-0.030468467949188907,-0.1342978328466415,0.3183768987655639,-0.33004030585289,-0.7098272442817688,-0.2191962599754333,-0.1304441392421722
1749059118.6304758,1.6911287097256096,-2.102767685357534,0.3768184556526826,5.402715386104836,-1.842244478936932,2.0489241463619963,-0.01833981276838103,-0.00026093493969713585,-0.011781797558697838,-0.005986076995150797,-5.176947305294943e-05,-0.03245692734283133,-0.1342978328466415,0.3183768987655639,-0.33004030585289,-0.7098272442817688,-0.2191962599754333,-0.1304441392421722
1749059118.6305144,1.691092176070193,-2.1027677836623586,0.3767947232976983,5.402703348553698,-1.8422442285370206,2.048861827278704,-0.019083709666055087,-0.00024991210012322387,-0.012093102343539238,-0.0064202034173379205,-5.154165690252058e-05,-0.034550082572305185,-0.170207679271698,0.3121430277824402,-0.3384680449962616,-0.7041410207748413,-0.2126157283782959,-0.1513915359973907
1749059118.6305532,1.691054574731509,-2.1027674500073967,0.37677077412994153,5.4026907554496795,-1.8422438133927461,2.048794522305543,-0.019870940402595075,-0.00023747315887176433,-0.01238996226553818,-0.006856935417362339,-5.099288065369152e-05,-0.03672814745118665,-0.1407696008682251,0.3293495178222656,-0.3180703818798065,-0.7180614471435547,-0.2239947021007537,-0.1496281772851944
1749059118.630591,1.6910159259870383,-2.1027667132406336,0.3767465172658475,5.402677559080079,-1.842243277727472,2.0487220942720916,-0.020694129553377558,-0.00022410948465765402,-0.012670826552262976,-0.007296713850750145,-5.0009244415366285e-05,-0.038971376030464536,-0.1640001982450485,0.3421055674552917,-0.322414368391037,-0.7266606688499451,-0.2072989344596862,-0.1600851118564605
1749059118.6306288,1.6909762132943822,-2.102765635102784,0.3767218360444804,5.402663693012749,-1.8422426681100887,2.048644434884998,-0.021546484906164728,-0.0002104368444843342,-0.012936073193742665,-0.007738717263446167,-4.846801055910742e-05,-0.041260467762553876,-0.1610734015703201,0.3384535908699035,-0.304995596408844,-0.743973433971405,-0.2058855593204498,-0.1743012517690658
1749059118.6306665,1.6909353753704157,-2.1027643078188927,0.3766965965827146,5.402649080458919,-1.8422420329015934,2.0485614694322796,-0.022422802426402256,-0.00019715047250520932,-0.013188143701891163,-0.008180580316451752,-4.6261724348750424e-05,-0.04357667603498416,-0.1610734015703201,0.3384535908699035,-0.304995596408844,-0.743973433971405,-0.2058855593204498,-0.1743012517690658
1749059118.6307037,1.6908933030706081,-2.1027628470521744,0.3766706582810104,5.402633645421419,-1.842241422484124,2.048473165218154,-0.02332011411175512,-0.00018497295630799857,-0.013431396356771454,-0.008618318690300142,-4.332476382529912e-05,-0.04590172965100623,-0.1638993620872497,0.3641617894172668,-0.3179796040058136,-0.7480779886245728,-0.2003850042819976,-0.1895967870950698
1749059118.630741,1.6908498418659192,-2.1027613803391523,0.3766438859852794,5.402617325187226,-1.8422408887165242,2.048379542247519,-0.02423793693279439,-0.00017459580660088276,-0.013671685743183839,-0.009046496650606774,-3.9659832761768324e-05,-0.04821772208378843,-0.1927132904529571,0.3258628845214844,-0.3129801452159881,-0.7333036065101624,-0.2074927687644958,-0.1975063532590866
1749059118.6307783,1.6908047999407674,-2.102760032477125,0.3766161627992843,5.402600082144067,-1.8422404826128864,2.048280682873148,-0.02517814801759495,-0.00016661634093524118,-0.013915732152254853,-0.009458639880150534,-3.5361425639491035e-05,-0.05050713188947929,-0.2022144049406051,0.3511503934860229,-0.3049379289150238,-0.7466616630554199,-0.1948802471160888,-0.18742536008358
1749059118.6308155,1.6907579610390524,-2.102758910440491,0.3765874018433186,5.4025819127859105,-1.8422402501871575,2.0481767365286103,-0.026144558841335284,-0.00016147243112132282,-0.014170384989362928,-0.009847852477988285,-3.0632972751823e-05,-0.05275309439973064,-0.216292142868042,0.3642352223396301,-0.3081913590431213,-0.7510684728622437,-0.2060652375221252,-0.2044638991355896
1749059118.6308527,1.6907091003094359,-2.10275809084718,0.37655755508202404,5.402562852255956,-1.842240227235407,2.0480679167870046,-0.02714228325366119,-0.00015937852999340222,-0.014441898563337406,-0.010207555211267755,-2.5794289885364977e-05,-0.05493995985180629,-0.2009380757808685,0.3490738868713379,-0.3079569935798645,-0.7637302875518799,-0.2165523171424865,-0.2031684815883636
1749059118.6308892,1.6906580008405003,-2.102757612570524,0.37652661771866863,5.4025429736785915,-1.8422404341917165,2.0479544900496753,-0.028176997477458405,-0.00016026712053928733,-0.014735327541328048,-0.010532234863481649,-2.1276175194389196e-05,-0.05705407572341241,-0.2234455049037933,0.3607618808746338,-0.3098618984222412,-0.7518925070762634,-0.1860085725784301,-0.2013063728809356
1749059118.630926,1.6906044685116943,-2.1027574758050602,0.3764946272553573,5.402522382480517,-1.8422408720497512,2.047836757107282,-0.02925418539831143,-0.00016374034889216868,-0.015054119791167109,-0.010818091117106894,-1.7599567879136394e-05,-0.059084650980553155,-0.2414893805980682,0.3776237368583679,-0.3138187229633331,-0.7555813193321228,-0.2021779119968414,-0.178255096077919
1749059118.630962,1.6905483430449697,-2.102757647174665,0.3764616570115841,5.402501206580046,-1.8422415200691118,2.047715030000103,-0.030378453076673147,-0.00016903710056123962,-0.015399943839092598,-0.011063490510875403,-1.5337641642903485e-05,-0.06102452380285844,-0.2462851703166961,0.3605209589004516,-0.3093469440937042,-0.7499669194221497,-0.1922607719898224,-0.1945756822824478
1749059118.630998,1.6904895035171033,-2.1027580691128294,0.37642780477070653,5.402479583658602,-1.8422423358982607,2.0475896069439483,-0.0315529766915333,-0.00017502101578043715,-0.015772744867405993,-0.011269180324287831,-1.5060552655893994e-05,-0.06287068270799417,-0.2554120421409607,0.3829537630081177,-0.3079693913459778,-0.7666765451431274,-0.1853044033050537,-0.1884727329015731
1749059118.6312003,1.6904278673132633,-2.1027586712410606,0.3763931782414885,5.40245764692445,-1.8422432585899242,2.0474607480415585,-0.0327791141853926,-0.00018019469921060958,-0.016170985758958624,-0.011438263621400381,-1.7264257606096105e-05,-0.06462447154360086,-0.2605079710483551,0.3953580856323242,-0.2993814349174499,-0.7693650126457214,-0.1944400668144226,-0.2104813307523727
1749059118.632421,1.6903633829881108,-2.102759381614789,0.37635787989452224,5.402435511082925,-1.8422442143629536,2.0473286547606615,-0.034056170519405356,-0.00018274445884488804,-0.016592005041411055,-0.011575971429579154,-2.228677385674447e-05,-0.06629148533256282,-0.2607336044311523,0.4167202711105346,-0.304263025522232,-0.7836353182792664,-0.1812658309936523,-0.1843325346708297
1749059118.674279,1.690296019535065,-2.1027601360972397,0.3763219941131778,5.402413260576428,-1.842245124012113,2.0471934567330727,-0.035381275277019196,-0.00018061817322927677,-0.0170324146377689,-0.011689278537354311,-3.0217328666048667e-05,-0.06788118670707233,-0.2607336044311523,0.4167202711105346,-0.304263025522232,-0.7836353182792664,-0.1812658309936523,-0.1843325346708297
1749059118.6743348,1.6902257560038718,-2.10276088462556,0.3762855791781947,5.402390942134286,-1.8422459101756332,2.0470552092099874,-0.03674932330083084,-0.00017163630289308886,-0.017488466531327962,-0.01178640227246498,-4.080584366254746e-05,-0.06940625555195168,-0.2917928993701935,0.4074974060058594,-0.3024309575557709,-0.7774202823638916,-0.1798964142799377,-0.1873051971197128
1749059118.674378,1.6901525751081017,-2.102761593707836,0.37624866527896034,5.402368562930685,-1.842246502733081,2.0469139024582037,-0.038152948520173806,-0.0001536327512993962,-0.017956335822597102,-0.011876216099808237,-5.338188900375832e-05,-0.07088168287319728,-0.2867456376552582,0.4112138748168945,-0.3008899092674255,-0.7603393197059631,-0.1712605357170105,-0.2066933065652847
1749059118.6744187,1.690076462530351,-2.1027622450917147,0.3762112579263435,5.4023460943711035,-1.8422468414346909,2.046769481067649,-0.03958253732342904,-0.00012461853059184106,-0.01843229282697291,-0.011967613037518945,-6.679335862241189e-05,-0.07232365710128347,-0.2850907146930694,0.3944262266159057,-0.3008832335472107,-0.7954038381576538,-0.1720674037933349,-0.1976796984672546
1749059118.6744614,1.689997411321842,-2.102762831228109,0.37617334469089186,5.402323480300157,-1.8422468760212591,2.0466218683805217,-0.04102632023437133,-8.295729052016931e-05,-0.018912762243147658,-0.01206886554822433,-7.937538284255074e-05,-0.0737483364222955,-0.2779889702796936,0.4289999008178711,-0.3105579912662506,-0.7837823629379272,-0.1501486897468567,-0.1977517306804657
1749059118.6745012,1.6899154292453407,-2.1027633488672657,0.37613490276624184,5.402300647674526,-1.8422465650456283,2.046470990291559,-0.042470595487447,-2.7537753815299177e-05,-0.01939428841682429,-0.012187040081553928,-8.895910486951003e-05,-0.07517061787648155,-0.3407902419567108,0.4350627660751343,-0.3015531599521637,-0.7911652326583862,-0.1535220146179199,-0.2012189924716949
1749059118.6745396,1.6898305464827053,-2.1027637925539038,0.37609590544457944,5.402277517522264,-1.842245874977349,2.046316793446527,-0.04390013438865431,4.20761015208258e-05,-0.01987344136259429,-0.012327527781254307,-9.292763224480972e-05,-0.07660300014855076,-0.3407902419567108,0.4350627660751343,-0.3015531599521637,-0.7911652326583862,-0.1535220146179199,-0.2012189924716949
1749059118.6745777,1.6897428216969146,-2.1027641496045293,0.3760563266532896,5.402254014244179,-1.8422447807889195,2.046159254907076,-0.045298797304335156,0.00012554006437099513,-0.020346707941587872,-0.012493742460626357,-8.832262398713552e-05,-0.07805460935133046,-0.3132727444171905,0.4809973239898681,-0.2980128824710846,-0.7787180542945862,-0.1420328319072723,-0.2065780311822891
1749059118.6746151,1.6896523456050347,-2.102764397333913,0.37601614363459585,5.40223007195994,-1.8422432682103609,2.0459983833263116,-0.0466503488591564,0.00022169458219827444,-0.020810412973609606,-0.012687012821248279,-7.19997367354013e-05,-0.07953042604059599,-0.3132727444171905,0.4809973239898681,-0.2980128824710846,-0.7787180542945862,-0.1420328319072723,-0.2065780311822891
1749059118.674652,1.6895592422533934,-2.102764502279742,0.37597533830770735,5.4022056374793905,-1.8422413367022052,2.045834214654406,-0.047939408502431155,0.00032862174590404477,-0.02126070401672266,-0.012906666925763052,-4.082490396488144e-05,-0.08103072549187053,-0.3337524235248565,0.4813833236694336,-0.2967398762702942,-0.8023520112037659,-0.1287722885608673,-0.2094042599201202
1749059118.6746893,1.689463668384286,-2.1027644206393568,0.37593389783277087,5.402180670245144,-1.842239001586461,2.045666806645022,-0.04915243047058299,0.00044380829622049287,-0.021693616116645647,-0.013150285313795432,8.10328259267895e-06,-0.08255074016532542,-0.2983192503452301,0.492616057395935,-0.3007552623748779,-0.7938328385353088,-0.1308993995189666,-0.2190575003623962
1749059118.674734,1.6893658107165663,-2.1027640993749164,0.3758918146548948,5.402155140045701,-1.8422362940556118,2.0454962352965866,-0.05027859429631312,0.0005644130500585204,-0.02210521673978074,-0.013414088578651211,7.722617850772287e-05,-0.08408058246027221,-0.2980978190898895,0.4833146333694458,-0.3192058801651001,-0.784716010093689,-0.1235881820321083,-0.235560804605484
1749059118.674772,1.689265880532037,-2.102763478022803,0.3758490861634241,5.402129023531772,-1.8422332587667944,2.0453225943300164,-0.05131050112813351,0.0006876136296224741,-0.02249181931097917,-0.013693418906612837,0.00016831862525024758,-0.08560550472681602,-0.3104337155818939,0.477375328540802,-0.3001341223716736,-0.795516312122345,-0.1076617911458015,-0.2264789789915084
1749059118.6748102,1.6891641053193043,-2.1027624915508314,0.375805714161561,5.402102300685522,-1.8422299497810464,2.045145997543527,-0.05224459953171957,0.0008109792553365065,-0.02285024549044092,-0.013983267429774153,0.00028233118630446684,-0.08710658342060448,-0.3028102219104767,0.4776450395584106,-0.2992724180221557,-0.7991059422492981,-0.1145259365439415,-0.2396830022335052
1749059118.6748478,1.6890607180350057,-2.102761074486082,0.37576170441726053,5.40207495229698,-1.8422264260504249,2.044966583321796,-0.05308129987528289,0.0009327959080545611,-0.02317811047042892,-0.01427879330352951,0.00041930575469029525,-0.08856187491338899,-0.3366586863994598,0.5003499984741211,-0.3084472417831421,-0.7949239611625671,-0.107661671936512,-0.2213091552257537
1749059118.6748848,1.688955945087146,-2.1027591661613667,0.3757170664257202,5.402046959107459,-1.8422227473102166,2.0447845198743946,-0.05382477437039249,0.001052273982214176,-0.023474100665351216,-0.014575780433214726,0.0005783793176810299,-0.08994801253906615,-0.3325678408145904,0.5110790729522705,-0.300989031791687,-0.8187302947044373,-0.0996994897723198,-0.2211412489414215
1749059118.6749218,1.6888499941958481,-2.10275671647999,0.3756718131656053,5.402018302715534,-1.8422189705391963,2.044600008940275,-0.054482473571486875,0.0011696011139870157,-0.023738208786355228,-0.014870982010107472,0.000757873467411783,-0.09124212878407878,-0.319477379322052,0.5094904899597168,-0.304138034582138,-0.800169825553894,-0.0941182598471641,-0.2163988649845123
1749059118.674958,1.6887430430432937,-2.1027536912560003,0.3756259603528678,5.401988967826023,-1.842215146671444,2.044413285397437,-0.05506441536766081,0.001285847946303959,-0.023971891103387627,-0.015162309329087853,0.0009554462385133438,-0.09242392686844704,-0.3313762545585632,0.5056402683258057,-0.3100890219211578,-0.80769944190979,-0.0802360400557518,-0.2341905832290649
1749059118.674997,1.6886352293201552,-2.102750076171961,0.3755795247541385,5.401958945088642,-1.842211317196498,2.0442246108007955,-0.05558232144858703,0.001402768566624699,-0.02417812064416666,-0.015448833807396001,0.0011682664946215783,-0.0934777093458416,-0.2799147069454193,0.522058367729187,-0.3099948465824127,-0.821302056312561,-0.0845276340842247,-0.2453327775001526
1749059118.6750357,1.6885266426259917,-2.1027458787935536,0.3755325214668164,5.401928233650599,-1.8422075105907936,2.0440342600791146,-0.05604869456749828,0.0015225472033862258,-0.02436132633478176,-0.01573059585153913,0.0013931687238462845,-0.09439418162376033,-0.3561388552188873,0.5484193563461304,-0.3086999058723449,-0.8046213388442993,-0.0868337973952293,-0.2306824475526809
1749059118.6751406,1.6884173188529494,-2.102741128626959,0.3754849604164419,5.401896842586437,-1.8422037389692785,2.0438425020867483,-0.05647594844137836,0.0016475303158097216,-0.024527221654923385,-0.016008251800723856,0.0016267613173566364,-0.0951718520571498,-0.3359341025352478,0.52326500415802,-0.31069016456604,-0.816777765750885,-0.0700368508696556,-0.2050585448741912
1749059118.6764936,1.688307238045085,-2.1027358754797176,0.37543684252501947,5.401864790508133,-1.8421999956106043,2.0436495762570903,-0.05687570642750851,0.001779960887685407,-0.024682530315880958,-0.016282631820619464,0.0018654886828527856,-0.0958178433720888,-0.3460235297679901,0.5268837213516235,-0.3119960129261017,-0.838014543056488,-0.0707067772746086,-0.2267683148384094
1749059118.71829,1.6881963268870062,-2.102730186327807,0.3753881562313022,5.401832102988876,-1.8421962539126504,2.0434556690775887,-0.0572583528306091,0.0019217165817521356,-0.02483461688663781,-0.016554308586925293,0.0021056743396954064,-0.09634794920431979,-0.3328338861465454,0.5361945629119873,-0.3219152688980102,-0.8154813051223755,-0.0792712792754173,-0.2204781919717788
1749059118.7183497,1.6880844667244257,-2.1027241408393293,0.3753388754466512,5.401798808153748,-1.8421924681396573,2.0432608951706452,-0.05763285273064037,0.0020740569279195163,-0.024991039017897575,-0.01682326932730238,0.0023435848092584533,-0.0967858417625928,-0.3304139971733093,0.5472431182861328,-0.3215518593788147,-0.8298459053039551,-0.0682072192430496,-0.2175275087356567
1749059118.7183976,1.687971507466547,-2.102717825837764,0.3752889603625014,5.4017649318022904,-1.8421885763795502,2.043065287917176,-0.05800678684429409,0.002237403532440005,-0.025159056210516506,-0.0170887414400613,0.002575545626204062,-0.09716144300557102,-0.3304139971733093,0.5472431182861328,-0.3215518593788147,-0.8298459053039551,-0.0682072192430496,-0.2175275087356567
1749059118.7184384,1.6878572868577972,-2.102711329135245,0.37523836221466533,5.401730494096887,-1.8421845062364002,2.042868803166268,-0.058386509407638565,0.0024111949410439305,-0.02534514607564845,-0.01734916916764778,0.002798115700051784,-0.09750857663639821,-0.3419079482555389,0.5601663589477539,-0.3251256644725799,-0.8132237195968628,-0.0508805066347122,-0.2110239863395691
1749059118.7184763,1.6877416532241347,-2.102704733210654,0.37518703186836544,5.4016955095017,-1.8421801833752875,2.0426713364639877,-0.0587773323728898,0.0025938573157259746,-0.025554581759511353,-0.0176023058436526,0.0030082973913582727,-0.09786210936669107,-0.3489784598350525,0.5435099601745605,-0.3227416276931762,-0.8199372291564941,-0.0583980530500412,-0.2095596045255661
1749059118.718514,1.6876244882323386,-2.102698109257025,0.375134930470745,5.401659990337412,-1.8421755420168962,2.042472750512514,-0.05918365737220701,0.002782908891126899,-0.025791113929830325,-0.017845384021445802,0.0032037388888618034,-0.09825486859649395,-0.331214427947998,0.5398131608963013,-0.339088886976242,-0.8276634216308594,-0.0578405410051345,-0.2133930176496505
1749059118.7185514,1.687505725513714,-2.102691512231039,0.3750820394595673,5.4016239528001835,-1.8421705354081486,2.0422729070106356,-0.05960901201554113,0.0029751810725563597,-0.026056783673910226,-0.018075342673318524,0.003382878768523297,-0.09871467972134566,-0.3553457260131836,0.5212839841842651,-0.3272975087165832,-0.8158676624298096,-0.0736331194639206,-0.2335211336612701
1749059118.718589,1.687385361836593,-2.1026849775208407,0.3750283674070496,5.40158742335862,-1.8421651438206947,2.04207169642204,-0.06005599334056381,0.003167110484558354,-0.026351872925887185,-0.018289106239151177,0.00354499276769265,-0.0992618830347846,-0.3197490274906158,0.5286996364593506,-0.3013610541820526,-0.8177377581596375,-0.0644116699695587,-0.2476665079593658
1749059118.7186303,1.6872634592967457,-2.1026785195338684,0.37497395211345297,5.401550443388248,-1.8421593780215,2.0418690600846214,-0.06052616570642709,0.003355048649148586,-0.026674981338797046,-0.018483909609957473,0.0036901304270684394,-0.09990765957979432,-0.3420153260231018,0.552932620048523,-0.320124864578247,-0.8246648907661438,-0.0588078051805496,-0.2151770740747451
1749059118.718669,1.6871401387131333,-2.1026721320744586,0.37491885742070186,5.401513070566424,-1.8421532772690803,2.0416650007401373,-0.0610199900128595,0.003535550297648534,-0.027023211607897994,-0.018657644758495875,0.0038189679586521715,-0.10065341788683116,-0.3859240114688873,0.5622023344039917,-0.3347307443618774,-0.8048710823059082,-0.0491703301668167,-0.2402813285589218
1749059118.718706,1.6870155656411303,-2.102665790229299,0.3748631651542504,5.401475376534897,-1.8421469022321748,2.041459579790398,-0.061536868075591326,0.003705623920467214,-0.027392451786067373,-0.018809181168079617,0.003932637490662896,-0.10149137437077889,-0.3664664626121521,0.576332151889801,-0.3317410349845886,-0.809310793876648,-0.0528519004583358,-0.2537984848022461
1749059118.7187436,1.6868899313292807,-2.1026594536884184,0.374806963489562,5.4014374412970945,-1.8421403242121235,2.0412529023197656,-0.062075364282405274,0.00386294149140194,-0.02777774942243144,-0.018938599666512252,0.0040326024900655955,-0.1024063061273094,-0.348563015460968,0.5519877076148987,-0.3236734867095947,-0.8022288084030151,-0.05159343034029,-0.2280535548925399
1749059118.7187812,1.6867634316216247,-2.1026530716067677,0.37475033383977724,5.401399345555558,-1.8421336124281553,2.041045093692005,-0.06263361646258986,0.004006002539847487,-0.02817376101501788,-0.019047286021109677,0.004120624947260507,-0.10337827518158059,-0.348563015460968,0.5519877076148987,-0.3236734867095947,-0.8022288084030151,-0.05159343034029,-0.2280535548925399
1749059118.718818,1.6866362468740796,-2.102646588873726,0.3746933387251729,5.401361162536714,-1.8421268211667692,2.040836273105404,-0.06320988483744998,0.0041342398859736664,-0.028575234721388877,-0.01913785578032335,0.004198820594273178,-0.1043859470479248,-0.3683122396469116,0.56865394115448,-0.3297577798366546,-0.8034948706626892,-0.0363321080803871,-0.2186713516712188
1749059118.718856,1.6865085251961467,-2.1026399531075413,0.3746360126606379,5.401322950723681,-1.8421199786632523,2.040626528874836,-0.06380313459177621,0.004248051485244616,-0.028977468294880154,-0.019213919733364473,0.004269746670130695,-0.10541001151553565,-0.3445013761520386,0.5541526675224304,-0.3451434075832367,-0.8192665576934814,-0.0423444882035255,-0.2383254021406173
1749059118.718893,1.6863803701561135,-2.10263312129206,0.37457835702187303,5.401284748527001,-1.8421130797180159,2.040415898040169,-0.06441352034574435,0.004348747154408972,-0.029376692501731243,-0.01927973973507812,0.0043364349730445565,-0.10643620582051742,-0.3445013761520386,0.5541526675224304,-0.3451434075832367,-0.8192665576934814,-0.0423444882035255,-0.2383254021406173
1749059118.71893,1.6862518328868288,-2.1026260650282587,0.3745203386748667,5.401246571497863,-1.842106083967036,2.0402043507061576,-0.0650426506449426,0.004438407145786333,-0.02977035253552552,-0.01933985218512156,0.004402284733970531,-0.10745753107006892,-0.3683225214481354,0.5600940585136414,-0.3331378400325775,-0.8178426027297974,-0.028504766523838,-0.2255032658576965
1749059118.7189672,1.6861229073174484,-2.102618773740045,0.37446189133573266,5.401208412199023,-1.8420989210039307,2.0399917780077903,-0.06569356025908774,0.004519660364262259,-0.03015727873438103,-0.0193987384450371,0.004470768889379743,-0.10847539648829202,-0.3370930850505829,0.5829154253005981,-0.3336131572723388,-0.8009762763977051,-0.0420211032032966,-0.2212519198656082
1749059118.7190044,1.6859935265209425,-2.10261125550706,0.37440291841275475,5.401170242263839,-1.842091502082726,2.039777982122592,-0.06637039134287422,0.004595403946312234,-0.030537747007357893,-0.019460598215307493,0.004544974192386292,-0.10949958353985659,-0.3357782959938049,0.5735325217247009,-0.3231979310512543,-0.8133179545402527,-0.0354561284184455,-0.226781964302063
1749059118.7190416,1.6858635588742465,-2.102603535376298,0.3743432965795467,5.401132015738182,-1.84208373645674,2.0395626681420547,-0.06707785262602302,0.004668501294579484,-0.03091343105434447,-0.019529246544929088,0.0046270660024366065,-0.11054707395953355,-0.3641173243522644,0.6003065705299377,-0.3186259567737579,-0.8055232167243958,-0.040216214954853,-0.2372431755065918
1749059118.7191515,1.685732804814527,-2.1025956511951005,0.3742828802825297,5.4010936727705685,-1.8420755492847443,2.039345440608255,-0.06782056672674353,0.004741508265462819,-0.03128724706964838,-0.01960812213447423,0.004717812926773883,-0.11163992442943584,-0.3641173243522644,0.6003065705299377,-0.3186259567737579,-0.8055232167243958,-0.040216214954853,-0.2372431755065918
1749059118.7203865,1.6856009968435752,-2.102587647341478,0.3742215080894225,5.401055143029377,-1.842066897746124,2.0391258096548857,-0.06860242175472936,0.0048164801683988675,-0.03166309291925285,-0.019700369847954258,0.004816304618384036,-0.11280248840153446,-0.3569871187210083,0.5871316194534302,-0.3261162340641022,-0.8148523569107056,-0.013028435409069,-0.2498289048671722
1749059118.7622912,1.685467805588495,-2.102579567097335,0.374159011626758,5.401016348629811,-1.8420577824196187,2.038903210572794,-0.06942601837575488,0.004894897553243457,-0.03204549242726704,-0.01980894301780018,0.0049199469778468665,-0.11405836669709093,-0.3739942610263824,0.5940567255020142,-0.3216735422611236,-0.8106374144554138,-0.030427373945713,-0.2395843267440796
1749059118.7623382,1.6853328533552427,-2.102571444638813,0.3740952269604711,5.4009772067094195,-1.8420482520068082,2.0386770368036413,-0.07029226117137242,0.004977716106870396,-0.032439172019213425,-0.019936661779586067,0.0050247432906484575,-0.11542749384647173,-0.3456084430217743,0.6065400242805481,-0.3380302190780639,-0.8070439696311951,-7.16671347618103e-05,-0.2567040622234344
1749059118.7623792,1.6851957349852358,-2.102563297685863,0.37403000733329606,5.4009376320654345,-1.8420384010083533,2.038446682615572,-0.07120010475559409,0.005065509690098357,-0.032848617153709576,-0.020086167748579485,0.005125800815897822,-0.11692372823268465,-0.3536201119422912,0.5937792062759399,-0.345075249671936,-0.8122498393058777,-0.022029735147953,-0.2646267414093017
1749059118.762419,1.6850560446229106,-2.102555121865193,0.3739632356436969,5.400897540369045,-1.8420283614237318,2.0382115898250657,-0.07214644896491684,0.0051586554042813045,-0.03327766810500422,-0.020259738140246848,0.005217965859415208,-0.11855322099777323,-0.3793775737285614,0.6188033819198608,-0.3177814483642578,-0.7986441254615784,0.0065938979387283,-0.2855452597141266
1749059118.7624576,1.6849134060319073,-2.1025468878250635,0.37389483492651404,5.400856852336237,-1.8420182902141113,2.0379712926710765,-0.07312618497000917,0.00525751306086869,-0.03372920490431541,-0.020458962935635767,0.005296488765859582,-0.12031371368564177,-0.3748831152915954,0.6339402198791504,-0.3151722550392151,-0.8112097382545471,-0.0170083120465278,-0.2647546827793121
1749059118.762504,1.6847675033123144,-2.102538541974833,0.3738247753270076,5.400815498936234,-1.8420083541272898,2.0377254556152016,-0.07413240991311985,0.005362568670206055,-0.03420494041586634,-0.020684338576651237,0.005357636689458775,-0.12219478228767178,-0.3323312401771545,0.6096416711807251,-0.3255127072334289,-0.81119304895401,-0.014978714287281,-0.2481022328138351
1749059118.7625434,1.684618108656499,-2.102530011256146,0.37375307664823,5.400773427344264,-1.8419987132310147,2.0374739001253195,-0.07515683460381382,0.005474527532552116,-0.03470530928061716,-0.020934875450208928,0.005399188501448868,-0.12417892953599334,-0.4218025505542755,0.6227413415908813,-0.3043723106384277,-0.8377168774604797,-0.0205132365226745,-0.2673744261264801
1749059118.7625818,1.6844651042610743,-2.1025212115485985,0.37367980628564323,5.400730606920698,-1.8419895045457126,2.037216618023733,-0.07619039746396342,0.0055943508100535985,-0.035229429461483705,-0.021207833080359922,0.0054207578779294375,-0.12624334849769672,-0.3790953755378723,0.6465393304824829,-0.3190770149230957,-0.8160527348518372,-0.0064221546053886,-0.292623370885849
1749059118.7626202,1.6843084962138546,-2.1025120583684656,0.3736050729061341,5.40068703411815,-1.8419808272582074,2.0369537702445957,-0.07722406293932611,0.005723233490982342,-0.03577512442425594,-0.021498672683153367,0.00542390535583415,-0.12836214118128414,-0.3958006799221039,0.638120174407959,-0.3515993356704712,-0.8292800784111023,-0.0103578492999076,-0.2764677405357361
1749059118.762658,1.6841484185480295,-2.1025024778699932,0.37352901649305786,5.400642735074566,-1.8419727308985523,2.0366856707046717,-0.07824972654697361,0.005862526158246639,-0.03633901298266116,-0.021801261273482503,0.005412025627908262,-0.1305087524264401,-0.404867023229599,0.6527984142303467,-0.3379804790019989,-0.8285584449768066,-0.0245029814541339,-0.2453852593898773
1749059118.7626948,1.6839851257039833,-2.1024924161118497,0.3734517956071605,5.4005977648717245,-1.8419652076962085,2.0364127557263956,-0.079261093323164,0.006013609252014584,-0.0369166812865586,-0.022108304586556816,0.005390027948218082,-0.13265835265317985,-0.3510076105594635,0.6582832336425781,-0.3057834208011627,-0.8253681659698486,0.0104735530912876,-0.2754591703414917
1749059118.7627332,1.683818971919937,-2.102481844964517,0.37337357307634583,5.400552202960252,-1.8419581901513808,2.0361355404504633,-0.08025437480578561,0.006177736227313906,-0.03750293891674397,-0.022411953234981914,0.005363850992223621,-0.13478989136621783,-0.3930167853832245,0.6495177149772644,-0.3441794514656067,-0.823784589767456,0.0003220476210117,-0.2623681128025055
1749059118.762776,1.6836503772298368,-2.1024707636171396,0.37329450158227184,5.400506144856783,-1.841951554528752,2.035854565150693,-0.08122867889558802,0.0063558694388469745,-0.03809214098690743,-0.022704520673832794,0.005339860079860687,-0.13688757922972783,-0.3751017451286316,0.6484807729721069,-0.3367269933223724,-0.8318718075752258,-0.0174493975937366,-0.2646953165531158
1749059118.7628143,1.6834797820304852,-2.102459195338609,0.3732147104391138,5.400459690745891,-1.8419451305092276,2.0355703362172095,-0.08218603212905347,0.006548536033101765,-0.03867854913035986,-0.022979257282831463,0.005324171708629109,-0.13894164520292096,-0.3908813595771789,0.65787672996521,-0.3232686221599579,-0.8239469528198242,-0.0044582225382328,-0.2484947741031646
1749059118.7628512,1.6833075951791676,-2.1024471799928808,0.373134294450788,5.4004129321441745,-1.8419387166244074,2.0352832684549336,-0.08313104293442589,0.0067557283550462215,-0.039256706520038674,-0.02323112519127732,0.005321955276757445,-0.14094833904083365,-0.3874967694282532,0.6727246642112732,-0.3227113485336303,-0.8262332081794739,0.0028963461518287,-0.2587620913982391
1749059118.762892,1.6831341433626306,-2.1024347636911718,0.37305330567795325,5.400365938439029,-1.8419321001596094,2.0349936367894332,-0.08407026691418082,0.006976865488438858,-0.03982180185578195,-0.02345750589093053,0.005336784018282391,-0.1429092871321845,-0.427024096250534,0.6867567300796509,-0.3152413368225097,-0.8117091655731201,0.0224045440554618,-0.2599591314792633
1749059118.76293,1.6829596309074895,-2.1024219876430386,0.372971749427402,5.400318745697483,-1.8419250790486044,2.034701545727374,-0.08501137268737292,0.007210820679993779,-0.040369991189471176,-0.023658752177769173,0.005370135032005625,-0.14483042808782695,-0.427024096250534,0.6867567300796509,-0.3152413368225097,-0.8117091655731201,0.0224045440554618,-0.2599591314792633
1749059118.7629678,1.6827841181401268,-2.1024088784656407,0.3728895860568817,5.400271350084587,-1.8419174825546718,2.034406922797075,-0.08596223418943391,0.007456004134778785,-0.04089864482140959,-0.023838484062154396,0.005421145777074196,-0.1467208096543151,-0.3306998014450073,0.681885838508606,-0.3233407735824585,-0.8384953141212463,0.0071251131594181,-0.2754315137863159
1749059118.7630055,1.682607522397287,-2.102395441758813,0.3728067393154072,5.400223707171322,-1.8419091877888518,2.0341095372242983,-0.08693008279225459,0.007710475926576116,-0.04140649465795084,-0.024003543083585877,0.005486702031493572,-0.14859149528787285,-0.4257963299751282,0.6782512068748474,-0.31200110912323,-0.8462911248207092,0.0198602136224508,-0.2593697011470794
1749059118.7630434,1.682429640225577,-2.1023816597916363,0.37272311007201486,5.4001757367691985,-1.8419001301963351,2.0338090391334585,-0.08792082830166331,0.007972056502545866,-0.041893668764710824,-0.02416356351891097,0.00556186443846377,-0.15045472179568722,-0.4096726179122925,0.6692906022071838,-0.3105219006538391,-0.8289037942886353,0.0121015086770057,-0.2876051962375641
1749059118.76315,1.6822501848784637,-2.1023674931130527,0.3726385927040819,5.40012733167656,-1.8418903074453439,2.033505010690875,-0.08893860983527499,0.008238406424552232,-0.042361608207799946,-0.024330176445088236,0.005640563456833803,-0.1523233146436265,-0.4005787372589111,0.6893324255943298,-0.3254240751266479,-0.8389613628387451,0.008247535675764,-0.2902951538562774
1749059118.764382,1.6820688315214523,-2.102352885239925,0.37255309102911843,5.400078368433957,-1.8418797772164912,2.033197020021275,-0.0899855883980689,0.008507059486795032,-0.042812870106408156,-0.024515917137072532,0.005716435803583875,-0.15421025564308155,-0.399308979511261,0.688393771648407,-0.3227635025978088,-0.8477625250816345,0.0110385436564683,-0.2645695805549621
1749059118.8065495,1.6818852630465375,-2.1023377693931766,0.3724665312339061,5.400028718573914,-1.841868650033176,2.0328846701839027,-0.09106195929834686,0.008775407333883194,-0.04325083607966642,-0.02473295381029215,0.005783656527277887,-0.15612824063372344,-0.4240357279777527,0.6718116402626038,-0.3170978426933288,-0.8463323712348938,0.0059585068374872,-0.2590790688991546
1749059118.806628,1.6816992106872264,-2.102322076287701,0.37237887013085974,5.39997825931428,-1.8418570784626382,2.032567637547897,-0.0921661467818699,0.009040645703823607,-0.043679364613104926,-0.02499179539932715,0.005837639018760701,-0.15808907330622463,-0.3799242377281189,0.6788470149040222,-0.3267085552215576,-0.8518940210342407,0.0176377967000007,-0.2676724195480346
1749059118.8067017,1.6815104848778684,-2.102305741980281,0.3722900979473014,5.399926882918928,-1.8418452438268285,2.0322456961064876,-0.09329513575876555,0.009299704079315987,-0.044102439667298515,-0.025300156955563157,0.005875518105330724,-0.16010281523857664,-0.3806155323982239,0.692776083946228,-0.326431393623352,-0.8649978637695312,0.018887685611844,-0.2806242704391479
1749059118.8067734,1.6813189930177441,-2.1022887147699523,0.37220023572393035,5.39987450413126,-1.8418333411975076,2.031918726518875,-0.09444488442703214,0.009549192112807825,-0.04452386868067814,-0.025662147179730053,0.005896383492145432,-0.16217673484508963,-0.3775992095470428,0.6826803684234619,-0.3164173066616058,-0.855246901512146,0.0187313668429851,-0.2806274890899658
1749059118.8068442,1.6811247424056457,-2.1022709603271106,0.37210932823047854,5.399821065319673,-1.8418215632462611,2.031586710752174,-0.0956107479701283,0.009785401995968798,-0.04494707036397344,-0.026077889661458145,0.005901277436268374,-0.16431422443797283,-0.3868727385997772,0.6728779077529907,-0.3217670321464538,-0.8695053458213806,0.0292513314634561,-0.2854943573474884
1749059118.8069143,1.6809278288473828,-2.10225246471167,0.372017433978767,5.399766539247298,-1.8418100837601314,2.03124971505629,-0.09678784242656603,0.01000439954542207,-0.04537496985312919,-0.026543613882097784,0.005892998724838177,-0.166513923700483,-0.3787613213062286,0.7085608839988708,-0.3340992927551269,-0.8780828714370728,0.0193191580474376,-0.2892679870128631
1749059118.8069844,1.6807284140283174,-2.1022332356147544,0.37192461439399893,5.399710929590323,-1.8417990421753918,2.030907865903492,-0.09797130159370888,0.010202218041509009,-0.04580999164765238,-0.027052180627022217,0.005875759962097475,-0.1687692579252804,-0.4108754098415375,0.6825318932533264,-0.3286007642745971,-0.8891874551773071,0.0246997643262147,-0.2839633524417877
1749059118.807055,1.6805266968282297,-2.1022133027212386,0.3718309244554291,5.399654269431153,-1.8417885307760502,2.0305613252930446,-0.09915642273479312,0.010375143320874454,-0.04625411817599972,-0.027593959214136737,0.005854736321222672,-0.17106848378529096,-0.4108754098415375,0.6825318932533264,-0.3286007642745971,-0.8891874551773071,0.0246997643262147,-0.2839633524417877
1749059118.807124,1.6803228841897397,-2.1021927181863016,0.3717364068004771,5.399596617873634,-1.841778585945982,2.0302102719918342,-0.10033873696703756,0.010520053654974798,-0.04670897306427111,-0.028157952743830084,0.005835538893951503,-0.17339520412327114,-0.4111889898777008,0.7002366781234741,-0.3425527811050415,-0.8845914006233215,0.02829478867352,-0.2836187779903412
1749059118.8071926,1.6801171656018623,-2.102171557643066,0.37164109010825025,5.399538054597299,-1.841769184353747,2.0298548924431103,-0.1015140570298461,0.010634761023770374,-0.04717589570488466,-0.028733057193055477,0.005823654412555708,-0.1757292412360396,-0.4106163680553436,0.6884487271308899,-0.3384507894515991,-0.8943503499031067,0.0249919481575489,-0.297038733959198
1749059118.8072617,1.6799096931394084,-2.10214992109522,0.37154499101452043,5.399478671865385,-1.841760244517685,2.0294953806231106,-0.10267854651207277,0.010718296787678525,-0.04765599024113698,-0.029309323480547222,0.005823908558933961,-0.1780477600601178,-0.3912204205989837,0.6725580096244812,-0.3222406506538391,-0.8774299025535583,0.0247047152370214,-0.2749585509300232
1749059118.8073282,1.6797005682261041,-2.102127932147192,0.37144811784654075,5.399418563843158,-1.841751633718991,2.029131943565728,-0.10382883284220559,0.010771094962755426,-0.04815014770875193,-0.02987906812896119,0.005840015664990917,-0.18032656284652057,-0.4030022025108337,0.6909682750701904,-0.343716561794281,-0.8646592497825623,0.0271549578756093,-0.2732167541980743
1749059118.807368,1.6794898368625362,-2.102105734018498,0.3713504744898297,5.399357814252567,-1.8417431795863424,2.0287648098641724,-0.10496216200548772,0.010795045890769362,-0.04865905037267895,-0.030437668841426464,0.005874262303951377,-0.18254149538750994,-0.4030022025108337,0.6909682750701904,-0.343716561794281,-0.8646592497825623,0.0271549578756093,-0.2732167541980743
1749059118.8074062,1.6792774948625362,-2.1020834818174747,0.37125206318186216,5.399296484580919,-1.8417346851674603,2.028394239530086,-0.10607657230979442,0.01079341491176547,-0.04918317092653706,-0.03098391273758269,0.0059273412541861956,-0.18466991444678077,-0.3742828369140625,0.7043430805206299,-0.3488072156906128,-0.8988071084022522,0.0423671975731849,-0.2745790183544159
1749059118.8074436,1.679063502108445,-2.102061331975833,0.3711528853745737,5.399234605177014,-1.8417259461510052,2.0280205322630995,-0.10717105408493789,0.010770639295771774,-0.04972277417757431,-0.03151984377030571,0.005998323721502589,-0.1866921808468607,-0.397749662399292,0.7068691253662109,-0.332941859960556,-0.8955830335617065,0.0230457615107297,-0.2431968599557876
1749059118.807481,1.6788478011837054,-2.1020394307811268,0.37105294004121214,5.399172170481523,-1.841716768875143,2.0276440282540875,-0.10824566300629959,0.010732030732929448,-0.05027791992921165,-0.03205015790223643,0.00608474764567686,-0.18859315578895863,-0.4046927094459533,0.699597179889679,-0.3625667989253998,-0.8884464502334595,0.0330063477158546,-0.2682866156101227
1749059118.8075185,1.678630333796501,-2.102017904195392,0.3709522192361956,5.399109138266484,-1.8417069876013845,2.027265094499292,-0.10930156019829904,0.01068341939756587,-0.050848465694330845,-0.032581281416005296,0.006182809288115346,-0.1903636732139825,-0.4155716001987457,0.7031882405281067,-0.3662958741188049,-0.905483603477478,0.0315116047859191,-0.2602293193340301
1749059118.8075554,1.6784110495157574,-2.1019968505662012,0.37085070136290693,5.399045431920178,-1.8416964793185957,2.0268840922125224,-0.11034095810841939,0.010630777741818786,-0.051434076448361385,-0.03312031070836391,0.00628765935668404,-0.19200193074847707,-0.3899700939655304,0.7267357110977173,-0.3584021627902984,-0.8970175981521606,0.0410978645086288,-0.2603874802589416
1749059118.8075922,1.678189904515115,-2.101976336680153,0.3707483432595156,5.398980944642671,-1.8416851742817457,2.026501326472529,-0.1113669605613767,0.010579858059222343,-0.05203424577012556,-0.033673982893058195,0.006393804822178263,-0.193514682685091,-0.3896379470825195,0.7082159519195557,-0.3233087658882141,-0.8866167068481445,0.037711463868618,-0.2605515122413635
1749059118.807629,1.6779668517225703,-2.1019563965013037,0.3706450728033758,5.39891554471749,-1.8416730607680305,2.026116985793068,-0.11238330282258045,0.010535869099419622,-0.05264831098180128,-0.034247796689752696,0.006495595718201895,-0.19491803178400027,-0.4066628217697143,0.7144717574119568,-0.3698199689388275,-0.9029258489608764,0.0497129708528518,-0.2154838293790817
1749059118.8077447,1.6777418268442685,-2.101937031477407,0.37054078415377373,5.3988490814963175,-1.8416601833381514,2.0257310846836902,-0.11339401990416377,0.010503206863772749,-0.05327543004786983,-0.034845337832420865,0.0065877442150776445,-0.19623752849320744,-0.4066628217697143,0.7144717574119568,-0.3698199689388275,-0.9029258489608764,0.0497129708528518,-0.2154838293790817
1749059118.8084135,1.6775147359049118,-2.1019182115486186,0.37043533757845465,5.398781392046268,-1.8416466351233742,2.025343423749803,-0.11440308876517967,0.010485248625636927,-0.053914504314989245,-0.035467809903747656,0.006665803784861378,-0.19750725848276227,-0.3788255751132965,0.7017574310302734,-0.3629463016986847,-0.8950273990631104,0.0425731241703033,-0.2431794703006744
1749059118.850289,1.677285448514566,-2.1018998765617645,0.3703285647389613,5.398712308523309,-1.8416325456847142,2.024953577741255,-0.11541409504716584,0.01048421962338187,-0.05456406438081989,-0.03611374471588101,0.006726543755721502,-0.19876769855613416,-0.3908976316452026,0.7095768451690674,-0.3612604737281799,-0.9051917791366576,0.0531206727027893,-0.2258780002593994
1749059118.8503516,1.6770537981952178,-2.101881938300046,0.3702202788199786,5.398641666489521,-1.8416180662811714,2.0245609142434726,-0.11642996687437968,0.010501143786737522,-0.055222154077100336,-0.03677886390539479,0.0067681834695295755,-0.20006235526711055,-0.379406988620758,0.7505857944488525,-0.3510843813419342,-0.8891862630844116,0.0372982323169708,-0.2560084760189056
1749059118.8503966,1.6768195889250506,-2.1018642836192467,0.3701102878713458,5.398569314559854,-1.8416033542124468,2.0241646390722354,-0.11745280053301764,0.010535885330034628,-0.05588624167135039,-0.03745607378328598,0.0067904827255299595,-0.2014334961876602,-0.4093228578567505,0.7323309183120728,-0.3599816858768463,-0.8898053765296936,0.0365418791770935,-0.2513819336891174
1749059118.850437,1.676582606496658,-2.101846779159757,0.3699984095310968,5.398495125562724,-1.8415885578048439,2.0237638615004223,-0.11848378248824296,0.01058727413352357,-0.05655317487309202,-0.03813558800362115,0.006794706940333458,-0.20291753460781986,-0.3980599045753479,0.7159674167633057,-0.3423535823822021,-0.8740333914756775,0.044898796826601,-0.2713846564292907
1749059118.8504758,1.676342633664006,-2.1018292777742453,0.36988448560419873,5.398419008749894,-1.8415738035990317,2.023357672194792,-0.11952319656977163,0.010653290239846396,-0.057219190907020795,-0.03880518291057509,0.006783491867708454,-0.20454075789150397,-0.3972295820713043,0.7253357172012329,-0.349227100610733,-0.8891644477844238,0.0431840382516384,-0.289791464805603
1749059118.850515,1.6760994684616746,-2.1018116263846953,0.36976839542935774,5.398340921978644,-1.8415591871401051,2.0229452271826234,-0.12057049573993371,0.01073127131539543,-0.05787999568853249,-0.03945059857541756,0.006760624983921295,-0.20631607003090263,-0.3623691499233246,0.733106255531311,-0.3727549314498901,-0.854230523109436,0.0443093217909336,-0.2996955513954162
1749059118.8505523,1.6758529451869588,-2.101793674795388,0.3696500674229986,5.398260882644397,-1.8415447684779407,2.022525831427775,-0.12162441295389324,0.010818106407633692,-0.0585309296669767,-0.040056102240442745,0.006730744725806069,-0.20824126151912173,-0.4054878056049347,0.7474279999732971,-0.3602045476436615,-0.8679643273353577,0.0434336625039577,-0.2852218151092529
1749059118.8505902,1.675602957345491,-2.1017752850943707,0.36952948854514756,5.3981789763675305,-1.841530573099508,2.022099015664596,-0.12268309024226096,0.010910387841411373,-0.059167228408532314,-0.040605222832701106,0.006698947784947543,-0.21029906256855962,-0.3649924993515014,0.710715651512146,-0.3387694060802459,-0.8502883315086365,0.0254950560629367,-0.274209052324295
1749059118.8506286,1.6753494812895118,-2.101756341298887,0.3694067115439598,5.398095362675185,-1.8415165983581754,2.021664600158799,-0.1237442267713464,0.01100450900891162,-0.05978435793954653,-0.041081640345237924,0.0066703035908585815,-0.21245893932558083,-0.4097192287445068,0.7484163045883179,-0.3713258504867553,-0.8470802307128906,0.0433737523853778,-0.2830341756343841
1749059118.8506663,1.6750925982361244,-2.1017367585589697,0.36928185962832777,5.398010276990977,-1.8415028244235396,2.021222739161185,-0.12480527558869413,0.011096719587240305,-0.06037837725586313,-0.04147017766075764,0.006649307700117392,-0.2146803344317085,-0.4137177467346191,0.734481692314148,-0.3529525697231293,-0.8408007621765137,0.0638717263936996,-0.2757489383220672
1749059118.8507042,1.6748325111666076,-2.1017164908282946,0.3691551278548089,5.397924028229958,-1.8414892275716026,2.020773940153466,-0.12586372694592554,0.01118317543638871,-0.06094627518074675,-0.041757809991384294,0.006639348022352379,-0.2169169015091826,-0.4252368509769439,0.7364081144332886,-0.3320194482803345,-0.8324008584022522,0.0582497380673885,-0.2724665701389313
1749059118.850742,1.6745695524759816,-2.1016955359147578,0.3690267803012891,5.397836991323964,-1.8414757927275665,2.0203190527982287,-0.12691748597471866,0.011260032805823543,-0.061486240231123944,-0.041934594786757554,0.006642286821231353,-0.219121258170991,-0.3888041973114013,0.750148594379425,-0.3352390825748443,-0.847740113735199,0.0566132776439189,-0.3020338416099548
1749059118.8507793,1.6743041786284052,-2.1016739372196658,0.36889714215335556,5.397749594134499,-1.8414625219475882,2.019859224194653,-0.12796529792066444,0.011323623041242372,-0.06199783322526923,-0.04199443821399476,0.006658260674985249,-0.22124983755762564,-0.4045119881629944,0.737168550491333,-0.3620990514755249,-0.8271287679672241,0.074722334742546,-0.2859661281108856
1749059118.850817,1.6740369493943021,-2.1016517819142955,0.36876658604119994,5.3976622984772185,-1.8414494361081155,2.0193958200743345,-0.1290071275233145,0.011370707719892544,-0.06248204353611904,-0.04193564125745532,0.006685766096716847,-0.22326746951768658,-0.404207706451416,0.7422305345535278,-0.3480593562126159,-0.8115875124931335,0.054898452013731,-0.3072914481163025
1749059118.850854,1.673768491293636,-2.101629195626121,0.3686355123544881,5.397575575496299,-1.8414365684868723,2.0189303161586474,-0.1300443861655189,0.011398773009506754,-0.0629412280674688,-0.04176119047184195,0.0067220354070059414,-0.2251513088191978,-0.4381581544876098,0.7417232990264893,-0.3445736169815063,-0.794123113155365,0.0509841330349445,-0.2782588899135589
1749059118.8508918,1.6734994477146155,-2.1016063339488293,0.3685043241094535,5.397489876597835,-1.8414239511968993,2.0184641696686656,-0.13107992516364364,0.011406298535791268,-0.06337895131543371,-0.0414787719791638,0.006763628146308335,-0.22689365852505178,-0.4285131394863128,0.7426403760910034,-0.3574911952018738,-0.8003360033035278,0.0321446619927883,-0.2217216938734054
1749059118.8509288,1.6732304215313918,-2.1015833712604834,0.36837339827946053,5.3974056025352155,-1.8414115981589279,2.0179986864572195,-0.1321177600514571,0.011392941903033048,-0.06379975571302557,-0.04110050821122396,0.006807091867486339,-0.22850318991955942,-0.4285131394863128,0.7426403760910034,-0.3574911952018738,-0.8003360033035278,0.0321446619927883,-0.2217216938734054
1749059118.850966,1.672961918386516,-2.101560487468331,0.36824305669505364,5.397323074359938,-1.8413994902464783,2.017534901670764,-0.13316254184175413,0.011359606341310637,-0.0642088925301987,-0.04064245396913585,0.006849516224188936,-0.2300041432327677,-0.3996204733848572,0.7216458916664124,-0.3362500965595245,-0.8049330115318298,0.0278799943625926,-0.2282283157110214
1749059118.8510032,1.6726942984539992,-2.10153785351665,0.3681135399868142,5.397242509995677,-1.841387568098439,2.0170734892934696,-0.13421884391446515,0.011308387110653396,-0.06461203757281392,-0.04012392264087947,0.006888840076020817,-0.23143337083796348,-0.4585447311401367,0.7498890161514282,-0.3344536423683166,-0.7893235087394714,0.0619500838220119,-0.2659996151924133
1749059118.8510396,1.6724277418077917,-2.101515616864472,0.3679849876158337,5.3971640091380655,-1.8413757356877274,2.0166147097284264,-0.13529038610014146,0.011242413984670612,-0.06501500466074911,-0.03956671779848552,0.006923864749141344,-0.23283550972234635,-0.4585447311401367,0.7498890161514282,-0.3344536423683166,-0.7893235087394714,0.0619500838220119,-0.2659996151924133
1749059118.8511448,1.672162229383036,-2.1014938885224144,0.36785742608043953,5.397087547655435,-1.8413638742350937,2.0161583976002015,-0.13637935379146285,0.011165623661625684,-0.06542345756810423,-0.03899431739081575,0.006954036147903025,-0.23425699127994526,-0.4420472681522369,0.764840304851532,-0.3352052569389343,-0.7998532652854919,0.0563607551157474,-0.3138984143733978
1749059118.8529084,1.6718975390353576,-2.1014727333148366,0.3677307658438795,5.3970129811331,-1.841351862996726,2.015703985432505,-0.1374859637498025,0.011082503042775397,-0.06584261551885609,-0.03843102087329622,0.006979134895331072,-0.23573985054778274,-0.3762790858745575,0.7593744993209839,-0.3431974053382873,-0.8023965358734131,0.0806085914373397,-0.2985636293888092
1749059118.8991244,1.6716332546314556,-2.1014521646271396,0.36760480574076276,5.396940055933209,-1.8413396017862387,2.015250553661221,-0.1386083667332143,0.010997834566743594,-0.0662769524951468,-0.0379010514991369,0.006999028763435341,-0.2373162991204776,-0.4226599335670471,0.7317731380462646,-0.345919668674469,-0.7914934754371643,0.0874486416578292,-0.289591372013092
1749059118.8992028,1.6713687858605837,-2.1014321442091974,0.3674792426735243,5.3968684254914505,-1.8413270300158167,2.014796895745184,-0.13974287870946825,0.010916452858217277,-0.06672990103072182,-0.03742762086617941,0.007013596344909668,-0.23900480006119743,-0.4321069717407226,0.7573044300079346,-0.3434469103813171,-0.8167659640312195,0.0697420090436935,-0.2998037338256836
1749059118.8992772,1.6711033974334215,-2.1014125869632925,0.3673536849528236,5.396797669712379,-1.8413141382443325,2.014341589672264,-0.14088444574911185,0.010843004097539856,-0.06720357819568744,-0.03703200145535868,0.007022847487831336,-0.2408080429455542,-0.4055450558662414,0.7594960927963257,-0.3378712236881256,-0.8319081664085388,0.0816253870725631,-0.2903809547424316
1749059118.8993487,1.6708362474578549,-2.1013933701239864,0.3672276691131954,5.3967273160187,-1.8413009701475533,2.013883071788545,-0.14202721430880003,0.010781698730873155,-0.06769855302901716,-0.03673268326231324,0.007027179405777166,-0.2427129030569099,-0.4121524691581726,0.7410395741462708,-0.3513033390045166,-0.832393229007721,0.067033514380455,-0.2837928235530853
1749059118.8994212,1.6705664351131284,-2.1013743457470664,0.3671006813380758,5.39665686145805,-1.8412876148969428,2.013419713049469,-0.14316509712860154,0.010736063635512962,-0.0682136746129689,-0.03654468141397957,0.007027654920203936,-0.24469226127422933,-0.3895328640937805,0.7520096898078918,-0.3198069036006927,-0.8362287878990173,0.0632096454501152,-0.3259499073028564
1749059118.899493,1.6702930571964758,-2.101355355056279,0.3669721849873694,5.39658579595186,-1.8412741917043427,2.0129499002410856,-0.1442922679840315,0.010708718115859918,-0.06874598250703153,-0.03647901538356885,0.007026191741151021,-0.24670844241992787,-0.4306662082672119,0.7742963433265686,-0.3451727628707886,-0.8329695463180542,0.0764452889561653,-0.3246217966079712
1749059118.8995636,1.6700152720103079,-2.1013362431808713,0.36684165501093874,5.396513627063626,-1.8412608295313502,2.0124721249704245,-0.14540357012084532,0.010701204694981174,-0.0692907288808069,-0.036542337588600246,0.007025598854888108,-0.24871792309878935,-0.4243249297142029,0.768840491771698,-0.3602695167064667,-0.8372491598129272,0.0710329636931419,-0.3133085966110229
1749059118.8996332,1.6697323675261355,-2.10131687311429,0.3667086185282529,5.396439906403744,-1.841247645574136,2.0119850811273308,-0.14649487262329083,0.010713898030552347,-0.0698415511779052,-0.036736691672216874,0.007029454948099627,-0.2506768035117528,-0.4278120696544647,0.781998336315155,-0.335145890712738,-0.8686792850494385,0.0821503028273582,-0.3160375952720642
1749059118.8997035,1.669443828654706,-2.1012971379514362,0.3665726988127901,5.396364256871186,-1.8412347260694213,2.011487767233402,-0.14756342903090208,0.010746002818245063,-0.07039083321000739,-0.03705943088968931,0.00704186305387718,-0.2525463438031388,-0.4101419448852539,0.775704026222229,-0.3396699130535126,-0.8901689052581787,0.0702765509486198,-0.2526521682739258
1749059118.8997738,1.6691493957024508,-2.101276970361698,0.36643365751573764,5.396286398451668,-1.8412221123689454,2.0109795840292484,-0.14860826307336336,0.010795643196357375,-0.0709302725225699,-0.037503383348021016,0.007067124473060546,-0.25429773458677446,-0.4101419448852539,0.775704026222229,-0.3396699130535126,-0.8901689052581787,0.0702765509486198,-0.2526521682739258
1749059118.899818,1.6688491034014343,-2.1012563480531297,0.36629142777058277,5.396206168752298,-1.841209794369783,2.010460411257485,-0.14963054702121706,0.010860039846017395,-0.07145163895642984,-0.038057362315510976,0.007109363164999152,-0.2559153309092813,-0.461563229560852,0.7477940320968628,-0.3388145864009857,-0.8768310546875,0.079697661101818,-0.2567344009876251
1749059118.89986,1.6685432894026446,-2.101235294155159,0.3661461302178287,5.39612353378305,-1.8411977123081793,2.0099306447419507,-0.15063388635791514,0.01093575863437664,-0.07194766980322315,-0.03870706541588848,0.00717211604020042,-0.2573978782511564,-0.4286996722221374,0.7840100526809692,-0.3353205919265747,-0.8826661705970764,0.0586645826697349,-0.2704423069953918
1749059118.8998983,1.6682325653922523,-2.1012138722184144,0.3659980664238256,5.396038585501874,-1.841185766546778,2.009391180101178,-0.15162439641343697,0.011018997564009604,-0.07241299765617085,-0.039436308641981506,0.007257898481223786,-0.258757714964633,-0.4039143323898315,0.782006561756134,-0.3303500115871429,-0.8884599208831787,0.0655751600861549,-0.3360564112663269
1749059118.8999364,1.6679177527551068,-2.1011921766350175,0.3658476893340903,5.395951525154236,-1.8411738335510281,2.0088433422139453,-0.15261045305990328,0.011105870058610792,-0.07284495690281606,-0.040228446010528225,0.007367766849919599,-0.2600183749903866,-0.4047804474830627,0.7671077847480774,-0.3232345283031463,-0.8902866840362549,0.0818676128983497,-0.3603264987468719
1749059118.899974,1.6675997935429183,-2.1011703201565006,0.36569555572395307,5.395862634254039,-1.8411617851726847,2.0082887723866856,-0.15360203018031104,0.011192651587988243,-0.0732440952460331,-0.041067771857983625,0.007500932000838008,-0.2612112682427457,-0.4124329686164856,0.7653831839561462,-0.2851502001285553,-0.8872070908546448,0.09395282715559,-0.3253428637981415
1749059118.9000108,1.6672796517568138,-2.101148420416422,0.3655422684770341,5.395772237005541,-1.8411495078519995,2.0077292909233853,-0.154609616387238,0.011275978495209317,-0.07361425688572075,-0.04194070257040086,0.0076545154296635025,-0.2623721097263634,-0.3537658452987671,0.7512261271476746,-0.3099679350852966,-0.8967834711074829,0.1021452024579048,-0.2685428857803345
1749059118.9000478,1.666958219044646,-2.101126587006194,0.36538841661321697,5.3956806588368975,-1.841136918517428,2.0071667515887093,-0.1556428325340662,0.011353010491045453,-0.07396220183193768,-0.042836576026143096,0.00782355484537019,-0.26353757653102106,-0.4110821485519409,0.7884867787361145,-0.3020389676094055,-0.8952493071556091,0.1005088165402412,-0.2669987380504608
1749059118.9000854,1.666636235509679,-2.1011049101297674,0.36523451982938143,5.395588185962462,-1.8411239747966908,2.0066029011714592,-0.15670901312998237,0.011421581124156288,-0.07429684122055571,-0.04374796786761747,0.00800133800598329,-0.26474246627485665,-0.4395234286785126,0.7494142055511475,-0.3089532852172851,-0.8714419007301331,0.0915839970111846,-0.2913838028907776
1749059118.9001234,1.6663142329091407,-2.1010834515551116,0.365080983282615,5.395495030871553,-1.8411106783077837,2.00603925547204,-0.15781208791391585,0.011480355996920493,-0.07462824859641207,-0.04467048505491251,0.00818007704781534,-0.26601753152035873,-0.4659235775470733,0.7752694487571716,-0.3316650986671448,-0.8578836917877197,0.1049105823040008,-0.376547634601593
1749059118.9001608,1.665992504676002,-2.101062238497225,0.36492806752116286,5.395401308253955,-1.8410970707890053,2.005477002290263,-0.15895203076906872,0.011528995153096425,-0.07496662569025253,-0.045602050668202936,0.008351854966400238,-0.2673881349292696,-0.4659235775470733,0.7752694487571716,-0.3316650986671448,-0.8578836917877197,0.1049105823040008,-0.376547634601593
1749059118.9001975,1.6656711039648664,-2.1010412609466114,0.36477587689378543,5.395307024699407,-1.841083223571653,2.004916939595077,-0.160124949916328,0.011568284767379403,-0.0753213711687245,-0.046541741723742786,0.008509706440260252,-0.2688737776890251,-0.4695910215377807,0.7983279228210449,-0.3263233006000519,-0.8746811747550964,0.1108929812908172,-0.3594654500484466
1749059118.900237,1.6653498666050772,-2.101020472631084,0.3646243667434241,5.395212083379449,-1.8410692217592073,2.0043594512187024,-0.16132368944428668,0.011600182075244379,-0.0757003519082909,-0.047488291693938436,0.00864864936975235,-0.27048833422227986,-0.4449765086174011,0.7802609801292419,-0.3403797149658203,-0.86930251121521,0.0969445928931236,-0.2958885133266449
1749059118.9003596,1.665028451962063,-2.100999795365481,0.36447336610637254,5.395116302474842,-1.8410551456451751,2.0038045158335644,-0.16253870519656466,0.011627718350658216,-0.07610942936352624,-0.04843842840483839,0.008766464981347968,-0.2722405688319278,-0.4328874945640564,0.795876681804657,-0.3543618023395538,-0.8996325135231018,0.0725203230977058,-0.2519330978393554
1749059118.9004383,1.6647063939320905,-2.100979126223501,0.36432261044525305,5.39501944442999,-1.8410410528904193,2.003251742680656,-0.16375898938876327,0.011654729205497026,-0.07655225109546852,-0.049385285096618464,0.008864039380027751,-0.2741344034084925,-0.4314383268356323,0.7920526266098022,-0.3356385231018066,-0.8914104700088501,0.0715797692537307,-0.3008981347084045
1749059118.946305,1.664383156788283,-2.100958346867805,0.3641717789733999,5.394921252562111,-1.8410269649407214,2.0027004301060267,-0.16497290408743648,0.011685424214375012,-0.07703027397684557,-0.05031718029191255,0.00894514007483969,-0.27616858735118127,-0.4314383268356323,0.7920526266098022,-0.3356385231018066,-0.8914104700088501,0.0715797692537307,-0.3008981347084045
1749059118.9463534,1.6640581930425957,-2.1009373343791866,0.3640205321913574,5.394821491366428,-1.841012859819779,2.0021496448283655,-0.16616888724933573,0.011723855859453163,-0.07754294720487084,-0.05121707268068051,0.009015612801363166,-0.27833583500069886,-0.4622196853160858,0.7931158542633057,-0.3270648121833801,-0.9075821042060852,0.082524761557579,-0.3432039618492126
1749059118.9463956,1.6637309998538496,-2.1009159728052067,0.3638685458337272,5.394719986182324,-1.8409986715383282,2.001598316105631,-0.1673360685058747,0.011773380727755014,-0.07808796936762513,-0.05206291941993969,0.009082129548272153,-0.2806219016096598,-0.4237750470638275,0.7892895936965942,-0.3456193804740906,-0.8767465353012085,0.1133719980716705,-0.369667500257492
1749059118.946435,1.6634011677247516,-2.100894164340923,0.36371553753819796,5.394616656961283,-1.840984295026745,2.001045331950611,-0.16846484625644687,0.01183620833749322,-0.07866155387993581,-0.052828993601257576,0.009150754036241653,-0.2830052305840365,-0.4144193530082702,0.7899258136749268,-0.3295080661773681,-0.8613215684890747,0.117483377456665,-0.3355247676372528
1749059118.9464738,1.6630684138713938,-2.100871838729343,0.36356128329714216,5.3945115408155155,-1.840969595167715,2.0004896211739718,-0.16954743958599264,0.01191310734766647,-0.07925867660681135,-0.05348799975268361,0.009225660054995637,-0.28545765964060626,-0.4366285800933838,0.8032141923904419,-0.3410050570964813,-0.8375092148780823,0.118056908249855,-0.3382710218429565
1749059118.946512,1.6627325947354112,-2.1008489593404054,0.36340562255624315,5.394404799503085,-1.8409544188423388,1.9999302088595545,-0.17057837996361536,0.012003302303058322,-0.07987331395770976,-0.054013650421267816,0.009308302784066861,-0.28794632551462496,-0.424852192401886,0.8064540028572083,-0.3534309566020965,-0.8353434205055237,0.1181988716125488,-0.3384747207164764
1749059118.946551,1.6623936967876585,-2.100825524646172,0.3632484530834614,5.394296710690915,-1.8409386093993392,1.99936624171178,-0.17155489109272412,0.012104562973262187,-0.08049869410603464,-0.054383298511289827,0.00939721137182423,-0.2904365268117746,-0.4197359681129455,0.8120843768119812,-0.3352735638618469,-0.8341306447982788,0.1185356378555297,-0.3465176820755005
1749059118.946591,1.6620518102580677,-2.100801564644676,0.3630897187974952,5.3941876449386825,-1.840922023145647,1.9987969895599267,-0.17247712347108898,0.012213467392460325,-0.08112757808957291,-0.05458026703130115,0.009488396198055067,-0.2928950391423182,-0.443333625793457,0.8080303072929382,-0.3239805996417999,-0.8289695978164673,0.1013572365045547,-0.3525081276893616
1749059118.94666,1.66170709495698,-2.100777133112752,0.36292939516828887,5.394078033049783,-1.8409045469173628,1.9982218367936686,-0.17334823013243428,0.01232580312309815,-0.08175257372873909,-0.05459563466946046,0.009576212272981496,-0.29529328113679804,-0.443333625793457,0.8080303072929382,-0.3239805996417999,-0.8289695978164673,0.1013572365045547,-0.3525081276893616
1749059118.946703,1.661359748711116,-2.100752297776098,0.3627674769059799,5.393968329870426,-1.8408861146793083,1.997640279312967,-0.17417426928624286,0.012437054281276588,-0.0823664790832675,-0.05442935973542698,0.009654436181909089,-0.29760976725334404,-0.4408980906009674,0.7919409871101379,-0.3534970879554748,-0.8057839274406433,0.1065391898155212,-0.3263128399848938
1749059118.9467416,1.6610099857404264,-2.100727130834859,0.36260397102838493,5.39385898019088,-1.8408667203721045,1.9970519370029558,-0.17496391199857797,0.0125429085946809,-0.08296265512190644,-0.05409071366020281,0.009717311694059923,-0.2998314001708061,-0.4346985816955566,0.7953763008117676,-0.309500902891159,-0.796518862247467,0.1080111563205719,-0.2885976135730743
1749059118.9467795,1.660658026343369,-2.100701701662175,0.36243889586376443,5.393750390460203,-1.8408464246687342,1.9964565819466051,-0.17572794114944407,0.012639716795666611,-0.08353542401523248,-0.05359804289509933,0.009760382981592708,-0.3019533426323173,-0.4261070787906647,0.8054420948028564,-0.3324643075466156,-0.7972536087036133,0.1123911440372467,-0.249646246433258
1749059118.9468164,1.6603040944619274,-2.100676072444235,0.3622722846118362,5.393642907696116,-1.8408253546455848,1.9958541746583036,-0.1764785524265847,0.01272484768295691,-0.08408047026081171,-0.05297790762728315,0.009781027043325025,-0.3039774818917039,-0.408745139837265,0.8008672595024109,-0.3316778540611267,-0.8014373183250427,0.1103211939334869,-0.2915003597736358
1749059118.9468536,1.6599484182159039,-2.100650296587983,0.3621041913010225,5.39353680520595,-1.8408036967223806,1.9952448975591732,-0.1772285000871068,0.012796901305835934,-0.08459519860776622,-0.05226367895144618,0.009778678880063417,-0.30590984018642126,-0.445844829082489,0.7910280823707581,-0.2896434068679809,-0.8020128011703491,0.1075928062200546,-0.3118035793304443
1749059118.9468946,1.65959122935415,-2.100624419116531,0.3619346967026995,5.393432273818902,-1.840781684020174,1.994629175220289,-0.17799017030944472,0.012855763815845283,-0.08507899371188415,-0.05149371176000396,0.009754793342628208,-0.3077575928576504,-0.4426444172859192,0.8215359449386597,-0.3193859457969665,-0.7933704853057861,0.1024366617202758,-0.3441899418830871
1749059118.946932,1.6592327588829574,-2.1005984781011695,0.3617639114794189,5.393329417129002,-1.8407595795456844,1.9940076724604119,-0.17877470758546835,0.012902507696836568,-0.08553333674689723,-0.05070923476058723,0.009712608642249704,-0.3095264829628042,-0.4338496923446655,0.8164085149765015,-0.3344603776931762,-0.8031376600265503,0.1040112823247909,-0.3318306803703308
1749059118.9469688,1.6588732270839213,-2.1005725063798217,0.36159197386289355,5.3932282494979304,-1.840737656611117,1.9933812638004447,-0.17959133179096828,0.012939160933618589,-0.08596175585882863,-0.04995210953176324,0.00965678151490668,-0.3112192840085726,-0.4739190936088562,0.8350537419319153,-0.309182345867157,-0.8004258275032043,0.134978249669075,-0.3166884779930115
1749059118.947006,1.658512826935914,-2.100546533074124,0.3614190400254347,5.39312869600051,-1.840716177870889,1.9927509714535712,-0.18044693046791563,0.012968387519793406,-0.08636960779447156,-0.04926261839532228,0.009592961687167435,-0.3128356282654391,-0.4255366921424866,0.8260599970817566,-0.3306215405464172,-0.8167531490325928,0.1158956214785575,-0.3016216158866882
1749059118.9470427,1.6581517010143143,-2.1005205844726866,0.3612452671139311,5.393030593935482,-1.8406953743802488,1.9921178740589107,-0.18134590902598852,0.012993133736995595,-0.08676370038151443,-0.04867744898704763,0.009527362112457348,-0.31437314608284234,-0.4218851327896118,0.818691611289978,-0.3564522266387939,-0.8429728746414185,0.1130469366908073,-0.31203693151474
1749059118.9470794,1.6577899135792138,-2.100494683825129,0.3610707912173644,5.392933695965677,-1.8406754262059144,1.9914829944207593,-0.18229020187552072,0.013016293824628041,-0.08715177452677517,-0.04822803653152702,0.009466357967253662,-0.3158295685593068,-0.4453111886978149,0.804470419883728,-0.3126099705696106,-0.8316102027893066,0.109559528529644,-0.3291496336460113
1749059118.9471164,1.6574274221037781,-2.100468849879624,0.3608957046586843,5.392837675485529,-1.8406564464391828,1.9908471809836226,-0.18327934558700204,0.013040436276333328,-0.08754187633966208,-0.04793938611412836,0.009416117851323106,-0.3172052560901281,-0.4653709232807159,0.8233388662338257,-0.341866672039032,-0.8575739860534668,0.1175992041826248,-0.2676214873790741
1749059118.947153,1.6570640554156564,-2.1004430946570785,0.360720038174735,5.392742135292354,-1.840638470824461,1.9902110029972577,-0.18431057560245812,0.013067615549069208,-0.087941663225877,-0.047829428434666255,0.009382250807729831,-0.3185055180164841,-0.4653709232807159,0.8233388662338257,-0.341866672039032,-0.8575739860534668,0.1175992041826248,-0.2676214873790741
1749059118.947312,1.6566995065916428,-2.100417421455877,0.3605437529323719,5.39264662054809,-1.840621455008799,1.9895746798121572,-0.18537897214590784,0.013099279922678704,-0.08835769945566642,-0.04790888194327176,0.009369455672827863,-0.31974210292916067,-0.4654853045940399,0.8267929553985596,-0.3300999402999878,-0.853343665599823,0.1238847076892852,-0.2754680514335632
1749059118.9484007,1.6563333455050755,-2.100391823895445,0.360366744606376,5.392550636069255,-1.8406052801133437,1.9889380577599538,-0.1864777071830355,0.013136275687540201,-0.08879480781345606,-0.04818151998316989,0.009381184141693245,-0.32093340550471416,-0.4376946985721588,0.8411123752593994,-0.3452553153038025,-0.874222457408905,0.1261697858572006,-0.262987345457077
1749059118.9943087,1.655965049840684,-2.1003662861127714,0.3601888580648591,5.3924536667342755,-1.8405897653524315,1.9883006361734419,-0.18759842648239491,0.013178937316486637,-0.08925555297486022,-0.048644688927502164,0.009419360414350033,-0.32210324532535817,-0.4795814156532287,0.8075684309005737,-0.3547587990760803,-0.8555282354354858,0.1324003487825393,-0.2782893478870392
1749059118.9943547,1.6555940487020366,-2.10034078367105,0.3600099086398227,5.392355199181166,-1.8405746850765021,1.9876616339243962,-0.18873175523658356,0.01322724018908314,-0.0897399314334205,-0.04928991401881177,0.009484216419682511,-0.32327842837175447,-0.4208626449108124,0.8342052102088928,-0.3286423683166504,-0.8900244832038879,0.1373634040355682,-0.2896806895732879
1749059118.9943964,1.6552197719404271,-2.1003152846510904,0.359829705541124,5.392254743256269,-1.8405597877339386,1.9870200834010547,-0.18986786850544404,0.013280981109584209,-0.09024532403974911,-0.05010347807133205,0.009574287247917694,-0.32448557319598054,-0.4384645819664001,0.8360471725463867,-0.3315222859382629,-0.90301513671875,0.1125073805451393,-0.2980127334594726
1749059118.9944353,1.6548416996518387,-2.1002897505863847,0.3596480740268382,5.392151852385063,-1.8405448152207815,1.98637493888279,-0.1909970427706462,0.013339950879997259,-0.09076673066845482,-0.05106694066464518,0.009686570896800329,-0.3257478008585749,-0.4004616737365722,0.8340157866477966,-0.3244829475879669,-0.9004828333854675,0.1121080741286277,-0.2909233570098877
1749059118.9944742,1.65445940777288,-2.1002641371553095,0.35946487428847823,5.392046142616346,-1.8405295216058317,1.985725187855479,-0.19211011401264871,0.013404073936801562,-0.09129726239930318,-0.0521576261689713,0.009816814429843276,-0.32708186655875643,-0.4233920872211456,0.8301763534545898,-0.3333207070827484,-0.9032169580459596,0.1278589069843292,-0.3060908615589142
1749059118.9945138,1.6540726066739675,-2.1002383948718055,0.3592800159924071,5.391937310288558,-1.8405136898578789,1.9850699552907662,-0.1931988090393858,0.0134735028511796,-0.09182882879285971,-0.053349112992550636,0.009959872113564337,-0.3284962080045398,-0.4557568728923797,0.8525511026382446,-0.3286140263080597,-0.8946133852005005,0.1342599838972091,-0.3144976198673248
1749059118.994552,1.6536811702885614,-2.100212470359615,0.35909346791652225,5.3918251481255925,-1.8404971447565939,1.9844085920318864,-0.19425596900135964,0.013548660993216853,-0.09235293713357544,-0.05461172525322754,0.010110094919754693,-0.32999023330024607,-0.4498309195041656,0.8414163589477539,-0.3293118476867676,-0.8992363810539246,0.1412582546472549,-0.3558230102062225
1749059118.994589,1.6532851537396924,-2.1001863088386945,0.3589052622477622,5.391709559303421,-1.84047976053708,1.98374073961067,-0.1952757076400028,0.01363022603061905,-0.09286152081229279,-0.05591301083294387,0.010261733538410225,-0.33155495716719124,-0.4287825226783752,0.8513186573982239,-0.3212172389030456,-0.8832037448883057,0.132398173213005,-0.3652216494083404
1749059118.994628,1.6528847977360657,-2.1001598579901537,0.3587154930848277,5.391590568750238,-1.8404614630382994,1.9830663655211351,-0.1962535189003446,0.01371904736362098,-0.09334772785281217,-0.05721821087245635,0.010409343236699953,-0.33317481550733435,-0.3963363766670227,0.8322325348854065,-0.3348083198070526,-0.8872814178466797,0.1520079374313354,-0.2919937372207641
1749059118.994666,1.652480518500302,-2.1001330726472633,0.35852430879283664,5.391468330568338,-1.8404422275021675,1.9823857652693488,-0.19718630147139038,0.013815996781285833,-0.09380661202352823,-0.05849077229249991,0.010548162209804044,-0.3348302158623091,-0.3931801617145538,0.8389229774475098,-0.3160831928253174,-0.884020209312439,0.1339993327856063,-0.2648457884788513
1749059118.9947035,1.6520728828123963,-2.100105919242525,0.3583318982768113,5.391343130008695,-1.840422074015461,1.9816995302145988,-0.19807226475661896,0.013921764586355368,-0.09423567154045027,-0.059693002136463634,0.010674410914314196,-0.33650024128963435,-0.447847306728363,0.8654901385307312,-0.3371237218379974,-0.8760015368461609,0.1410597115755081,-0.3164478838443756
