nimar13/UR3e_dataset_trayectorias/trayectorias_ejecutadas_filtradas/trapezoidal_func/trayectoria_153_result_filtrado.csv
timestamp,q1,q2,q3,q4,q5,q6,qd1,qd2,qd3,qd4,qd5,qd6,tau1,tau2,tau3,tau4,tau5,tau6
1749057645.8065352,-0.5538619240331464,-0.5090672527723957,-0.9884398196873819,-2.116886942919395,-4.089412922713445,-0.13199143640638103,-0.0008776814134908427,-0.000554077770146805,-1.859878895863381e-06,-0.00033378269074950336,0.00243917415471259,-0.00020011590393454075,-0.3206764459609985,-0.7913488149642944,0.1322200000286102,0.4689291715621948,0.0767594650387764,-0.1380010992288589
1749057645.8066092,-0.5538585628473229,-0.5090667359511828,-0.9884353145566492,-2.116886557092371,-4.089400708954666,-0.13199201186451892,-0.0010087471860467231,-0.0005150146489121733,0.00025384466680866544,-0.00031160743071305646,0.0024890161723915105,-0.00019901140660589695,-0.3205403685569763,-0.7633557915687561,0.1207558885216713,0.4533423483371734,0.0837796479463577,-0.1528253555297851
1749057645.806676,-0.5538557233510274,-0.5090661561797948,-0.988431024008351,-2.116886259874497,-4.089388881014734,-0.13199265009028763,-0.001138892738235007,-0.0004769302086102299,0.000495594088778492,-0.0002892913396364662,0.0025359140737037486,-0.00019790089479569017,-0.307659775018692,-0.7963400483131409,0.1061770617961883,0.452544629573822,0.1047026962041854,-0.1369470059871673
1749057645.8067412,-0.5538538573807897,-0.5090654547935484,-0.9884271289230557,-2.1168861086592416,-4.089377741346347,-0.13199334201448273,-0.0012670251307313597,-0.00044061871431490897,0.0007103959011416377,-0.00026669818752584967,0.0025750067622935914,-0.00019672861476212664,-0.3172909021377563,-0.7958841323852539,0.1202777326107025,0.4673593640327453,0.0979683026671409,-0.1325779408216476
1749057645.806805,-0.5538533094105288,-0.5090645841244619,-0.988423776996918,-2.116886145288934,-4.089367548830333,-0.13199408094008316,-0.001391944037781666,-0.00040678353929051163,0.000887883127604842,-0.00024378292123931232,0.0026014016029521888,-0.00019544937249918776,-0.3117275238037109,-0.784593939781189,0.1249865293502807,0.4547665417194366,0.0977881178259849,-0.1321572363376617
1749057645.806868,-0.5538542834991506,-0.5090635134785828,-0.9884210707953163,-2.116886392002764,-4.0893585070286385,-0.1319948655098697,-0.0015122985976477835,-0.00037599343924699753,0.0010211298954148663,-0.0002206213471451973,0.002610372606653975,-0.00019403126004563701,-0.3034807443618774,-0.7841933369636536,0.1166790872812271,0.4637644290924072,0.1142023056745529,-0.1224398910999298
1749057645.8069232,-0.5538568273268445,-0.5090622332475524,-0.9884190603089787,-2.1168868487894583,-4.089350756531495,-0.13199570031864896,-0.0016265835044845713,-0.00034864799928996783,0.0011069934466054088,-0.00019742127146749917,0.0025976741043989165,-0.0001924550794792625,-0.2985217571258545,-0.7878425717353821,0.1288772970438003,0.450020432472229,0.1034509986639022,-0.1523804366588592
1749057645.8069856,-0.5538608344002289,-0.5090607567228064,-0.988417740690721,-2.1168874928016144,-4.089344371277565,-0.13199659398615027,-0.0017331832315182207,-0.0003249542316098324,0.0011460058427104534,-0.00017451240654076583,0.002559919331125008,-0.00019071099320801266,-0.3421907424926758,-0.7801514267921448,0.1135153025388717,0.4549306631088257,0.1099070757627487,-0.1434320956468582
1749057645.8070557,-0.5538660632508341,-0.5090591194519296,-0.9884170552918491,-2.116888280393706,-4.089339358455421,-0.13199755511278627,-0.001830462443871674,-0.0003049151823107215,0.0011419024046536055,-0.00015231560799762356,0.0024949473797994523,-0.0001887936576885026,-0.3340153694152832,-0.7786707282066345,0.1025997847318649,0.4566645622253418,0.1198079288005828,-0.1325777769088745
1749057645.8071244,-0.553872170655371,-0.5090573762542409,-0.9884169035308682,-2.116889151961234,-4.089335661662626,-0.1319985871352046,-0.0019168877484301778,-0.0002883305608279798,0.0011009041990963004,-0.00013129598093225068,0.002402102940903386,-0.00018669740040103797,-0.3340129256248474,-0.7855817079544067,0.1077914983034133,0.4528296589851379,0.0881427004933357,-0.1288359016180038
1749057645.8071923,-0.5538787546675583,-0.5090555962767048,-0.9884171525711128,-2.1168900391643013,-4.089333167413415,-0.13199968346291652,-0.0019911555676036643,-0.0002748088728207551,0.0010308757423332076,-0.00011190805680776005,0.002282374457251326,-0.0001844128106753475,-0.29074427485466,-0.7750592827796936,0.1097359061241149,0.4575976729393005,0.1006795465946197,-0.1198086887598037
1749057645.807265,-0.5538854023407574,-0.5090538567518035,-0.9884176513410982,-2.1168908735437055,-4.08933171537533,-0.13200082422501064,-0.0020522984486731916,-0.00026379026671676295,0.000940466142448843,-9.454300571770275e-05,0.0021383665907578186,-0.0001819255251824377,-0.3020322620868683,-0.7768776416778564,0.0972271934151649,0.4449248909950256,0.1076907962560653,-0.132248044013977
1749057645.8073316,-0.5538917363238139,-0.5090522363481829,-0.9884182452020867,-2.116891595245462,-4.0893311122772165,-0.13200197555870732,-0.002099749373333509,-0.0002545791920164908,0.0008383201230319288,-7.948676948129413e-05,0.001974113004372265,-0.00017921724206605819,-0.2978107333183288,-0.7757511138916016,0.1080112159252166,0.4493638873100281,0.0983826890587806,-0.1511187553405761
1749057645.807402,-0.5538974543875179,-0.5090508089921291,-0.9884187896158985,-2.1168921606007998,-4.0893311483691805,-0.1320030918898689,-0.00213335669610165,-0.0002463858891940053,0.0007324201826242288,-6.68947238225957e-05,0.0017947600333842,-0.00017626842817579822,-0.3089702129364013,-0.7704648375511169,0.1120980978012085,0.4510580897331238,0.1105423718690872,-0.1299147009849548
1749057645.8074725,-0.5539023568131648,-0.5090496386966927,-0.9884191614764645,-2.1168925474796456,-4.08933161442033,-0.13200412119739516,-0.0021533548541489036,-0.0002383755669352619,0.0006295958665000672,-5.678460241934486e-05,0.0016061686691516586,-0.00017306200725014306,-0.2991095185279846,-0.7639927268028259,0.1048016548156738,0.45069020986557,0.1034489423036575,-0.1452583074569702
1749057645.8075402,-0.5539063584132786,-0.5090487754574037,-0.9884192672614771,-2.1168927575322276,-4.089332317038811,-0.13200501268049106,-0.0021603036566982597,-0.00022972378059432004,0.0005352128752776755,-4.9046195485265404e-05,0.001414490581767927,-0.00016958747179972119,-0.3061199188232422,-0.7666170001029968,0.1037990897893905,0.4366901218891144,0.1047011464834213,-0.119046151638031
1749057645.80761,-0.5539094843513837,-0.5090482519979859,-0.9884190477298138,-2.116892814760325,-4.089333090424435,-0.132005725497222,-0.0021550107963366275,-0.000219675959620906,0.00045303508030921426,-4.3464207375373346e-05,0.0012257724935768857,-0.000165845115504234,-0.3001115620136261,-0.7412434220314026,0.1040796935558319,0.4521868824958801,0.1193002313375473,-0.1290603578090667
1749057645.8076766,-0.5539118514623742,-0.509048081252979,-0.9884184793984584,-2.116892760458275,-4.089333803239954,-0.13200623659645375,-0.002138449814668493,-0.00020760825281263755,0.00038523761754986164,-3.974956790396123e-05,0.0010456312493696855,-0.0001618502529486163,-0.2876059710979461,-0.7475214004516602,0.1038330420851707,0.4399473667144775,0.1014106720685958,-0.1366031169891357
1749057645.807745,-0.553913639057898,-0.5090482547973932,-0.9884175733079856,-2.116892645348222,-4.089334360126005,-0.13200654558052977,-0.0021116822151581367,-0.00019308594496783482,0.00033253966870049897,-3.757424399796592e-05,0.000879021540200931,-0.00015763732654408354,-0.3114006519317627,-0.7530900835990906,0.104819618165493,0.44966521859169,0.0935251042246818,-0.1311760246753692
1749057645.807807,-0.5539150547794723,-0.5090487426337051,-0.9884163715569909,-2.116892520388951,-4.089334698457632,-0.1320066752214947,-0.0020757904795090333,-0.00017591478905595919,0.0002944212582610489,-3.6604978618506554e-05,0.000730095253544251,-0.00015326372104296625,-0.2945372462272644,-0.7224605679512024,0.0897156819701194,0.4380032420158386,0.0966013967990875,-0.1383320242166519
1749057645.8078687,-0.5539163015252639,-0.5090494946604375,-0.9884149419460505,-2.1168924279902637,-4.08933478193742,-0.13200666745571918,-0.0020318286508573613,-0.0001561798970725434,0.00026938882132655263,-3.653219268207296e-05,0.0006021325728188721,-0.00014881295940988315,-0.3038617074489593,-0.7396484017372131,0.1021792739629745,0.4455417394638061,0.0885175317525863,-0.1147985458374023
1749057645.8079286,-0.5539175506398861,-0.5090504439215681,-0.9884133711305068,-2.1168923951965026,-4.0893345932054705,-0.13200657586243789,-0.001980796681129539,-0.00013426659203503644,0.0002552584191254132,-3.70913473842246e-05,0.0004975145394113735,-0.00014439678546806324,-0.3281379640102386,-0.7443482279777527,0.0936376303434372,0.4297820925712585,0.1010732427239418,-0.1517494022846222
1749057645.808081,-0.5539189246148221,-0.5090515115184028,-0.9884117569802138,-2.116892429974857,-4.0893341276687725,-0.13200645632852326,-0.0019236417736753426,-0.00011085812668644631,0.00024943189508150814,-3.8075232292424374e-05,0.0004177057598600287,-0.0001401554893734713,-0.3140784502029419,-0.7075329422950745,0.0929168164730072,0.4204311370849609,0.1085466295480728,-0.1367311179637909
1749057645.8084064,-0.5539204901533366,-0.5090526127917345,-0.9884102010904444,-2.116892521168212,-4.089333390167756,-0.13200635770803432,-0.0018612848162502516,-8.690667531826687e-05,0.00024914840467971566,-3.933680246692991e-05,0.0003632227781325088,-0.00013625573472867222,-0.3021034598350525,-0.7365522980690002,0.0872103869915008,0.4339580535888672,0.1016303971409797,-0.1309583485126495
1749057645.8542898,-0.5539222604297488,-0.5090536640671243,-0.988408802313896,-2.116892641945316,-4.089332394979001,-0.13200631404653582,-0.001794665288616317,-6.357650496156359e-05,0.0002517003782567811,-4.0783247958459984e-05,0.0003335755115206778,-0.00013288512416379016,-0.2778008878231048,-0.7183491587638855,0.083552673459053,0.4201027452945709,0.0927512347698211,-0.1325733065605163
1749057645.8543353,-0.5539242041975532,-0.5090545891649684,-0.9884076517997233,-2.1168927557882293,-4.089331168361692,-0.13200633963724848,-0.001724796241363613,-4.2161176366884914e-05,0.0002546085078680782,-4.236287860027446e-05,0.00032718290617762103,-0.00013024280402904335,-0.3153334558010101,-0.7242963910102844,0.0760290250182151,0.4415611624717712,0.0958649963140487,-0.1392861008644104
1749057645.8543754,-0.5539262591084931,-0.5090553251116614,-0.9884068295060706,-2.116892823492989,-4.089329751907296,-0.1320064278260355,-0.0016528220866135078,-2.3979067474606596e-05,0.0002557546730653604,-4.4047103519773916e-05,0.000341277078515917,-0.00012852555812591324,-0.3505927920341491,-0.6993959546089172,0.0889444798231124,0.4310823082923889,0.0799097344279289,-0.1421471238136291
1749057645.854414,-0.553928346992038,-0.5090558267048964,-0.9884064016727694,-2.116892809584346,-4.089328204639325,-0.13200655389890406,-0.001580073236552921,-1.0252918085384896e-05,0.0002534748089377132,-4.581025068497814e-05,0.00037182128046270996,-0.0001279090852779941,-0.3221819102764129,-0.7226434350013733,0.0777676254510879,0.4339708685874939,0.0876977890729904,-0.1271712481975555
1749057645.8544514,-0.5539303894789979,-0.509056069470179,-0.9884064184977145,-2.1168926869294618,-4.089326602172685,-0.13200668150156544,-0.0015081099165512003,-1.979810873029422e-06,0.00024661553428337915,-4.7610189752121296e-05,0.0004134753827480168,-0.00012852455702450327,-0.2997201681137085,-0.6979459524154663,0.083199143409729,0.425815224647522,0.0807403549551963,-0.1382272392511367
1749057645.8544886,-0.5539323226842139,-0.5090560503141532,-0.9884069114573528,-2.11689243896887,-4.089325032169124,-0.1320067711127058,-0.0014387425438269,2.012686773922927e-07,0.00023455895717250556,-4.937268075377478e-05,0.00045964749802198513,-0.000130431218381733,-0.2882660627365112,-0.6834018230438232,0.0778993144631385,0.4215884208679199,0.0835042297840118,-0.1242789477109909
1749057645.8545258,-0.553934109526088,-0.5090557852942378,-0.9884078903266599,-2.1168920596720975,-4.08932358644475,-0.13200678854062767,-0.0013740118279251486,-3.863945988499063e-06,0.00021721968504454485,-5.0982065511573557e-05,0.0005026708918560271,-0.00013358677990196852,-0.3051652312278747,-0.6799749732017517,0.0642228201031684,0.4262764453887939,0.0752598196268081,-0.1386606097221374
1749057645.8545623,-0.5539357480673281,-0.5090553045207664,-0.9884093406205532,-2.1168915518895237,-4.089322350986415,-0.13200671148410362,-0.0013161137700502198,-1.3733807559801178e-05,0.00019501706321811287,-5.228034596586411e-05,0.0005341405063240033,-0.00013781853885814826,-0.3000800609588623,-0.6981316208839417,0.0724417269229888,0.4146272540092468,0.0904617682099342,-0.1351180970668792
1749057645.8545988,-0.5539372744933831,-0.5090546450116212,-0.988411222467108,-2.1168909250625774,-4.089321395750719,-0.13200653285579492,-0.001267265565043283,-2.828585207713331e-05,0.00016882453099442108,-5.3075857251645676e-05,0.0005454326536041736,-0.00014279930135214407,-0.3204966187477112,-0.6987211108207703,0.0645770877599716,0.4262239336967468,0.0697075277566909,-0.1299171447753906
1749057645.8546357,-0.5539387601051843,-0.5090538429287257,-0.9884134716686808,-2.116890193264798,-4.089320766423379,-0.13200626059061019,-0.0012295251628354105,-4.566969938334664e-05,0.00013989725539117516,-5.316165988433853e-05,0.000528414688479145,-0.00014803298037872198,-0.3158885538578033,-0.6822243332862854,0.0628587678074836,0.42906254529953,0.0757876187562942,-0.1462015211582183
1749057645.8546722,-0.5539403027977783,-0.5090529268224123,-0.9884160030457527,-2.1168893743517425,-4.089320479933728,-0.13200591470163367,-0.0012045937032718293,-6.330888945725166e-05,0.00010977937560314308,-5.234250484192494e-05,0.00047632938210624996,-0.00015285501866001337,-0.3252825736999511,-0.672596275806427,0.0725113302469253,0.4111587107181549,0.078888900578022,-0.1231008619070053
1749057645.854709,-0.5539420145790305,-0.5090519133424959,-0.988418715445853,-2.1168884905961978,-4.08932052425429,-0.13200552298036963,-0.0011936404972326523,-7.796113500580669e-05,8.019344392814213e-05,-5.046791739578948e-05,0.00038481269209606785,-0.00015645241187016478,-0.3069885969161987,-0.6719030141830444,0.0678341388702392,0.4169220626354217,0.0879763215780258,-0.1410872340202331
1749057645.854745,-0.5539440073395298,-0.509050806436019,-0.9884214974835378,-2.116887570576339,-4.089320861457345,-0.13200511671677423,-0.0011971914163249984,-8.584338059487625e-05,5.291645573412499e-05,-4.7467827817900205e-05,0.0002529758207558057,-0.0001579070301548374,-0.3127764463424682,-0.6470290422439575,0.061704508960247,0.4066337943077087,0.0758586972951889,-0.1352323442697525
1749057645.854781,-0.5539463791744006,-0.5090496003115609,-0.9884242333598139,-2.116886651466028,-4.0893214320983144,-0.13200472730122734,-0.0012151124419123365,-8.282343124737715e-05,2.9648155114250134e-05,-4.338643739821679e-05,8.445574801723559e-05,-0.0001562641520350777,-0.3081236481666565,-0.649566650390625,0.0455068834125995,0.4239499866962433,0.0885224789381027,-0.1467652916908264
1749057645.854818,-0.5539492033276975,-0.5090482854383988,-0.988426808679855,-2.116885780556647,-4.08932215915342,-0.1320043839826176,-0.0012467017452345833,-6.467381834354356e-05,1.1877473887530074e-05,-3.8409687757064743e-05,-0.00011168374590709033,-0.00015062569538641527,-0.3281677365303039,-0.6430109143257141,0.0540779531002044,0.4118062555789947,0.0978638231754303,-0.1363756656646728
1749057645.854854,-0.5539525214339678,-0.5090468558472905,-0.988429116483718,-2.1168850149563525,-4.089322950556218,-0.1320041126203971,-0.001290879859850236,-2.7376366385520413e-05,7.525494336929704e-07,-3.288173618464798e-05,-0.00032033243623636143,-0.00014026466852540482,-0.3213342428207397,-0.6321555972099304,0.0498455688357353,0.4148131310939789,0.084891676902771,-0.1364094913005828
1749057645.8548903,-0.5539563419685216,-0.5090453154270118,-0.9884310634948434,-2.1168844188655904,-4.089323700171839,-0.1320039349144233,-0.0013464449282741865,3.25416698316269e-05,-3.040183292251451e-06,-2.7306183074511587e-05,-0.0005201291227217827,-0.00012475400604495428,-0.3244843482971191,-0.6412065625190735,0.047341488301754,0.4163569509983063,0.0924666225910186,-0.1215110570192337
1749057645.8549263,-0.5539606436114562,-0.5090436810766933,-0.9884325761712849,-2.1168840584139805,-4.089324287461938,-0.1320038673157501,-0.001412345448625624,0.00011766589885555839,6.186721367678629e-07,-2.232847164065472e-05,-0.0006837925371800739,-0.0001040993573494666,-0.322383165359497,-0.6302415132522583,0.0602850578725338,0.3957061469554901,0.0744473487138748,-0.1446202993392944
1749057645.854962,-0.5539653820298038,-0.5090419815007539,-0.9884336059432746,-2.116883994563032,-4.089324576209807,-0.13200391886596816,-0.0014879194782167389,0.00022937815429484784,1.1199914713013298e-05,-1.869694013859979e-05,-0.000779077053722898,-7.88618242363946e-05,-0.330637514591217,-0.6326655745506287,0.0598503015935421,0.4245023727416992,0.0966541618108749,-0.13746939599514
1749057645.854998,-0.5539704980133934,-0.5090402517821154,-0.9884341331364657,-2.116884274939212,-4.089324412725937,-0.13200408783292605,-0.001573055273952807,0.0003675962844785973,2.7478009749747735e-05,-1.7201491500353106e-05,-0.0007703933370173495,-5.0253552470291345e-05,-0.3087460398674011,-0.6399987936019897,0.0657385140657424,0.41093909740448,0.0919557437300682,-0.1404305100440979
1749057645.855049,-0.5539759251496346,-0.5090385251008055,-0.9884341692635892,-2.1168849257316857,-4.089323624084996,-0.13200435807049302,-0.0016682402874404374,0.00053059778300822,4.752855002429345e-05,-1.859074831491614e-05,-0.0006210679834191002,-2.018707972385826e-05,-0.3087460398674011,-0.6399987936019897,0.0657385140657424,0.41093909740448,0.0919557437300682,-0.1404305100440979
1749057645.8550954,-0.5539815959302945,-0.5090368236741404,-0.9884337573898211,-2.116885945013797,-4.089322017170593,-0.13200469691614708,-0.001774480655413536,0.0007149477591093975,6.878251323146923e-05,-2.347081719486638e-05,-0.0002961373541866411,8.740952733859385e-06,-0.3087460398674011,-0.6399987936019897,0.0657385140657424,0.41093909740448,0.0919557437300682,-0.1404305100440979
1749057645.855204,-0.5539874458603069,-0.5090351510751958,-0.9884329701858129,-2.1168872988529173,-4.08931937948635,-0.13200505645992924,-0.0018930908413058007,0.0009155451666184868,8.814762090371102e-05,-3.219126560624421e-05,0.00023451369483893506,3.334919572996209e-05,-0.3051069974899292,-0.6127756834030151,0.0495670549571514,0.4262881278991699,0.1141875386238098,-0.1450782120227813
1749057645.8563745,-0.5539934155612285,-0.5090334876680054,-0.9884319052790095,-2.116888921144121,-4.089315482581969,-0.13200537900295906,-0.002025372645769334,0.0011257959388183386,0.00010220406559160311,-4.472641662814012e-05,0.0009929372318448128,5.006709301782292e-05,-0.3090724945068359,-0.6107330918312073,0.040901243686676,0.4262751936912536,0.1356118023395538,-0.1274737417697906
1749057645.8982744,-0.5539994511207751,-0.5090317902237149,-0.9884306777530961,-2.1168907173241416,-4.089310088384749,-0.13200560601479253,-0.002172224218260174,0.0013379149879648108,0.00010747696825334444,-6.056231826080219e-05,0.0019901622785942637,5.523236224601859e-05,-0.3210192322731018,-0.6048781275749207,0.0380416773259639,0.4340669512748718,0.1492329835891723,-0.1247677654027938
1749057645.8983195,-0.5540055031786114,-0.5090299960194127,-0.9884294101583827,-2.1168925713657285,-4.089302957875337,-0.1320056887124582,-0.0023337414277172304,0.0015433486618059412,0.00010078115962969376,-7.860140263310412e-05,0.0032238470041830777,4.5486762103109885e-05,-0.3104733824729919,-0.6100323796272278,0.0297762658447027,0.4288768470287323,0.1777043938636779,-0.1322535872459411
1749057645.8983593,-0.5540115254138942,-0.5090280308964567,-0.9884282210315123,-2.1168943550166106,-4.089293860863968,-0.13200559799200892,-0.0025088897896162967,0.0017332963470607923,7.962548332531648e-05,-9.70975478319909e-05,0.004676878989975392,1.8254953459713402e-05,-0.3347542881965637,-0.6035493016242981,0.0355209745466709,0.440847784280777,0.1649660617113113,-0.121719092130661
1749057645.8983972,-0.5540174731237894,-0.5090258199845901,-0.9884272134011908,-2.116895938134548,-4.089282585545522,-0.1320053317467356,-0.002695324200678703,0.0018992964532953819,4.2654336321533626e-05,-0.00011363364974091514,0.006317185109242728,-2.7721351964861056e-05,-0.3542550802230835,-0.5813413858413696,0.0539139546453952,0.4467453360557556,0.1817159056663513,-0.1342842578887939
1749057645.8984346,-0.5540233025542526,-0.509023299367388,-0.9884264648984797,-2.116897199038135,-4.089268947067961,-0.13200491822699503,-0.0028894080491861057,0.0020338289679646807,-9.90554630167989e-06,-0.00012515163680892349,0.00809889815052881,-9.183438230520704e-05,-0.3374015092849731,-0.6061007976531982,0.0272716209292411,0.4468197822570801,0.1789708137512207,-0.1335431337356567
1749057645.8984716,-0.5540289716742088,-0.5090204269921116,-0.9884260208740383,-2.1168980339604255,-4.08925279514236,-0.13200441474493874,-0.003086436621139099,0.0021308765198794787,-7.58338498599864e-05,-0.00012804096877264254,0.009964894253791956,-0.0001710980878614091,-0.324619859457016,-0.5976195335388184,0.0513495951890945,0.4588859975337982,0.2064995467662811,-0.1190429329872131
1749057645.8985093,-0.554034443002688,-0.5090171914085417,-0.9884258913489798,-2.116898364904834,-4.089234021194717,-0.13200390158874903,-0.0032810189264993357,0.00218638321663741,-0.00015058829800510993,-0.00011828607621729014,0.011850577684426771,-0.0002597325737973249,-0.3248166143894195,-0.6172928810119629,0.04413428530097,0.4675787687301636,0.2276899367570877,-0.1073077768087387
1749057645.898546,-0.5540396886237862,-0.5090136172338571,-0.9884260517980619,-2.116898145342389,-4.089212565311235,-0.13200347150188355,-0.0034675388761956443,0.0021985591042438164,-0.0002271092654373747,-9.166618530315368e-05,0.013688651486092926,-0.00034890852392033077,-0.3182636201381683,-0.5972265005111694,0.0358745716512203,0.4621349573135376,0.2249961644411087,-0.0921080559492111
1749057645.898583,-0.5540446967037637,-0.5090097665621908,-0.9884264470427871,-2.1168973631813692,-4.089188422380413,-0.13200321560892853,-0.0036406133574415087,0.002167996905280144,-0.00029580524869879176,-4.399307942912742e-05,0.015414481755005304,-0.0004267121173008603,-0.3182186484336853,-0.6113050580024719,0.066120721399784,0.4814600050449371,0.2344108521938324,-0.1109468936920166
1749057645.8986197,-0.5540494780855206,-0.5090057359076822,-0.9884269972313451,-2.1168960403886095,-4.0891616460487,-0.13200320727946968,-0.003795484606872018,0.0020975914234100477,-0.0003447585703241915,2.8635622593808735e-05,0.01697156010196892,-0.0004783805256889145,-0.3252154886722564,-0.6005254983901978,0.0653798803687095,0.4960773289203644,0.2334280610084533,-0.1009132266044616
1749057645.898657,-0.554054071239108,-0.5090016486832843,-0.9884276048958669,-2.116894228715756,-4.089132348915771,-0.13200348594574837,-0.003928310258574999,0.0019922744753744673,-0.0003601753411943045,0.00012959718992059755,0.018316517887867763,-0.00048683944637454234,-0.290290504693985,-0.6024113893508911,0.0757803916931152,0.4900482296943664,0.244020789861679,-0.0847313106060028
1749057645.8986945,-0.5540585440273095,-0.5089976437545982,-0.98842816208667,-2.1168920012573778,-4.089100697649738,-0.13200404306794755,-0.004036336142980907,0.0018585953928982465,-0.0003270815624130909,0.00026155308195575705,0.01942316154187645,-0.0004335475242472004,-0.3194888830184936,-0.6092045307159424,0.0714748501777648,0.5172834396362305,0.232291579246521,-0.0923066288232803
1749057645.8987317,-0.5540629913012033,-0.5089938613791193,-0.988428556540168,-2.1168894401041674,-4.089066902074834,-0.13200481220986843,-0.004117955297127577,0.001704188055959635,-0.0002302393313715695,0.00042634272448020935,0.02028508302033505,-0.00029961937969889417,-0.3183183968067169,-0.6017031669616699,0.0873092263936996,0.5137383937835693,0.2367663830518722,-0.0660039484500885
1749057645.898769,-0.5540675281491422,-0.5089904286188055,-0.9884286759833918,-2.116886621212919,-4.089031197959997,-0.1320056646668327,-0.0041726734724333485,0.0015371715095729838,-5.522565138511562e-05,0.0006249927564214579,0.020916549130524733,-6.716213828291109e-05,-0.3014200627803802,-0.6161662340164185,0.1110536977648735,0.540969967842102,0.2301458120346069,-0.0747354626655578
1749057645.8988066,-0.554072279444556,-0.508987446597092,-0.9884284101683742,-2.1168835985825645,-4.088993824446969,-0.13200641135672736,-0.004201011960465342,0.0013655346500572683,0.00021041487614271187,0.0008578588105969038,0.021351574039868232,0.00027927570299049817,-0.347999095916748,-0.6244360208511353,0.1149827316403389,0.5388474464416504,0.2208578884601593,-0.0728129595518112
1749057645.8988476,-0.5540773668916386,-0.5089849816300841,-0.9884276509237937,-2.1168803904290208,-4.0889549983199,-0.13200681081170432,-0.004204377581746537,0.0011965570070459845,0.0005760574989260866,0.001124892237270648,0.02164129714351772,0.000751273441350425,-0.3193521499633789,-0.6105008125305176,0.1340212523937225,0.5310323238372803,0.2195532321929931,-0.0615040957927703
1749057645.8988843,-0.5540828949990532,-0.5089830616433785,-0.9884262910797069,-2.116876969957774,-4.088914887889235,-0.13200658228804177,-0.004184919731866907,0.0010363158388239611,0.0010470511392172367,0.0014259908274689643,0.02184997535999367,0.0013552705003019212,-0.2873142957687378,-0.6268183588981628,0.1389265209436416,0.5499594807624817,0.2205374538898468,-0.0404158532619476
1749057645.8989248,-0.554088937578246,-0.5089816785522447,-0.9884242232922594,-2.116873262515949,-4.088873589086941,-0.13200542247874203,-0.004145384451791744,0.000889322467811935,0.0016240564547644937,0.001761358909826383,0.022050016713375104,0.0020915995783772037,-0.3095458745956421,-0.62857586145401,0.1712999790906906,0.5556471347808838,0.2507502138614654,-0.0441438257694244
1749057645.898962,-0.5540955266709666,-0.5089807962303923,-0.9884213395472653,-2.116869149566612,-4.08883110602958,-0.13200302414932616,-0.004088973183798013,0.0007583174783587157,0.0023027508444848624,0.002131782874353448,0.02231652416555203,0.00295392517910972,-0.3064209222793579,-0.6303330063819885,0.1648715138435363,0.5593562126159668,0.2303098738193512,-0.0207518488168716
1749057645.8989985,-0.5541026459928825,-0.5089803623957327,-0.9884175316471766,-2.1168644784941564,-4.088787338153519,-0.1319990951262098,-0.004019218774625981,0.0006442369766851847,0.0030739220868983576,0.0025387377463325753,0.022721807418824368,0.003929142162905136,-0.3081254959106445,-0.6545261144638062,0.1492642313241958,0.5723962783813477,0.2523688077926636,-0.0106622278690338
1749057645.8991084,-0.5541102305383163,-0.5089803217986606,-0.9884126925182932,-2.1168590762171067,-4.088742075802176,-0.13199337632888877,-0.003939894021500692,0.0005463438215125599,0.003923903936077782,0.0029842808433984272,0.02333028522888635,0.004997743163218201,-0.3096131682395935,-0.6494612693786621,0.1716565191745758,0.5738804936408997,0.2746207118034363,-0.0102434754371643
1749057645.9003782,-0.5541181728657135,-0.5089806279807867,-0.9884067179030337,-2.1168527642072386,-4.088695005441151,-0.13198565788904643,-0.0038549585801025137,0.00046250148600096737,0.004835265886614996,0.003470742190959272,0.024194156830718197,0.0061346390178700656,-0.3204224407672882,-0.6528981924057007,0.1935229003429412,0.5964277982711792,0.3023029863834381,0.0106508731842041
1749057645.9463046,-0.5541263352360146,-0.5089812514316097,-0.9883995080580075,-2.1168453727470387,-4.088645724439328,-0.131975792657326,-0.003768529973173459,0.0003895557032685861,0.005787677144854297,0.0040002610120892295,0.02535016186870544,0.0073104088534774285,-0.3171846270561218,-0.6861668229103088,0.2027163058519363,0.5979692339897156,0.299497902393341,0.0112069249153137
1749057645.946359,-0.5541345656848294,-0.5089821827902297,-0.9883909694594608,-2.116836752878463,-4.0885937638381105,-0.1319637062545483,-0.0036848469437004957,0.0003237808798488282,0.006758902315450771,0.0045742268206293854,0.0268176569967931,0.008492946333328763,-0.3025036156177521,-0.6954233050346375,0.2033780366182327,0.6015220880508423,0.3173080384731293,0.0105034708976745
1749057645.9464023,-0.5541427155283168,-0.5089834306160232,-0.9883810169729931,-2.1168267851832105,-4.088538616146554,-0.1319494023501627,-0.003608188702321262,0.00026134441238662197,0.007725909552441988,0.005192669390412294,0.028598108966432167,0.009649439961778666,-0.3132134079933166,-0.6943511366844177,0.215304747223854,0.6098616123199463,0.3293406367301941,0.0133352279663085
1749057645.946442,-0.5541506557951196,-0.5089850141633026,-0.9883695770691721,-2.116815385060667,-4.08847976449838,-0.13193296168580831,-0.0035427213590201526,0.0001987422371871079,0.008666059140047757,0.005853628517162684,0.030675955324753982,0.010748576965001795,-0.323290467262268,-0.6862733364105225,0.2145291417837143,0.6283695697784424,0.3286742269992828,0.0335813760757446
1749057645.946479,-0.5541582904909954,-0.5089869524666633,-0.988356592281601,-2.116802504581227,-4.088416709864338,-0.13191453403691816,-0.003492260075721324,0.00013316280923955068,0.009558310259232781,0.006552543662153623,0.033020644109613466,0.011762803022793578,-0.2966033816337585,-0.7076351642608643,0.2342654317617416,0.6294993758201599,0.3356896936893463,0.0305789709091186
1749057645.946517,-0.5541655652557357,-0.5089892517234293,-0.9883420264776427,-2.116788131448074,-4.088348994156413,-0.13189432365581413,-0.0034599615195928164,6.274377259570028e-05,0.010384365730161403,0.007281736185240909,0.035589560379187986,0.012670421350391897,-0.326282799243927,-0.7023980617523193,0.2412934154272079,0.6372557878494263,0.3151395618915558,0.0353528559207916
1749057645.9465544,-0.5541724708506086,-0.5089918933305887,-0.9883258700523585,-2.1167722860619342,-4.088276218259579,-0.13187257013852216,-0.0034479907377165555,-1.3304693497412228e-05,0.011129675156747816,0.00803009252712343,0.03833149706036022,0.01345729214005949,-0.339603066444397,-0.7227339744567871,0.2466070801019668,0.6627723574638367,0.3486744463443756,0.0435112416744232
1749057645.946596,-0.5541790418785401,-0.5089948249856363,-0.9883081440081566,-2.1167550179182677,-4.088198054855769,-0.13184952753155468,-0.003457227557035383,-9.472383969638359e-05,0.011784221591358626,0.008783069145424609,0.04119033390798266,0.014117909161659288,-0.3416882157325744,-0.7418046593666077,0.2395108789205551,0.6529691219329834,0.356169193983078,0.0531705170869827
1749057645.946634,-0.5541853517377651,-0.5089979569978687,-0.9882889019653809,-2.1167364024299,-4.088114256505653,-0.13182544462198567,-0.0034870805334304804,-0.0001803772490293631,0.012343017321679218,0.009523114306857256,0.04410863930456957,0.014655687956831143,-0.3480986356735229,-0.7432483434677124,0.244236335158348,0.6898939609527588,0.3627810180187225,0.0391813367605209
1749057645.9466712,-0.5541915048216197,-0.5090011652740881,-0.9882682294106215,-2.116716538831095,-4.088024660012895,-0.1318005488699498,-0.0035354612626741343,-0.0002685516380712496,0.012806240423787299,0.010230541415823398,0.04703097972062292,0.015082396023921724,-0.3208474814891815,-0.7502838373184204,0.2372821718454361,0.6740790605545044,0.382545530796051,0.0495798289775848
1749057645.946708,-0.5541976267118748,-0.5090043012757572,-0.9882462399426747,-2.1166955491996338,-4.087929188390861,-0.13177503555862446,-0.0035989439553643847,-0.0003573524739639492,0.013178969441523665,0.010884811240051516,0.04990678267821723,0.01541677785988991,-0.3282133042812347,-0.7790787220001221,0.2427562624216079,0.6717154383659363,0.3714739680290222,0.0694917738437652
1749057645.9467442,-0.5542038528755686,-0.5090072078061638,-0.9882230688583777,-2.1166735779259827,-4.087827851408051,-0.13174906258048663,-0.003673099265775405,-0.0004451419161493111,0.01347052176555802,0.01146610874729781,0.052692636816007714,0.015682552190255244,-0.3362902998924255,-0.7550930976867676,0.248719185590744,0.6810420155525208,0.3839914500713348,0.0639021247625351
1749057645.9467807,-0.5542103162000399,-0.5090097381595902,-0.988198864942927,-2.116650790391471,-4.087720744713481,-0.13172275009111187,-0.003752952663719338,-0.0005309528009986964,0.01369346109176164,0.011957051386274706,0.05535393616870071,0.015906051665610852,-0.304041713476181,-0.7651124000549316,0.2481547743082046,0.6731042861938477,0.3779332339763641,0.0832614153623581
1749057645.9468164,-0.5542171337632338,-0.5090117752971893,-0.9881737815936881,-2.1166273695047018,-4.087608046418294,-0.1316961833962209,-0.0038334876477067494,-0.0006148071817140279,0.013862392094134283,0.012344344834291582,0.05786580642414966,0.016113811019665213,-0.304041713476181,-0.7651124000549316,0.2481547743082046,0.6731042861938477,0.3779332339763641,0.0832614153623581
1749057645.9468532,-0.5542243938202924,-0.5090132476408235,-0.988147968364201,-2.116603509196474,-4.087490009391765,-0.13166941704979998,-0.00391010881924148,-0.0006978779991370998,0.013992688989702799,0.012620203975352696,0.06021329885036202,0.01633038401234622,-0.3286236226558685,-0.7958542108535767,0.2597054839134216,0.6923545002937317,0.3932211101055145,0.0719416588544845
1749057645.9468925,-0.5542321448796741,-0.5090141389945626,-0.9881215637876694,-2.1165794048227378,-4.087366947985478,-0.13164247819229422,-0.003979005821043859,-0.0007824606516337914,0.014099302488209979,0.012783371031991415,0.06239089129878684,0.01657659577181765,-0.3218573629856109,-0.78516685962677,0.2570424973964691,0.6989423036575317,0.4012316465377807,0.0817031115293502
1749057645.9469297,-0.5542403892255923,-0.5090144916927567,-0.9880946900872354,-2.1165552413623563,-4.087239219493691,-0.13161536765541065,-0.0040374016165246294,-0.0008717606361944627,0.014195762438884438,0.012839583043563132,0.06440138021043271,0.016868336386369937,-0.3287903070449829,-0.8168025016784668,0.2633947134017944,0.6668773293495178,0.3913885056972503,0.0859865695238113
1749057645.946966,-0.5542490827736434,-0.509014403515955,-0.9880674501626305,-2.1165311809587117,-4.087107202552938,-0.1315880582790682,-0.0040837002656581595,-0.0009695404016049295,0.014293452487760943,0.012801374730998164,0.06625428744463163,0.017215900771194483,-0.3032668232917785,-0.8206558227539062,0.2509910762310028,0.6975181698799133,0.3908904492855072,0.0925692021846771
1749057645.9470038,-0.5542581417436493,-0.5090140195640092,-0.9880399269816537,-2.1165073515316237,-4.086971275678403,-0.1315604909942952,-0.004117554502805366,-0.0010796923906345075,0.01440118883649723,0.012687171286969667,0.06796395467154845,0.0176238069184125,-0.3537395596504211,-0.8143373727798462,0.2671875655651092,0.6927540898323059,0.4179518818855285,0.0824994593858718
1749057645.9470515,-0.5542674548263223,-0.5090135202296843,-0.9880121851104786,-2.1164838379937487,-4.0868317987716996,-0.13153257020489822,-0.004139859892185564,-0.0012058128881035086,0.014525096025939689,0.01251973846674539,0.0695475462150463,0.018090993086505115,-0.3340429663658142,-0.8373361229896545,0.2643797993659973,0.7046428322792053,0.4323320686817169,0.1025881320238113
1749057645.94709,-0.5542768981533398,-0.5090131063156044,-0.9879842736815425,-2.116460677243181,-4.086689099207384,-0.13150416057266393,-0.004152669085255886,-0.0013508439917412035,0.014668742806561719,0.0123241846859526,0.0710231937378817,0.01861129769160936,-0.3169202804565429,-0.8364605903625488,0.2596157193183899,0.7136474251747131,0.4359309077262878,0.1029532849788665
1749057645.9471269,-0.5542863501347195,-0.5090129826168123,-0.9879562298617562,-2.116437857588262,-4.0865434627973425,-0.1314750872587476,-0.004159018388875402,-0.0015168304707567667,0.014833479919215397,0.01212579530511958,0.07240847026672168,0.019174149086848506,-0.3123088479042053,-0.8708131313323975,0.2684485614299774,0.7014767527580261,0.4266748428344726,0.103814959526062
1749057645.9473412,-0.5542957040023802,-0.5090133417749292,-0.9879280819308291,-2.1164153225979296,-4.086395129108562,-0.13144514104472527,-0.004162669251273986,-0.001704807076427697,0.015018907312005269,0.011947987793585059,0.07371929122344324,0.019765422483294333,-0.315702885389328,-0.8814431428909302,0.2701931297779083,0.7088110446929932,0.4091387987136841,0.0971887856721878
1749057645.9484189,-0.5543048768999207,-0.509014350435392,-0.9878998512418389,-2.1163929787381073,-4.086244290459605,-0.13141408891091289,-0.0041677830004563324,-0.0019147963911083238,0.015223393104440383,0.011810619569365355,0.0749692449236253,0.02036844517362881,-0.3241103887557983,-0.8711580038070679,0.2845002114772796,0.7071232795715332,0.4159784913063049,0.1254602968692779
1749057645.994303,-0.5543138149894915,-0.5090161394512037,-0.9878715524914615,-2.116370705718924,-4.086091094250647,-0.1313816898078601,-0.0041785604127915505,-0.002145868588160948,0.015444574363438638,0.011728795362599697,0.07616929189042404,0.020965139824124242,-0.3339682817459106,-0.8643484115600586,0.2768477499485016,0.7346136569976807,0.4379149675369262,0.1239538639783859
1749057645.9943526,-0.5543224944380434,-0.5090187991019252,-0.987843191984498,-2.1163483682382096,-4.085935648647123,-0.1313477143934008,-0.004198882496534587,-0.0023962048254637437,0.015679789038700116,0.011712237632949807,0.07732775902468134,0.021537285892829442,-0.3413555324077606,-0.8726813197135925,0.2776478826999664,0.7355126738548279,0.4371026754379272,0.1222194284200668
1749057645.9943936,-0.5543309186853767,-0.5090223792039641,-0.9878147640669699,-2.116325827711175,-4.085778031568484,-0.13131196643633622,-0.00423198493361571,-0.002663122725102878,0.015926411159714427,0.0117652124000124,0.0784505748315286,0.022067851499891926,-0.3286729156970978,-0.8969795107841492,0.2790886163711548,0.7159227728843689,0.4549151659011841,0.1399809718132019
1749057645.9944324,-0.5543391130857371,-0.5090268929114498,-0.9877862465295993,-2.116302952647978,-4.085618302232802,-0.13127430283970387,-0.004280190619200896,-0.002943061602397513,0.016182080665107106,0.011886944621092509,0.07954170390418458,0.022542306971254193,-0.3339804708957672,-0.9307875037193298,0.2971567511558532,0.7441982626914978,0.441871166229248,0.1352929472923278
1749057645.99447,-0.5543471184590545,-0.5090323224103215,-0.9877575962697496,-2.1162796266441637,-4.0854565135121215,-0.131234649227551,-0.004344716656893497,-0.003231568953953002,0.016444834822467162,0.012072413254400064,0.08060371743756402,0.022949790089079564,-0.3339646756649017,-0.8992381691932678,0.2918658852577209,0.735068678855896,0.4339091181755066,0.1214566230773925
1749057645.9945078,-0.5543549849496284,-0.5090386248419818,-0.9877287465976691,-2.1162557534721813,-4.0852927227823255,-0.13119300877745413,-0.004425565436820034,-0.0035233533724065166,0.016713161995259625,0.012313388957357941,0.081638402840403,0.023283971536186988,-0.3423992991447449,-0.9262323975563048,0.294720709323883,0.7270198464393616,0.4369212687015533,0.1432044357061386
1749057645.994545,-0.5543627669704306,-0.5090457374497895,-0.9876996072237839,-2.116231259346472,-4.0851269992524895,-0.13114946316419407,-0.004521506111064316,-0.003812457218494285,0.01698600790194407,0.012599568097968503,0.08264731509960846,0.023543484431403146,-0.3274965584278106,-0.9077160954475404,0.3130302131175995,0.7342539429664612,0.4538092613220215,0.1297762095928192
1749057645.9945834,-0.5543705194174159,-0.5090535817097,-0.9876700673341778,-2.1162060928579085,-4.084959426691264,-0.13110416572409384,-0.004630153739727107,-0.004092561629278622,0.01726276445267516,0.012919665527950904,0.08363222385728669,0.023731838252226415,-0.3531873524188995,-0.8941791653633118,0.2979636788368225,0.7304721474647522,0.4357290863990783,0.1442815363407135
1749057645.9946203,-0.554378295179949,-0.5090620668242303,-0.9876400015560166,-2.116180223219691,-4.08479010145537,-0.13105732795852879,-0.004748152860900234,-0.004357391270686721,0.017543261387325027,0.013262356740957442,0.08459547970494787,0.023856820547990633,-0.3524008095264435,-0.8989724516868591,0.3042114973068237,0.7467526793479919,0.4288499355316162,0.1324304342269897
1749057645.9946568,-0.5543861440776866,-0.5090710932805252,-0.9876092782590065,-2.116153637397176,-4.084619126408034,-0.13100920121974816,-0.004871462080398276,-0.004601161331561981,0.01782776732386484,0.013617007351244338,0.08554035939759186,0.023929475665032715,-0.3375923037528991,-0.9199365973472596,0.3055657744407654,0.7617081999778748,0.415425568819046,0.1458409130573272
1749057645.9946935,-0.5543941131643045,-0.5090805570278085,-0.987577769512075,-2.116126336587133,-4.08444660166493,-0.1309600559998127,-0.004995717177504426,-0.004819011312395177,0.018116996023417903,0.013974183824885156,0.08647143760358608,0.023962818281576884,-0.2964411079883575,-0.9022449254989624,0.3062275350093841,0.7597166895866394,0.4390841722488403,0.1507974416017532
1749057645.9947302,-0.5544022476867803,-0.5090903542384446,-0.9875453619232292,-2.116098332490713,-4.084272613283949,-0.13091016164341732,-0.005116633111992011,-0.005007385554408026,0.01841210764282498,0.014325982433861417,0.0873949979022062,0.0239704788924675,-0.3265961706638336,-0.919398069381714,0.3205280900001526,0.7558587789535522,0.4565232098102569,0.1579928398132324
1749057645.994767,-0.5544105914971319,-0.5091003860337958,-0.9875119673652271,-2.116069643810824,-4.084097221218337,-0.13085976916168637,-0.0052303997476935505,-0.005164331948915135,0.018714692623899108,0.014666226061758757,0.08831945921315756,0.023965481308678392,-0.3218035101890564,-0.9450589418411256,0.325433611869812,0.7666241526603699,0.4579071998596191,0.1578468382358551
1749057645.994804,-0.5544191861376634,-0.5091105625174326,-0.987477532220318,-2.1160402932705775,-4.083920448098225,-0.13080909883884922,-0.005334030952314918,-0.005289693371453948,0.01902672692668825,0.014990563214749376,0.08925575244558469,0.02395931727890753,-0.3216372728347778,-0.9238104820251464,0.3288978934288025,0.7544902563095093,0.4478572607040405,0.1784603595733642
1749057645.994851,-0.5544280690059556,-0.5091208059615747,-0.9874420434725508,-2.116010305253235,-4.083742270460361,-0.13075833280648752,-0.005425634201044857,-0.005385168109692823,0.01935048997646504,0.015296478751138756,0.09021753364260333,0.023961418030420522,-0.2853788137435913,-0.9265569448471068,0.33466637134552,0.7499451637268066,0.4305242896080017,0.1787857115268707
1749057645.9948983,-0.5544372719048478,-0.5091310535162448,-0.987405530089043,-2.1159797040309067,-4.083562613708926,-0.13070761151768046,-0.005504573941096352,-0.005454223645824086,0.019688438791737314,0.015583209735368697,0.0912210836226968,0.02397904211094282,-0.3389109075069427,-0.9408968687057496,0.3290659785270691,0.7672601938247681,0.4419233500957489,0.1607346832752227
1749057645.994937,-0.5544468211335561,-0.5091412599248101,-0.9873680588813187,-2.115948512479642,-4.083381351477592,-0.13065703266839368,-0.005571510045141758,-0.005501864927046163,0.020043034256792037,0.01585156153379549,0.09228474797048543,0.024017521520078872,-0.3171485662460327,-0.9401926398277284,0.3409926891326904,0.7705122232437134,0.4144583940505981,0.1552702784538269
1749057645.994974,-0.5544567393223679,-0.5091514003859984,-0.9873297252191136,-2.115916751171528,-4.083198309434388,-0.13060665153825585,-0.005628307205666973,-0.005534279869746747,0.02041652344150355,0.016103636858393593,0.09342782994824582,0.024080749308629416,-0.3470826148986816,-0.9493209719657898,0.3302199244499206,0.7857342958450317,0.4274874031543731,0.1604449599981308
1749057645.99501,-0.5544670481884446,-0.509161473085186,-0.9872906400268145,-2.1158844378278845,-4.08301327298594,-0.13055648253771862,-0.005677831632499035,-0.005558403217852779,0.02081069805135038,0.016342510511356843,0.09466895932794589,0.024171760379043773,-0.2990626692771911,-0.9669024348258972,0.3414272964000702,0.7592158913612366,0.4400719404220581,0.1621382534503936
1749057645.995055,-0.5544777708370101,-0.5091715003894778,-0.9872509149877938,-2.1158515871740264,-4.082825997706948,-0.13050650244586076,-0.0057236715076191425,-0.005581447336003413,0.021226666882441993,0.016571887720465202,0.09602410120336977,0.02429325583917521,-0.3333020508289337,-0.9562401175498962,0.3704629242420196,0.7614282369613647,0.4586354494094848,0.1614166498184204
1749057645.995093,-0.5544889324051193,-0.5091815276903171,-0.9872106478296294,-2.115818211039412,-4.082636220759368,-0.13045665590804476,-0.005769827307787343,-0.005610443126886973,0.021664687128599702,0.016795769057509898,0.09750449339894283,0.024447949883817963,-0.3166643381118774,-0.958392322063446,0.3569814264774322,0.7752964496612549,0.4673373699188232,0.1601908802986145
1749057645.9951303,-0.5545005586539336,-0.5091916194453282,-0.9871699092856105,-2.115784318192736,-4.082443671475617,-0.13040686306106053,-0.005820409617013826,-0.005651821974205946,0.02212408892017341,0.017018123760037262,0.09911485116962386,0.024638671921192477,-0.3277406990528106,-0.9877499341964722,0.3574533760547638,0.7723486423492432,0.4300698637962341,0.1684356033802032
1749057645.9952471,-0.5545126729943927,-0.5092018526645352,-0.9871287330836667,-2.1157499132917965,-4.082248079899248,-0.13035702810675778,-0.005879359117800487,-0.005711060092761397,0.022603303957639775,0.017242565484351234,0.10085213635867442,0.024868221662683456,-0.3255065977573395,-0.9771792888641356,0.3466359674930572,0.7721356153488159,0.4754924178123474,0.1705525070428848
1749057645.9964008,-0.5545252927685936,-0.5092123084879994,-0.9870871100854255,-2.1157149947198564,-4.082049183039454,-0.13030704704361384,-0.005950183133198478,-0.005792404266807221,0.023099983991371156,0.017472038052620886,0.10270509755873997,0.02513903284768911,-0.3258656859397888,-0.9919105768203736,0.3691304922103882,0.7784226536750793,0.4766905605792999,0.1690866351127624
1749057646.0423117,-0.5545384253932272,-0.5092230627155645,-0.9870449872535177,-2.1156795517878284,-4.081846729293812,-0.1302568130464189,-0.006035702240403113,-0.005898697145705297,0.023611178948785276,0.01770854427963376,0.104654693475794,0.025452738931245524,-0.3498949706554413,-1.0080113410949707,0.3724737167358398,0.7825673222541809,0.4637719094753265,0.1717995256185531
1749057646.0423572,-0.5545520646609254,-0.509234176493737,-0.987002271317089,-2.115643562365023,-4.08164048176797,-0.13020621894161877,-0.006137818748609965,-0.006031312164679656,0.02413354034223574,0.017952968581172582,0.10667541370538153,0.02580974651690679,-0.3506573438644409,-1.003924012184143,0.3611438870429992,0.7863928079605103,0.4656140208244324,0.1706076562404632
1749057646.0423975,-0.5545661874055516,-0.5092456888061941,-0.986958836059415,-2.115606992163162,-4.081430221241697,-0.13015515724868473,-0.006257338885984278,-0.006190191052203296,0.02466351945809608,0.018205037332078643,0.10873739742434609,0.026208911287262826,-0.3489164113998413,-1.0256060361862185,0.3521950244903564,0.7733389735221863,0.47916179895401,0.172349065542221
1749057646.0424516,-0.5545807508943537,-0.5092576125183916,-0.986914531573384,-2.1155697966105524,-4.081215749287411,-0.1301035188617348,-0.006393884945834143,-0.006373959398992094,0.02519754087620681,0.018463430786342924,0.11080913937578661,0.026647383653809194,-0.3456841111183166,-0.9966092705726624,0.3778599798679352,0.7723467946052551,0.4800087511539459,0.1679240465164184
1749057646.042493,-0.5545956916017099,-0.5092699350910161,-0.9868691939669398,-2.115531925616596,-4.08099689154645,-0.13005119149483194,-0.006545918747474687,-0.0065800900052550276,0.025732150075533675,0.018726024290212077,0.11286048889607102,0.02712065695800276,-0.3369458317756653,-0.9970763325691224,0.3807273507118225,0.7736395597457886,0.4855096340179443,0.1753839999437332
1749057646.0425315,-0.5546109261719115,-0.5092826237983761,-0.9868226547326286,-2.1154933307185697,-4.080773500784284,-0.12999805868204262,-0.006710873252139307,-0.006805093659921521,0.026264148211015994,0.018990211774610886,0.11486559132205555,0.02762281755824907,-0.3517440557479858,-1.0467923879623413,0.3737536370754242,0.7862483263015747,0.4563719630241394,0.1729107648134231
1749057646.0425732,-0.5546263551321605,-0.5092956339998849,-0.9867747498279301,-2.1154539733688646,-4.080545459441723,-0.12994399980051322,-0.006885368785584425,-0.007044732944127434,0.02679072121341255,0.019253256441592606,0.1168053886178081,0.028146966017596278,-0.3473687767982483,-1.0474833250045776,0.3773154318332672,0.7799183130264282,0.4696457982063293,0.191158652305603
1749057646.0426114,-0.5546418694037204,-0.5093089183621947,-0.9867253289261129,-2.115413832669366,-4.080312681857049,-0.12988889156896202,-0.0070654821013764295,-0.007294262099774646,0.02730954547705229,0.019512618799517788,0.11866930785935094,0.02868574909918213,-0.3417065739631653,-1.0495401620864868,0.3646537959575653,0.7800312638282776,0.4632347226142883,0.1856057792901992
1749057646.0426488,-0.5546573592557771,-0.5093224350583568,-0.986674265114144,-2.115372910857983,-4.08007511671458,-0.12983261161382248,-0.007247037745519985,-0.007548690288673354,0.02781883219090937,0.019766225562480165,0.12045584653319544,0.029231911637625372,-0.3430877923965454,-1.0408222675323486,0.3690173327922821,0.7815882563591003,0.4753714203834533,0.1885099560022354
1749057646.0426865,-0.5546727251382652,-0.5093361535519635,-0.986621464758915,-2.1153312354374956,-4.079832750206959,-0.1297750445442952,-0.007425893117298165,-0.007803054786119434,0.028317278081797813,0.020012661228379292,0.12217190989299759,0.029778754790898553,-0.3328657746315002,-1.0600173473358154,0.3776208162307739,0.7929521203041077,0.4613218307495117,0.16476771235466
1749057646.0427277,-0.5546878895565461,-0.5093500572412986,-0.9865668766473742,-2.115288857834251,-4.079585609741013,-0.12971609031393386,-0.007598188569612166,-0.008052684928309716,0.028803919655318956,0.020251284485571317,0.12383094170625945,0.030320392700762297,-0.3670023679733276,-1.0540616512298584,0.3796133697032928,0.7710992693901062,0.4738147854804992,0.1699197739362716
1749057646.0427666,-0.5547028086538044,-0.5093641428863992,-0.9865104989972381,-2.1152458492702553,-4.079333766890657,-0.12965567372396453,-0.007760538725756886,-0.008293438930477312,0.029277921506213802,0.020482285146453363,0.12545008510942232,0.030851747544308826,-0.3670023679733276,-1.0540616512298584,0.3796133697032928,0.7710992693901062,0.4738147854804992,0.1699197739362716
1749057646.0428042,-0.5547174816163927,-0.5093784174081014,-0.9864523826898766,-2.1152022946443307,-4.079077337243686,-0.1295937532831056,-0.007910155366626885,-0.008521898815279219,0.029738349947367456,0.02070669416227206,0.12704678272812342,0.031368305166251095,-0.3307262063026428,-1.0764122009277344,0.3945513367652893,0.795137882232666,0.4610976576805115,0.1905168443918228
1749057646.0428412,-0.5547319557452096,-0.5093928932484502,-0.9863926293813898,-2.11515828491084,-4.078816474889042,-0.12953032771746542,-0.008044908872344493,-0.008735509543067227,0.030183985912136,0.020926343264303055,0.1286353362608111,0.03186574043337015,-0.3536750674247741,-1.082099199295044,0.3790710866451263,0.7775267958641052,0.4675911068916321,0.1977267861366272
1749057646.042882,-0.554746325364228,-0.5094075838109736,-0.9863313841408323,-2.115113908399451,-4.07855136135954,-0.12946543917201286,-0.008163344670890584,-0.008932648914936463,0.030613219349257165,0.02114375771834903,0.13022396326797175,0.032339578492266284,-0.3558743894100189,-1.088395357131958,0.3722156584262848,0.7830157279968262,0.4616490602493286,0.2086839973926544
1749057646.04292,-0.5547607238136194,-0.509422500379263,-0.9862688235736876,-2.1150692419540222,-4.078282191931047,-0.12939917296949352,-0.008264671893305328,-0.009112620183900414,0.03102404818166917,0.021361965879103783,0.13181280867885523,0.0327850604337274,-0.3520682752132416,-1.0735573768615725,0.3926966786384582,0.7887946367263794,0.4759299159049988,0.2187923640012741
1749057646.0429635,-0.5547753093088613,-0.5094376513036195,-0.9862051413633325,-2.1150243432489995,-4.0780091639534675,-0.12933165412709058,-0.008348736735799495,-0.009275571851985543,0.031414185178160685,0.021584221461263195,0.13339321900121037,0.03319732240120658,-0.3293134868144989,-1.073511242866516,0.3873516023159027,0.7918576002120972,0.487321138381958,0.2016158401966095
1749057646.0430157,-0.5547902467819676,-0.5094530433595027,-0.9861405334929575,-2.1149792456950642,-4.077732471111405,-0.1292630407497067,-0.008415984985220075,-0.009422364623218176,0.03178125944536255,0.021813653621939006,0.13494840710958497,0.033571892054320464,-0.3202402293682098,-1.107365608215332,0.3708092272281647,0.7725310325622559,0.475271463394165,0.1913052201271057
1749057646.0430577,-0.5548056884790887,-0.5094686844307232,-0.9860751852465519,-2.114933956891305,-4.077452305055955,-0.12919351439862678,-0.00846741072555712,-0.009554416244361994,0.03212308681864846,0.022052881631971038,0.13645544216854627,0.03390539513345556,-0.3229424953460693,-1.1061135530471802,0.3845030963420868,0.7813045382499695,0.466763436794281,0.1893568933010101
1749057646.0430954,-0.5548217560588232,-0.5094845863809855,-0.9860092615900944,-2.114888460834614,-4.07716886324973,-0.129123267804361,-0.008504487648903533,-0.009673555327264344,0.032437976145523906,0.022303648761243754,0.1378882908129877,0.03419629393574166,-0.3634828329086303,-1.0985701084136963,0.3877170085906982,0.7743551731109619,0.4688511192798614,0.2017988860607147
1749057646.0431328,-0.5548385263975004,-0.5095007671721136,-0.9859429016336659,-2.1148427233523748,-4.0768823600514255,-0.12905249077058864,-0.008529085429672489,-0.009781904097865531,0.032725034593229466,0.022566534008022446,0.13922143220579522,0.03444547146942921,-0.3391847014427185,-1.1202948093414309,0.3672355115413666,0.7793670892715454,0.4676913619041443,0.1859835982322693
1749057646.0431693,-0.5548560224520452,-0.5095172517338613,-0.9858762166614304,-2.1147966996777576,-4.076593037349673,-0.12898135569573774,-0.00854337813356022,-0.009881791765699888,0.03298443032341058,0.022840782781609625,0.14043343220046628,0.03465651629415914,-0.3301765024662018,-1.126996994018555,0.3721349239349365,0.7725792527198792,0.4039596915245056,0.1972955018281936
1749057646.043312,-0.5548742097052892,-0.5095340715193505,-0.9858092902902674,-2.1147503427646956,-4.076301171376252,-0.1289100046671781,-0.008549750041422069,-0.009975683429913907,0.03321756853313231,0.023124264609455755,0.14150985809143446,0.03483562612759106,-0.3477842807769775,-1.114343523979187,0.3742100298404693,0.7610236406326294,0.4315007925033569,0.1839058399200439
1749057646.0444193,-0.5548929982631969,-0.5095512629484233,-0.985742179303276,-2.1147036108283315,-4.076007073340622,-0.12883854025367097,-0.008550700914281378,-0.010066101381015175,0.03342714920595157,0.023413538993119293,0.1424450732630333,0.03499111937642962,-0.3483694493770599,-1.1198621988296509,0.4025762677192688,0.7802761197090149,0.4616053700447082,0.1822965741157531
1749057646.0862682,-0.5549122504595712,-0.5095688649991624,-0.985674914467622,-2.114656472752946,-4.075711082858108,-0.1287670216450967,-0.008548752139772365,-0.010155518456525264,0.03361710264792214,0.023704008276173777,0.14324273169627535,0.03513262015221169,-0.3377012312412262,-1.1557896137237549,0.3915992677211761,0.7747660875320435,0.422033429145813,0.1850516349077224
1749057646.0863163,-0.5549317933950129,-0.5095869161003579,-0.9856075014127924,-2.1146089105014365,-4.075413554607304,-0.12869546665244347,-0.008546356029035024,-0.01024621522238762,0.03379242223691003,0.023990152440354354,0.14391509277666453,0.03527005286629492,-0.3417114913463592,-1.1314796209335327,0.3916807472705841,0.7754496932029724,0.433508038520813,0.1946988701820373
1749057646.086368,-0.5549514351283706,-0.509605450434544,-0.9855399218862873,-2.114560918463487,-4.075114840041009,-0.12862385863663697,-0.008545811064143666,-0.010340110572770192,0.03395891631667112,0.024265849838249438,0.14448148927998744,0.03541262552432687,-0.3391686975955963,-1.150354027748108,0.3801687061786651,0.7711632251739502,0.4432443380355835,0.197573184967041
1749057646.0864086,-0.5549709827336377,-0.5096244939722588,-0.9854721356006486,-2.114512500562383,-4.074815266818771,-0.1285521562615534,-0.008549188120661739,-0.010438592434398028,0.03412289049259065,0.02452477532331352,0.14496636562784693,0.035567980840421246,-0.3363998532295227,-1.1454797983169556,0.3765600919723511,0.7740024328231812,0.4280770421028137,0.218281865119934
1749057646.0864468,-0.5549902604690218,-0.5096440608396118,-0.9854040828892635,-2.1144636664978287,-4.074515118568032,-0.12848030354927423,-0.008558276815985602,-0.01054238299618749,0.03429076853330257,0.02476084298595008,0.14539728095144694,0.03574165098083478,-0.3583357632160187,-1.1555674076080322,0.3899115025997162,0.7654441595077515,0.4454429745674133,0.2086500823497772
1749057646.0864844,-0.5550091265933051,-0.509664150662494,-0.9853356885930428,-2.114414428476707,-4.074214616875846,-0.12840823813522223,-0.008574562201154871,-0.010651465964027516,0.034468674347379734,0.024968644798402002,0.14580317127698517,0.03593687672849086,-0.3666512966156006,-1.155914306640625,0.396326333284378,0.7522999048233032,0.4524013102054596,0.1923186182975769
1749057646.0865252,-0.5550274874379076,-0.5096847473515107,-0.9852668677288281,-2.1143647992847274,-4.073913906675141,-0.1283358965707261,-0.008599235925032103,-0.01076508601474131,0.0346620166126299,0.025143839995335794,0.14621301393683142,0.03615476595866671,-0.3680423200130462,-1.1724025011062622,0.3896292448043823,0.7677977681159973,0.4441320896148681,0.2012872099876403
1749057646.086564,-0.5550453071704075,-0.5097058195786529,-0.9851975332869644,-2.114314791884208,-4.073613045717753,-0.12826321658440082,-0.00863323424662747,-0.010881813854966789,0.034875120078104914,0.02528346871485215,0.1466548764101107,0.03639469609461257,-0.3395526111125946,-1.1687859296798706,0.3885194361209869,0.7576813697814941,0.437039166688919,0.1929788589477539
1749057646.0866013,-0.5550626116596472,-0.5097273229087665,-0.9851276059149131,-2.1142644201798735,-4.073311998549915,-0.12819013703851845,-0.008677282875199465,-0.010999661807186875,0.03511093016002991,0.025386182930758033,0.14715520904502505,0.03665483116642077,-0.3226188719272613,-1.1552172899246216,0.3892945647239685,0.7574500441551208,0.4522973001003265,0.2043505311012268
1749057646.0866387,-0.5550794853389746,-0.5097492030854189,-0.9850570244022326,-2.114213700397265,-4.0730106352610544,-0.12811659665763084,-0.008731922294633829,-0.011116235023133761,0.03537080157185481,0.025452395426382977,0.14773818980708203,0.03693262910371297,-0.3174833059310913,-1.1610537767410278,0.4055791199207306,0.7540470957756042,0.4265385568141937,0.1882774829864502
1749057646.0866756,-0.5550960609555402,-0.5097713995745636,-0.9849857551463004,-2.114162652687244,-4.072708735285718,-0.12804253244521727,-0.00879749257503418,-0.011228908495518754,0.0356543853380687,0.0254843425748748,0.148424957700178,0.03722524605976112,-0.3327347040176391,-1.1749308109283447,0.3911691606044769,0.7619880437850952,0.4436286687850952,0.200058102607727
1749057646.0867128,-0.555112503243724,-0.509793848578065,-0.9849137985762251,-2.1141113028173297,-4.072405996605795,-0.12796787833433,-0.008874072182527528,-0.011335025040537704,0.035959643395325466,0.025486048737898,0.14923266444430333,0.0375297862019938,-0.3213958740234375,-1.169805884361267,0.3948540687561035,0.7435538172721863,0.4573706388473511,0.2068584561347961
1749057646.0867496,-0.555128988547273,-0.5098164853756761,-0.9848411909709015,-2.1140596837774397,-4.072102050548826,-0.12789256446697617,-0.008961383193904802,-0.01143211007849339,0.036283023248389765,0.025463180421504784,0.15017339844384722,0.03784338914041178,-0.3444251716136932,-1.1527609825134275,0.3890735507011413,0.7562020421028137,0.4350209534168243,0.2091984152793884
1749057646.0867865,-0.5551456831300838,-0.5098392464934788,-0.9847680009335874,-2.1140078368005892,-4.071796481807559,-0.12781651771278194,-0.009058689111552044,-0.011518093641039428,0.03661980422271626,0.02542279201504457,0.15125315057883337,0.03816319000416604,-0.3493702411651611,-1.177489995956421,0.3709392249584198,0.7460878491401672,0.4587392508983612,0.2126485407352447
1749057646.0868237,-0.5551627232652587,-0.5098620723169952,-0.984694320612351,-2.1139558110438266,-4.071488852552246,-0.12773966425357752,-0.009164718046569159,-0.01159152034796654,0.036964589471682845,0.025372986904949713,0.15247106548526076,0.038486222569065795,-0.3402328193187713,-1.1842176914215088,0.389003038406372,0.7416518926620483,0.4914373159408569,0.2068585753440857
1749057646.0868618,-0.5551802000245972,-0.5098849104243895,-0.9846202524649809,-2.113903661306759,-4.071178729060314,-0.12766193472090925,-0.009277641595745801,-0.011651719282089934,0.037311884299749964,0.02532253343581504,0.1538192358925139,0.03880935225267113,-0.3386248648166656,-1.1643599271774292,0.3885704576969147,0.7658748030662537,0.4517390727996826,0.1932078450918197
1749057646.0869088,-0.5551981510051011,-0.5099077194527102,-0.9845458929996492,-2.113851443642235,-4.070865709150903,-0.12758327136247646,-0.009395128848181661,-0.011698904050098269,0.03765668716227458,0.025280471716904784,0.1552832379902642,0.03912931570457212,-0.3429873287677765,-1.1735421419143677,0.3825593590736389,0.7429219484329224,0.4622899293899536,0.2072145491838455
1749057646.086948,-0.5552165601799852,-0.5099304729040862,-0.9844713154488303,-2.1137992092761304,-4.070549448342074,-0.12750363558765726,-0.009514480018888159,-0.011734181842151086,0.03799502397648438,0.02525572767435865,0.15684347488433575,0.039442909068553945,-0.3449671864509582,-1.1649738550186155,0.3858057856559753,0.7553382515907288,0.4630024433135986,0.2178580611944198
1749057646.0869946,-0.555235365776076,-0.5099531620432686,-0.9843965536613396,-2.1137469976824104,-4.070229681921429,-0.12742301377853496,-0.009632830725240933,-0.011759466206161763,0.03832436795547205,0.025256732568045313,0.15847722851436813,0.03974731756233505,-0.3362529277801513,-1.1874374151229858,0.3982982635498047,0.7552754878997803,0.4523051679134369,0.2147957384586334
1749057646.0870328,-0.5552544747000279,-0.5099757970895354,-0.9843215895880897,-2.1136948298631255,-4.069906239687088,-0.12734141973271967,-0.00974740681258247,-0.011777305835557165,0.03864389958117898,0.02529104499564777,0.16016116837146094,0.04004053153500518,-0.3406927585601806,-1.198696494102478,0.3762049674987793,0.7691356539726257,0.4614117443561554,0.2113988399505615
1749057646.0871398,-0.5552737808658889,-0.5099984062441446,-0.984246346560305,-2.11364270287182,-4.0695790505571035,-0.12725889310279548,-0.009855796677992553,-0.011790656422567939,0.03895457600738449,0.025364988519707046,0.1618739608821257,0.04032176592901323,-0.3252719342708587,-1.1938071250915527,0.3811029195785522,0.7683309316635132,0.4873396456241607,0.2254157364368438
1749057646.0883963,-0.5552931841476426,-0.5100210324338197,-0.9841706900176007,-2.1135905864286584,-4.069248135521603,-0.12717549414363688,-0.009956193272566888,-0.011802630853062749,0.03925899834409918,0.02548333684278646,0.163598582008572,0.04059179687415719,-0.326953649520874,-1.1982357501983645,0.3633786737918854,0.7760344743728638,0.4669761657714844,0.2246833145618438
1749057646.130273,-0.5553126067229641,-0.5100437278349986,-0.9840944364002217,-2.113538422099935,-4.068913589185129,-0.12709129580647374,-0.010047551544724245,-0.01181626162041538,0.03956108874894635,0.0256490819430981,0.16532397095330892,0.04085314604408423,-0.3056311309337616,-1.1744590997695925,0.3916488289833069,0.7760161757469177,0.4830695390701294,0.2197904586791992
1749057646.1303227,-0.5553320042169984,-0.5100665464806268,-0.984017369705588,-2.11348612501711,-4.068575552061437,-0.12700637475893883,-0.010129619450288332,-0.011834299705249914,0.039865615196076586,0.025863302194944877,0.16704578128622422,0.04111007461332052,-0.317344456911087,-1.1992533206939695,0.3896039128303528,0.7569265961647034,0.4471458196640014,0.2031488567590713
1749057646.130364,-0.5553513701000558,-0.5100895357625707,-0.9839392639108625,-2.1134335877240185,-4.068234177475877,-0.12692080306837059,-0.010202830889534336,-0.01185906210298353,0.04017762490737588,0.026125118926220832,0.16876616677154174,0.04136838652335052,-0.3239995241165161,-1.1953479051589966,0.3848980069160461,0.7741578817367554,0.48654305934906,0.2118705362081527
1749057646.1304033,-0.5553707329891743,-0.5101127282883076,-0.9838599082623357,-2.1133806856676274,-4.067889598093334,-0.12683464184132806,-0.010268086275184914,-0.011892330353722936,0.040501859289056384,0.02643171307728264,0.1704927323237708,0.041635073115802106,-0.3512079119682312,-1.1895227432250977,0.368802011013031,0.7599854469299316,0.4863482713699341,0.2271806597709655
1749057646.130442,-0.5553901477034342,-0.5101361359289548,-0.9837791316269763,-2.1133272840167816,-4.067541897451658,-0.12674793728295472,-0.01032647733020538,-0.011935296252739968,0.04084221932871459,0.026778383231381462,0.17223692887875797,0.041917848703089615,-0.3542877733707428,-1.198091983795166,0.3852624595165252,0.7791274785995483,0.4984602332115173,0.2281577885150909
1749057646.1304803,-0.5554096820535626,-0.5101597476722122,-0.9836968220651444,-2.1132732456103973,-4.067191091148616,-0.12666071894405206,-0.010379026160879028,-0.011988548670723548,0.04120133550534429,0.027158657455871687,0.17401223080994607,0.04222462678670995,-0.3392377197742462,-1.1991403102874756,0.3734672963619232,0.774567723274231,0.4747409522533417,0.2063462436199188
1749057646.1305203,-0.5554294021417243,-0.5101835320203733,-0.9836129386657639,-2.1132184396597973,-4.066837120428519,-0.12657299961786997,-0.01042650125604615,-0.012052097249938967,0.041580279370382556,0.027564503072484522,0.1758323852231391,0.04256297261254797,-0.3232700228691101,-1.2043629884719849,0.3869710564613342,0.7980619072914124,0.4738809466361999,0.2021988332271576
1749057646.1305585,-0.5554493590200643,-0.510207443429964,-0.983527514247511,-2.1131627504135926,-4.0664798582831665,-0.1264847762769201,-0.010469349813679918,-0.012125433494252172,0.04197843942165207,0.027986687005983276,0.17770988458562634,0.04293955310979761,-0.3554612398147583,-1.2066751718521118,0.3837983608245849,0.7771673798561096,0.4570250511169433,0.2146370261907577
1749057646.130596,-0.5554695788945424,-0.5102314311629681,-0.9834406492856426,-2.1131060846556826,-4.066119125661079,-0.12639603142399652,-0.010507754997289455,-0.012207633494910202,0.04239356861352235,0.028415313689317313,0.1796546568262702,0.04335960897817094,-0.3382871150970459,-1.2014583349227903,0.3870881497859955,0.7902536392211914,0.4622034728527069,0.2299292534589767
1749057646.1306324,-0.555490058170989,-0.5102554483744872,-0.9833524988501411,-2.1130483769577837,-4.065754713814142,-0.1263067343087382,-0.010541795301035911,-0.012297503872307066,0.042821989598337155,0.0288405185133709,0.18167287580655012,0.043826497420819406,-0.3327756226062774,-1.1993088722229004,0.3690428733825683,0.7832598686218262,0.4688592255115509,0.2285741567611694
1749057646.1306703,-0.5555107639701821,-0.5102794594756965,-0.9832632550776336,-2.1129895921040647,-4.065386408678633,-0.1262168416345836,-0.010571655982067036,-0.012393761859939234,0.04325891900623786,0.029253248436749302,0.18376582067572697,0.04434137354040792,-0.3283416926860809,-1.1967605352401731,0.374037891626358,0.7991894483566284,0.4844364523887634,0.2320707738399505
1749057646.1307075,-0.5555316401569294,-0.5103034445777845,-0.9831731277511496,-2.112929724774578,-4.0650140142911795,-0.1261262974683213,-0.010597825140740624,-0.01249522733664041,0.04369885744041369,0.029646037368884375,0.1859288420798844,0.044903067406804206,-0.3493266999721527,-1.202792048454285,0.3741784691810608,0.786033034324646,0.4792794287204742,0.2212017029523849
1749057646.1307442,-0.5555526180599256,-0.5103274007694287,-0.9830823252428086,-2.1128687969953375,-4.064637373710695,-0.12603503209437272,-0.010621207573940536,-0.012600997014774707,0.044135997693205274,0.0300136827763264,0.188150657059164,0.04550816985625735,-0.3336637318134308,-1.1970146894454956,0.3724417984485626,0.8011722564697266,0.5189394950866699,0.2120596468448639
1749057646.1307807,-0.5555736299731858,-0.5103513408362218,-0.9829910376625601,-2.112806853861548,-4.064256386796584,-0.12594295995584767,-0.010643113346416407,-0.012710571629007157,0.0445646185982506,0.030353741096506372,0.19041329955397504,0.046151284361606516,-0.3335578739643097,-1.201345920562744,0.3748560547828674,0.7919943928718567,0.5246158242225647,0.2394295483827591
1749057646.1308177,-0.5555946227580275,-0.5103752906530736,-0.9828994235604851,-2.112743957870007,-4.063871024169874,-0.12584997774681256,-0.010665120767777984,-0.012823913112704552,0.044979434964348905,0.030666776145051547,0.19269302314980377,0.046825360317780194,-0.3545211851596832,-1.2081211805343628,0.35531947016716,0.7995371222496033,0.52117919921875,0.2197810262441635
1749057646.130854,-0.5556155688375826,-0.5103992867323002,-0.9828076008648786,-2.1126801822250427,-4.063481336192649,-0.1257559645497707,-0.010688860444265116,-0.01294141804679557,0.04537586733517298,0.030956317149011855,0.19496226365345262,0.04752200995076773,-0.33778977394104,-1.2212765216827393,0.3645899295806885,0.7759775519371033,0.5234590768814087,0.2073013931512832
1749057646.1308937,-0.5556364726074016,-0.510423375109795,-0.9827156420381751,-2.1126156037719244,-4.063087455451905,-0.12566078592559798,-0.01071579909858191,-0.013063805986223266,0.04575020308040493,0.031228513573302745,0.19719247265182477,0.04823173376314964,-0.3732065260410309,-1.2302066087722778,0.3849834203720093,0.7743126153945923,0.5033069849014282,0.2240411043167114
1749057646.130931,-0.555657371416235,-0.5104476118644496,-0.9826235730435909,-2.1125502964776692,-4.062689591337087,-0.1255643030040712,-0.010747103531377871,-0.013191935930931086,0.04609964932709212,0.03149151209109577,0.19935734112621975,0.048944041608033825,-0.3583158254623413,-1.2032570838928225,0.3620563745498657,0.7826457619667053,0.4991397559642792,0.206735223531723
1749057646.130968,-0.5556783311852238,-0.510472064467862,-0.9825313758249927,-2.11248432628983,-4.0622880159083605,-0.12546638629411772,-0.010783631798619246,-0.01332657896904902,0.04642230412183258,0.031754620943762225,0.20143576776832847,0.049647545336345224,-0.3142959773540497,-1.2312898635864258,0.3626298308372497,0.7991226315498352,0.4558266401290893,0.2306487560272216
1749057646.131004,-0.5556994370432694,-0.5104968124657713,-0.9824389943603687,-2.112417747699492,-4.061883041362982,-0.12536693248859043,-0.010826041263370714,-0.013468187628560979,0.04671707553322525,0.0320273565439378,0.2034139702272679,0.050330170766818415,-0.3259601294994354,-1.225559949874878,0.3634712398052215,0.7994628548622131,0.4902806282043457,0.2421876490116119
1749057646.131112,-0.555720779530151,-0.510521945990263,-0.9823463444297309,-2.112350601728136,-4.06147499096622,-0.12526588133583688,-0.010874948286691596,-0.01361671013805657,0.04698357124801163,0.03231847543265479,0.20528638407862856,0.05097963602495812,-0.3234542310237884,-1.238295078277588,0.3687940537929535,0.7973837852478027,0.4669534862041473,0.229666382074356
1749057646.1324043,-0.5557424378364736,-0.5105475610967061,-0.9822533267282045,-2.1122829147934126,-4.061064167020729,-0.1251632292033237,-0.010931051290481168,-0.013771496198134742,0.04722198364004607,0.032635082308776646,0.20705534253266894,0.05158424972339758,-0.3377916812896728,-1.24871826171875,0.3703761100769043,0.8017967343330383,0.510177493095398,0.2132478058338165
1749057646.1782937,-0.5557644631349896,-0.5105737516096946,-0.9821598420657373,-2.1122146981217176,-4.060650820633085,-0.12505903657502385,-0.010995148827789058,-0.01393132514998932,0.04743300337880983,0.03298188551958502,0.20872982939998502,0.05213393910047657,-0.3266989886760711,-1.2262558937072754,0.3633944690227508,0.8127850294113159,0.5068584084510803,0.222072035074234
1749057646.1783428,-0.5557868660788035,-0.5106005979269442,-0.9820658066374255,-2.1121459477445437,-4.060235127969285,-0.12495342808500262,-0.011068034498731116,-0.01409455697102068,0.04761778835580923,0.033360659871364065,0.21032373079239358,0.0526213062028573,-0.3323550224304199,-1.214837670326233,0.351936787366867,0.8148397207260132,0.5039526224136353,0.2330512702465057
1749057646.1784,-0.5558096120644876,-0.5106281540994927,-0.9819711650597566,-2.112076645259513,-4.059817176230108,-0.12484658508453046,-0.01115030750299477,-0.0142593698028991,0.047777987902004354,0.033769975091004795,0.2118539498095753,0.05304248562038863,-0.3665536642074585,-1.225202560424805,0.3699918091297149,0.8251630067825317,0.4944161176681518,0.2080649137496948
1749057646.1784418,-0.5558326261463132,-0.5106564354482922,-0.981875899071854,-2.112006759435284,-4.059396960444119,-0.1247387317173377,-0.011242177448561196,-0.014424022245497298,0.047915791177862974,0.03420524375154673,0.21333856097196371,0.05339763303764466,-0.3543885946273803,-1.2384358644485474,0.3389212787151336,0.8151699304580688,0.4775522351264953,0.2190402746200561
1749057646.17848,-0.5558558072826463,-0.5106854096449688,-0.9817800304441006,-2.1119362485944717,-4.058974390478079,-0.12463011612381009,-0.011343345676699463,-0.014587078402481975,0.04803395349407768,0.03465911728847872,0.21479499027734775,0.053690962896765095,-0.3376326560974121,-1.228537678718567,0.3369787037372589,0.8238693475723267,0.4748794436454773,0.2269563972949981
1749057646.178517,-0.5558790493668221,-0.5107149940615606,-0.9816836176977624,-2.1118650636200744,-4.0585493070323695,-0.12452098897832388,-0.011453009124047382,-0.014747553819995759,0.04813576268396964,0.03512220613315614,0.2162381284759899,0.05393033641957311,-0.3229544460773468,-1.2276071310043335,0.3441556692123413,0.8104342818260193,0.4727773666381836,0.2223702669143676
1749057646.1785548,-0.5559022646338775,-0.51074506109518,-0.981586747540405,-2.1117931514681487,-4.058121505464557,-0.1244115820499343,-0.011569975748053877,-0.014904963190859492,0.04822493537745778,0.035584031668613264,0.21767837330192555,0.05412646490423859,-0.3266061842441559,-1.2389318943023682,0.3660902380943298,0.8014458417892456,0.4878432750701904,0.2074834108352661
1749057646.1785927,-0.5559254041176516,-0.5107754514072471,-0.9814895230352846,-2.1117204593332044,-4.057690766141835,-0.12430208955710703,-0.01169283343807871,-0.015059266007167641,0.04830546911304347,0.036034057099694795,0.2191198101589131,0.054291837460038364,-0.3239935636520386,-1.2319371700286863,0.3697333633899688,0.789508581161499,0.531954824924469,0.2237082868814468
1749057646.17863,-0.5559484703836965,-0.5108059931562996,-0.981392050985571,-2.111646939934124,-4.057256889137938,-0.12419265460894664,-0.011820099116056469,-0.015210718301287772,0.0483815000574596,0.036462614471998334,0.22055895529342218,0.054439505896449226,-0.3245225548744201,-1.2294751405715942,0.3546911180019378,0.7801868915557861,0.5211259126663208,0.2181082367897033
1749057646.1786673,-0.5559715197982287,-0.5108365239675288,-0.9812944306530421,-2.1115725583461664,-4.056819729666485,-0.12408336214294044,-0.011950295667713507,-0.015359653374903129,0.04845720702112236,0.03686156130516535,0.22198455698403477,0.054581860983748495,-0.3517240881919861,-1.23097026348114,0.3457189202308655,0.8031572699546814,0.5487653017044067,0.208525076508522
1749057646.178704,-0.555994654349881,-0.5108669119527915,-0.9811967450362254,-2.1114973002445825,-4.056379229230792,-0.12397423869944442,-0.012081949747164764,-0.015506230711198589,0.048536766386323205,0.03722456575210515,0.22337880021175416,0.05472952053272834,-0.3506686687469482,-1.2325868606567385,0.3696853816509247,0.7835949659347534,0.5330451130867004,0.2141733169555664
1749057646.178741,-0.5560180053610281,-0.5108970724762961,-0.9810990550464329,-2.1114211806480516,-4.055935436783215,-0.12386525827651704,-0.012213549613598981,-0.01565020317740896,0.04862433260138539,0.03754701968207793,0.22471992189312337,0.05489043382839511,-0.3669527769088745,-1.2426278591156006,0.3760291039943695,0.7721428275108337,0.5078493356704712,0.2254064530134201
1749057646.1787777,-0.5560417126364054,-0.5109269781850884,-0.9810013963723995,-2.1113442516502463,-4.055488514964424,-0.12375635261827023,-0.01234352226249637,-0.01579075189040712,0.04872401539283627,0.037825683720151104,0.22598584469073932,0.05506929417999469,-0.3523315191268921,-1.2354391813278198,0.357780784368515,0.7709886431694031,0.4649094343185425,0.2277345806360244
1749057646.1788142,-0.5560659028095181,-0.5109566608663326,-0.9809037785864299,-2.1112666074022277,-4.055038728902008,-0.12364742386202299,-0.012470270455675577,-0.01592642483612984,0.04883983382944144,0.03805824141925258,0.22715813497557807,0.055267331594976744,-0.3480908870697021,-1.2348229885101318,0.3521443605422973,0.7929231524467468,0.4607336521148681,0.2226665765047073
1749057646.1788516,-0.5560906701686661,-0.5109862049698334,-0.9808061859590835,-2.1111883848071598,-4.054586418366478,-0.12353835755813751,-0.012592266050407372,-0.01605519455685067,0.048975630427129824,0.038242956515586034,0.228225498394815,0.05548251797885667,-0.3521040678024292,-1.2476930618286133,0.3590859472751617,0.7965044975280762,0.4554360806941986,0.2161123752593994
1749057646.1788878,-0.5561160622369729,-0.5110157341085004,-0.980708579399662,-2.1111097590299215,-4.054131957219184,-0.12342903451842334,-0.012708157780669185,-0.016174628660523584,0.04913493074018998,0.03837857993646228,0.22918616433023783,0.055710160433085174,-0.3356736898422241,-1.2508755922317505,0.3766551613807678,0.7771921753883362,0.4701196253299713,0.2178800702095031
1749057646.1789248,-0.5561420712172079,-0.5110453931700418,-0.9806108989121478,-2.1110309339188422,-4.0536757062173585,-0.12331934052945998,-0.012816845888364632,-0.016282148385654692,0.04932074718944792,0.03846455133066834,0.2300487984520434,0.05594380213640334,-0.3688980340957641,-1.2145487070083618,0.3861889243125915,0.7718506455421448,0.4823500514030456,0.2141939997673034
1749057646.1789615,-0.556168631676344,-0.5110753293642016,-0.9805130660573833,-2.11095212846359,-4.053217966046593,-0.12320917353344786,-0.01291750502963808,-0.016375336539041004,0.049535344889735364,0.03850141500949573,0.23083189369882162,0.05617631053441266,-0.3535410761833191,-1.2318462133407593,0.3711417317390442,0.7457398772239685,0.4710453450679779,0.2010245323181152
1749057646.1789978,-0.5561956246516967,-0.5111056753988169,-0.9804149862165055,-2.1108735610501794,-4.052758937133331,-0.12309844837192176,-0.013009578715499058,-0.016452248575745707,0.04977999859467994,0.03849127792407212,0.23156182799827318,0.056401010105401786,-0.384514570236206,-1.214603066444397,0.3800287246704101,0.751551628112793,0.4881409108638763,0.2092618942260742
1749057646.1790347,-0.5562228881839023,-0.5111365371240624,-0.9803165508385586,-2.110795433342435,-4.052298691780731,-0.12298709957185064,-0.013092794111428765,-0.016511680413587304,0.050054772458941375,0.0384381313994364,0.23226991556509982,0.05661270501834417,-0.3923166990280151,-1.2362762689590454,0.3664501011371612,0.7563507556915283,0.4465977251529693,0.1659536361694336
1749057646.179071,-0.5562502336884304,-0.5111679866095372,-0.9802176400836288,-2.110717915331033,-4.051837162566661,-0.12287508280601896,-0.01316723857180988,-0.016553352565486474,0.05035835753385476,0.03834794363584023,0.23298884498254685,0.05680843845529482,-0.3579523861408233,-1.225996017456055,0.3812686800956726,0.7604595422744751,0.4557889699935913,0.1857062727212906
1749057646.1791077,-0.5562774666894266,-0.5112000601390676,-0.9801181261794222,-2.110641132785502,-4.051374148550371,-0.12276237540891531,-0.013233503415495559,-0.016577980191444297,0.050688008910595155,0.038228545362200016,0.23374893301259278,0.05698786983641937,-0.3505897521972656,-1.2388241291046145,0.3866938948631286,0.758824348449707,0.4311941862106323,0.2081135660409927
1749057646.1792176,-0.5563044096089892,-0.5112327596485332,-0.9800178774993092,-2.1105651581096927,-4.050909337946149,-0.12264897571027206,-0.013292857631568991,-0.016587211331072087,0.05103962562254311,0.03808939583504988,0.23457465185495827,0.05715323415228288,-0.3656258583068847,-1.226615071296692,0.3840718567371368,0.7599453926086426,0.485717236995697,0.2023451477289199
1749057646.1804645,-0.5563309237673829,-0.5112660560326221,-0.9799167631935817,-2.110490005259054,-4.050442343469081,-0.12253490038910665,-0.013347388521483108,-0.01658343111167576,0.05140800018771133,0.03794129874305935,0.23548190034329877,0.05730895707230242,-0.3770715594291687,-1.2192442417144775,0.3879181146621704,0.744393527507782,0.5031769275665283,0.2078409940004348
1749057646.2222822,-0.5563569276337286,-0.5112998932624525,-0.9798146583688744,-2.110415628862977,-4.049972745204645,-0.12242017911059323,-0.01340004883749631,-0.016569449488112478,0.05178723047558345,0.03779607350498981,0.23647644633279374,0.05746107744692995,-0.3671843707561493,-1.2277437448501587,0.4101540744304657,0.7609390020370483,0.5031373500823975,0.2077012211084365
1749057646.2223346,-0.5563824087685961,-0.5113341929043098,-0.9797114500428515,-2.110341927250189,-4.049500135398093,-0.1223048465156721,-0.013454573494113803,-0.016548113126807554,0.05217124687425506,0.037666137588034616,0.23755381873134576,0.05761663144906816,-0.3701273798942566,-1.21275794506073,0.3787682354450226,0.7433867454528809,0.4852079153060913,0.2012686431407928
1749057646.222376,-0.5564074278635802,-0.511368859064702,-0.9796070439491934,-2.110268748909402,-4.049024159485039,-0.1221889327148977,-0.013515257372012597,-0.01652190250271621,0.05255438009552314,0.03756395110214599,0.23870066031683837,0.05778309113769101,-0.3518297970294952,-1.239857792854309,0.3914423882961273,0.7469483613967896,0.474550187587738,0.2070626020431518
1749057646.2224154,-0.5564321146330707,-0.5114037838396215,-0.979501371676251,-2.110195901909524,-4.048544548028507,-0.12207245415675887,-0.013586608778195257,-0.01649258527750749,0.05293189200085369,0.03750130586504709,0.23989723437355776,0.057967872560497916,-0.3696222901344299,-1.2503314018249512,0.4039267599582672,0.747728705406189,0.4477067589759826,0.1956703960895538
1749057646.2224543,-0.5564566565727744,-0.5114388530354425,-0.9793943969801362,-2.110123165752407,-4.04806113561939,-0.12195540679943503,-0.013672910578998537,-0.016460992004999817,0.053300412318720486,0.03748848612473468,0.24112054256360507,0.05817787671739171,-0.3711434602737427,-1.2337733507156372,0.4215155839920044,0.7589048147201538,0.4513436555862427,0.1832298189401626
1749057646.2224934,-0.5564812823330156,-0.5114739514912796,-0.9792861197928396,-2.110050305021356,-4.047573865535556,-0.12183776303557897,-0.013777735348056104,-0.01642696029457761,0.053658251177793236,0.03753337974514724,0.2423474712972049,0.05841902323206603,-0.3802967071533203,-1.2446820735931396,0.3717034459114074,0.7602087259292603,0.4673936367034912,0.1978005170822143
1749057646.2225316,-0.5565062416302379,-0.5115089671324944,-0.9791765765684102,-2.1099770840471357,-4.047082782178856,-0.12171947309056767,-0.013903470045642411,-0.016389462390706627,0.05400557283681742,0.037640672022959794,0.24355754282814404,0.0586957848337013,-0.3527902960777282,-1.23498797416687,0.3864674568176269,0.772896945476532,0.482260525226593,0.2295315861701965
1749057646.2225692,-0.5565317834777281,-0.51154379321355,-0.9790658361764797,-2.109903281616822,-4.046588015464516,-0.12160047083221119,-0.014050906559828892,-0.016346895964783247,0.05434442020427722,0.03781128831043777,0.24473508852386777,0.05901080188693138,-0.3866567015647888,-1.222709894180298,0.4022775888442993,0.7748915553092957,0.4981840848922729,0.2256071865558624
1749057646.2226064,-0.5565581343455479,-0.5115783289883653,-0.9789539914870176,-2.10982870456564,-4.046089761559879,-0.12148068314648615,-0.014218950054106758,-0.016297488564740042,0.05467858668040562,0.038042239153981514,0.24587083139370156,0.05936469203219799,-0.3891790807247162,-1.236783742904663,0.4044075608253479,0.7804550528526306,0.4845943748950958,0.2009500563144683
1749057646.2226477,-0.5565854779215287,-0.5116124797980017,-0.978841147827291,-2.109753199046375,-4.045588263104964,-0.12136004132013505,-0.014404494245325628,-0.016239749375613916,0.0550133430117737,0.03832695590119636,0.24696288498741378,0.05975613124956818,-0.3790537416934967,-1.2278693914413452,0.3996344208717346,0.7814871668815613,0.4629501700401306,0.205511137843132
1749057646.222686,-0.55661393841793,-0.5116461578498614,-0.9787274102288583,-2.109676658375731,-4.0450837903355135,-0.12123849243918715,-0.014602510161297641,-0.01617289739612933,0.05535503068163695,0.038656106830105244,0.24801709072395164,0.06018219374857934,-0.3662902116775512,-1.2175228595733645,0.3912263810634613,0.7883586883544922,0.4366171360015869,0.215626448392868
1749057646.222723,-0.5566435694325872,-0.5116792847049516,-0.9786128715042683,-2.109599026516152,-4.044576623151668,-0.12111600884517032,-0.014806380701518662,-0.016097199578531493,0.05571053309104309,0.03901878702824828,0.24904654206278204,0.06063886367593776,-0.414854347705841,-1.2453043460845947,0.3898317217826843,0.7743095755577087,0.4059712290763855,0.2235229313373565
1749057646.2227592,-0.5566743498429125,-0.5117117958347395,-0.9784976026663269,-2.1095202964629545,-4.044067033482587,-0.12099259409760259,-0.015008477367272578,-0.016014165494275392,0.05608664822182916,0.0394039072277705,0.2500701825966282,0.06112161008305019,-0.3760985732078552,-1.2538957595825195,0.4005659222602844,0.7715166807174683,0.4511432945728302,0.2083466351032257
1749057646.222796,-0.556706187141648,-0.5117436467717341,-0.9783816463305827,-2.109440503240998,-4.043555267279316,-0.12086828439780639,-0.015200921820810911,-0.01592656749148519,0.05648941023917379,0.039801581880715635,0.25111054402554367,0.06162593230207707,-0.3703373372554779,-1.217390060424805,0.3957767784595489,0.7851290702819824,0.4516681730747223,0.2119402736425399
1749057646.222833,-0.5567389274662595,-0.511774819661148,-0.9782650129866369,-2.1093597119857974,-4.043041525849223,-0.12074314488318856,-0.01537642188760838,-0.015838284743736088,0.056923423578819896,0.04020433143482286,0.2521909481567137,0.06214780125846932,-0.3166016936302185,-1.2551358938217163,0.3979958593845367,0.799027681350708,0.5010352730751038,0.2223459333181381
1749057646.2228684,-0.5567723708435531,-0.5118053287115798,-0.978147679699169,-2.1092780024889892,-4.0425259467878325,-0.12061726069312652,-0.015529042575799904,-0.015754000812628108,0.05739127576221832,0.04060794912252322,0.25333270590049795,0.06268393307403755,-0.3512920141220093,-1.2466790676116943,0.4056309163570404,0.7968392372131348,0.5032873153686523,0.2294279336929321
1749057646.2229042,-0.5568062899667768,-0.5118352232411201,-0.9780295909258987,-2.1091954522612717,-4.042008585401679,-0.12049072341318547,-0.01565478249809053,-0.01567881035475201,0.05789309405395475,0.04101192168579859,0.254552876302928,0.06323184938323714,-0.3652876615524292,-1.24075448513031,0.4101192355155945,0.7817996740341187,0.5107727646827698,0.2208883315324783
1749057646.2229407,-0.5568404507299654,-0.5118645876116409,-0.9779106615144205,-2.109112120438411,-4.041489398172582,-0.12036361445074549,-0.015751871512361324,-0.01561780231163563,0.05842630730828172,0.04141933765261479,0.2558629604388145,0.063789713106312,-0.3655746579170227,-1.2406286001205444,0.4019562304019928,0.7977300882339478,0.4517379999160766,0.216123566031456
1749057646.2229767,-0.556874632462056,-0.5118935380600533,-0.9777907822620965,-2.1090280347839228,-4.040968230444071,-0.12023598784859717,-0.01582076781138948,-0.015575678220148142,0.05898565918041445,0.04183627786927287,0.25726859075812375,0.06435596801815861,-0.3522849082946777,-1.262320041656494,0.4032855629920959,0.794654369354248,0.4675836265087127,0.2048951089382171
1749057646.2230132,-0.5569086455760632,-0.5119222169102279,-0.9776698284277149,-2.108943183678908,-4.040444811225811,-0.12010785561674224,-0.015863890986458073,-0.015556440135488616,0.05956349102135089,0.042270761865835775,0.25877000312561577,0.06492884290776675,-0.373874306678772,-1.2649905681610107,0.38314950466156,0.8015018701553345,0.4350757598876953,0.2120915055274963
1749057646.223118,-0.5569423445835197,-0.5119507847085352,-0.9775476711863992,-2.108857514324548,-4.039918758738393,-0.11997917862220926,-0.015885168570286986,-0.015563158102162643,0.06015027981774027,0.042731402090903,0.2603629689001734,0.06550580911111016,-0.3726406097412109,-1.2561734914779663,0.3834105432033539,0.7978849411010742,0.4696664214134216,0.2113920152187347
1749057646.224388,-0.556975635254515,-0.5119794107000092,-0.977424191394065,-2.108770937453848,-4.039389600438184,-0.11984986549884717,-0.015889492343394953,-0.015597816007786135,0.06073538398459759,0.04322596962727968,0.26203991553025663,0.06608310873600066,-0.3555100262165069,-1.2855353355407717,0.3652744889259338,0.8122687935829163,0.4789203405380249,0.224304974079132
1749057646.2703092,-0.5570084759201349,-0.5120082621461564,-0.9772992944822878,-2.1086833378182592,-4.038856809927658,-0.11971978097409187,-0.01588217708905145,-0.01566123868432969,0.06130792239595913,0.043760081849741936,0.2637910767581831,0.06665548703453127,-0.3669762909412384,-1.2878410816192627,0.4041769504547119,0.8166508078575134,0.4792140126228332,0.2171560823917389
1749057646.2703576,-0.5570408739613899,-0.5120374933586725,-0.9771729249900745,-2.1085945888202846,-4.038319860039509,-0.11958876325241796,-0.01586849282543974,-0.01575311074566664,0.06185769598224774,0.04433618486939478,0.2656055908786255,0.06721624108586995,-0.3683303892612457,-1.2950608730316162,0.4128279089927673,0.7867489457130432,0.4684290289878845,0.2161796689033508
1749057646.2704008,-0.5570728787854285,-0.5120672356443177,-0.9770450790092694,-2.108504569061041,-4.037778286938449,-0.11945664775202697,-0.015853311656224566,-0.01587209542107835,0.062376052113548554,0.044952935726616704,0.26747248214874836,0.06775763119262564,-0.3685714900493622,-1.2903004884719849,0.3555997610092163,0.8075552582740784,0.4594200849533081,0.2055032700300216
1749057646.2704408,-0.5571045720402842,-0.5120975892886944,-0.976915812485853,-2.108413178262556,-4.037231755240206,-0.11932329241642813,-0.01584088377476479,-0.016016046346152016,0.06285657870310848,0.0456050092161613,0.26938145321056056,0.0682716194763753,-0.3685714900493622,-1.2903004884719849,0.3555997610092163,0.8075552582740784,0.4594200849533081,0.2055032700300216
1749057646.2704794,-0.5571360552540313,-0.5121286183492573,-0.9767852431064562,-2.1083203500708656,-4.036680110487985,-0.11918859902979402,-0.01583473922756636,-0.01618228381428179,0.06329551040696148,0.04628328081598886,0.2713234356772845,0.06875084092085874,-0.3599721193313598,-1.2707504034042358,0.3682683408260345,0.7829538583755493,0.4798108041286468,0.2223580479621887
1749057646.270517,-0.5571674353330732,-0.5121603487380002,-0.976653544115805,-2.1082260599395406,-4.0361234055841475,-0.1190525259266272,-0.01583769907788142,-0.016367889545203337,0.06369176916367067,0.04697529139839872,0.2732909108414567,0.06918968438617899,-0.3587183952331543,-1.2820571660995483,0.3681455254554748,0.7724034786224365,0.5188713073730469,0.198802962899208
1749057646.2705555,-0.5571988094124793,-0.5121927699522041,-0.9765209302627307,-2.1081303277244503,-4.035561893836824,-0.11891508992629186,-0.01585196604858386,-0.016569970319258845,0.06404665171527026,0.04766589803694343,0.27527808980443147,0.06958534311940966,-0.3698069155216217,-1.2867871522903442,0.3686547577381134,0.7953972816467285,0.4929565191268921,0.2013803869485855
1749057646.2705936,-0.5572302516106542,-0.5122258406503237,-0.9763876383940603,-2.10803321615337,-4.034995990683594,-0.11877635817875608,-0.015879252460526593,-0.016785854988271055,0.06436327055546237,0.04833805603027325,0.27728107006151026,0.06993867097584573,-0.3412003815174103,-1.3140805959701538,0.3503974974155426,0.7935405373573303,0.5059687495231628,0.1698893010616302
1749057646.2706306,-0.5572618044678455,-0.5122594978953968,-0.9762539065842876,-2.107934827056062,-4.034426213381574,-0.11863643261072311,-0.01592090032570626,-0.017013213080702742,0.06464589919258071,0.04897372864879489,0.27929802784197827,0.07025466632244876,-0.380986601114273,-1.320472002029419,0.3596262633800506,0.7768757939338684,0.4963434040546417,0.1824801862239837
1749057646.2706704,-0.5572934770080192,-0.5122936692489463,-0.9761199554672073,-2.107835296896974,-4.033853110223923,-0.1184954303750641,-0.01597795870399559,-0.01725010020420353,0.06489935735654531,0.049554938208370036,0.28132939108608807,0.0705424323591186,-0.3628354370594024,-1.3037879467010498,0.3431302309036255,0.7537282109260559,0.4837408661842346,0.1974295377731323
1749057646.2707098,-0.5573252498355731,-0.5123282860316558,-0.9759859741182553,-2.107734792220211,-4.033277189873241,-0.11835346357827392,-0.01605120168387991,-0.017494937648480126,0.06512852153007809,0.050064937037910595,0.28337784761293416,0.07081454955307867,-0.3612552285194397,-1.297078251838684,0.3508214950561523,0.7668308615684509,0.5139411687850952,0.2214503288269043
1749057646.2707472,-0.5573570861025453,-0.5123632952951424,-0.9758521112097059,-2.107633504733551,-4.032698859629136,-0.11821062108317426,-0.016141088451967826,-0.017746430237546348,0.0653379914162179,0.05048941662724462,0.28544804908421867,0.07108592043825036,-0.3864233493804931,-1.3122706413269043,0.3398961126804352,0.7593885064125061,0.5109326839447021,0.214537963271141
1749057646.2707872,-0.5573889460792545,-0.5123986679633447,-0.9757184708140975,-2.107531645362346,-4.032118379421669,-0.11806695455837055,-0.016247682109954118,-0.018003433493129294,0.06553190538938697,0.0508176279092593,0.287545968428892,0.0713722509545072,-0.3719356656074524,-1.3150001764297483,0.3423363864421844,0.7459802627563477,0.4996072649955749,0.210019901394844
1749057646.2708254,-0.5574208026057397,-0.512434401516514,-0.9755851115811339,-2.1074294367217603,-4.03153583566908,-0.11792247028123944,-0.016370557918866956,-0.01826480089377782,0.06571388511962546,0.05104327320392385,0.28967797239353626,0.07168837364533806,-0.3975728154182434,-1.3131152391433716,0.3582535684108734,0.7271504402160645,0.4897860586643219,0.2149457335472107
1749057646.2708628,-0.5574526547732146,-0.512470517155882,-0.9754520481418645,-2.1073271037469574,-4.030951136084295,-0.11777712756933113,-0.016508742147923815,-0.018529257929686505,0.06588709319124159,0.05116505045412962,0.29184970931025395,0.07204660718739557,-0.3883178830146789,-1.317055583000183,0.3565598726272583,0.726941704750061,0.4932862520217895,0.2005424797534942
1749057646.2709002,-0.5574845375842727,-0.5125070528619863,-0.9753192541431591,-2.1072248624763024,-4.030364023970624,-0.11763084410958727,-0.016660721110625845,-0.01879534407191139,0.0660543915288447,0.05118678169962852,0.2940649041132323,0.07245532175233782,-0.3876100480556488,-1.3245245218276978,0.3492652177810669,0.7335188388824463,0.4959683716297149,0.2169499695301056
1749057646.2709377,-0.5575165259184056,-0.5125440545056669,-0.9751866668084336,-2.107122907351092,-4.029774109081855,-0.11748350782121653,-0.016824541123407106,-0.019061436054583495,0.06621858147069314,0.051117131778107505,0.2963241772163652,0.07291786083951254,-0.3670336306095123,-1.306681513786316,0.3814502358436584,0.7282179594039917,0.5103437304496765,0.2265529036521911
1749057646.2709746,-0.5575487318820224,-0.5125815670120283,-0.9750541930909824,-2.107021397981604,-4.029180911365077,-0.11733499411991022,-0.01699798998691489,-0.01932583190102978,0.06638268876953787,0.050968992135691525,0.29862409337970924,0.07343195106408136,-0.3690869212150574,-1.3102535009384155,0.3476573228836059,0.713157594203949,0.5496417880058289,0.2378903329372406
1749057646.271012,-0.5575812956710575,-0.5126196269115891,-0.9749217173114768,-2.106920446949528,-4.028583913216685,-0.11718518650884147,-0.017178821493339255,-0.019586854620309183,0.06655023827093656,0.05075863676078286,0.30095673008909685,0.07398969526695164,-0.3911508917808532,-1.3038524389266968,0.3673217296600342,0.7242162823677063,0.5470881462097168,0.2479221522808075
1749057646.2710493,-0.5576143713194063,-0.5126582569902707,-0.9747891098028759,-2.1068201106283686,-4.027982615184276,-0.11703399760694383,-0.017364966323915813,-0.01984293854334943,0.0667254553570615,0.05050474838476363,0.30331002022367143,0.07457818036713809,-0.358381986618042,-1.3181761503219604,0.3654813170433044,0.6989163160324097,0.5441281795501709,0.2149087339639663
1749057646.2710855,-0.5576481096649458,-0.5126974632929565,-0.974656235780846,-2.106720385048529,-4.0273765897148825,-0.1168813875387064,-0.017554671352635224,-0.02009268522898312,0.06691334001396604,0.050227389988988305,0.3056689298607378,0.07518064737848484,-0.3889454007148742,-1.323492407798767,0.3479984104633331,0.6953387260437012,0.5057940483093262,0.1946353763341903
1749057646.2711227,-0.5576826411517607,-0.5127372342641983,-0.974522963633872,-2.1066212083620104,-4.026765527850503,-0.11672737717143736,-0.017746528171717124,-0.02033490208818038,0.06711957922105799,0.049946985540826085,0.3080172517501877,0.07577809511447454,-0.3781290054321289,-1.3085441589355469,0.3739469647407532,0.7183414697647095,0.4980668425559997,0.2102401107549667
1749057646.2712305,-0.5577180608079622,-0.5127775414168244,-0.9743891720811574,-2.106522470370187,-4.026149274560579,-0.11657205458220118,-0.017939387301135284,-0.020568648320264362,0.06735028646435545,0.049683375562988186,0.31033956577892224,0.07635114820942389,-0.4026303291320801,-1.2969235181808472,0.3853391408920288,0.7360659241676331,0.5006417632102966,0.222310185432434
1749057646.2723994,-0.5577544171782898,-0.5128183409297444,-0.9742547559400099,-2.1064240279987736,-4.025527849266308,-0.11641557391028474,-0.018132192003108685,-0.020793305493617784,0.06761158238930974,0.04945501325878272,0.3126228586559828,0.07688201313879037,-0.3975449800491333,-1.3044040203094482,0.3769953548908233,0.7179360389709473,0.5212964415550232,0.2204395681619644
1749057646.3142738,-0.557791706277306,-0.5128595760230915,-0.9741196303637291,-2.1063257239992645,-4.02490144890567,-0.11625814632631905,-0.018323785832984288,-0.02100867086329574,0.06790905730523099,0.049278357689031424,0.31485743626861074,0.07735634737232894,-0.3884890675544739,-1.3109524250030518,0.3748655319213867,0.7296076416969299,0.5224015116691589,0.2052792608737945
1749057646.3143291,-0.5578298709014945,-0.5129011805078724,-0.9739837333785402,-2.106227405169569,-4.024270432035811,-0.11610002350048489,-0.018512744589117495,-0.02121504876044372,0.06824718088866369,0.049167503119105026,0.3170370273784886,0.07776485816120672,-0.3759396076202392,-1.3175020217895508,0.3917586505413055,0.7291315793991089,0.5136294364929199,0.1930349767208099
1749057646.31438,-0.5578688051264108,-0.5129430841588251,-0.9738470264913438,-2.106128936484206,-4.0236352844590435,-0.11594147494441429,-0.01869726675647464,-0.021413298951218702,0.06862874595451166,0.04913405695723701,0.31915824137398374,0.07810443901870347,-0.392869770526886,-1.2922865152359009,0.394978404045105,0.7460060715675354,0.512763500213623,0.1842402964830398
1749057646.3144207,-0.5579083635376949,-0.5129852202166489,-0.9737094930964069,-2.1060302086707803,-4.022996569473098,-0.11578276180088533,-0.01887514116192941,-0.021604801926421432,0.06905444645595131,0.04918723734578464,0.32121971133986454,0.07837867512467854,-0.379082053899765,-1.3009966611862185,0.3795654773712158,0.7275998592376709,0.5060880780220032,0.1760677993297577
1749057646.314459,-0.5579483744639072,-0.5130275344049903,-0.9735711344014732,-2.1059311384215103,-4.022354868169172,-0.11562411051172523,-0.019043801335908727,-0.021791322041909367,0.06952268008710095,0.0493341082370161,0.3232212927268856,0.07859762930139823,-0.3658718764781952,-1.307199239730835,0.3800373077392578,0.7334848046302795,0.5418227314949036,0.2000913023948669
1749057646.3145008,-0.5579886560513084,-0.5130699938686732,-0.9734319627479855,-2.105831661908506,-4.021710716346381,-0.11546568979488117,-0.019200468969894437,-0.021974778509860852,0.07002962474858583,0.0495798242576127,0.32516360699426133,0.07877694624111213,-0.4018194079399109,-1.2928416728973389,0.3934395909309387,0.7331393957138062,0.5620140433311462,0.1883767545223236
