nimar13/UR3e_dataset_trayectorias/trayectorias_ejecutadas_filtradas/trapezoidal_func/trayectoria_025_result_filtrado.csv
timestamp,q1,q2,q3,q4,q5,q6,qd1,qd2,qd3,qd4,qd5,qd6,tau1,tau2,tau3,tau4,tau5,tau6
1749053956.9104896,-0.09506020189244928,-2.659355450692503,1.85400184083363,-3.2392362793399267,3.9362609963009025,6.049100508052869,-0.0008729796154408618,-0.000531417620773032,0.0006086569884064886,-0.011085773395546958,0.005747406265540993,0.019325961088398465,-0.2874639630317688,0.4219591021537781,-0.378325343132019,0.0222150459885597,0.5039970278739929,0.1415121853351593
1749053956.9105654,-0.09506461998217865,-2.6593635684183576,1.8540103950894362,-3.239246568346677,3.936260924065917,6.049126569755197,-0.0008214207225010065,-0.00048353939986651144,0.0007073246642257551,-0.009464463154290021,0.004803030548646447,0.01743149158987819,-0.280996710062027,0.4275524318218231,-0.3663642406463623,0.0515323504805564,0.4964755475521087,0.1342744529247284
1749053956.9106448,-0.0950689652688129,-2.6593713994604973,1.8540187403587987,-3.239256429052596,3.9362607804889143,6.049152020715319,-0.0007704651928133014,-0.00043543515760389176,0.0008025478906450757,-0.007880451176853482,0.003889302269175671,0.015546447567898986,-0.2825400829315185,0.4366958141326904,-0.3862906396389007,0.0276293382048606,0.4933427572250366,0.1367400884628296
1749053956.9107113,-0.09507309854414447,-2.659378664779942,1.8540266577218634,-3.2392654588201086,3.936260564980599,6.049176192041617,-0.0007208662199744522,-0.0003874486353076905,0.0008907486106105641,-0.006369134419404274,0.003033995370304615,0.013677582448779195,-0.290316104888916,0.451344758272171,-0.3710179328918457,0.0560382604598999,0.4691041707992553,0.1284377872943878
1749053956.910777,-0.0950768886227746,-2.659385118804216,1.854033969428943,-3.2392733191049983,3.9362602907822364,6.049198487081368,-0.0006733507547183519,-0.00033991964579506445,0.0009688168761521694,-0.004961385496202668,0.002260542298046443,0.01183314106010759,-0.2942347824573517,0.4325061738491058,-0.3717052042484283,0.051449179649353,0.4819386303424835,0.131390780210495
1749053956.910843,-0.09508021985481649,-2.659390562691593,1.8540405523987944,-3.23927975570759,3.93625998522291,6.049218413112235,-0.0006285862883319986,-0.0002931839398219067,0.0010343126089289636,-0.0036818426223359877,0.0015865197317435306,0.010023485346610081,-0.291275143623352,0.4667616486549377,-0.3801636695861816,0.0452723130583763,0.4592062830924988,0.1458537280559539
1749053956.910909,-0.09508299948817583,-2.6593948530337155,1.8540463434085666,-3.2392846092899092,3.9362596872560567,6.0492356046227975,-0.0005871501706311245,-0.0002475883759964915,0.0010856110194564863,-0.002547769981981605,0.0010227747050393149,0.008261302352822079,-0.2783154249191284,0.4688831269741058,-0.3884535431861877,0.0673790201544761,0.4629059135913849,0.1182968765497207
1749053956.9109728,-0.09508516366876583,-2.6593979062847004,1.8540513367425975,-3.2392878171005335,3.9362594432247717,6.049249835901056,-0.000549501463960457,-0.0002035172102937422,0.0011219733279420779,-0.0015686002041388767,0.0005732142186153794,0.006561361434592646,-0.2750853896141052,0.4850023686885834,-0.3918718695640564,0.0750666856765747,0.4458780288696289,0.1081001460552215
1749053956.9110374,-0.09508668108039249,-2.6593996998064418,1.854055576031691,-3.2392894076838874,3.936259301991843,6.049261021999081,-0.0005159543033767633,-0.00016142090782992388,0.0011435321273596118,-0.0007461804752946853,0.0002351984615752402,0.004939856726205619,-0.2698945999145508,0.4786913096904754,-0.3999025225639343,0.0737756043672561,0.4352497458457947,0.0811275094747543
1749053956.9111023,-0.09508755371854752,-2.659400270417624,1.854059142211968,-3.239289490309161,3.9362593102210903,6.049269208757217,-0.00048665208668494944,-0.00012183641528698674,0.0011511926221961215,-7.564231729624858e-05,4.2396824483689617e-07,0.0034134342194347958,-0.2830451726913452,0.4926991760730743,-0.3947257399559021,0.0925761684775352,0.4423164129257202,0.0947959274053573
1749053956.9111664,-0.09508781474826498,-2.6593997107998932,1.85406213944236,-3.2392882405695893,3.936259508165748,6.049274553842094,-0.00046154336972839186,-8.538790398493785e-05,0.0011464640495746923,0.0004532696538046178,-0.0001438451155792342,0.001998054235900925,-0.2785547971725464,0.4864230453968048,-0.3826347589492798,0.0920108631253242,0.4292708933353424,0.078204870223999
1749053956.911232,-0.09508752386019276,-2.6593981634923964,1.8540646808076278,-3.2392858834108575,3.936259926148844,6.0492773015231,-0.0004403620213799711,-5.275966745004994e-05,0.0011312464222922559,0.0008546225274735721,-0.0002133489743853603,0.0007078646315275415,-0.2806896567344665,0.4787065386772156,-0.3977043926715851,0.0857423320412635,0.4209388494491577,0.0663520991802215
1749053956.911297,-0.09508676102713716,-2.659395811915863,1.8540668756333876,-3.2392826747432593,3.9362605818895076,6.049277754332655,-0.0004226151199129579,-2.4637773812949225e-05,0.0011076034235486484,0.0011446906737829683,-0.00022535377674610612,-0.00044575681778410476,-0.2377243041992187,0.4723410904407501,-0.3937476873397827,0.0940629467368125,0.4000322818756103,0.0455265045166015
1749053956.9113607,-0.09508561983553954,-2.6593928681038275,1.85406882000493,-3.239278882755097,3.9362614786789996,6.049276244894102,-0.0004075823440577036,-1.623548389411004e-06,0.0010775514502733095,0.0013405065339835447,-0.00019725224214304683,-0.0014548882615391077,-0.2786201238632202,0.489206463098526,-0.3906374871730804,0.1070746034383773,0.4072577357292175,0.0524853765964508
1749053956.9114256,-0.09508420147052138,-2.6593895575508304,1.8540705915011255,-3.2392747700916646,3.936262604229429,6.049273110948039,-0.00039433080164854217,1.5871004237671464e-05,0.0010428882470264183,0.0014586940078729085,-0.00014534504188610996,-0.0023154474548354067,-0.2579478919506073,0.4618570506572723,-0.3933219015598297,0.0980026051402092,0.3888916969299316,0.0445919334888458
1749053956.911491,-0.09508261004793858,-2.6593861024935364,1.8540722482620366,-3.239270578131184,3.9362639300882187,6.0492686758287695,-0.0003817494097122637,2.772977363240761e-05,0.0010050749114909612,0.0015146460379058318,-8.38721755120736e-05,-0.00302730109132922,-0.2816090285778045,0.4878107011318207,-0.4001766145229339,0.1129453554749488,0.4033774137496948,0.0418614149093627
1749053956.911555,-0.09508094938481584,-2.6593827055667023,1.854073831471568,-3.2392665145466233,3.936265411851438,6.049263235406012,-0.0003686065509887079,3.422226440510283e-05,0.0009651754944945402,0.0015220476527987908,-2.4330364022616378e-05,-0.003594151222931652,-0.2816090285778045,0.4878107011318207,-0.4001766145229339,0.1129453554749488,0.4033774137496948,0.0418614149093627
1749053956.9116182,-0.09507932053984497,-2.6593795358975205,1.8540753695198804,-3.239262745071913,3.9362669907451115,6.049257051191849,-0.0003536333100812658,3.605907582780998e-05,0.0009238514648736001,0.0014927007189587645,2.4916671310546553e-05,-0.004023240484624859,-0.2580257058143616,0.5095326900482178,-0.3868627548217773,0.1257349550724029,0.3889733254909515,0.0318990349769592
1749053956.9116845,-0.09507781884441012,-2.6593767193714077,1.8540768819225457,-3.2392593898421738,3.936268597201412,6.049250348381766,-0.00033563213061350107,3.44003932502649e-05,0.0008814049026595066,0.0014365798760052992,5.875100898103749e-05,-0.004324894889855755,-0.2666573524475097,0.4941123425960541,-0.40448659658432,0.1008804738521575,0.3832548856735229,0.025064468383789
1749053956.9117484,-0.0950765291894139,-2.65937433410214,1.8540783816265636,-3.2392565239374473,3.9362701567322356,6.049243317244846,-0.0003136074997816563,3.081045385178602e-05,0.0008378636044617515,0.0013620375682521987,7.516829683458241e-05,-0.004511909154930124,-0.2467099726200103,0.4660974144935608,-0.3951067328453064,0.1168920025229454,0.3882289528846741,0.0254760384559631
1749053956.9119008,-0.09507551923110959,-2.6593724111629387,1.8540798753382095,-3.239254181060781,3.9362715977443905,6.049236116393469,-0.0002869114879385914,2.7156341081342348e-05,0.0007931014543528833,0.0012760761214421063,7.494202358506999e-05,-0.004598786071052284,-0.2750612795352936,0.4892025887966156,-0.4107563495635986,0.1262594759464264,0.3711023926734924,0.0143750309944152
1749053956.9133875,-0.09507483148084346,-2.6593709397113265,1.8540813624925592,-3.2392523588916124,3.9362728601190065,6.049228876882877,-0.00025539284249583515,2.545427017703076e-05,0.0007469867251314945,0.001184615208324638,6.11302895788689e-05,-0.004600865972621469,-0.2494489997625351,0.4976138174533844,-0.3945822715759277,0.1391830891370773,0.3768935203552246,0.0103630274534225
1749053956.9544854,-0.09507447621145419,-2.6593698751968082,1.8540828340379476,-3.239251024755769,3.936273902723773,6.049221706664488,-0.0002195342333058981,2.7670967097811082e-05,0.0006995486073345135,0.001092702277248698,3.8471571268115804e-05,-0.0045334133924266815,-0.2578300535678863,0.5116269588470459,-0.4039280414581299,0.1273985803127288,0.3669241666793823,0.0147005021572113
1749053956.9545605,-0.09507442731985798,-2.6593691494013787,1.854084272148795,-3.239250120854815,3.9362747079744507,6.049214695366249,-0.00018055877926000135,3.549201945095735e-05,0.0006511482390564411,0.0010046372163778103,1.2713690227465363e-05,-0.004410753253778383,-0.255642682313919,0.4814987480640411,-0.4065415859222412,0.1129832416772842,0.3775275945663452,0.0098430067300796
1749053956.9546294,-0.09507462278246033,-2.6593686812562924,1.8540856514848711,-3.2392495691287007,3.936275282339667,6.049207919389693,-0.0001404848278986869,5.007322853953549e-05,0.0006026355738677865,0.0009240049672371337,-1.008364471361246e-05,-0.004245560736068826,-0.2707030773162842,0.4688762128353119,-0.4042253792285919,0.1158011704683303,0.3576304316520691,0.0166778266429901
1749053956.954697,-0.09507497040463364,-2.659368387516065,1.8540869420950887,-3.23924927638758,3.936275652997436,6.049201446901989,-0.00010210771135340004,7.179485599233518e-05,0.0005554689396912271,0.0008536270387082362,-2.423643582969547e-05,-0.004048402440424557,-0.2383692264556884,0.4822048842906952,-0.4093973338603973,0.1288106888532638,0.3827732801437378,0.0088701546192169
1749053956.9547634,-0.09507535844705184,-2.659368192568597,1.854088113754318,-3.2392491403537473,3.936275862014504,6.049195341843505,-6.888934673296032e-05,0.00010004188933940945,0.0005117716485511425,0.0007954541501367018,-2.508096194216992e-05,-0.0038275981905937164,-0.2492247223854065,0.4724080860614776,-0.3933529853820801,0.124843493103981,0.3818407654762268,-0.0121489316225051
1749053956.9548297,-0.09507566964050976,-2.6593680369041777,1.854089141288037,-3.239249056924608,3.936275959846598,6.049189665950559,-4.474142015776649e-05,0.00013303555108821764,0.0004743006303306988,0.0007504289392471983,-9.543576191042407e-06,-0.00358942416956039,-0.2617815434932709,0.4590795040130615,-0.4059893190860748,0.1295815706253051,0.3685322999954223,0.0162286013364791
1749053956.9548965,-0.09507579637061692,-2.6593678838615546,1.8540900100993907,-3.239248928613571,3.936275999536464,6.0491844780665405,-3.369561033977906e-05,0.00016774165317575988,0.0004463061225824058,0.0007183512536227787,2.339621132573245e-05,-0.0033386179312547668,-0.2479877769947052,0.4878005087375641,-0.3995872735977173,0.1352978348731994,0.388899952173233,0.0015038698911666
1749053956.954963,-0.09507565462104212,-2.65936772419408,1.854090720801169,-3.2392486737051702,3.9362760320800088,6.049179830501293,-3.946470773911044e-05,0.00019987944220845635,0.00043126865854038195,0.0006977794593317147,7.238248618257021e-05,-0.0030790882541986567,-0.2446019649505615,0.4653798639774322,-0.3982617259025574,0.1267754733562469,0.3855545222759247,0.0097446888685226
1749053956.955028,-0.09507519451042518,-2.659367577923111,1.8540912918789931,-3.239248235089907,3.936276102613069,6.049175762781816,-6.491106966052769e-05,0.00022404975687783047,0.0004325095982568092,0.000685999539915529,0.00013353359760560305,-0.0028146941586113996,-0.2286978811025619,0.4611825942993164,-0.413669615983963,0.1161081120371818,0.389397382736206,0.0130832493305206
1749053956.955094,-0.09507440572562462,-2.659367492993166,1.8540917597444329,-3.2392475872845448,3.9362762467482875,6.0491722938030685,-0.00011145275056603062,0.00023399328114825932,0.00045268425126429183,0.0006790900013775919,0.0002005001145731185,-0.0025499519627490237,-0.2324951589107513,0.4576824605464935,-0.4066039025783539,0.1248580962419509,0.3801347315311432,-0.0006433874368667
1749053956.9551604,-0.0950733168505741,-2.6593675404796144,1.8540921761408162,-3.2392467401372547,3.936276486591472,6.049169413961133,-0.0001784516197803241,0.00022297838402180113,0.000493182242464399,0.0006721051825983022,0.00026475953895618637,-0.0022905609426352794,-0.2509261965751648,0.4667972326278686,-0.3982248306274414,0.1310239732265472,0.383685439825058,0.0173304677009582
1749053956.9552257,-0.09507198868653205,-2.65936780658663,1.854092603350429,-3.239245738205585,3.9362768264668233,6.0491670789906165,-0.00026264025611793526,0.00018430386734145392,0.0005534772229062059,0.0006593922073466629,0.0003161687657762702,-0.0020436944455861855,-0.2598854303359985,0.4499661028385162,-0.4026544094085693,0.1234447807073593,0.3900855779647827,0.0109333097934722
1749053956.9552903,-0.09507050301918941,-2.6593683823297547,1.8540931078700256,-3.23924465556679,3.936277248940115,6.049165206800956,-0.00035765358499836977,0.00011188579604510035,0.000630485106540892,0.0006350467732592315,0.0003437812348373486,-0.0018180609894895814,-0.258013367652893,0.4254487454891205,-0.4075511991977691,0.112991951406002,0.3671229779720306,-0.002739205956459
1749053956.955356,-0.09506894931268924,-2.659369352357572,1.8540937531839485,-3.23924358661552,3.9362777121761128,6.04916367782839,-0.00045373520470672,8.80948484797615e-07,0.0007180040720910236,0.0005934998972425361,0.00033691572623778114,-0.0016237791696732935,-0.2542036175727844,0.3974116444587707,-0.4176014363765716,0.1022584810853004,0.3926865458488464,0.0137253552675247
1749053956.9554212,-0.09506741193337356,-2.659370784586714,1.8540945921055305,-3.239242634003858,3.9362781498643837,6.049162338611386,-0.000537685357786449,-0.00015171562054168286,0.000806318274873121,0.0005302120182490791,0.00028643824337615514,-0.001472123502615353,-0.2346271127462387,0.4023236036300659,-0.4135467708110809,0.0983701720833778,0.391569435596466,-0.002050906419754
1749053956.955486,-0.09506595967198526,-2.65937272212695,1.854095659043649,-3.23924189517921,3.9362784747989914,6.049161007704655,-0.0005931061373386952,-0.0003465722545489274,0.0008820482370102552,0.0004424335488468849,0.00018618877579862543,-0.0013751891939769942,-0.2395291626453399,0.3799451887607574,-0.4151621758937835,0.0909878984093666,0.3951756954193115,0.0120809674263
1749053956.9555511,-0.09506463798838675,-2.6593751784418473,1.8540969625482777,-3.2392414490483388,3.936278586713872,6.049159482820893,-0.0006009790422802309,-0.0005816985218369004,0.0009283216193994068,0.0003299736320572791,3.445331822699495e-05,-0.0013455017106521051,-0.2280142605304718,0.3813044726848602,-0.4134001433849334,0.0930135026574134,0.4007821679115295,0.0020832121372222
1749053956.9556158,-0.09506346327533564,-2.659378136063378,1.854098478517895,-3.2392413442595225,3.9362783842906235,6.049157548246865,-0.0005405806601291796,-0.0008523688619561249,0.0009253165740973134,0.00019590349522524773,-0.00016464832552706924,-0.0013955724709787294,-0.1996439695358276,0.3658440411090851,-0.4425071775913238,0.1000686436891555,0.4035015106201172,0.0114750564098358
1749053956.9556794,-0.09506241814855419,-2.6593815487481143,1.8541001443914316,-3.2392415904291534,3.936277780526799,6.049154982025394,-0.00039070558090527883,-0.0011513397760114803,0.00085119603936577,4.710970866206976e-05,-0.00040001258608528647,-0.0015373832603600413,-0.2002685368061065,0.3659004271030426,-0.4501038491725921,0.0814218446612358,0.4398609697818756,0.0144948959350585
1749053956.955743,-0.09506144728439483,-2.659385346825876,1.8541018545141732,-3.2392421532223645,3.9362767200049005,6.049151562958231,-0.00013112465246450139,-0.00146936820003202,0.0006834072015340821,-0.00010539175233674861,-0.0006528075278397499,-0.0017817749352677678,-0.1703492701053619,0.3470017910003662,-0.4574346244335174,0.0893192887306213,0.4247767925262451,0.0021304339170455
1749053956.955894,-0.09506045398449613,-2.6593894454221974,1.854103456859964,-3.239242953510941,3.936275196223674,6.049147077868828,0.0002558338925139846,-0.0017959813474379513,0.00040026970082201557,-0.0002464653384226992,-0.0008963000663400608,-0.002137724591277802,-0.1820778548717498,0.3609392940998077,-0.4782323539257049,0.0859371870756149,0.4244347214698791,0.0017018020153045
1749053956.9574044,-0.09505929794799663,-2.6593937549003823,1.8541047515364284,-3.239243870074254,3.9362732672753937,6.049141329432097,0.0007837264536622796,-0.002120386741573179,-1.727566448723837e-05,-0.00035725951397502656,-0.0010964013883779688,-0.0026115202605302094,-0.1562557369470596,0.3477824330329895,-0.4916086792945862,0.0684621706604957,0.4527174830436706,0.0047490447759628
1749053956.9983315,-0.09505779474687151,-2.659398192232474,1.8541054918121167,-3.2392447447839965,3.936271068715148,6.049134144242296,0.0014606232922982096,-0.0024323728971704342,-0.0005839319334572825,-0.00041604770483494693,-0.001213034936047516,-0.00320587827145949,-0.1357225030660629,0.3239483833312988,-0.5236475467681885,0.0814356431365013,0.452717661857605,-0.0147245526313781
1749053956.998386,-0.09505571749259185,-2.659402691463264,1.8541053884847114,-3.2392453891167334,3.936268823009955,6.049125380159414,0.0022880825919793153,-0.0027230613970171073,-0.001308529880693292,-0.000399512278600123,-0.0012023663537953258,-0.003919086085769138,-0.1221329942345619,0.3221771419048309,-0.5287088751792908,0.0811233520507812,0.4652736485004425,-0.0145125687122344
1749053956.9984272,-0.09505280131612678,-2.6594072114519367,1.8541041181491904,-3.2392455911785905,3.936266845038451,6.04911493186529,0.003260591786781636,-0.0029854277351028945,-0.0021929413721169296,-0.00028442863738156526,-0.0010198485542122764,-0.004744283776750858,-0.1298105418682098,0.3197868764400482,-0.5595225691795349,0.103348284959793,0.4654812812805176,-0.0132702440023422
1749053956.998466,-0.09504875157636933,-2.6594117397965515,1.8541013354041134,-3.2392451230226427,3.936265542626386,6.049102733984014,0.004365543939666522,-0.003214578893374579,-0.003231602291783369,-4.96501373493581e-05,-0.0006239325077284525,-0.0056690159186725065,-0.0897087454795837,0.3227821886539459,-0.5718973278999329,0.1147174462676048,0.490945816040039,-0.0203547179698944
1749053956.9985037,-0.09504325679871796,-2.6594162929765,1.8540966883967862,-3.2392437485248307,3.9362654102624783,6.049088761699821,0.005583764991551315,-0.003407823683346297,-0.00441175477646053,0.00032176443251581715,1.9815684203716527e-05,-0.006675190442550389,-0.0639889761805534,0.3335615992546081,-0.5698561072349548,0.1040482074022293,0.5032564401626587,-0.041894793510437
1749053956.9985414,-0.09503600662697716,-2.6594209137550235,1.8540898365076117,-3.239241232139781,3.9362670135690796,6.049073029171372,0.006890574045230886,-0.0035645830850203506,-0.0057144183788149765,0.0008404931992188219,0.0009345554602522746,-0.007739566252965743,-0.0215258598327636,0.3254940807819366,-0.5922551155090332,0.1296309232711792,0.5223444700241089,-0.0457344651222229
1749053956.9985812,-0.09502671350989249,-2.659425667251649,1.8540804685187453,-3.239237348517167,3.936270962630304,6.049055586025081,0.008257335369177849,-0.003686174079060102,-0.007115996260534539,0.0015092153836383283,0.0021284162688499164,-0.008834847902354816,-0.0336304157972335,0.3493033945560455,-0.6236329674720764,0.12824746966362,0.5324517488479614,-0.0479900985956192
1749053956.9986403,-0.09501513520830268,-2.6594306366444207,1.8540683193689422,-3.239231892545101,3.9362778741410125,6.049036511942034,0.009653427960528062,-0.0037754851495645845,-0.008590342007903911,0.002321462902304731,0.0035916304445388976,-0.00993139096572029,-0.010402612388134,0.3072037994861603,-0.64896160364151,0.1502220779657364,0.5499773025512695,-0.04012131690979
1749053956.9986837,-0.09500109436160817,-2.65943591855342,1.854053183637819,-3.239224689197523,3.936288324816546,6.049015909234053,0.011048510159109718,-0.003836560340787142,-0.010111061231236451,0.003261300031958966,0.005295011347508502,-0.010999428915382291,0.0117674246430397,0.3091639280319214,-0.6766573786735535,0.1563831865787506,0.5642821788787842,-0.0545257031917572
1749053956.998722,-0.09498449156381147,-2.659441617402434,1.854034924235159,-3.2392156026337893,3.9363028006173355,6.048993893623098,0.012414902455696857,-0.0038741197369168237,-0.01165378998666692,0.004303998563276623,0.007190123136523065,-0.012011643114680972,0.0331660583615303,0.3140044808387756,-0.6704987287521362,0.1880890876054763,0.5816057920455933,-0.0631497651338577
1749053956.9987595,-0.09496530930969269,-2.659447837836147,1.8540134752772126,-3.239204544074648,3.9363216476276492,6.048970584011429,0.013729863398400412,-0.003893055033768934,-0.013198178798321752,0.005417756278326839,0.0092113027742905,-0.012945826852597922,0.0568203926086425,0.3163110315799713,-0.6613306999206543,0.1880678832530975,0.5791652202606201,-0.0711701810359954
1749053956.9987955,-0.09494360532987231,-2.65945467468724,1.8539888387060566,-3.2391914777687605,3.936345030862969,6.04894609237391,0.014977504583596602,-0.0038979412521595873,-0.014729335223109208,0.006566361030988203,0.011279475568386554,-0.013787345468217733,0.0263867229223251,0.3241561949253082,-0.6746326684951782,0.2006499469280243,0.5969385504722595,-0.0709863454103469
1749053956.9988322,-0.0949194952614939,-2.6594622009424613,1.8539610748350874,-3.2391764238856773,3.9363729068168345,6.048920514731527,0.01615009996442589,-0.0038926023118990532,-0.016238558074147674,0.007712562578553755,0.01330750707713145,-0.014531071942414413,0.043907918035984,0.2988249659538269,-0.6983499526977539,0.2185315191745758,0.6129410862922668,-0.0677437782287597
1749053956.9988678,-0.0948931264739876,-2.6594704551908355,1.8539302876322095,-3.2391594567950626,3.936405014105657,6.0488939236417965,0.017248608398392245,-0.003879765305951602,-0.01772332538907164,0.00882180291228516,0.015206682466661481,-0.015182495112650334,0.055519200861454,0.3095033764839172,-0.7058303356170654,0.2276727259159088,0.5891426801681519,-0.0657300055027008
1749053956.9989038,-0.0948646467481156,-2.659479430586691,1.853896606069407,-3.23914069734187,3.9364408843570446,6.0488663621378125,0.018282341200531987,-0.003860835959607053,-0.01918663672864281,0.009865880684198313,0.016893786523458222,-0.015757771008265826,0.0838949009776115,0.3101443946361542,-0.7073606848716736,0.2351979315280914,0.6009411811828613,-0.0441910326480865
1749053956.9989438,-0.0948341725769178,-2.659489067335041,1.853860163257467,-3.239120298532957,3.9364798730182393,6.048837838746805,0.019267833015925575,-0.003835820669273199,-0.020635909484179444,0.010826091508072797,0.01829815552880429,-0.016282618116007327,0.0837385132908821,0.3152001500129699,-0.7199016809463501,0.2324575036764145,0.5962252020835876,-0.0670617520809173
1749053956.9989812,-0.09480176178687653,-2.6594992503335075,1.8538210753924502,-3.2390984252829282,3.936521207395458,6.0488083231042005,0.020227072716351255,-0.0038034052776770876,-0.022081661895120726,0.011695409328403152,0.019367996318945768,-0.01679012623122147,0.107719138264656,0.3095899820327759,-0.7158980965614319,0.2364669442176818,0.5595337748527527,-0.0902049243450164
1749053956.9990172,-0.09476739418196514,-2.6595098128959758,1.8537794226424715,-3.239075230164651,3.936564047127683,6.048777741793711,0.02118530928338115,-0.0037611792771613923,-0.023536188754707824,0.012479373194224947,0.020075256301077656,-0.01731771973170633,0.10101318359375,0.3201736807823181,-0.7225351929664612,0.2306132614612579,0.5469616055488586,-0.0749917179346084
1749053956.9990528,-0.09473096239468073,-2.659520546435032,1.8537352337880355,-3.2390508281547374,3.93660755071179,6.0487459745112915,0.022168679834519946,-0.0037059725294249723,-0.025012374364802546,0.013195517885701127,0.02041842281874825,-0.017903646230080277,0.1566818952560424,0.3396570682525635,-0.7272836565971375,0.2178563773632049,0.5337644815444946,-0.0894251316785812
1749053956.9990883,-0.09469227363536734,-2.6595312149837307,1.8536884757655903,-3.2390252738877523,3.936650941016336,6.048712851408074,0.023201917424213667,-0.0036342580247954504,-0.02652271775667162,0.013871404986458278,0.020422847225667437,-0.018583419613915304,0.1567544937133789,0.3265123665332794,-0.739109218120575,0.2413206547498703,0.5305437445640564,-0.0972888171672821
1749053956.999431,-0.09465106197228527,-2.659541572902701,1.853639048617762,-3.2389985447741667,3.936693563125667,6.048678153123135,0.024306373268405495,-0.003542575014294046,-0.02807858673876741,0.014541523405667988,0.020138500937307686,-0.01938662782603673,0.1732233762741089,0.3409931063652038,-0.7445076704025269,0.2452310174703598,0.5269423723220825,-0.1045068800449371
1749053957.0013633,-0.09460700993021658,-2.6595513839010168,1.8535867859743107,-3.238970532540352,3.9367349291082916,6.048641615089599,0.025498528226834925,-0.0034279405310067585,-0.029689678031675444,0.015243488550627767,0.019635414143941817,-0.020334436490250105,0.1744393855333328,0.3445934355258941,-0.7532355189323425,0.2585868835449219,0.5457985997200012,-0.0948489010334014
1749053957.042298,-0.09455977709339973,-2.6595604392215337,1.8535314610154807,-3.2389410444895232,3.936774745939424,6.048602937018177,0.026789086131343672,-0.0032882332728813436,-0.03136363985736022,0.01601404925408271,0.01899735057099236,-0.021438003362929465,0.2102830410003662,0.3478812873363495,-0.7508541941642761,0.2801029682159424,0.5513843297958374,-0.1052205041050911
1749053957.0423434,-0.09450903220583386,-2.659568572646694,1.8534727977596621,-3.2389098142427675,3.9368129245751327,6.048561797314654,0.028182658375197688,-0.0031225403848741456,-0.03310580849463148,0.016885404863728776,0.018314477728955007,-0.02269789140978359,0.210096001625061,0.350820779800415,-0.7607191801071167,0.2755930423736572,0.5400738716125488,-0.1265931278467178
1749053957.0423882,-0.09445448466332447,-2.6595756703996516,1.8534104873786488,-3.238876520186094,3.936849570188695,6.048517871085121,0.029677982701772097,-0.002931452049161013,-0.03491901953911528,0.017882254143554415,0.017675872363333355,-0.024104452850672795,0.2308860123157501,0.36185422539711,-0.7679905891418457,0.3015434145927429,0.549039363861084,-0.1341418772935867
1749053957.0424335,-0.09439591154793747,-2.6595816751191133,1.8533442089323362,-3.23884080881768,3.9368849559004797,6.048470849728044,0.03126857702708013,-0.0027172779222423404,-0.03680347260596291,0.019019866172696732,0.0171626543160627,-0.025639063835028442,0.2429121285676956,0.3605384528636932,-0.7904985547065735,0.3214244246482849,0.5614656209945679,-0.1284582316875457
1749053957.0424788,-0.0943331771404638,-2.659586584305351,1.8532736533066616,-3.238802320052698,3.9369194845919893,6.0484204600273115,0.032943710829162504,-0.0024841521277347805,-0.038756647128926236,0.020303303980860558,0.016842393586284286,-0.027276020024797197,0.2432755380868911,0.3487376868724823,-0.794661283493042,0.3085454702377319,0.5658966302871704,-0.1422159969806671
1749053957.0425184,-0.09426624289921788,-2.6595904444482046,1.853198548384256,-3.2387607121428736,3.9369536449397695,6.048366481046212,0.034689578691009734,-0.0022379938987607613,-0.04077328265562351,0.021727764016854764,0.016765224344661295,-0.028984858553029947,0.2714768052101135,0.3617107272148132,-0.7888333201408386,0.3187602758407593,0.5722767114639282,-0.1485049128532409
1749053957.042555,-0.0941951671842915,-2.659593342404037,1.8531186829125457,-3.238715684578243,3.9369879680893454,6.048308757717348,0.036490573612417455,-0.0019862995675030033,-0.04284545127377516,0.02327984577678649,0.01696186255844854,-0.030732858668303047,0.259123146533966,0.368378072977066,-0.810542106628418,0.3269996643066406,0.5676735639572144,-0.1068835332989692
1749053957.0425928,-0.09412009532741085,-2.6595953956270826,1.8530339262954365,-3.238666997630007,3.937022990308205,6.048247210397786,0.03833056537872753,-0.001737758367381525,-0.04496276391518114,0.02493947097704195,0.01744348918526986,-0.03248749791755016,0.2492049634456634,0.3469057083129883,-0.8212075233459473,0.3430955410003662,0.574124813079834,-0.1505063325166702
1749053957.042631,-0.09404124157372934,-2.659596742614517,1.8529442415056177,-3.238614487001698,3.9370592249330434,6.048181839476672,0.04019408559747279,-0.0015017081688164606,-0.04711276106504954,0.026682150850296293,0.018203256125127187,-0.03421869789265802,0.2492049634456634,0.3469057083129883,-0.8212075233459473,0.3430955410003662,0.574124813079834,-0.1505063325166702
1749053957.0426676,-0.0939588647909623,-2.659597534419063,1.852849688514331,-3.2385580717537987,3.9370971446024456,6.0481127236128955,0.042067322101357336,-0.0012874732280117593,-0.04928152968635009,0.028481337287219386,0.019219022357285086,-0.03590076317725506,0.2606097757816314,0.3669891953468323,-0.8168424367904663,0.3543212413787842,0.5729251503944397,-0.1644813567399978
1749053957.042705,-0.09387324005116664,-2.659597927498258,1.8527504164504829,-3.238497753837108,3.9371371726334488,6.048040010117246,0.04393884830601724,-0.0011036476286441117,-0.05145454935634477,0.030310645736366507,0.020456844842906625,-0.037513971179314674,0.2785018384456634,0.346500039100647,-0.8245210647583008,0.3381533920764923,0.5730298757553101,-0.1739508211612701
1749053957.0427425,-0.09378462876323744,-2.6595980777094756,1.8526466444273881,-3.238433608560096,3.937179680800667,6.047963896912373,0.04580005167401533,-0.0009573997944636376,-0.05361770438306572,0.03214577402945158,0.02187473451246064,-0.03904579041778689,0.2939428091049194,0.3479637503623962,-0.8676326870918274,0.3491756916046142,0.5653210282325745,-0.168378546833992
1749053957.0427787,-0.09369325078841659,-2.65959813494993,1.852538633132138,-3.2383657668652677,3.937224990060245,6.04788460707496,0.047645261795914,-0.0008538725042053545,-0.055758334253577464,0.033965969743057337,0.023426244988587145,-0.040491694592495776,0.2676778733730316,0.3206904530525207,-0.8295289278030396,0.3733013272285461,0.5818930864334106,-0.1764838397502899
1749053957.0428147,-0.09359926201682721,-2.6595982377749032,1.8524266508583362,-3.2382943917930205,3.9372733711239474,6.047802358438613,0.04947160673362833,-0.0007957402119563791,-0.05786616943501918,0.035754946189036525,0.025063586461814336,-0.04185552009232606,0.2896308302879333,0.2981162965297699,-0.8210458159446716,0.3718088567256927,0.5843349099159241,-0.1640488505363464
1749053957.0428507,-0.09350273976361041,-2.6595985074831403,1.852310938224531,-3.2382196525572096,3.9373250429874407,6.047717331761779,0.05127865116907362,-0.0007829661828708485,-0.05993402681289404,0.03750121674884176,0.02674011870308732,-0.04314930530112085,0.2866305708885193,0.3309577703475952,-0.8480411767959595,0.3689851760864258,0.5925316214561462,-0.2026666402816772
1749053957.042887,-0.09340367670985064,-2.659599041784396,1.8521916757417425,-3.2381417000935895,3.9373801689946513,6.047629641572919,0.05306789282422022,-0.0008127822790702049,-0.061958202499336354,0.03919788365976319,0.028412225580452703,-0.04439256040069388,0.3372903168201446,0.3525757193565368,-0.8627839088439941,0.367895245552063,0.5780444741249084,-0.1962070763111114
1749053957.0429237,-0.09330198290219559,-2.6595999090388935,1.8520689580951342,-3.238060647703387,3.9374388512907776,6.047539313930004,0.05484220647740162,-0.000879897466583282,-0.06393856738553448,0.040841960782318956,0.03004067079163875,-0.04561094536090549,0.2803537845611572,0.3078956007957458,-0.8491664528846741,0.3636541962623596,0.5740122199058533,-0.1837448626756668
1749053957.042964,-0.09319749480294202,-2.6596011446280303,1.8519427784193663,-3.237976559596254,3.937501125272207,6.047446274795669,0.056605315847270445,-0.0009769264363125242,-0.06587841381195746,0.04243333628964164,0.03159157372118292,-0.0468343758186609,0.3187638521194458,0.2950433194637298,-0.8748091459274292,0.3695908188819885,0.5808182954788208,-0.1963818967342376
1749053957.0430005,-0.09308999028878268,-2.65960275079197,1.8518130247865554,-3.23788944904466,3.9375669556668513,6.04735035150763,0.05836134020122878,-0.001095013886455086,-0.06778411456660106,0.04397350770736423,0.03303713914353134,-0.04809462995513148,0.318249374628067,0.3058680593967438,-0.891142725944519,0.3697503209114074,0.5673248171806335,-0.2187272757291793
1749053957.0430367,-0.09297920852700371,-2.659604700307367,1.8516794897476716,-3.2377992867129213,3.937636235209177,6.047251288110632,0.060114421675501226,-0.0012246092778032927,-0.06966465141161975,0.04546425361964411,0.03435624022831268,-0.049422595948377446,0.3242152333259582,0.3397549390792846,-0.8789083361625671,0.3729691505432129,0.5828706622123718,-0.2112848162651062
1749053957.0433838,-0.09286487354430072,-2.659606943314592,1.8515418923451727,-3.2377060184325592,3.9377087860258624,6.047148773399446,0.0618684151925273,-0.0013563203468791713,-0.0715310546089825,0.04690643187025654,0.03553490110419928,-0.05084536872668858,0.3595337867736816,0.3222662210464477,-0.8865860104560852,0.3778162598609924,0.5651887655258179,-0.214890256524086
1749053957.0453663,-0.09274671987439648,-2.6596094160040002,1.8513999104449834,-3.2376095901308584,3.9377843635453993,6.0470424786052215,0.06362662198352378,-0.0014817479151446999,-0.07339576600720012,0.048299096684401466,0.0365666644751244,-0.052383449389562874,0.3642442524433136,0.3491048812866211,-0.894554853439331,0.3701748847961426,0.5530197024345398,-0.2265917509794235
1749053957.08628,-0.09262451802797868,-2.6596120497226803,1.8512532193146307,-3.237509975985462,3.937862663265432,6.046932099874467,0.06539155662183553,-0.001594193418171029,-0.07527191282398828,0.049639096449530996,0.037452778313685126,-0.054048303073497256,0.3642442524433136,0.3491048812866211,-0.894554853439331,0.3701748847961426,0.5530197024345398,-0.2265917509794235
1749053957.0863254,-0.09249809702395337,-2.6596147791093667,1.8511015306010086,-3.2374072047673796,3.9379433315056356,6.046817399435498,0.06716474624003278,-0.0016891463946928115,-0.07717248346891059,0.05092124446394448,0.03820210921156163,-0.05584050774228901,0.4031530916690826,0.3372211456298828,-0.9248905181884766,0.3509021699428558,0.5611993074417114,-0.2344009727239608
1749053957.086366,-0.09236736128309303,-2.6596175480567315,1.8509446254513329,-3.237301379456339,3.9380259813365965,6.046698239385498,0.06894657224773752,-0.0017645022453990698,-0.07910943217903006,0.052139048906650706,0.03883069396961526,-0.057748706300155266,0.3700223565101623,0.3225377202033996,-0.9028018712997437,0.3462023735046386,0.550260066986084,-0.2448737472295761
1749053957.0864036,-0.09223229999859844,-2.6596203127608122,1.8507823771689225,-3.237192686784987,3.938110213761194,6.046574603797984,0.07073617926072781,-0.0018205167036362796,-0.08109277849540293,0.053285872661212354,0.03936087123264422,-0.059749555052199275,0.3513964712619781,0.3322249054908752,-0.935216188430786,0.3591495156288147,0.5361799001693726,-0.2502992153167724
1749053957.0864408,-0.09209298825559653,-2.659623041941955,1.850614761605491,-3.237081395623592,3.9381956426169316,6.046446607634455,0.07253148381595072,-0.0018595513517938307,-0.08312978611475126,0.05435631921259818,0.03981998553537136,-0.06180880738819092,0.4300141632556915,0.3358252644538879,-0.9508340358734132,0.3644179999828338,0.5626887083053589,-0.22954623401165
1749053957.0864782,-0.09194958000435129,-2.659625715343426,1.8504418557720403,-3.2369678448842243,3.938281920582968,6.0463144933276505,0.07432931036137817,-0.0018856879432606834,-0.08522430388179258,0.05534763696182645,0.040238719759916435,-0.06388355697011013,0.3974953889846802,0.301209032535553,-0.9472617506980896,0.3750927448272705,0.556818425655365,-0.2424295991659164
1749053957.0865154,-0.09180229339226093,-2.6596283222857022,1.850263826201167,-3.2368524225020203,3.9383687634037905,6.046178617055182,0.07612566190459351,-0.0019042847204484418,-0.08737634275309072,0.05626097364549904,0.04064917119910894,-0.06592550513797732,0.3875463008880615,0.28532874584198,-0.9678219556808472,0.3622304797172546,0.543871283531189,-0.2427211999893188
1749053957.0865524,-0.0916513894005261,-2.659630861859142,1.850080908974814,-3.2367355374669105,3.938455969692603,6.046039426780272,0.07791609900078311,-0.001921522873335822,-0.08958195225253418,0.05710234381413937,0.04108281634699215,-0.067884961042333,0.3928338289260864,0.3103591799736023,-0.9680497646331788,0.363709032535553,0.5483921766281128,-0.2156939059495926
1749053957.0865884,-0.09149714543308954,-2.6596333453431136,1.8498933836305647,-3.236617587191566,3.938543434283523,6.045897433618455,0.07969617003319553,-0.0019439590277895702,-0.09183344367113189,0.05788317649442549,0.04156850019610666,-0.06971518231032242,0.4106872081756592,0.3120439946651459,-0.949633538722992,0.3576379716396332,0.5543228983879089,-0.2300702333450317
1749053957.086626,-0.09133982610988729,-2.6596358002339895,1.8497015433726498,-3.236498922721776,3.9386311539971723,6.0457531775217594,0.0814618303342949,-0.0019780751766398435,-0.09411997582807845,0.05862030829086964,0.042130557082581836,-0.07137664481379773,0.4218066334724426,0.3221571743488312,-0.9942599534988404,0.3265315294265747,0.557201623916626,-0.232028841972351
1749053957.086662,-0.09117965374814704,-2.6596382744313782,1.8495056640049166,-3.2363798144715146,3.9387192255637054,6.045607188159536,0.08320980589878496,-0.0020298123018403697,-0.09642846625387502,0.05933531244219101,0.042787157708334904,-0.07284087137006019,0.4123706817626953,0.3131000101566314,-0.9690106511116028,0.3440927267074585,0.5696653723716736,-0.2032809555530548
1749053957.0866983,-0.09101678116140352,-2.6596408389248642,1.849305973904718,-3.2362604214187654,3.938807836038318,6.0454599425134345,0.08493787758483501,-0.002104090022626684,-0.09874472133742164,0.06005313295760097,0.043549001845024485,-0.07409349822698971,0.4078228771686554,0.3210920393466949,-0.9320077896118164,0.3630484342575073,0.5778937935829163,-0.2016097605228424
1749053957.086734,-0.090851269698346,-2.659643587696732,1.8491026273740934,-3.236140766914665,3.9388972465805705,6.045311821939671,0.0866450739622952,-0.0022043430658287132,-0.10105461443078366,0.06080012758176719,0.044418523592837995,-0.0751362863280117,0.4645608961582184,0.2852480709552765,-0.9416650533676147,0.3808887600898742,0.6044023036956787,-0.2204414457082748
1749053957.0867698,-0.0906830754377429,-2.659646634275617,1.8488956837881727,-3.2360207241180214,3.938987771326148,6.045163072740743,0.08833177043425311,-0.0023321318485973338,-0.103345112702159,0.06160176997086507,0.04538979984625304,-0.07598781913922777,0.4124622046947479,0.2978432476520538,-0.9323002696037292,0.3704974055290222,0.5919783115386963,-0.1857356578111648
1749053957.0868058,-0.0905120456339176,-2.6596501051124237,1.8486850949207279,-3.235900013423173,3.9390797539642746,6.045013775032294,0.08999969759779444,-0.002486895966458509,-0.10560498406740801,0.062480344450892934,0.04644930682875803,-0.07668271494822995,0.4618470072746277,0.2894466817378998,-0.911509335041046,0.3808478116989136,0.5768818855285645,-0.1987848728895187
1749053957.086841,-0.09033792610016828,-2.6596541304693755,1.848470702656705,-3.2357782132659376,3.9391735447545413,6.04486382455771,0.09165185569042493,-0.0026659081970490366,-0.10782509827860558,0.06345294580926744,0.04757754691689265,-0.07726932656893669,0.4379791617393493,0.3043482601642608,-0.939659595489502,0.3950971364974975,0.5843921303749084,-0.1883431822061538
1749053957.0868766,-0.09016037893177781,-2.659658833809285,1.848252249104742,-3.2356547846086445,3.93926947984153,6.0447129310969885,0.09329232055066712,-0.0028644528257492437,-0.10999833938859442,0.06453000350145446,0.04875140798950319,-0.0778060722252658,0.4953017234802246,0.2960515916347503,-0.932504177093506,0.4053980112075805,0.5913617610931396,-0.2213782519102096
1749053957.0869124,-0.08997900924630928,-2.659664320819853,1.8480294007740865,-3.2355291083155016,3.93936786349649,6.044560635418862,0.09492592777962595,-0.0030762060297720877,-0.11211923311019588,0.0657144420799201,0.0499469711097128,-0.078356694943223,0.4781923294067383,0.3057483434677124,-0.9250421524047852,0.4151297211647033,0.5699366331100464,-0.2148592621088028
1749053957.0869486,-0.08979339937132302,-2.659670669179815,1.8478017875686206,-3.235400533488576,3.9394689530590763,6.044406344600752,0.09655784116240518,-0.0032937562888784226,-0.1141834343116748,0.06700149623492739,0.05114237753383372,-0.07898485528760377,0.4612587988376617,0.315628707408905,-0.9131911396980286,0.4014649093151092,0.5476933121681213,-0.2115223705768585
1749053957.0869849,-0.08960314865525587,-2.6596779199416463,1.8475690554363948,-3.23526843353314,3.939572946124549,6.044249383376663,0.09819303390100602,-0.003509185014364831,-0.1161872104641862,0.06837912565361653,0.052320319396374056,-0.0797485198280502,0.464150607585907,0.3164524734020233,-0.9008138179779052,0.4207298457622528,0.5629919171333313,-0.2397583127021789
1749053957.0873635,-0.08940791622838817,-2.6596860711390744,1.8473309284013295,-3.2351322651399608,3.939679969961543,6.044089057266336,0.09983572139521407,-0.0037146336385277695,-0.11812701813073383,0.06982893231329589,0.05346975727110184,-0.08069463154831183,0.4461032450199127,0.3421041071414947,-0.9007004499435425,0.4000785946846008,0.5610710382461548,-0.246275320649147
1749053957.089408,-0.08920746232498425,-2.6596950741793215,1.8470872716873257,-3.234991623538329,3.9397900742515097,6.043924721426276,0.10148878302079441,-0.003902803148508636,-0.11999923726689657,0.07132747862803927,0.054586606656529535,-0.081854553483512,0.4461032450199127,0.3421041071414947,-0.9007004499435425,0.4000785946846008,0.5610710382461548,-0.246275320649147
1749053957.130531,-0.08900168169970912,-2.6597048337069222,1.8468381439070851,-3.234846285835739,3.9399032295329217,6.043755847196707,0.10315321111472314,-0.004067354122966188,-0.1218001205615771,0.07284792445170844,0.05567333681779609,-0.08324075710685741,0.4692079424858093,0.3277540504932403,-0.9099958539009094,0.3969143033027649,0.5893318057060242,-0.2563157975673675
1749053957.130606,-0.08879062185312034,-2.659715211517963,1.8465838251722697,-3.234696234335838,3.9400193339683116,6.043582076996696,0.10482764139579184,-0.004203193801070999,-0.12352601685877403,0.07436191423583056,0.05673761352857039,-0.08484515902793607,0.4920191466808319,0.3248511850833893,-0.8691199421882629,0.4039153456687927,0.5706478953361511,-0.2256187200546264
1749053957.1306734,-0.08857448115845336,-2.659726034456304,1.8463248118396849,-3.2345416547057537,3.9401382291289564,6.043403259337956,0.10650804735876304,-0.004306650788699724,-0.1251739054128423,0.07584163409660497,0.05779023545469433,-0.08663937801224993,0.4199420213699341,0.3280799686908722,-0.882117509841919,0.4293047785758972,0.5512356758117676,-0.2742521166801452
1749053957.130744,-0.08835358743364745,-2.659737105294486,1.846061777053361,-3.234382909308696,3.940259721986214,6.043219459898094,0.10818769735124807,-0.004375548387214304,-0.12674221368323324,0.07726192644852191,0.058842662489770395,-0.08857700031152842,0.5015725493431091,0.3498401939868927,-0.8629693984985352,0.4196363389492035,0.5652862787246704,-0.2628159523010254
1749053957.1308124,-0.08812836286034371,-2.659748215027057,1.8457955052063226,-3.2342204914395016,3.940383607463119,6.043030949776686,0.10985745137442632,-0.004409192339541179,-0.12823180282594207,0.07860231000137068,0.05990445368852628,-0.09059773022856897,0.4619603157043457,0.3697079122066498,-0.8607257604598999,0.412792444229126,0.569953441619873,-0.2652496099472046
1749053957.1308784,-0.08789928311374438,-2.6597591551347817,1.8455268134982625,-3.2340549691730924,3.9405096856494675,6.042838175461124,0.11150641145360322,-0.004408285173454756,-0.12964693003887076,0.07984871691204116,0.060980950363714335,-0.09263308230089261,0.4511105120182037,0.3581331670284271,-0.8490177989006042,0.3854962885379791,0.5730264782905579,-0.2247796505689621
1749053957.130943,-0.08766683705235813,-2.659769728931887,1.8452564738396506,-3.233886927589461,3.940637770154381,6.0426417158712775,0.11312285507893148,-0.00437477112908822,-0.13099596805890243,0.08099474806240359,0.06207154048290404,-0.09461305980402894,0.4212220907211303,0.3640156984329223,-0.8415964841842651,0.4093770384788513,0.5757386684417725,-0.2456999123096466
1749053957.1310077,-0.08743149074014926,-2.6597797615421497,1.8449851453745107,-3.233716916321716,3.94076768767202,6.042442231341799,0.11469531000398542,-0.0043116145125155,-0.13229169513280675,0.08204228921973228,0.06316879060357429,-0.09647310418906768,0.449380874633789,0.3599202632904053,-0.8648475408554077,0.4121281802654266,0.5767775774002075,-0.2263541221618652
1749053957.1310723,-0.08719365778870043,-2.6597891081250684,1.8447133240626987,-3.233545406911208,3.9408992720194003,6.042240408843457,0.11621360137893928,-0.004222528100026325,-0.133551058056205,0.0830014219583167,0.06425862454719417,-0.09816054209373505,0.4101936221122741,0.3375502228736877,-0.8583042025566101,0.4096464514732361,0.5908421277999878,-0.2086718529462814
1749053957.131138,-0.08695367719493628,-2.659797659850602,1.84444131221923,-3.2333727621823685,3.9410323574899655,6.042036907533936,0.11766972419206699,-0.004111690335074909,-0.13479442368455735,0.08388965350989963,0.06532158596981565,-0.09963981275687706,0.4225608110427856,0.3525641560554504,-0.8496296405792236,0.4020783305168152,0.57798832654953,-0.1898679584264755
1749053957.1312027,-0.08671179951548842,-2.659805347098709,1.844169208018958,-3.233199218194912,3.9411667759900335,6.041832308653885,0.11905844372790299,-0.0039835029489724266,-0.13604442448111384,0.08473053012115181,0.06633506835412929,-0.10089589869715838,0.4527507424354553,0.3461461961269378,-0.8518120646476746,0.4039488136768341,0.575970470905304,-0.1689027547836303
1749053957.1312675,-0.08646818194586842,-2.659812139668221,1.8438969127926839,-3.2330248783386515,3.9413023605479753,6.041627073579934,0.12037758038895892,-0.003842430056002572,-0.13732454401330513,0.08555169777962875,0.06727624519832603,-0.10193557739142392,0.4244406223297119,0.360090970993042,-0.887497067451477,0.3943485617637634,0.5721360445022583,-0.1774213314056396
1749053957.1313343,-0.08622289230330632,-2.6598180444275483,1.8436241524371708,-3.2328497185917344,3.9414389553476505,6.041421513368252,0.121627985631098,-0.0036929269664217664,-0.13865758655684357,0.08638248533198435,0.06812530347782592,-0.10278635328873657,0.3900123536586761,0.3654324114322662,-0.866254448890686,0.3907608389854431,0.5711863040924072,-0.1887644529342651
1749053957.1314,-0.08597592082655772,-2.659823101483945,1.8433505084621231,-3.232673602582685,3.941576430361995,6.041215772268532,0.12281326570230844,-0.003539429182228021,-0.1400641573695785,0.08725114310093451,0.0688685035383685,-0.10349320380752687,0.4383091926574707,0.3466463387012481,-0.8821643590927124,0.4105895161628723,0.5325614213943481,-0.1854291707277298
1749053957.131465,-0.08572719738569945,-2.6598273800785805,1.8430754541547103,-3.2324963046650277,3.941714697437544,6.041009826381934,0.12393935584779066,-0.0033863502802312143,-0.14156126413730571,0.08818196181509765,0.06950058786267492,-0.1041135393919322,0.4464535117149353,0.3635995984077453,-0.9088346362113952,0.4210864603519439,0.5316300392150879,-0.195349708199501
1749053957.13153,-0.08547661091498374,-2.6598309748943536,1.8427983920022946,-3.2323175386693235,3.9418537243387557,6.040803496936752,0.12501407334396203,-0.0032380405129074836,-0.14316113317010212,0.08919257945714262,0.07002615688461959,-0.1047109858717527,0.4554393887519836,0.3345912396907806,-0.8982053399085999,0.408631294965744,0.5603259205818176,-0.1992774605751037
1749053957.131594,-0.08522402816021428,-2.6598340027352214,1.8425186896785433,-3.232136989496525,3.9419935437330644,6.04059647587095,0.12604676172857032,-0.0030986787746109315,-0.14487030785488908,0.09029181598207986,0.07045981600005123,-0.1053487152369773,0.4023311138153076,0.3411826193332672,-0.8880309462547302,0.4218396842479706,0.548717737197876,-0.211020216345787
1749053957.1316605,-0.08496930978379902,-2.6598365991043904,1.8422357132499498,-3.2319543445385133,3.9421342553021894,6.040388360009861,0.12704807528242187,-0.0029720973637431306,-0.14668906767830645,0.09147833940787463,0.07082512967469419,-0.10608307200442825,0.4238705635070801,0.3618512749671936,-0.896073043346405,0.4134467542171478,0.5609109401702881,-0.2305380403995514
1749053957.131725,-0.08471232273061177,-2.659838914144346,1.8419488573691931,-3.2317693221975072,3.942276020713876,6.040178689443904,0.12802986731705557,-0.002861565763165003,-0.14861119410864568,0.09274037571617806,0.07115261681394132,-0.10695817585062371,0.4388682842254638,0.3592577278614044,-0.8961900472640991,0.4196085333824157,0.5567611455917358,-0.2087329030036926
1749053957.1317902,-0.08445294834357615,-2.659841107535237,1.841657572709833,-3.2315816953949845,3.9424190524278764,6.039966985806317,0.12900507786720838,-0.002769582480029033,-0.15062412354329638,0.09405656107301376,0.07147711703030869,-0.10800204641104814,0.4412106275558471,0.3430822789669037,-0.930199921131134,0.437875896692276,0.5826775431632996,-0.2368823587894439
1749053957.1319468,-0.08419108632041017,-2.6598433422335814,1.841361390709882,-3.2313913086621895,3.9425635978683196,6.039752786926448,0.12998749127364254,-0.0026977337287330846,-0.15270954392184552,0.09539791823946853,0.07183484119466095,-0.10922462063426085,0.4237674474716186,0.3555650115013122,-0.9066562652587892,0.4053630828857422,0.5504805445671082,-0.2459600120782852
1749053957.133398,-0.0839266552061902,-2.6598457773494792,1.8410599451006031,-3.2311980880032336,3.9427099205747234,6.039535675533182,0.13099125706501674,-0.0026466646983723855,-0.15484447461919593,0.09673081804217211,0.0722603457263457,-0.11061783928553433,0.384664922952652,0.3496429026126861,-0.8956096172332764,0.4264182448387146,0.5404295325279236,-0.2702183425426483
1749053957.1742992,-0.08365959038666078,-2.6598485607888587,1.84075298904406,-3.2310020431344886,3.942858279943651,6.039315300837742,0.132030133424043,-0.002616174559732293,-0.1570028101254763,0.09802065737486006,0.07278361098129954,-0.11215776757513164,0.4208512902259826,0.3704762160778045,-0.920015811920166,0.3974090814590454,0.5755035877227783,-0.2434368729591369
1749053957.174369,-0.08338984043780157,-2.659851822289403,1.8404404062713249,-3.230803261964053,3.9430089111598843,6.039091392522939,0.13311650748568726,-0.0026054057851354158,-0.15915723033136495,0.09923586314587186,0.07342739736738559,-0.11380847590384416,0.4436665177345276,0.3183890283107757,-0.9027116298675536,0.3872881829738617,0.5749725103378296,-0.246955931186676
1749053957.17444,-0.08311736253379,-2.6598556672317106,1.840122214591735,-3.230601897484504,3.943162006669131,6.038863766928567,0.13426034431570688,-0.0026130715891125875,-0.16128131144324906,0.10035174956911067,0.07420507918875405,-0.1155271611634039,0.4583868980407715,0.3315657675266266,-0.8686087131500244,0.3812092542648315,0.5926242470741272,-0.2507973909378052
1749053957.1745083,-0.08284211764864576,-2.6598601714346883,1.8397985605461094,-3.230398147871547,3.9433177000714896,6.038632325482761,0.13546827855908358,-0.0026376623318716827,-0.16335162720572552,0.101353741826877,0.07511917096188707,-0.11726979745313514,0.4754801392555237,0.3598663806915283,-0.8888232707977295,0.3756731748580932,0.5826642513275146,-0.2316046953201294
1749053957.174574,-0.08256406634394305,-2.6598653772041034,1.8394697046819914,-3.2301922315252,3.9434760530386535,6.038397046056944,0.13674305300712608,-0.002677587870768127,-0.1653496204140661,0.1022395411345979,0.07616074194107195,-0.11899652162512286,0.4736127257347107,0.3096896409988403,-0.9004255533218384,0.3925285935401916,0.6045112609863281,-0.2261312454938888
1749053957.174641,-0.08228316577753372,-2.659871291014973,1.8391359978543091,-3.2299843597114557,3.9436370461001387,6.038157968809129,0.13808341990407655,-0.002731236436839132,-0.1672630529360367,0.10301993543240451,0.07730986670131644,-0.12067599716092739,0.4364756047725677,0.3382205963134765,-0.9000909328460693,0.3784366250038147,0.6152984499931335,-0.2240519970655441
1749053957.1747134,-0.08199936828884292,-2.6598778831372143,1.838797850078479,-3.2297747099896146,3.943800574633238,6.037915178799522,0.1394844930238313,-0.0027969532584535993,-0.16908689185087555,0.10371812824120684,0.07853718379630951,-0.12228815126147095,0.4115887284278869,0.3409516811370849,-0.8699785470962524,0.3894841372966766,0.6026257276535034,-0.2014836072921753
1749053957.1747842,-0.08171262173732514,-2.659885089299721,1.8384556946382316,-3.2295634036916385,3.9439664515719084,6.0376687879642965,0.140938432966492,-0.002872961178778792,-0.17082353519372243,0.10436762463528354,0.07980652080806266,-0.12382493416508593,0.4440101385116577,0.3136090636253357,-0.85958331823349,0.3449218869209289,0.5887850522994995,-0.22766974568367
1749053957.1748428,-0.08142287166853679,-2.659892814392087,1.8381099510337295,-3.229350490467392,3.944134418013015,6.037418918966963,0.14243530323294812,-0.0029572595563830562,-0.17248232634792082,0.10500885696261256,0.08107839678218694,-0.12528907976501372,0.4563862979412079,0.3186990618705749,-0.8801175951957703,0.3703027963638305,0.5901751518249512,-0.2233489900827407
1749053957.1749012,-0.08113006527540174,-2.6599009383417487,1.8377609906180616,-3.2291359422969643,3.9443041621669392,6.03716569307403,0.14396394677661387,-0.003047542946865539,-0.17407837911371155,0.10568487162311786,0.08231406276760066,-0.12669119702204432,0.4666485786437988,0.3498484492301941,-0.8717280030250549,0.3997674882411957,0.5808279514312744,-0.2280355393886566
1749053957.1749587,-0.08083415705675387,-2.6599093244006853,1.8374091083267745,-3.2289196583078117,3.944475345995699,6.036909223504568,0.1455127761386185,-0.0031411730274991615,-0.17563083713820524,0.10643654373867557,0.0834796271655322,-0.12804581951520735,0.4328459501266479,0.3252635598182678,-0.8733313083648682,0.3892264366149902,0.5899443030357361,-0.2197446674108505
1749053957.1750157,-0.08053511592087043,-2.6599178297046464,1.8370545029210172,-3.2287014803057463,3.944647637412496,6.036649614738482,0.1470704241319001,-0.003235217651309949,-0.1771607800109978,0.10729789932066337,0.08454976017886828,-0.12936721921035965,0.441906988620758,0.3364019989967346,-0.8714991211891174,0.4050686657428741,0.5620331764221191,-0.2352520525455474
1749053957.175074,-0.08023293295054973,-2.6599263171292598,1.836697266962499,-3.2284812173675173,3.944820744459244,6.036386967204779,0.14862625608099245,-0.0033265508346061105,-0.17868902718365293,0.10829214695104786,0.08551048777260552,-0.1306658124471523,0.5072827339172363,0.3244930505752563,-0.8978753089904785,0.3863148689270019,0.5558310747146606,-0.2628258466720581
1749053957.17513,-0.07992762822947654,-2.659934666732756,1.8363373866771964,-3.228258676349038,3.9449944470077796,6.036121385812101,0.1501707867578628,-0.0034119992554492657,-0.18023408363860996,0.10942893869015477,0.08636067060344206,-0.1319458466248703,0.4586868584156036,0.3268516063690185,-0.9011813998222352,0.4071524143218994,0.5504775047302246,-0.2524134218692779
1749053957.1751878,-0.07961925458070046,-2.6599427850032487,1.8359747511015756,-3.2280336939195142,3.9451686215589494,6.035852990101097,0.15169605529516086,-0.00348852545425787,-0.18181044019160159,0.11070322309026616,0.08711192064959951,-0.13320477362848643,0.4048090279102325,0.3313581347465515,-0.884250819683075,0.4414927065372467,0.5538164377212524,-0.2253350019454956
1749053957.1752472,-0.07930789629389669,-2.6599506107395476,1.8356091692749925,-3.2278061650095142,3.945343255649115,6.035581923454804,0.15319597930233278,-0.003553444178745893,-0.18342739541796163,0.11209585586862732,0.08778693258149631,-0.13443434069742105,0.4423252642154693,0.344836562871933,-0.8914390802383423,0.426065981388092,0.5452656745910645,-0.2460077553987503
1749053957.175317,-0.07899366202137215,-2.659958117279297,1.8352403935450288,-3.2275760626432355,3.9455184500432194,6.035308358778644,0.15466665709518038,-0.0036046662152513405,-0.18508850195727478,0.11357591424432593,0.08841646139300613,-0.13562305550153528,0.4748537540435791,0.3180523812770843,-0.9224743247032166,0.4348432421684265,0.5754842758178711,-0.2149203568696975
1749053957.1753838,-0.0786766726695528,-2.6599653114586297,1.834868146373246,-3.227343445166848,3.945694408886763,6.035032498418134,0.15610655388029887,-0.003640954330581906,-0.18679165960317368,0.11510443425370423,0.08903539263172898,-0.13675941161404018,0.4538623392581939,0.3171333074569702,-0.9134645462036132,0.434635192155838,0.5781537294387817,-0.2118438184261322
1749053957.175449,-0.07835704665352594,-2.6599722298514403,1.8344921476432816,-3.22710844886117,3.9458714197275966,6.034754566996081,0.15751651052403473,-0.0036621644885347394,-0.18852979569073017,0.11663908251837889,0.08967846201824296,-0.13783514501274371,0.4543308019638061,0.3496352732181549,-0.8935245871543884,0.4138724505901336,0.5676314234733582,-0.2030182033777237
1749053957.175515,-0.07803488566192093,-2.6599789326430674,1.8341121395766986,-3.226871266566982,3.9460498263949506,6.034474797337297,0.15889954115518876,-0.003669434942543004,-0.19029201003480695,0.11813911632019934,0.09037617570111736,-0.13884783109829396,0.4665631353855133,0.3453568518161773,-0.8972815871238708,0.3691570460796356,0.5762768983840942,-0.1941872835159301
1749053957.1756525,-0.0777102637898169,-2.6599854954592357,1.8337279069372958,-3.226632115724361,3.9462299980990503,6.034193411318172,0.16026043045283603,-0.003665277618730119,-0.1920650315148603,0.11956990945157425,0.09115140342466593,-0.13980230654481743,0.4644207656383514,0.3379385769367218,-0.926638662815094,0.3703500628471374,0.5711179375648499,-0.1942555606365203
1749053957.177385,-0.07738322170772438,-2.659991999904002,1.8333392910340665,-3.2263912014916705,3.9464122979686693,6.0339105987319215,0.16160519661516315,-0.0036535257119501814,-0.19383483135493898,0.12090636363226238,0.0920170052555652,-0.14071067755690853,0.5045949816703796,0.3486371338367462,-0.933478057384491,0.349907785654068,0.6028138399124146,-0.2068617045879364
1749053957.2184937,-0.07705376597974761,-2.6599985241532784,1.8329461968677867,-3.226148681802598,3.946597053754859,6.033626497679557,0.16294051948656652,-0.0036391040003213764,-0.19558823997026537,0.12213471280679622,0.09297470800254236,-0.1415909920057228,0.4444886445999145,0.3574293553829193,-0.8825719356536865,0.3347806930541992,0.5509335398674011,-0.2145631313323974
1749053957.2185693,-0.07672187240391931,-2.6600051351830007,1.832548593538903,-3.225904641016704,3.946784532718421,6.033341179483019,0.16427321186455493,-0.0036276134847625856,-0.19731440636026645,0.1232525339589104,0.09401526574941375,-0.14246492735757796,0.4254993498325348,0.3660896718502044,-0.8740728497505188,0.3364261984825134,0.5516233444213867,-0.2389397323131561
1749053957.21864,-0.07638749182585713,-2.6600118839477753,1.8321465088218054,-3.225659077234455,3.9469749219281316,6.033054639886395,0.16560975562383254,-0.0036247555831969125,-0.1990059429095375,0.12426712360381316,0.09511976382757213,-0.14335501652725943,0.4622738659381866,0.3613184094429016,-0.9070709943771362,0.3463201224803924,0.5884208679199219,-0.2177112698554992
1749053957.2187085,-0.07605055718454057,-2.660018804243922,1.8317400195688192,-3.225411905704742,3.9471683146073873,6.032766796882054,0.16695589202509684,-0.003635660023829916,-0.20065964197693426,0.1251926974280744,0.09626182332790532,-0.14428197489587075,0.4591289162635803,0.3324180245399475,-0.8905482888221741,0.3784713745117187,0.5847818851470947,-0.2646242678165436
1749053957.218776,-0.07571099095353791,-2.660025915223387,1.8313292400642025,-3.22516297759415,3.947364703039749,6.032477494460889,0.16831627371278246,-0.003664218122530301,-0.20227672078274778,0.12604705851478146,0.09741044652148652,-0.14526261410849498,0.4358419179916382,0.3182929158210754,-0.8768340945243835,0.3645949363708496,0.5736698508262634,-0.2760840058326721
1749053957.2188437,-0.07536871227457484,-2.660033226733657,1.8309143103637544,-3.224912110401295,3.9475639786565218,6.032186511214236,0.16969422170230292,-0.0037125443419295224,-0.2038626065839044,0.12684842282812347,0.09853325625725066,-0.14630865842693114,0.4325639009475708,0.3349201381206512,-0.8887100219726562,0.3694583177566528,0.562656819820404,-0.2284197956323623
1749053957.2189095,-0.07502364324859268,-2.6600407461315103,1.8304953860978685,-3.2246591241751723,3.947765939643191,6.031893572858078,0.17109163842996364,-0.003780677376193142,-0.2054263015354276,0.12761299095367948,0.09959986899772844,-0.1474265483264521,0.4941977262496948,0.3383195102214813,-0.9288583993911744,0.3771826326847076,0.5820674896240234,-0.2532235383987427
1749053957.218977,-0.07467571427840052,-2.6600484850369353,1.8300726304413502,-3.2244038768769463,3.9479703054815967,6.031598368073369,0.1725090979916333,-0.0038665827789029863,-0.20697938823342163,0.12835364753524542,0.1005851027854798,-0.14861807150879378,0.4458824098110199,0.3205093741416931,-0.900281548500061,0.3955885171890259,0.5810851454734802,-0.23661470413208
1749053957.2190428,-0.07432486864839717,-2.6600564644402187,1.8296462081639662,-3.224146292725417,3.9481767368359084,6.031300567252818,0.173946091100385,-0.0039664464620795346,-0.2085347680551938,0.12907990286410367,0.10147169504893629,-0.14988147116689046,0.4584977626800537,0.3592945337295532,-0.905023992061615,0.3715152740478515,0.5788947939872742,-0.2554863691329956
1749053957.219108,-0.0739710663176617,-2.660064716599193,1.8292162810794674,-3.2238863788389347,3.948384858788067,6.030999843599549,0.17540137023564997,-0.0040751809536541585,-0.2101052595813103,0.1297989153839213,0.1022522169598242,-0.1512126008942695,0.480127215385437,0.3238198757171631,-0.9308983087539672,0.3674009442329407,0.5429006218910217,-0.2160168588161468
1749053957.2191665,-0.07361428649997849,-2.660073282551995,1.828783004113264,-3.223624227503211,3.9485942857613185,6.030695895533745,0.17687332903943112,-0.004187032894024354,-0.21170221429567182,0.13051720240998427,0.10292992818322134,-0.1526057440004671,0.4478109776973724,0.3419883549213409,-0.9534594416618348,0.3516722619533539,0.5315565466880798,-0.2414000928401947
1749053957.2192135,-0.0732545285478749,-2.660082205022869,1.828346521733905,-3.2233600036693137,3.9488046470344456,6.030388468774704,0.17836035630850586,-0.004296190622927007,-0.2133343153763944,0.13124250754600253,0.10351842590230932,-0.1540538775581215,0.4777120947837829,0.3222587704658508,-0.8883407115936279,0.3492651283740997,0.5672508478164673,-0.2548568248748779
1749053957.2192514,-0.07289181101551792,-2.6600915178089584,1.8279069652436704,-3.223093919578025,3.949015611936252,6.030077376025397,0.17986112161079673,-0.004397327808697153,-0.2150066915730415,0.13198527938758547,0.10404011131502582,-0.15554838978509508,0.4851866364479065,0.3434642255306244,-0.8833184242248535,0.377930998802185,0.5819525718688965,-0.2580535411834717
1749053957.2192876,-0.07252616914992173,-2.6601012339067096,1.8274644517182814,-3.222826200351187,3.9492269135051563,6.0297625119957585,0.1813747709482069,-0.004486053283224928,-0.21672041059781644,0.13275933008617208,0.10452369484590116,-0.1570784758123632,0.4737947285175323,0.3346310555934906,-0.8952373266220093,0.3458917438983917,0.5820947289466858,-0.2816977202892303
1749053957.219324,-0.0721576511058149,-2.6601113351618557,1.8270190849333536,-3.2225570456469974,3.949438368984558,6.029443861660489,0.1829010328232544,-0.0045592498182308126,-0.21847235879261645,0.13358144862028395,0.10500111098137878,-0.158630571903016,0.4897052347660064,0.3409633338451385,-0.9084076881408693,0.3655165433883667,0.5562024712562561,-0.325597882270813
1749053957.219364,-0.07178631294483452,-2.6601217658653113,1.8265709577673335,-3.2222865929313222,3.9496498953847325,6.029121500245917,0.1844402489019946,-0.004615278605177698,-0.22025549172453873,0.13446998576837982,0.10550425701294834,-0.1601882094742634,0.4588474631309509,0.3507815301418304,-0.8907487988471985,0.3778287768363952,0.5623266696929932,-0.2560330033302307
1749053957.2194014,-0.07141221231005163,-2.6601324316665282,1.8261201549165165,-3.2220148875720387,3.94986151857047,6.028795584378267,0.18599333983413519,-0.004654019081829156,-0.2220594358780666,0.13544265683509155,0.10606193033321906,-0.1617325739183413,0.4490021169185638,0.3644681870937347,-0.8884834051132202,0.3956706523895263,0.5848555564880371,-0.2980111837387085
1749053957.2194378,-0.07103540086475307,-2.660143203979791,1.825666754624678,-3.221741863831823,3.950073374819852,6.028466334926584,0.18756169879616988,-0.004676722132990142,-0.22387141359073773,0.13651398079310814,0.10669727618019531,-0.16324386024554477,0.4386945068836212,0.3680670857429504,-0.8917132616043091,0.3954633176326751,0.5818837881088257,-0.2806820869445801
1749053957.219473,-0.07065591611727014,-2.6601539291950376,1.8252108284275268,-3.221467339150577,3.9502857043906645,6.0281340132313055,0.18914699198413043,-0.004685683852311561,-0.225677452844933,0.13769284982739258,0.10742598592105916,-0.16470328504106685,0.4902591705322265,0.3490097224712372,-0.9071492552757264,0.4051998257637024,0.5618917346000671,-0.2930437326431274
1749053957.2195191,-0.07027377374198472,-2.660164441561753,1.824752438347067,-3.221191022376995,3.9504988372357652,6.027798893424692,0.19075085940048486,-0.0046837879563901095,-0.2274638253809618,0.13898068907020442,0.10825538457059404,-0.1660954146531165,0.4647258520126343,0.3604950904846191,-0.8981310129165649,0.39691162109375,0.5744748115539551,-0.2458857893943786
1749053957.2196355,-0.06988896155739584,-2.660174578421106,1.8242916313609077,-3.2209125351458194,3.950713171625366,6.027461234118076,0.19237455694972408,-0.00467399924005339,-0.2292186078409594,0.14037054658553336,0.1091844262884424,-0.16741035585738917,0.4987956583499908,0.354813665151596,-0.8644460439682007,0.4206645488739013,0.5786678791046143,-0.2454579770565033
1749053957.221391,-0.0695014359301642,-2.6601841963271387,1.8238284313236617,-3.2206314442051327,3.9509291470771104,6.0271212527663085,0.19401863495804053,-0.004658902220341291,-0.23093318074822852,0.1418472816736133,0.11020451904635026,-0.16864535555911286,0.5070448517799377,0.3398641943931579,-0.8465195298194885,0.3945948481559753,0.5900532603263855,-0.2489253431558609
1749053957.262509,-0.06911112093489909,-2.6601931863674997,1.8233628289127897,-3.2203473009564005,3.951147213610874,6.026779105713892,0.1956827601199837,-0.004640364432865656,-0.2326034165335772,0.14338882473398828,0.11130103954007915,-0.16980547434702567,0.4912322163581848,0.3416818082332611,-0.8346956372261047,0.4348932206630707,0.5848758816719055,-0.2552990317344665
1749053957.2625835,-0.0687179104577751,-2.6602014866997994,1.8228947707040597,-3.2200596831864887,3.951367799846584,6.026434876385171,0.1973657327304095,-0.004619370459485047,-0.23423031800949268,0.14496829540461578,0.11245535228838627,-0.1709032006212855,0.480510801076889,0.3547148406505584,-0.8447906970977783,0.4234012365341186,0.5772095322608948,-0.2480753660202026
1749053957.2626529,-0.06832167351812984,-2.6602090903184243,1.8224241491862618,-3.219768233726038,3.9515912828074753,6.026088573148121,0.19906566072006004,-0.004596033906788305,-0.23581996772213162,0.14655661627947686,0.1136470871917787,-0.1719570879981002,0.4747793674468994,0.3471538424491882,-0.8774487376213074,0.3892898559570312,0.5781353116035461,-0.2135383188724517
1749053957.2627218,-0.06792226307715882,-2.6602160466931872,1.8219507961992243,-3.219472691875621,3.951817962420292,6.025740136967967,0.200780190393958,-0.004569762864212748,-0.23738280108938506,0.14812517181841833,0.11485636362163641,-0.17298965974744188,0.4935705363750458,0.354542076587677,-0.8859419822692871,0.399289071559906,0.5532949566841125,-0.256730854511261
1749053957.2627895,-0.06751952828691077,-2.6602224570424817,1.8214744825224765,-3.219172915402259,3.9520480433859553,6.025389457374011,0.20250669983296057,-0.004539536434852082,-0.2389323618633791,0.14964806595334862,0.1160656145876415,-0.17402490171942483,0.5332356095314026,0.3545962572097778,-0.8770054578781128,0.3833077847957611,0.5783606171607971,-0.2560057938098907
1749053957.2628562,-0.06711332948317722,-2.6602284641544247,1.8209949259195493,-3.2188688928013183,3.9522816260122666,6.025036394067334,0.2042424195251615,-0.004504243977195162,-0.24048378226544892,0.15110364906469878,0.11726070785871735,-0.17508567619240015,0.5194524526596069,0.3492528796195984,-0.8602724671363831,0.3880884647369385,0.5787808299064636,-0.2760480344295501
1749053957.2629216,-0.06670355442908338,-2.6602342384426394,1.8205118089603332,-3.2185607466016246,3.9525187058211255,6.0246808011091755,0.20598450548464747,-0.004463038600205221,-0.24205223290319983,0.15247519382497,0.11843119770636383,-0.17619136062071208,0.4889091253280639,0.3416063785552978,-0.8780888319015503,0.3945389986038208,0.5647532343864441,-0.257849633693695
1749053957.262987,-0.06629013378770279,-2.6602399621258708,1.8200248065462812,-3.218248728597344,3.9527591799477486,6.024322550936203,0.2077301091814942,-0.004415658536772205,-0.24365153745865148,0.15375083198275008,0.11956973262363206,-0.17735595889176559,0.4885233044624328,0.3657255172729492,-0.8858577609062195,0.3947820365428924,0.5682728886604309,-0.2541211247444153
1749053957.2630527,-0.06587305390958195,-2.66024581317989,1.8195336212541218,-3.2179332074318543,3.953002857356622,6.02396155596492,0.209476462615365,-0.004362675455011115,-0.2452930878626187,0.15492304261376594,0.12067082474619222,-0.17858685539937283,0.4624616205692291,0.3804336190223694,-0.9008424878120422,0.4027830958366394,0.5766512155532837,-0.2518538534641266
1749053957.2631178,-0.06545236567746283,-2.660251950447051,1.8190380225976626,-3.217614648594336,3.95324947010864,6.023597785958274,0.21122096245703198,-0.004305639721956081,-0.24698514229125348,0.15598805114235262,0.12172931586542896,-0.17988430274936154,0.4471248984336853,0.3602071404457092,-0.8754703402519226,0.3926719129085541,0.5861948728561401,-0.2603212893009186
1749053957.2631848,-0.06502818886656385,-2.66025850126111,1.8185378846975322,-3.2172935870578314,3.9534986842046465,6.023231279664526,0.21296123293883706,-0.004247108267360959,-0.24873252720025005,0.15694544074732705,0.12273894843169814,-0.1812416716452933,0.4929016530513763,0.3455001711845398,-0.8734019994735718,0.4072547554969787,0.581784188747406,-0.2696404457092285
1749053957.2632506,-0.06460071179587036,-2.6602655529306785,1.818033216258169,-3.2169705934698207,3.9537501102898913,6.022862149512053,0.2146951744448419,-0.00419055799959418,-0.2505366904582235,0.15779812300796112,0.12369145822619415,-0.1826464475024688,0.4957537949085235,0.3387447595596313,-0.8793787360191345,0.39129638671875,0.5768234133720398,-0.2654527425765991
1749053957.263316,-0.06417018582894175,-2.6602731490750418,1.8175241773818809,-3.216646235714646,3.9540033158177588,6.022490578206044,0.21642103055340695,-0.004140202878871251,-0.252395986927984,0.15855262650249435,0.12457652505594165,-0.18408191666783275,0.5096798539161682,0.3286656141281128,-0.8992151021957397,0.3643818497657776,0.60085529088974,-0.3148114085197449
1749053957.2633796,-0.06373691382353969,-2.6602812910854956,1.817011079417983,-3.2163210385465737,3.9542578405369047,6.02211680605258,0.218137498864257,-0.0041007392270470235,-0.25430605082021346,0.15921950855361652,0.12538275163066923,-0.18552942405378217,0.5261217355728149,0.3119950294494629,-0.9138503074645996,0.3747582733631134,0.5850425362586975,-0.2764889597892761
1749053957.2634468,-0.06330123158413724,-2.6602899441544356,1.8164943663370028,-3.2159954446808507,3.954513216559701,6.021741108353072,0.21984386738902367,-0.004077035149409263,-0.25626013463762126,0.15981362090398943,0.12609962490464544,-0.18697098475743254,0.479683369398117,0.3626115918159485,-0.8738197684288025,0.3608731627464294,0.5844767093658447,-0.2758158445358276
1749053957.2635126,-0.06286348227242634,-2.6602990466637917,1.815974578546556,-3.215669781086302,3.9547689934184387,6.021363763773345,0.2215401097056507,-0.0040737612388892985,-0.2582493635520954,0.16035397428296067,0.1267201837104818,-0.1883919015352163,0.506170928478241,0.3598765730857849,-0.8825383186340332,0.3576960265636444,0.5630110502243042,-0.2494607418775558
1749053957.263578,-0.06242398530952087,-2.6603085213664133,1.8154523022361975,-3.2153442341302423,3.9550247677808215,6.020985016859018,0.22322686501722552,-0.004094951830131524,-0.260262944083797,0.1608630334294954,0.1272439045797626,-0.18978293215066283,0.501393735408783,0.3288971185684204,-0.920711874961853,0.3488919138908386,0.5609105229377747,-0.240629568696022
1749053957.2636423,-0.06198300256016951,-2.6603182866746238,1.8149281090200249,-3.215018836610603,3.9552802167068033,6.020605039790283,0.22490528086732778,-0.004143506571927896,-0.2622884451374961,0.16136540888740708,0.1276791795811886,-0.19114154397481659,0.5371108651161194,0.2942360341548919,-0.9469078183174132,0.3680278658866882,0.5363000631332397,-0.2448279857635498
1749053957.263709,-0.0615407048689154,-2.6603282664593166,1.8144024917623343,-3.2146934685157826,3.9555351321413896,6.020223899132599,0.22657676464438475,-0.004220683073219204,-0.26431229614938706,0.1618860660858459,0.12804475557157272,-0.19247193190438266,0.4976054430007934,0.3501119911670685,-0.8764251470565796,0.3559038639068603,0.5295838713645935,-0.2313294261693954
1749053957.2637744,-0.06109714174205354,-2.6603383971469627,1.8138758030855244,-3.214367871596519,3.9557894527602415,6.019841532601488,0.22824271419749612,-0.004325665392041928,-0.2663205919026363,0.16244831056629688,0.12836965554355273,-0.19378373561288317,0.5303201675415039,0.3558946549892425,-0.8547452688217163,0.3771562576293945,0.5430439114570618,-0.2428747862577438
1749053957.263934,-0.06065221692639199,-2.6603486316248537,1.8133482032104786,-3.2140416757702854,3.956043287854553,6.019457739223449,0.22990426652145274,-0.004455300782615578,-0.2683001760275446,0.16307189769866856,0.12869137924748167,-0.19508969496650022,0.482692003250122,0.3317579329013824,-0.8717266321182251,0.4167388379573822,0.5607041716575623,-0.2510325908660888
1749053957.2653852,-0.060205672995581466,-2.66035894028489,1.812819623389052,-3.21371443357848,3.9562969274235034,6.019072184400076,0.231562058649744,-0.004604079436446344,-0.2702398578070576,0.16377162959927768,0.12905250853196662,-0.19640273346467804,0.5103311538696289,0.3025702238082886,-0.9081937074661256,0.4128783941268921,0.5366076231002808,-0.2573215961456299
1749053957.3062751,-0.05975708849441101,-2.6603693099752324,1.8122897502411397,-3.2133856580674602,3.9565508335436497,6.018684419753478,0.23321597835301766,-0.004764397401187803,-0.27213154721972965,0.16455672074455432,0.12949613638882557,-0.1977330843976421,0.4776240885257721,0.3251156508922577,-0.8318430185317993,0.4342375695705414,0.5450081825256348,-0.2853679955005646
1749053957.306321,-0.05930589134819634,-2.6603797414369255,1.8117580349273348,-3.2130548599439037,3.9568056103652154,6.0182939164452085,0.23486490371141053,-0.0049270960445696715,-0.27397107323481956,0.16543104026578762,0.13006074384130184,-0.199086043507407,0.4896577596664428,0.3458103537559509,-0.8274509310722351,0.4245138466358185,0.575247585773468,-0.2717821300029754
1749053957.3063617,-0.05885139159516236,-2.660390245281919,1.8112237292465305,-3.212721581404695,3.957061953223632,6.01790010980874,0.23650647204549702,-0.005082220007409424,-0.27575847369805634,0.16639411751068375,0.13077525795190612,-0.2004607657933087,0.527662992477417,0.3326510488986969,-0.8786348104476929,0.3963566422462463,0.5875441431999207,-0.2857015430927276
1749053957.3064015,-0.05839283443161489,-2.6604008363003513,1.8106859481526443,-3.2123854258572404,3.957320580729826,6.017502452294638,0.23813694369144775,-0.005219895928932711,-0.2774976243583363,0.16744259591395477,0.13165504010783144,-0.2018502775383442,0.5267752408981323,0.3398590385913849,-0.8657224178314209,0.4053434431552887,0.6163944005966187,-0.2818868458271026
1749053957.3064444,-0.05792947093402418,-2.6604115262138963,1.8101437546343304,-3.2120460838773206,3.9575821569459326,6.0171004705494795,0.23975120541057057,-0.005331219370694819,-0.27919520855075103,0.1685717018886673,0.13269946466204122,-0.20324261426062312,0.4632314443588257,0.346467524766922,-0.8256241083145142,0.4147433936595917,0.6130051016807556,-0.2709866166114807
1749053957.3064835,-0.05746063913665621,-2.66042231579054,1.8095962585600038,-3.211703355442166,3.9578472136337934,6.016693820728995,0.24134290969725494,-0.0054090460518656834,-0.28085917939683613,0.16977630539495758,0.13389154394258873,-0.2046227826359334,0.4838720858097076,0.347001850605011,-0.8539952039718628,0.3806907534599304,0.6119208931922913,-0.2591663599014282
1749053957.3065214,-0.056985843324008335,-2.6604331880145895,1.8090427164625766,-3.211357166540257,3.958116084591276,6.016282334052002,0.24290472604419208,-0.005448607790745829,-0.2824969893632819,0.17105129461832566,0.1351997507214408,-0.20597512471206228,0.4838720858097076,0.347001850605011,-0.8539952039718628,0.3806907534599304,0.6119208931922913,-0.2591663599014282
1749053957.306558,-0.05650481625854103,-2.660444104216737,1.8084826157559708,-3.211007575806732,3.9583888642543013,6.0158660432475175,0.2444287071841439,-0.00544790788642482,-0.28411393226291215,0.17239122657664874,0.13658182499161398,-0.20728565279013597,0.5149047374725342,0.3175041079521179,-0.9032408595085144,0.4235129952430725,0.6057425141334534,-0.2651901245117187
1749053957.306595,-0.056017550531801776,-2.6604550044327224,1.807915727483213,-3.210654766354279,3.9586653996878822,6.015445182146439,0.2459067910497,-0.005407886872617516,-0.2857119390729952,0.17378947467209205,0.1379899881114334,-0.20854400020037814,0.4939600527286529,0.3526727259159088,-0.8714684844017029,0.4608643054962158,0.580743670463562,-0.2482627481222152
1749053957.306632,-0.05552429275422581,-2.6604658120141145,1.8073421184741387,-3.2102990211619336,3.9589453184244743,6.015020156524922,0.24733141010459322,-0.005332372710137117,-0.2872890772931983,0.17523728775247022,0.13937669755807378,-0.20974474455240552,0.508217453956604,0.3644869923591614,-0.904067873954773,0.4690351486206054,0.5616576075553894,-0.263056993484497
1749053957.3066683,-0.05502550459252147,-2.6604764413686004,1.8067621241630438,-3.2099406855977355,3.9592280864517284,6.014591492165089,0.24869609019118327,-0.005227829867515569,-0.2888398448185272,0.17672321928592785,0.1406999454042884,-0.21088796079915392,0.5160354971885681,0.3288790881633758,-0.920939028263092,0.4630372524261474,0.5473940968513489,-0.2629257440567016
1749053957.3067043,-0.054521801857052986,-2.660486807255688,1.8061762915346087,-3.209580124216027,3.959513084593101,6.014159771522975,0.2499958743433297,-0.005102908953292565,-0.29035617473534786,0.17823324073644978,0.1419272030516765,-0.21197894011623797,0.4836017191410064,0.3305173814296722,-0.8959940671920776,0.4614320695400238,0.5455799698829651,-0.2534143030643463
1749053957.3067403,-0.05401388445368763,-2.6604968342419313,1.80558530470485,-3.2092176792075238,3.9597996895181664,6.01372557117367,0.2512274530393554,-0.004967795400990768,-0.29182892300960533,0.1797515748794685,0.14303744671782778,-0.2130270856003121,0.5148409605026245,0.3665298223495483,-0.8635947704315186,0.4584684669971466,0.545742928981781,-0.2432489395141601
1749053957.306776,-0.05350246812492223,-2.6605064652780883,1.8049899049339917,-3.2088536360896738,3.960087346986941,6.013289409575305,0.2523889974215342,-0.004833377627093739,-0.2932495233333588,0.18126199952540414,0.14402117765706926,-0.2140440957587036,0.5209410786628723,0.3448748886585235,-0.8679360747337341,0.4308061599731445,0.5780870318412781,-0.2594862580299377
1749053957.3068118,-0.05298822610698889,-2.660515668694647,1.804390814882371,-3.2084882001780306,3.9603756280609814,6.01285171086272,0.25347980222013805,-0.004710299151741414,-0.29461147856968184,0.18274919561391886,0.1448788314942445,-0.21504168130065868,0.4902813136577606,0.327037900686264,-0.8781751394271851,0.4236032366752624,0.6002637147903442,-0.2648630738258362
1749053957.3068483,-0.05247174591011831,-2.6605244432389052,1.8037886747951744,-3.208121485642827,3.9606642627081428,6.012412786783715,0.2544998824074907,-0.004608007252544789,-0.29591141651790687,0.18419969760964022,0.14561828959307266,-0.21602919544493945,0.4450151026248932,0.3252719342708587,-0.8517066240310669,0.4018710255622864,0.5891736149787903,-0.2868372201919555
1749053957.306886,-0.051953503421318895,-2.6605328209319388,1.8031839961301488,-3.2077535173620157,3.960953148815227,6.011972836084796,0.2554496285003013,-0.004533937534162801,-0.297149543720282,0.18560214370344574,0.14625224634709794,-0.2170116265468118,0.4766152501106262,0.334835946559906,-0.8268110156059265,0.413125067949295,0.5702791213989258,-0.2666597366333008
1749053957.3069222,-0.05143385380591508,-2.660540867341722,1.8025771357429654,-3.2073842442506977,3.9612423378308814,6.011531958547376,0.2563295695673688,-0.004492960058808143,-0.2983294532708595,0.18694677253798317,0.14679595894826739,-0.21798835323498583,0.5090792775154114,0.3329285979270935,-0.8827678561210632,0.4275183081626892,0.5522562265396118,-0.2959626019001007
1749053957.306959,-0.05091303678415617,-2.6605486786936305,1.8019682911729435,-3.207013561440665,3.961532001045252,6.011090179282973,0.257140267399129,-0.004487159904378913,-0.2994573679719573,0.1882243882253738,0.1472655576831959,-0.21895289797962506,0.5104517936706543,0.3401965200901031,-0.8962832093238831,0.4492291510105133,0.5502336621284485,-0.2552572190761566
1749053957.3069952,-0.05039119290977095,-2.660556375663653,1.8013575152693673,-3.2066413377966723,3.9618223827508094,6.010647478043728,0.2578823544331995,-0.004515956228993614,-0.30054101845825193,0.1894252137098374,0.1476768081582692,-0.21989368959619843,0.4596517384052276,0.3032805025577545,-0.9158300161361694,0.4481511414051056,0.5511866807937622,-0.2759552896022796
1749053957.3074155,-0.04986838708187488,-2.6605640946975218,1.8007447467373594,-3.2062674448713353,3.9621137479303967,6.010203818497181,0.25855669892768346,-0.00457650623539141,-0.3015884314970322,0.19053809815594108,0.14804409608549737,-0.22079563832615712,0.4400794804096222,0.3112804591655731,-0.9010413885116576,0.4626350998878479,0.5623693466186523,-0.2539353966712951
1749053957.3093746,-0.04934463531120471,-2.660571978515517,1.800129852039524,-3.2058917835165843,3.9624063324069456,6.009759173429196,0.2591646458906482,-0.004664306366068252,-0.30260689289088194,0.19155043040757674,0.14837945388573923,-0.2216422046409832,0.4785492718219757,0.2993630170822143,-0.90728098154068,0.474204421043396,0.5660484433174133,-0.2366634607315063
1749053957.3503094,-0.04881993083681843,-2.6605801674569567,1.799512673176329,-3.2055143049311874,3.962700302482627,6.009313543058565,0.2597082801757224,-0.004773887990816351,-0.30360224807688757,0.1924488983279694,0.14869160551570268,-0.22241762446318272,0.5079106092453003,0.2956525087356567,-0.9018278121948242,0.4393829107284546,0.6131988763809204,-0.2422832399606704
1749053957.350354,-0.0482942662868079,-2.6605887925541207,1.7988930752688959,-3.2051350238192367,3.9629957291610074,6.008866964703003,0.2601906867273441,-0.004899499739131281,-0.304578560639258,0.19322100667115275,0.14898517705916814,-0.2231090125887514,0.4928041398525238,0.3443694114685058,-0.892405092716217,0.4447654485702514,0.5837389826774597,-0.2563701272010803
1749053957.3503983,-0.047767649640860554,-2.660597970241361,1.7982709879502077,-3.2047540224136792,3.963292579442651,6.00841951303495,0.26061619264233443,-0.005035672905028287,-0.3055380305393754,0.19385709143122826,0.14926031398212627,-0.2237081590444165,0.4509132206439972,0.3487964868545532,-0.866661787033081,0.4463277459144592,0.584118127822876,-0.2609063386917114
1749053957.3504386,-0.04724011309802678,-2.660607797930293,1.7976464355438988,-3.204371445216695,3.963590724387309,6.007971291299342,0.2609905403473425,-0.00517758892758226,-0.306481021737915,0.19435248074215528,0.14951292464846108,-0.22421291706136767,0.4570340812206268,0.3253369927406311,-0.8876710534095764,0.4424452185630798,0.6130750179290771,-0.2768399119377136
1749053957.3504777,-0.04671171541495366,-2.6606183495838835,1.797019552763496,-3.203987485282489,3.963889961161826,6.007522415062466,0.2613209009017662,-0.005321215670654164,-0.30740606872464893,0.19470944456717368,0.1497356679820235,-0.22462811547985803,0.4480127990245819,0.2967334687709808,-0.8902634978294373,0.4618328511714935,0.6090275049209595,-0.2585611641407013
1749053957.350515,-0.046182539499654666,-2.660629670857968,1.7963905848567483,-3.203602363662259,3.96419004454329,6.007072991123652,0.26161564723208774,-0.005463241885750308,-0.30830980125412316,0.19493860970682278,0.14991967433903575,-0.22496589311752527,0.4418033361434936,0.3262693285942077,-0.872969925403595,0.4296804070472717,0.5993002653121948,-0.2441670298576355
1749053957.3505566,-0.045652687562368205,-2.6606417740633774,1.7957598732665874,-3.203216304296611,3.9644907225110053,6.00662309510241,0.26188387254565204,-0.005600889236199182,-0.3091868121936632,0.19505955797940688,0.1500568515920218,-0.2252452812658599,0.4785290956497192,0.3434218168258667,-0.8671462535858154,0.4594684839248657,0.5924217700958252,-0.2153985649347305
1749053957.3505943,-0.04512227580443836,-2.660654633816666,1.795127829497436,-3.2028295072695867,3.9647917706539,6.006172751845942,0.26213471327285276,-0.0057316945839357624,-0.31002956703986484,0.19510037112653306,0.15014248069414457,-0.22549083528973332,0.4547732472419739,0.3299352526664734,-0.8820047378540039,0.424747884273529,0.5878549218177795,-0.2223361730575561
1749053957.350632,-0.0445914297186011,-2.660668184627426,1.7944949007616382,-3.202442123906407,3.965093020962034,6.005721922822411,0.2623765776462854,-0.005853331550368908,-0.3108284989941723,0.1950959681068893,0.15017766289755527,-0.22573021343816038,0.4226342439651489,0.3326913714408874,-0.870522141456604,0.4353653490543365,0.5839824676513672,-0.2233449220657348
1749053957.3506684,-0.04406027998472603,-2.660682321761138,1.793861531392794,-3.202054237404232,3.9653943818473443,6.005270503740336,0.26261639269529796,-0.0059635001078525395,-0.31157243508491045,0.19508523769669073,0.15017108783110442,-0.22599082880492785,0.4669050276279449,0.3459811806678772,-0.8757431507110596,0.4296401143074035,0.5490959882736206,-0.2290419340133667
1749053957.3507092,-0.043528958156093,-2.6606969064483152,1.793228124339334,-3.2016658521106045,3.9656958477454167,6.004818333926616,0.2628589910188634,-0.00605988008168276,-0.3122494420161533,0.19510720282108038,0.15013960245298685,-0.22629598629578146,0.4895681142807007,0.3560073375701904,-0.8584256172180176,0.4649021625518799,0.5587500929832458,-0.2542467713356018
1749053957.3507466,-0.04299759122212199,-2.660711775801425,1.7925950072933419,-3.2012768931726447,3.9659974982433335,6.004365216953761,0.26310676300592406,-0.006140133049640527,-0.3128480686980196,0.1951967031845913,0.15010721717001524,-0.22666114781819588,0.4729789793491363,0.3393234014511108,-0.819433867931366,0.5030379891395569,0.5811008810997009,-0.2837308347225189
1749053957.3507829,-0.04246629467135084,-2.6607267566680606,1.7919624077920913,-3.20088721664852,3.9662994879777744,6.003910949978341,0.26335966586411325,-0.006201946018326936,-0.31335883020631666,0.19538025410217824,0.15010248241095372,-0.22709104898815705,0.4220399558544159,0.3517029285430908,-0.818611204624176,0.4873842298984527,0.5984505414962769,-0.2724156975746155
1749053957.350819,-0.041935164490194334,-2.660741681381524,1.7913304406702857,-3.200496628989603,3.9666020291182074,6.003455357544828,0.2636155989590178,-0.006243124453309389,-0.31377568046360005,0.19567275610322238,0.15015453276827118,-0.22757827829462088,0.4293509721755981,0.367732435464859,-0.8070909380912781,0.4840090870857239,0.5915533900260925,-0.2778938412666321
1749053957.35086,-0.04140426920208591,-2.6607564025404975,1.790699109589612,-3.2001049141811206,3.966905368134819,6.002998324561246,0.2638710664694953,-0.006261744296387996,-0.3140971993523794,0.19607558054796995,0.15028840907134042,-0.22810365433513516,0.452116996049881,0.3544215559959411,-0.8078638315200806,0.4791793823242187,0.6131374835968018,-0.2736433148384094
1749053957.3508973,-0.0408736432047921,-2.6607708040174978,1.7900683223345746,-3.1997118662764956,3.9672097582786554,6.002539822973835,0.2641219937969155,-0.006256357656816121,-0.31432726916046166,0.19657629883949337,0.1505204416359243,-0.22863838475985415,0.4258549511432647,0.3628501296043396,-0.8050047755241394,0.4938531517982483,0.6259009838104248,-0.2389406561851501
1749053957.3509338,-0.04034328218839586,-2.6607848063341972,1.7894379176149289,-3.1993173241472173,3.967515429237578,6.00207992739764,0.2643645422836805,-0.006226225541462233,-0.3144750946847079,0.1971500467573064,0.15085449422737957,-0.2291476680643854,0.460912823677063,0.3360700309276581,-0.8130218386650085,0.500196099281311,0.6414358615875244,-0.2675322890281677
1749053957.35097,-0.039813140768158936,-2.6607983659867886,1.7888076997256679,-3.198921204227146,3.967822555852253,6.001618816558996,0.26459575889029824,-0.0061715369191206355,-0.3145545002183012,0.19776229080775923,0.15127975664137616,-0.22959518811599655,0.4156779050827026,0.3699498772621155,-0.7635037899017334,0.4815276861190796,0.6621844172477722,-0.2437479943037033
1749053957.3510098,-0.0392831322764177,-2.6608114698353633,1.7881774767613472,-3.1985235265527314,3.9681312284404355,6.001156759712825,0.2648139101914738,-0.00609357177957772,-0.3145825221766397,0.1983726103435533,0.15177056027865823,-0.2299478718901732,0.3792937397956848,0.4047172665596008,-0.7665373086929321,0.4809068739414215,0.6541237831115723,-0.2443970441818237
1749053957.3510468,-0.038753131024178225,-2.660824126804035,1.7875470980003159,-3.1981244299468665,3.968441427982302,6.000694089814414,0.2650184146637662,-0.005994775062373864,-0.31457743646409525,0.1989390154269943,0.15228839522515342,-0.23018029106456284,0.4532940089702606,0.3789789080619812,-0.802469789981842,0.4550673365592956,0.6394920945167542,-0.2524715065956116
1749053957.3513727,-0.038222977863068094,-2.6608363594313755,1.7869164863169218,-3.1977241736391813,3.968753009818103,6.0002311675982325,0.26520941423976147,-0.005878726236531648,-0.3145565162175077,0.19942228163755954,0.15278596049620308,-0.23027813368846162,0.485007107257843,0.3538979291915893,-0.8453412055969238,0.445018470287323,0.6256373524665833,-0.2190098762512207
1749053957.3533683,-0.03769249008966267,-2.6608481972124487,1.786285661930802,-3.197323124476355,3.9690656992098443,5.999768342385173,0.2653871635973092,-0.005750011777035096,-0.3145339488076371,0.1997898116550937,0.1532127339261342,-0.230240244440698,0.5041314363479614,0.3669221401214599,-0.8672410845756531,0.4402103722095489,0.6497668027877808,-0.2062106728553772
1749053957.3942802,-0.037161476317415516,-2.6608596725674527,1.7856547545015045,-3.1969217306848328,3.969379101026889,5.999305916099736,0.2655514737435476,-0.005614025061299931,-0.3145193599368622,0.20001863193820227,0.1535212742104678,-0.2300788709249895,0.3857941329479217,0.3460868597030639,-0.7882804870605469,0.4311235547065735,0.5748379826545715,-0.1906683444976806
1749053957.3943255,-0.03662975589615021,-2.6608708191349413,1.785024001576774,-3.1965204846829063,3.9696927241642554,5.998844116368052,0.2657013877233873,-0.0054767203202874875,-0.31451725492517996,0.200097276924546,0.1536733287633452,-0.22981799911209466,0.3922239542007446,0.3737628161907196,-0.8151326775550842,0.4507035613059997,0.5935080051422119,-0.1995569765567779
1749053957.3943677,-0.03609718117415792,-2.6608816712781143,1.7843937326647932,-3.1961198786906846,3.970006019294505,5.9983830825788305,0.265835153304045,-0.005344333814961629,-0.3145274435555618,0.20002646503781413,0.15364485266987174,-0.22948999961758448,0.4567435085773468,0.3525764346122741,-0.8491136431694031,0.4101758003234863,0.5965193510055542,-0.2388056069612503
1749053957.3944232,-0.03556365982100067,-2.660892263481291,1.783764339707732,-3.195720357852026,3.9703184263510622,5.9979228658276735,0.2659504775935087,-0.00522306752674109,-0.3145462657595075,0.19981860076999025,0.15342924324239904,-0.2291311540219754,0.4506029784679413,0.3762826323509216,-0.7797465324401855,0.4540821611881256,0.5604863166809082,-0.2602288722991943
1749053957.3944762,-0.035029173810548736,-2.660902628817511,1.7831362365532504,-3.1953222761830635,3.9706294262779327,5.997463440746142,0.2660450131517767,-0.005118723160155257,-0.31456825996197235,0.1994962351707039,0.15303841582061936,-0.22877686785941853,0.44971364736557,0.3560792803764343,-0.7903158664703369,0.4410023689270019,0.5837810039520264,-0.2783092856407165
1749053957.394517,-0.03449379168441973,-2.6609127966137436,1.7825098119625944,-3.194925860776891,3.970938590851596,5.9970047253767085,0.2661169855315702,-0.0050362850440063035,-0.3145878519406529,0.19908968645851344,0.1525017115456483,-0.22845741085860113,0.4523286819458008,0.3616842329502105,-0.748223602771759,0.4110638797283172,0.582694411277771,-0.2815315127372741
1749053957.3945558,-0.03395767148509695,-2.6609227901785353,1.7818853820780622,-3.1945311891312977,3.971245625065822,5.996546604724224,0.26616581691768226,-0.004979475891956404,-0.3146006992817083,0.19863406491576477,0.1518629549791092,-0.22819483884144467,0.406057745218277,0.3528215289115906,-0.7982479333877563,0.3958465754985809,0.588569700717926,-0.2741011381149292
1749053957.3945937,-0.0334210530744247,-2.6609326254748793,1.7812631484725585,-3.1941381830273974,3.9715503981152054,5.996088953844317,0.26619258156875447,-0.004950337616520806,-0.31460447698724175,0.1981659632664748,0.15117620161983528,-0.2280014211371626,0.501060962677002,0.3309401273727417,-0.8281232714653015,0.3837223947048187,0.59857177734375,-0.2574631571769714
1749053957.394631,-0.032884240074781294,-2.6609423110139874,1.7806431669848966,-3.1937466200944793,3.9718529605764137,5.99563165689313,0.26620018339096063,-0.004948907279348496,-0.3145990633708048,0.19772008032257785,0.15050079158465077,-0.2278795569111837,0.4316436946392059,0.3427900671958923,-0.7748585343360901,0.4017816483974457,0.6013961434364319,-0.2446916699409485
1749053957.394667,-0.03234757323767774,-2.66095184855431,1.7800253309950804,-3.193356161409394,3.9721535465319855,5.995174619585787,0.2661932383159555,-0.004973057044416792,-0.3145862134862989,0.19732606367704697,0.14989626064046296,-0.2278229375856666,0.4131371974945068,0.3574340641498565,-0.7887985110282898,0.4096795916557312,0.5958409905433655,-0.2358265370130539
1749053957.3947036,-0.03181139857631522,-2.6609612339135498,1.7794093709458472,-3.192966390820301,3.9724525602688523,5.994717774059905,0.26617770837115384,-0.005018546999643928,-0.3145688722252725,0.19700588792445145,0.1494175092459742,-0.2278186478873823,0.4326298832893371,0.3328458964824676,-0.7930744886398315,0.4165853857994079,0.5950579643249512,-0.2850766777992248
1749053957.3947396,-0.031276034586790166,-2.660970457532629,1.778794869965801,-3.1925768598982143,3.972750548158961,5.994261076746231,0.2661603503352052,-0.005079309973455119,-0.31455030611444057,0.1967720942018633,0.14911047050314175,-0.22784993995503422,0.4614470601081848,0.333892822265625,-0.8395127058029175,0.4449518918991089,0.608356773853302,-0.2900910377502441
1749053957.3947756,-0.030741742680337383,-2.6609795051453213,1.7781812936549326,-3.1921871320607416,3.9730481574546306,5.993804500967848,0.26614804251614005,-0.005147957510964553,-0.3145332421085428,0.19662715304038708,0.14900840533596751,-0.22789944520238195,0.4292017221450805,0.3324697017669678,-0.8116638660430908,0.4378037452697754,0.606194019317627,-0.3157274723052978
1749053957.3948114,-0.03020870372334333,-2.6609883594272676,1.7775680306709292,-3.1917968204557483,3.9733460848299393,5.993348026541446,0.2661470694901427,-0.005216467197863887,-0.31451918738190604,0.1965640471910625,0.14912891287215221,-0.22795251361929178,0.4542612731456756,0.3652889132499695,-0.7824836373329163,0.4383042454719543,0.6102189421653748,-0.2511763572692871
1749053957.3948474,-0.029677002331550472,-2.660997003359316,1.7769544398113428,-3.1914056160724003,3.973645018431012,5.992891628845417,0.2661624685625552,-0.005276980243001524,-0.3145080571160007,0.19656793451084068,0.14947178095397898,-0.22800019816824102,0.440153032541275,0.3598479032516479,-0.8274115324020386,0.4319092631340027,0.6116564273834229,-0.2274302244186401
1749053957.394884,-0.029146619957088556,-2.6610054252920783,1.7763398989054149,-3.19101330469223,3.9739455778778683,5.992435269791612,0.26619754242249416,-0.005322610575279418,-0.31449816632211586,0.19661852794473608,0.15001790089866973,-0.2280412538305823,0.4142874479293823,0.3436543047428131,-0.8421026468276978,0.3774961233139038,0.6543570756912231,-0.2153034955263137
1749053957.3949194,-0.0286174375465937,-2.6610136247581635,1.7757238510159268,-3.1906197734019086,3.9742482570575772,5.991978892912854,0.26625360519645125,-0.005348158930593494,-0.3144865651143197,0.19669270865368627,0.150729578556364,-0.228082556055513,0.4149039387702942,0.351641297340393,-0.779788076877594,0.3974582254886627,0.6780814528465271,-0.1959904432296753
1749053957.3949552,-0.0280892480260264,-2.6610216174150523,1.775105844051293,-3.190225009122937,3.974553374742437,5.991522424219611,0.266329973959717,-0.005350645541776008,-0.31446963104286013,0.19676690943730687,0.15155259735231197,-0.22813764069028797,0.4210280179977417,0.3650184273719787,-0.7995283007621765,0.3680675625801086,0.6515803337097168,-0.2310665249824524
1749053957.3949916,-0.027561777886373928,-2.661029437455261,1.7744855607090606,-3.18982909245006,3.974861038040181,5.991065779364678,0.2664241777947791,-0.005329611171918299,-0.3144437934857342,0.19681895198697769,0.15242024511982644,-0.22822355392038096,0.4997444748878479,0.3214329481124878,-0.850959837436676,0.377215564250946,0.6747307181358337,-0.275806188583374
1749053957.3950276,-0.0270347158620587,-2.6610371364529275,1.773862836625357,-3.1894321897466447,3.975171123169866,5.990608876116995,0.26653233636097645,-0.0052871692869153036,-0.31440626366509805,0.19682923827863416,0.15325919938484514,-0.2283566885500157,0.479162186384201,0.3243086338043213,-0.8527311086654663,0.4051774740219116,0.6607279777526855,-0.3264355063438415
1749053957.3954153,-0.02650774540670206,-2.6610447787033604,1.7732376656225808,-3.189034545176588,3.975483276872928,5.990151649831306,0.2666496367229393,-0.005227813334787159,-0.31435567056845615,0.19678140500658076,0.153996760187452,-0.22854857564099867,0.3957653939723968,0.3870529532432556,-0.8153656125068665,0.3830114006996155,0.6156908273696899,-0.3292961418628692
1749053957.3973598,-0.025980576882186676,-2.66105243431634,1.772610191877146,-3.188636472704042,3.975796940018268,5.9896940690744875,0.2667708127528849,-0.005157996384903125,-0.3142925388071914,0.19666267128487286,0.15456855352911483,-0.22880259044624576,0.3991501629352569,0.3487868309020996,-0.843686580657959,0.4062633812427521,0.6085931658744812,-0.3039132952690124
1749053957.4382863,-0.02545297547614683,-2.661060172249666,1.7719806895896533,-3.188238346596802,3.976111392718291,5.9892361487548165,0.26689054505481136,-0.005085516879382089,-0.31421957838099807,0.19646410598929728,0.15492562128948428,-0.22911224584473602,0.5079552531242371,0.3458638191223144,-0.8283736109733582,0.3862937092781067,0.5875251889228821,-0.2849347591400146
1749053957.4383333,-0.024924781543016715,-2.6610680556385944,1.7713495314757435,-3.187840588098999,3.9764258175499823,5.988777958506138,0.2670037606546845,-0.0050187727342969005,-0.31414178194569164,0.19618094039256861,0.1550398359659287,-0.22946132438957353,0.4617771506309509,0.3352956771850586,-0.8393088579177856,0.3791294991970062,0.5329489707946777,-0.2643022537231445
