nimar13/UR3e_dataset_trayectorias/trayectorias_ejecutadas/jtraj/trayectoria_222_result.csv
timestamp,q1,q2,q3,q4,q5,q6,qd1,qd2,qd3,qd4,qd5,qd6,tau1,tau2,tau3,tau4,tau5,tau6
1749031252.7771652,-3.3065641562091272,-2.446256776849264,-1.671293020248413,5.763953316002645,-1.0506632963763636,-4.50744611421694,-0.011225852183997631,-0.00038458508788608015,-0.009662233293056488,0.020712705329060555,-0.010504410602152348,-0.014944439753890038,-0.21248868107795715,1.2050459384918213,0.5443613529205322,0.5570317506790161,-0.5103399753570557,-0.1313248574733734
1749031252.7772138,-3.3065293470965784,-2.4463192425169886,-1.671293020248413,5.7639891979988,-1.0506599585162562,-4.5075005928622645,-0.010252072475850582,-0.00035429446143098176,-0.008569082245230675,0.019070016220211983,-0.007840555161237717,-0.013821547850966454,-0.18303607404232025,1.206531047821045,0.5668485760688782,0.5476954579353333,-0.5011923313140869,-0.1390920877456665
1749031252.7772543,-3.306591812764303,-2.4462882481017054,-1.6713049411773682,5.764025199204244,-1.0506766478167933,-4.507518116627828,-0.00835240725427866,-0.00032842959626577795,-0.00776557857170701,0.01754356548190117,-0.0052187819965183735,-0.012566507793962955,-0.1677483767271042,1.214625358581543,0.5762707591056824,0.5548991560935974,-0.5128068327903748,-0.13978397846221924
1749031252.777301,-3.3065810839282435,-2.446272989312643,-1.6713252067565918,5.764083850174703,-1.0506904760943812,-4.507542435322897,-0.006563671864569187,-0.0003060856834053993,-0.0055401017889380455,0.016062922775745392,-0.0034549313131719828,-0.011302377097308636,-0.1449614018201828,1.2318360805511475,0.5886207222938538,0.5461590886116028,-0.504971444606781,-0.1538243293762207
1749031252.777354,-3.3065460363971155,-2.4462763271727503,-1.6713287830352783,5.7640817044074915,-1.0506375471698206,-4.5075629393206995,-0.0040306043811142445,-0.0002311399730388075,-0.003697725245729089,0.014555806294083595,-0.002330157905817032,-0.009909551590681076,-0.15029937028884888,1.2412736415863037,0.5976719856262207,0.5413193106651306,-0.4954957365989685,-0.12008413672447205
1749031252.7773933,-3.306549612675802,-2.446272989312643,-1.6713377237319946,5.764074551850118,-1.0506766478167933,-4.507612768803732,-0.0025559428613632917,-0.00021556104184128344,-0.0026842611841857433,0.013046314008533955,-0.0017012539319694042,-0.008319240063428879,-0.13929325342178345,1.2426996231079102,0.5956896543502808,0.5473065376281738,-0.4722903072834015,-0.12481222301721573
1749031252.777432,-3.3065617720233362,-2.446303506890768,-1.6713601350784302,5.764133322029867,-1.050633732472555,-4.507596794758932,-0.0012579301837831736,-0.00020336468878667802,-0.0017409329302608967,0.011318759992718697,-0.001332647749222815,-0.006174930837005377,-0.15535780787467957,1.222609043121338,0.5910657644271851,0.5226660370826721,-0.46397244930267334,-0.10721279680728912
1749031252.7774696,-3.306495491658346,-2.4462601147093714,-1.6713411808013916,5.764141547470846,-1.050648037587301,-4.50760251680483,-0.000680675613693893,-0.00019248989701736718,-0.0013496143510565162,0.008661041967570782,-0.0010972187155857682,-0.004070688970386982,-0.11192824691534042,1.2381784915924072,0.6261781454086304,0.5188115835189819,-0.4793192446231842,-0.10681073367595673
1749031252.7775102,-3.3064990679370325,-2.4463144741454066,-1.6713134050369263,5.764118897705831,-1.05064565340151,-4.5075934568988245,0.0007276932592503726,-0.00018271926091983914,-0.0011092763161286712,0.005486121401190758,-0.00043083750642836094,-0.002620781073346734,-0.1335606426000595,1.2331894636154175,0.6201850175857544,0.4916836619377136,-0.4706590473651886,-0.09003567695617676
1749031252.7775488,-3.3065269629107874,-2.4462763271727503,-1.6713252067565918,5.764165627747335,-1.0506442228900355,-4.507605973874227,0.0018383112037554383,-0.00017389256390742958,-0.0009424881427548826,0.002864381531253457,-0.000280374864814803,-0.0017692435067147017,-0.09661777317523956,1.2425472736358643,0.6115092039108276,0.49680137634277344,-0.44213739037513733,-0.08706988394260406
1749031252.777586,-3.306518618260519,-2.4462763271727503,-1.671348214149475,5.7641498921211145,-1.0506561438189905,-4.507605973874227,0.0023943812120705843,-0.00016587965365033597,-0.0003389251360204071,0.0013728364137932658,-0.00022902223281562328,-0.0013552583986893296,-0.08745089173316956,1.2503514289855957,0.6431930065155029,0.48381757736206055,-0.4324846863746643,-0.07498981058597565
1749031252.7776227,-3.306490961705343,-2.446245332757467,-1.6713287830352783,5.764153468399801,-1.0506184736834925,-4.507590119038717,0.0027203368954360485,-0.00011933388304896653,-0.00023077828518580645,-0.00024326871789526194,-0.0002005445130635053,-0.0011072603520005941,-0.09296882152557373,1.2775670289993286,0.6346326470375061,0.48503029346466064,-0.426094114780426,-0.0639066994190216
1749031252.7776637,-3.3065221945392054,-2.446303506890768,-1.6713601350784302,5.764126050263204,-1.0506680647479456,-4.507609430943624,0.002922240411862731,7.923827070044354e-05,-0.00012761856487486511,-0.0009265677654184401,-0.00017989669868256897,-0.0007358110742643476,-0.08290048688650131,1.2894580364227295,0.6506162881851196,0.47085702419281006,-0.43062496185302734,-0.058620885014534
1749031252.7777016,-3.3065136114703577,-2.4463073215880335,-1.6713287830352783,5.764126050263204,-1.0506561438189905,-4.5075629393206995,0.002851387020200491,0.0001212698916788213,-9.191246499540284e-05,-0.002385629341006279,-9.759997192304581e-05,-0.0002622106403578073,-0.11103784292936325,1.2771081924438477,0.6704851388931274,0.4630506634712219,-0.402738094329834,-0.06159132719039917
1749031252.7777386,-3.306498114262716,-2.4462601147093714,-1.6713447570800781,5.764133322029867,-1.050652805958883,-4.50758666196932,0.004232536535710096,0.0001524604158475995,-2.2045533114578575e-05,-0.0039507984183728695,-7.76865563238971e-05,-9.830908675212413e-05,-0.06838159263134003,1.2868926525115967,0.6650259494781494,0.4656728208065033,-0.4037141799926758,-0.03997623920440674
1749031252.7777755,-3.306474272404806,-2.446291585961813,-1.6713252067565918,5.76409004905776,-1.0506838003741663,-4.5075969139682215,0.0053411806002259254,0.00014987033500801772,-1.4394157688002451e-06,-0.004903730005025864,-6.960790051380172e-05,-1.7372245565638877e-05,-0.1125045120716095,1.2915412187576294,0.6657137870788574,0.45659029483795166,-0.39788010716438293,-0.04579631984233856
1749031252.777816,-3.306498114262716,-2.4462834797301234,-1.6713447570800781,5.764058816223898,-1.0506871382342737,-4.507571283970968,0.005472502671182156,0.00014391519653145224,-9.398356581868939e-08,-0.004660287871956825,-6.426040636142716e-05,-3.0698579394083936e-06,-0.0886571854352951,1.2981464862823486,0.6737576723098755,0.46303224563598633,-0.3945917785167694,-0.03188230097293854
1749031252.7778623,-3.30644661584963,-2.4462601147093714,-1.6713134050369263,5.7640817044074915,-1.0506718794452112,-4.50760251680483,0.00556340254843235,0.00013838321319781244,-6.136455343863645e-09,-0.003443096298724413,-5.990952922729775e-05,0.0004776730202138424,-0.09751155227422714,1.2740705013275146,0.6905931234359741,0.4527515172958374,-0.40202653408050537,-0.016532734036445618
1749031252.777905,-3.306427303944723,-2.446284910241598,-1.6713322401046753,5.764078128128805,-1.050633732472555,-4.507581535969869,0.004947443958371878,0.00013326064799912274,-4.006667220224358e-10,-0.0026050456799566746,-1.6059071640484035e-05,0.0021960914600640535,-0.11174740642309189,1.3100706338882446,0.6802783012390137,0.4228774905204773,-0.40079939365386963,-0.042301103472709656
1749031252.7779527,-3.306410614644186,-2.446272989312643,-1.6713287830352783,5.764062392502584,-1.0506375471698206,-4.5075969139682215,0.004565677605569363,0.00015739855007268488,0.0003645901451818645,-0.0021892862860113382,-2.837806505340268e-06,0.0026581748388707638,-0.11075347661972046,1.3148353099822998,0.7032984495162964,0.42816877365112305,-0.36718472838401794,-0.04368291795253754
1749031252.777992,-3.3064022699939173,-2.4462763271727503,-1.6713447570800781,5.764054047852316,-1.0506838003741663,-4.507600132619039,0.0043994658626616,0.00015506202180404216,0.001229498186148703,-0.002724727150052786,-5.014701969230373e-07,0.0024130705278366804,-0.0900295302271843,1.3032137155532837,0.6777037978172302,0.40373894572257996,-0.3778385519981384,-0.03611983358860016
1749031252.7780292,-3.3063791433917444,-2.4462601147093714,-1.6713252067565918,5.764026629715719,-1.05064565340151,-4.507557694111959,0.004321490414440632,0.00014992592332419008,0.0011225800262764096,-0.004026313312351704,-8.861504596779923e-08,0.0018624988151714206,-0.06330515444278717,1.3163108825683594,0.6734689474105835,0.43732354044914246,-0.37995028495788574,-0.03195418417453766
1749031252.7782178,-3.3064022699939173,-2.446284910241598,-1.6713134050369263,5.764026629715719,-1.0506442228900355,-4.507566277180807,0.0036705536767840385,0.00014509189350064844,0.0009368930477648973,-0.004334067925810814,-1.5659209040563837e-08,0.00149716145824641,-0.08618976175785065,1.298017978668213,0.6954123973846436,0.43114587664604187,-0.39709895849227905,-0.021682247519493103
1749031252.7782986,-3.3064022699939173,-2.446284910241598,-1.6713287830352783,5.764014470368185,-1.0506647268878382,-4.5075629393206995,0.0030830432660877705,0.00014055977226234972,0.0007984396070241928,-0.003606937825679779,-2.767146733972936e-09,0.0012303375406190753,-0.09743887186050415,1.3010950088500977,0.6919481754302979,0.43372857570648193,-0.3898068368434906,-0.010806158185005188
1749031252.8223255,-3.306378189717428,-2.4462882481017054,-1.6713287830352783,5.764026629715719,-1.0506838003741663,-4.507554356251852,0.0028560191858559847,0.00013630237663164735,0.0006953507545404136,-0.0027203005738556385,-4.889838534083424e-10,0.0011426011333242059,-0.08040177822113037,1.3226075172424316,0.7017028331756592,0.4233345091342926,-0.38790786266326904,-0.01882416009902954
1749031252.8223772,-3.3063986937152308,-2.446284910241598,-1.6713168621063232,5.764014470368185,-1.0506184736834925,-4.507535759602682,0.0023683388717472553,0.00013229520118329674,0.0006158662727102637,-0.002103298669680953,-8.640857473984909e-11,0.0010848548263311386,-0.07982815057039261,1.302926778793335,0.6996952295303345,0.4169498682022095,-0.39248865842819214,-0.012741327285766602
1749031252.822419,-3.306405846272604,-2.446263929406637,-1.6713287830352783,5.764010894089498,-1.0506647268878382,-4.507569615040914,0.001974736340343952,0.00012851698556914926,0.0006381294806487858,-0.001724356785416603,-1.526930144823968e-11,0.0009154188446700573,-0.08597549796104431,1.2951831817626953,0.709681510925293,0.4208991229534149,-0.3857508897781372,-0.01580817997455597
1749031252.8224583,-3.306366268788473,-2.4463073215880335,-1.6713356971740723,5.764018046646871,-1.050633732472555,-4.5075324217425745,0.001731201889924705,0.00012494843394961208,0.0006247502169571817,-0.00131105980835855,-2.6982459235685985e-12,0.0008549645426683128,-0.04989345744252205,1.3103448152542114,0.7022758722305298,0.3958892226219177,-0.3723422586917877,-0.02122238278388977
1749031252.8224967,-3.3063746134387415,-2.4462810955443324,-1.6713168621063232,5.764014470368185,-1.050633732472555,-4.507532302533285,0.0012902767630293965,0.00012157278979429975,0.0006087395595386624,-0.000934251700527966,-4.768083714315474e-13,0.0009055449045263231,-0.07260094583034515,1.2883954048156738,0.6959570050239563,0.4037996232509613,-0.38174909353256226,-0.02667674422264099
1749031252.8225348,-3.3063591162311,-2.446272989312643,-1.6713014841079712,5.764018046646871,-1.0506718794452112,-4.507545773183004,0.0011885263957083225,0.00011837466445285827,0.000484574178699404,-0.0008365713292732835,-8.4257037111235e-14,0.0010181126417592168,-0.057175569236278534,1.2970799207687378,0.6947060227394104,0.414044588804245,-0.39306145906448364,-0.02670334279537201
1749031252.8225727,-3.3063555399524134,-2.4462954006590785,-1.6713134050369263,5.7640302059944055,-1.0506733099566858,-4.507527176533834,0.001088037621229887,0.0001153405974037014,0.00045667021186091006,-0.000758781679905951,-1.4889104489254623e-14,0.0010313639650121331,-0.05152349919080734,1.284440517425537,0.695622444152832,0.4127502739429474,-0.37600457668304443,-0.02422015368938446
1749031252.8226101,-3.306366268788473,-2.446280141870016,-1.6713322401046753,5.764033782273092,-1.0506718794452112,-4.507584873829977,0.0009657983318902552,0.00011245820496696979,0.0004530607257038355,-0.000671147252433002,-2.6310607287831226e-15,0.0009948386577889323,-0.08442483842372894,1.297913908958435,0.7084125280380249,0.41675904393196106,-0.3750240206718445,-0.0220525860786438
1749031252.8226476,-3.3063936869250696,-2.4462882481017054,-1.6713168621063232,5.764033782273092,-1.050640885029928,-4.507554356251852,0.00083778181578964,0.00010971628944389522,0.00042006783769465983,-0.0006677629426121712,-4.649360671105302e-16,0.0008752245921641588,-0.0703219324350357,1.288780689239502,0.706388533115387,0.4203837215900421,-0.3909107446670532,-0.011699438095092773
1749031252.822685,-3.306390110646383,-2.446291585961813,-1.6713287830352783,5.76400254943923,-1.0506561438189905,-4.507507983838217,0.0007393917185254395,0.00010710491915233433,0.00038986638537608087,-0.0006225722609087825,-8.215907906711903e-17,0.0007588886073790491,-0.06545743346214294,1.271608591079712,0.705878734588623,0.40897008776664734,-0.38834643363952637,-0.012275442481040955
1749031252.822722,-3.30638295808901,-2.446263929406637,-1.6712980270385742,5.764018046646871,-1.050659481679098,-4.507572952901022,0.0006616418249905109,0.00010461499186931178,0.0004081824154127389,-0.0006355148507282138,-1.4518371363426547e-17,0.0006659659557044506,-0.07342498004436493,1.268265724182129,0.6980109214782715,0.4256497919559479,-0.39697587490081787,-0.021537408232688904
1749031252.8227592,-3.306390110646383,-2.4462763271727503,-1.6713287830352783,5.764033782273092,-1.0505998770343226,-4.507527176533834,0.000598772254306823,8.383348176721483e-05,0.00039638602174818516,-0.000594991841353476,-2.565548232718437e-18,0.0005926698795519769,-0.07881683111190796,1.2510658502578735,0.7059950828552246,0.40155914425849915,-0.395002543926239,-0.02458178997039795
1749031252.8227966,-3.306390110646383,-2.4462763271727503,-1.6713134050369263,5.764033782273092,-1.0506680647479456,-4.507533971463339,0.0005467873415909708,7.999360241228715e-05,0.0003737684746738523,-0.0005514706717804074,-4.5335934067047345e-19,0.0005338431219570339,-0.08372584730386734,1.2568868398666382,0.692678689956665,0.4230803847312927,-0.39675426483154297,-0.022713616490364075
1749031252.822834,-3.3064094225512903,-2.446303506890768,-1.6713168621063232,5.764049279480734,-1.0506718794452112,-4.507557694111959,0.0005030818865634501,7.823579653631896e-05,0.00035288347862660885,-0.0005125171155668795,-8.011334059220717e-20,0.00048565655015408993,-0.07903270423412323,1.2417197227478027,0.7059332132339478,0.4265229403972626,-0.39484986662864685,-0.034814924001693726
1749031252.8228714,-3.3063936869250696,-2.446272989312643,-1.6713203191757202,5.764018046646871,-1.05064565340151,-4.507557694111959,0.0004658943216782063,7.657161768293008e-05,0.0003341625561006367,-0.0004784652264788747,-1.4156868219656888e-20,0.00044546989374794066,-0.0879630297422409,1.273221731185913,0.7096648216247559,0.41694483160972595,-0.4039117693901062,-0.01336275041103363
1749031252.8229132,-3.3063865343676966,-2.4462882481017054,-1.6713168621063232,5.764033782273092,-1.0506303946124476,-4.507566277180807,0.00016490630514454097,7.510133582400158e-05,0.0003173251752741635,-0.00044861790956929326,-2.5016672065859835e-21,0.00041144172428175807,-0.08158479630947113,1.2330622673034668,0.6926395893096924,0.40998584032058716,-0.40637779235839844,-0.03103359043598175
1749031252.8229513,-3.3064332644092005,-2.446303506890768,-1.6713322401046753,5.764041054039755,-1.0506494680987757,-4.507576290761129,9.477914863964543e-05,6.288065196713433e-05,0.00030210393015295267,-0.0004222728020977229,-4.420708860147318e-22,0.00040390880894847214,-0.09640820324420929,1.228803038597107,0.7037860155105591,0.41674917936325073,-0.4154580235481262,-0.02689056098461151
1749031252.8229885,-3.306429688130514,-2.446291585961813,-1.6713322401046753,5.764021622925558,-1.0507023970233362,-4.507569615040914,2.1485233446583152e-05,6.066748755984008e-05,0.0002882758853957057,-0.0003988523967564106,-7.81185541048701e-23,0.00040899895248003304,-0.1021132841706276,1.22812819480896,0.6844489574432373,0.4247662127017975,-0.41660964488983154,-0.033142462372779846
1749031252.8230264,-3.306405846272604,-2.44626583675527,-1.6713322401046753,5.764033782273092,-1.0506647268878382,-4.5075324217425745,2.0962298208360153e-07,5.868849257240072e-05,0.0002756592002697289,-0.00037789635825902224,-1.380436848832749e-23,0.00038925939588807523,-0.0834096372127533,1.2315833568572998,0.7043022513389587,0.41781795024871826,-0.42032691836357117,-0.02903810143470764
1749031252.8230636,-3.306437079106466,-2.446272989312643,-1.6713322401046753,5.764018046646871,-1.0506680647479456,-4.507566277180807,2.0452088911326882e-09,2.9321216061362065e-05,0.0002641008177306503,-0.0003590347769204527,-2.4393768278445673e-24,0.0003675109473988414,-0.09238291531801224,1.2214174270629883,0.6917935609817505,0.420603483915329,-0.42698559165000916,-0.0326051265001297
1749031252.823101,-3.3063986937152308,-2.446256776849264,-1.6713252067565918,5.7640302059944055,-1.050633732472555,-4.507539097462789,1.9954298630109335e-11,2.7556636268855073e-05,0.00025347303017042577,-0.0003419674467295408,-4.310634767195461e-25,0.00034739726106636226,-0.10083743929862976,1.212609052658081,0.6955293416976929,0.4207785725593567,-0.42686861753463745,-0.04330809414386749
1749031252.8231459,-3.306417767201559,-2.4462834797301234,-1.6713287830352783,5.764033782273092,-1.0506752173053187,-4.507523838673727,1.9468622677529246e-13,8.46354214445455e-06,0.000243667745962739,-0.0003264500992372632,-7.617343822510318e-26,0.00032925381674431264,-0.1004234030842781,1.2013369798660278,0.681004524230957,0.42978182435035706,-0.4240640699863434,-0.040111660957336426
1749031252.8232608,-3.3063674608813685,-2.446272989312643,-1.6713134050369263,5.764014470368185,-1.0506718794452112,-4.507547680531637,1.8994768899319257e-15,8.257545403012045e-08,0.00023459237127099186,-0.00031228174339048564,-1.3460644856065137e-26,0.0003128908865619451,-0.11422576010227203,1.179010272026062,0.6756281852722168,0.43093255162239075,-0.4228960871696472,-0.03716301918029785
1749031252.8251274,-3.306417767201559,-2.446272989312643,-1.6713322401046753,5.764021622925558,-1.0506218115436,-4.507523838673727,1.8532450574297326e-17,8.056562639247034e-10,0.00022616948990616947,-0.00029929212178103626,-2.3786373037779496e-27,0.0002980755234602839,-0.11742483079433441,1.1753954887390137,0.697319746017456,0.4310765564441681,-0.4327242970466614,-0.03776334226131439
1749031252.8662877,-3.3063793818103235,-2.4462763271727503,-1.6713134050369263,5.764018046646871,-1.0506375471698206,-4.507551018391744,1.8081379783887845e-19,7.860470954690335e-12,0.0002183303004130721,-0.00028734124498441815,-4.20330165909631e-28,0.00028460007160902023,-0.1086009293794632,1.1180448532104492,0.6754779815673828,0.4388468861579895,-0.4406825304031372,-0.04310329258441925
1749031252.8663347,-3.3064454237567347,-2.446291585961813,-1.6713252067565918,5.764033782273092,-1.050633732472555,-4.507535759602682,-0.0009918315336108208,-0.0004889164119958878,0.00021101626043673605,-0.00027630836120806634,-7.427675034913706e-29,0.0002722906938288361,-0.14122238755226135,1.0629312992095947,0.6847667694091797,0.44660696387290955,-0.45087260007858276,-0.041768863797187805
1749031252.8663747,-3.3063986937152308,-2.4462763271727503,-1.6713134050369263,5.764018046646871,-1.0506838003741663,-4.507551018391744,-0.0011337840696796775,-0.005465094931423664,0.00020417655468918383,-0.0002660916652530432,-1.3125481900264673e-29,0.00026100294780917466,-0.12766742706298828,1.106645107269287,0.6703745126724243,0.4391248822212219,-0.4471737742424011,-0.033185556530952454
1749031252.8664134,-3.306410614644186,-2.4463192425169886,-1.6713168621063232,5.764014470368185,-1.0506766478167933,-4.5075146595584314,-0.0018257851479575038,-0.006132545415312052,0.00019776685803662986,-0.00025660396204330027,-2.319410033324989e-30,0.0002506143937353045,-0.11114158481359482,1.124424695968628,0.6746485829353333,0.43369778990745544,-0.4478633403778076,-0.03313456475734711
1749031252.8664508,-3.3064611593829554,-2.446303506890768,-1.671348214149475,5.764033782273092,-1.050652805958883,-4.507567946110861,-0.0016945438692346215,-0.005458532366901636,0.00019174706540070474,-0.00022546338732354343,-4.098641291995141e-31,0.00024102212046273053,-0.12135857343673706,1.0991230010986328,0.673943042755127,0.45412543416023254,-0.4667012691497803,-0.03679652512073517
1749031252.86649,-3.3063719908343714,-2.44630827526235,-1.6713014841079712,5.764021622925558,-1.0506647268878382,-4.507547680531637,-0.0013531033182516694,-0.005323285702615976,0.00018608279060572386,-0.00021111490787006915,-7.242729096722844e-32,0.0002321369684068486,-0.11273274570703506,1.0959067344665527,0.6811063289642334,0.44013145565986633,-0.45412182807922363,-0.03602339327335358
1749031252.8665314,-3.306417767201559,-2.4463240108885707,-1.6713203191757202,5.764033782273092,-1.0506613890277308,-4.507542435322897,-0.0007077105692587793,-0.005036535207182169,0.000180743561941199,-0.00020310450054239482,-1.2798663472950046e-32,0.0002238834131276235,-0.09437307715415955,1.1074578762054443,0.6969496011734009,0.4503501355648041,-0.46756264567375183,-0.03904198110103607
1749031252.8665805,-3.3064141909228724,-2.4463120899596156,-1.6713049411773682,5.764033782273092,-1.0506838003741663,-4.507542435322897,-0.00039396670763380826,-0.00472655612975359,0.00017570221098139882,-0.00019655277719721198,-2.261657926808797e-33,0.0002161971788154915,-0.10820066928863525,1.0879554748535156,0.6964157223701477,0.41297632455825806,-0.46625739336013794,-0.04010780155658722
1749031252.8666196,-3.306410614644186,-2.446348329583639,-1.6713356971740723,5.764037358551779,-1.0506752173053187,-4.507551018391744,-0.00021381033002398908,-0.0040762475691735744,0.00017093459609895945,-0.000190568040125072,-3.996586661412216e-34,0.00020902154210489243,-0.08854109048843384,1.0906347036361694,0.6935746669769287,0.41939035058021545,-0.4648077189922333,-0.03275902569293976
1749031252.8666608,-3.3064141909228724,-2.446322103539938,-1.6713203191757202,5.76400254943923,-1.050652805958883,-4.507561031972067,-0.0001369851379422471,-0.0037898444570600986,0.00016641915135551244,-0.0001941292721312493,-7.062388426839535e-35,0.00020230696827638894,-0.08828853815793991,1.092768669128418,0.7132822871208191,0.406419962644577,-0.47697776556015015,-0.041276440024375916
1749031252.8666985,-3.306410614644186,-2.4463569126524867,-1.6713203191757202,5.764018046646871,-1.0506733099566858,-4.507523838673727,-3.848091728286818e-05,-0.003413466503843665,0.00016213588241953403,-0.00018156360602006316,-1.2479980445601333e-35,0.00019601071835495532,-0.07061442732810974,1.096320629119873,0.7007510662078857,0.3868478834629059,-0.47553643584251404,-0.03154343366622925
1749031252.86674,-3.3064454237567347,-2.4464155636229457,-1.6713287830352783,5.764018046646871,-1.0506871382342737,-4.507542435322897,-3.75443192979219e-07,-0.0034372538793832064,0.00015806755982339382,-0.00018408274627290666,-2.2053435238227143e-36,0.00019009427342098206,-0.06897064298391342,1.1155829429626465,0.7093431949615479,0.3640473783016205,-0.48190775513648987,-0.03999297320842743
1749031252.8667774,-3.3064213434802454,-2.4463693104186,-1.6713322401046753,5.764021622925558,-1.0506389776812952,-4.507539097462789,-3.6630516397906376e-09,-0.003744653658941388,0.0001650226186029613,-0.0018173223361372948,-3.897073807458518e-37,0.00018452528456691653,-0.05922235548496246,1.154861569404602,0.7285072207450867,0.3480928838253021,-0.4645533859729767,-0.04477261006832123
1749031252.866814,-3.306422535573141,-2.4464274845519007,-1.6713287830352783,5.763990390091696,-1.0506375471698206,-4.507539097462789,-3.573894999386873e-11,-0.0033742953091859818,0.00017128490435425192,-0.004733826033771038,-6.886538370480952e-38,0.0001792730181477964,-0.04718320071697235,1.1754025220870972,0.7204675674438477,0.35672861337661743,-0.45750585198402405,-0.03579773008823395
1749031252.8668509,-3.3063913027392786,-2.446423669854635,-1.6713287830352783,5.763993966370382,-1.0506799856769007,-4.507545773183004,0.0017372507136315107,-0.002764614997431636,0.00016795452393125743,-0.007038694806396961,-1.2169235997902043e-38,0.0001743117900332436,-0.03812665492296219,1.1827867031097412,0.7269823551177979,0.35959798097610474,-0.4717062711715698,-0.03292493522167206
1749031252.8668869,-3.3063986937152308,-2.4464084110655726,-1.671348214149475,5.763954388886251,-1.0506303946124476,-4.507545773183004,0.0021576194558292627,-0.001944901654496789,0.00016453670104965568,-0.007816317491233349,-2.1504312220544e-39,0.00016961744404397905,-0.05752268061041832,1.195151686668396,0.7349414825439453,0.35822033882141113,-0.4680333733558655,-0.02060471475124359
1749031252.8669233,-3.3064022699939173,-2.4463840923705042,-1.6713252067565918,5.7639269707496545,-1.0506613890277308,-4.507523838673727,0.0022240171674638987,-0.001484968001022935,0.00012935786799062043,-0.008128805086016655,-3.800041175556039e-40,0.00016516952018719167,-0.059576503932476044,1.2192130088806152,0.7315802574157715,0.34810787439346313,-0.46935898065567017,-0.02773173153400421
1749031252.8669655,-3.306390110646383,-2.446369787255758,-1.6713601350784302,5.763918387680807,-1.050633732472555,-4.507539097462789,0.0021064174361526966,-0.0006933757686056197,0.0001452786527806893,-0.008477660827338696,-6.715022241044523e-41,0.00016094902821350843,-0.01953798532485962,1.2291078567504883,0.7465561628341675,0.3403550088405609,-0.4670488238334656,-0.03220672905445099
1749031252.8670352,-3.3063591162311,-2.4464203319945277,-1.6713322401046753,5.763879048615255,-1.0506613890277308,-4.507557694111959,0.0018652485450729728,-0.00035095796920359135,0.0001651223428780213,-0.009736805222928524,-1.186619539590255e-41,0.00015693888417445123,-0.003138907253742218,1.2450854778289795,0.7603938579559326,0.34428656101226807,-0.4711746275424957,-0.037057265639305115
1749031252.867102,-3.3063865343676966,-2.4464012585081996,-1.6713252067565918,5.763886201172628,-1.0506256262408655,-4.507542435322897,0.0026787780225276947,-0.000291858974378556,0.00018424418522045016,-0.01155158318579197,-2.0963425026299263e-42,0.000153123663039878,0.006879173219203949,1.272871732711792,0.7571126818656921,0.3327738344669342,-0.47939103841781616,-0.017928794026374817
1749031252.8672273,-3.306378189717428,-2.446423669854635,-1.6713411808013916,5.763843047409811,-1.0506647268878382,-4.507554356251852,0.0038661949802190065,-0.00012989378592465073,0.0009309658198617399,-0.012320254929363728,-3.699427945817517e-43,0.00014948970056138933,0.012277796864509583,1.2834563255310059,0.7526556253433228,0.33915749192237854,-0.47139179706573486,-0.03244750201702118
1749031252.8691711,-3.306338612233297,-2.4464084110655726,-1.6713287830352783,5.76385389545516,-1.050640885029928,-4.507523838673727,0.004676727578043938,-3.8079763271525735e-06,0.00110253959428519,-0.012873050756752491,-6.58610278232664e-44,0.0001460241328459233,0.002413317561149597,1.302124261856079,0.7692096829414368,0.32535693049430847,-0.4862872362136841,-0.02609756588935852
1749031252.9143088,-3.3063507715808313,-2.4464122257628382,-1.6713134050369263,5.763779270439901,-1.0506680647479456,-4.507542435322897,0.004806877113878727,-3.7152926068984016e-08,0.0018348756711930037,-0.013202434405684471,-1.1210387714598537e-44,0.0001427157549187541,0.01636691391468048,1.3232990503311157,0.7566683292388916,0.3245341181755066,-0.46204912662506104,-0.02664296329021454
1749031252.9143631,-3.306354347859518,-2.4463893375792445,-1.6713322401046753,5.763786422997274,-1.050615135823385,-4.507527176533834,0.0051998961716890335,-3.6248648527248406e-10,0.0019299892010167241,-0.013977443799376488,-1.401298464324817e-45,0.00013955390022601932,0.020792648196220398,1.325439691543579,0.7748924493789673,0.31191667914390564,-0.4560229778289795,-0.011547699570655823
1749031252.9144042,-3.306361500416891,-2.4464084110655726,-1.6713168621063232,5.76376627662734,-1.0506561438189905,-4.507561031972067,0.0059648421593010426,0.0014942244160920382,0.0024845371954143047,-0.014377148821949959,-0.0,0.0001365292409900576,0.030228301882743835,1.3430571556091309,0.763851523399353,0.315964013338089,-0.4591764509677887,-0.02318190038204193
1749031252.9144437,-3.3063698450671595,-2.4463693104186,-1.6713049411773682,5.763742196350851,-1.0506184736834925,-4.507507864628927,0.006920199375599623,0.0018105297349393368,0.003297755727544427,-0.014077998697757721,-0.0,0.00013363278412725776,0.03559599071741104,1.3303757905960083,0.7597891092300415,0.3170734941959381,-0.4480636715888977,-0.024436548352241516
1749031252.9144824,-3.3062990347491663,-2.446334501306051,-1.67129647731781,5.763718354492941,-1.0506561438189905,-4.507557694111959,0.008371139876544476,0.0014644626062363386,0.003935175947844982,-0.013700678944587708,-0.0,0.00014437489153351635,0.04661089926958084,1.3564608097076416,0.7633087635040283,0.30782726407051086,-0.44629931449890137,-0.02568913996219635
1749031252.9145482,-3.3062990347491663,-2.4463964901366175,-1.671277642250061,5.763670432358541,-1.0506561438189905,-4.507527176533834,0.009131591767072678,0.001302117481827736,0.004093118477612734,-0.013148413971066475,-0.0,0.0001455925521440804,0.059912778437137604,1.348317265510559,0.7737833261489868,0.29697224497795105,-0.450869619846344,-0.011792495846748352
1749031252.9146156,-3.306275192891256,-2.4464155636229457,-1.671281099319458,5.763658273011007,-1.0506838003741663,-4.507557694111959,0.009966328740119934,0.0011945097940042615,0.0042832340113818645,-0.01282708439975977,-0.0,0.00011616841948125511,0.08138277381658554,1.376448392868042,0.7784252762794495,0.2707016170024872,-0.4508572816848755,-0.015195831656455994
1749031252.9146826,-3.306297842656271,-2.446399827996725,-1.671265721321106,5.7636427758033655,-1.0506375471698206,-4.507545773183004,0.010677033104002476,0.0028199355583637953,0.004414573311805725,-0.012249157764017582,-0.0,0.00010847342491615564,0.08954674750566483,1.3844175338745117,0.7715089917182922,0.2760164737701416,-0.437980055809021,-0.003718242049217224
1749031252.9147513,-3.306297842656271,-2.4463945827879847,-1.6712572574615479,5.763622510224142,-1.0506799856769007,-4.507576409970419,0.012180892750620842,0.004467478487640619,0.00487173069268465,-0.013050426729023457,-0.0,0.00012957821309100837,0.1060180738568306,1.3709596395492554,0.7742187976837158,0.26929906010627747,-0.44295501708984375,-6.109476089477539e-05
1749031252.91482,-3.3062618414508265,-2.4463325939574183,-1.6712418794631958,5.763572203903951,-1.0506303946124476,-4.507557694111959,0.012641302309930325,0.0040541342459619045,0.0055683813989162445,-0.013786268420517445,-0.0,0.000866895483341068,0.13653889298439026,1.3851444721221924,0.772264301776886,0.2435607761144638,-0.4253571331501007,-0.002067863941192627
1749031252.9148746,-3.306211296712057,-2.4463516674437464,-1.6712453365325928,5.763539778977194,-1.0506871382342737,-4.5075146595584314,0.014175450429320335,0.002936607226729393,0.006121133919805288,-0.015228438191115856,-0.0,0.0014415577752515674,0.11457616090774536,1.39845609664917,0.7770494818687439,0.2530812621116638,-0.42791515588760376,-0.01300327479839325
1749031252.9149165,-3.306206766759054,-2.446329256097311,-1.671213984489441,5.7635347721870325,-1.0506919066058558,-4.507549349461691,0.01480606384575367,0.002064075320959091,0.006376991979777813,-0.01591266691684723,-0.0,0.0023380161728709936,0.13661691546440125,1.4416017532348633,0.7922958135604858,0.2372117042541504,-0.4168412685394287,0.010777384042739868
1749031252.9149556,-3.3061791102038782,-2.446348329583639,-1.6712363958358765,5.763498770981588,-1.050640885029928,-4.507549349461691,0.016293395310640335,0.0026302379556000233,0.005600186996161938,-0.017904620617628098,-0.0,0.002488531405106187,0.1464608907699585,1.458585262298584,0.7900786995887756,0.2503449022769928,-0.40016400814056396,0.00754275918006897
1749031252.9149928,-3.3061357180224817,-2.4463330707945765,-1.6712090969085693,5.763474690705099,-1.0506375471698206,-4.507561031972067,0.01567392610013485,0.004272738471627235,0.005814945325255394,-0.020017609000205994,-0.0,0.0023554980289191008,0.15588611364364624,1.471834659576416,0.8140729069709778,0.22304850816726685,-0.39529746770858765,0.005307257175445557
1749031252.9150302,-3.3061357180224817,-2.4463330707945765,-1.6712090969085693,5.763474690705099,-1.0506375471698206,-4.507561031972067,0.01567392610013485,0.004272738471627235,0.005814945325255394,-0.020017609000205994,-0.0,0.0023554980289191008,0.15588611364364624,1.471834659576416,0.8140729069709778,0.22304850816726685,-0.39529746770858765,0.005307257175445557
1749031252.9150672,-3.3061538378344935,-2.44631352047109,-1.6712056398391724,5.76344250419692,-1.0506494680987757,-4.507518116627828,0.016665779054164886,0.005585347767919302,0.006155314389616251,-0.022348683327436447,-0.0,0.0019866502843797207,0.14303117990493774,1.4518585205078125,0.8165656328201294,0.22912603616714478,-0.38275325298309326,0.0073735713958740234
1749031252.9151125,-3.3060434500323694,-2.4462930164732875,-1.6711852550506592,5.763303506165304,-1.0506561438189905,-4.507506195698873,0.016259072348475456,0.007000498473644257,0.007646728307008743,-0.02734447456896305,-0.0,0.00223734974861145,0.17686727643013,1.4902303218841553,0.8200662136077881,0.22723692655563354,-0.35943514108657837,0.008706748485565186
1749031252.9151525,-3.306066338215963,-2.4462930164732875,-1.6711971759796143,5.763236152916708,-1.0506599585162562,-4.507533971463339,0.017206216230988503,0.006677493453025818,0.007751443423330784,-0.029367784038186073,-0.0,0.0026277140714228153,0.18415199220180511,1.4923052787780762,0.8397486805915833,0.18452571332454681,-0.3506939709186554,0.02129194140434265
1749031252.9151914,-3.3060339132892054,-2.4462810955443324,-1.6711698770523071,5.763191926270284,-1.050633732472555,-4.50749379793276,0.01671699993312359,0.006888550240546465,0.008360710926353931,-0.03191281855106354,3.129001197521575e-05,0.003289952175691724,0.16440404951572418,1.5124857425689697,0.8328472971916199,0.2236829698085785,-0.3533938229084015,0.02643585205078125
1749031252.9152296,-3.3059678713427942,-2.446284910241598,-1.671161413192749,5.763127314835348,-1.0506599585162562,-4.507474962865011,0.01769786700606346,0.0068259695544838905,0.008741903118789196,-0.034738074988126755,0.0013273899676278234,0.003591995220631361,0.21210512518882751,1.5546762943267822,0.8434250354766846,0.207806795835495,-0.33613014221191406,0.017267316579818726
1749031252.915267,-3.305962149296896,-2.4462763271727503,-1.671152949333191,5.763063299446859,-1.0506561438189905,-4.507478539143698,0.01808072254061699,0.00805453397333622,0.008895542472600937,-0.03691030293703079,0.0019092102302238345,0.0033474136143922806,0.177115336060524,1.5512338876724243,0.8316754102706909,0.23277156054973602,-0.32258981466293335,0.014476388692855835
1749031252.9153047,-3.305887524281637,-2.4462601147093714,-1.6711256504058838,5.762944924622335,-1.0506323019610804,-4.507490340863363,0.018186062574386597,0.009320858865976334,0.009103136137127876,-0.039116788655519485,0.00223171035759151,0.003264839993789792,0.21282999217510223,1.566603660583496,0.8577309846878052,0.20603255927562714,-0.3110772371292114,0.008180290460586548
1749031252.9154167,-3.305882994328634,-2.44625248531484,-1.6711102724075317,5.762876498490133,-1.0506256262408655,-4.507442657147543,0.020145228132605553,0.009042699821293354,0.009848644956946373,-0.0420701801776886,0.002142316894605756,0.0034230866003781557,0.21417416632175446,1.5866200923919678,0.8595280647277832,0.21617868542671204,-0.3059612512588501,0.023799151182174683
1749031252.9174137,-3.305819336568014,-2.4462324581541957,-1.6710795164108276,5.762780654221334,-1.0506170431720179,-4.507481877003805,0.02166365459561348,0.009850536473095417,0.011095033027231693,-0.043352026492357254,0.0021523444447666407,0.0038617271929979324,0.21751710772514343,1.6162145137786865,0.8608106374740601,0.21690645813941956,-0.27289649844169617,0.02159985899925232
1749031252.9582758,-3.30583364168276,-2.446193357507223,-1.6710814237594604,5.762681233673849,-1.0505855719195765,-4.507485214863912,0.022621195763349533,0.011006446555256844,0.012249466963112354,-0.045433346182107925,0.0024622136261314154,0.003982940688729286,0.1884230077266693,1.603165864944458,0.8802152276039124,0.20665787160396576,-0.2794158160686493,0.03163984417915344
1749031252.9583213,-3.305723492299215,-2.446235796014303,-1.6710500717163086,5.762593614846029,-1.0506170431720179,-4.507485214863912,0.022866619750857353,0.011202660389244556,0.012770777568221092,-0.04834948107600212,0.0033313524909317493,0.004322178661823273,0.20124176144599915,1.618238925933838,0.8586737513542175,0.20786991715431213,-0.24808134138584137,0.04194486141204834
1749031252.9583657,-3.30571157137026,-2.4461924038329066,-1.671045184135437,5.762489306717672,-1.050624195729391,-4.507415477429525,0.02338528446853161,0.01252222154289484,0.012160424143075943,-0.05059412121772766,0.005142868030816317,0.004872404038906097,0.21339422464370728,1.6210438013076782,0.8885090947151184,0.2033088207244873,-0.24408534169197083,0.039755940437316895
1749031252.9584072,-3.305647675191061,-2.446129938165182,-1.6710025072097778,5.762408959656515,-1.05058461824526,-4.507430855427877,0.02364601567387581,0.012793045490980148,0.012879242189228535,-0.05346037447452545,0.006827303674072027,0.005174390040338039,0.23705726861953735,1.6053783893585205,0.8815434575080872,0.2016867697238922,-0.23883876204490662,0.040543824434280396
1749031252.9584455,-3.305627409611837,-2.4460979900755824,-1.6709632873535156,5.762313115387716,-1.050565544758932,-4.50744611421694,0.02431476302444935,0.013554488308727741,0.012945733033120632,-0.05332062020897865,0.007176099345088005,0.005370456259697676,0.22256013751029968,1.6160165071487427,0.8661035895347595,0.2236996740102768,-0.23775017261505127,0.052131205797195435
1749031252.9584844,-3.3055675665484827,-2.4460960827269496,-1.6709612607955933,5.762196647911825,-1.0505192915545862,-4.50742227235903,0.02477068081498146,0.012495260685682297,0.012483645230531693,-0.0536981001496315,0.006639092229306698,0.0054641845636069775,0.21100160479545593,1.6424479484558105,0.8751044273376465,0.18718792498111725,-0.21796390414237976,0.044311851263046265
1749031252.9585228,-3.305514637623922,-2.446115633050436,-1.6709339618682861,5.7620887635047815,-1.0505154768573206,-4.507402960454122,0.025516025722026825,0.012425181455910206,0.01207764819264412,-0.05609512701630592,0.0063097490929067135,0.005747969727963209,0.25148624181747437,1.6299673318862915,0.8985349535942078,0.1996464729309082,-0.20777136087417603,0.042502135038375854
1749031252.9585607,-3.305431906376974,-2.4460565052428187,-1.670906662940979,5.761961567192831,-1.0505521933185022,-4.507397953663961,0.027687542140483856,0.012906290590763092,0.012211039662361145,-0.05855049565434456,0.007681580260396004,0.005838627927005291,0.24348881840705872,1.6240394115447998,0.8722774386405945,0.19733819365501404,-0.21644669771194458,0.042299240827560425
1749031252.9585981,-3.3053792158709925,-2.446016927758688,-1.670866847038269,5.761834728508749,-1.0504987875567835,-4.507375780736105,0.027101613581180573,0.013098097406327724,0.012964406982064247,-0.06042492762207985,0.008772667497396469,0.00606455048546195,0.20764367282390594,1.66095769405365,0.8640496730804443,0.21201308071613312,-0.17193567752838135,0.029090315103530884
1749031252.9586356,-3.3053515593158167,-2.4459930859007777,-1.6708585023880005,5.761710154801168,-1.0504902044879358,-4.507397953663961,0.027865856885910034,0.01346635352820158,0.01264407578855753,-0.06289543956518173,0.00916191004216671,0.0057897125370800495,0.21631145477294922,1.6296583414077759,0.8641517162322998,0.21709540486335754,-0.19418001174926758,0.029168635606765747
1749031252.9586723,-3.3052833716021937,-2.4459673366942347,-1.6708108186721802,5.761601912766256,-1.0504887739764612,-4.507339541112081,0.02848849818110466,0.013341712765395641,0.012995767407119274,-0.06401142477989197,0.008611162193119526,0.006177105940878391,0.19393566250801086,1.6466008424758911,0.8475010395050049,0.21994535624980927,-0.20035521686077118,0.043714553117752075
1749031252.9587095,-3.3051872889148157,-2.4459363422789515,-1.6707909107208252,5.761466491013326,-1.0504234472857874,-4.5073774496661585,0.028869062662124634,0.01362804975360632,0.01220051571726799,-0.06256113201379776,0.008762636221945286,0.006184712518006563,0.22355574369430542,1.645563006401062,0.8643370866775513,0.21306781470775604,-0.1723383665084839,0.05081644654273987
1749031252.9587462,-3.3051438967334192,-2.445921083489889,-1.6707595586776733,5.761350381165304,-1.0504077116595667,-4.5073774496661585,0.0290520079433918,0.013560059480369091,0.012049276381731033,-0.06062290444970131,0.00866006687283516,0.006043727975338697,0.22019445896148682,1.6676756143569946,0.8739217519760132,0.19690999388694763,-0.16814255714416504,0.04295104742050171
1749031252.9587836,-3.3050997892962855,-2.445876737634176,-1.6707427501678467,5.761214840203085,-1.0504463354693812,-4.507365647946493,0.030091335996985435,0.013796797953546047,0.011918523348867893,-0.06104202941060066,0.008078315295279026,0.006168563850224018,0.18291550874710083,1.6304502487182617,0.8705087900161743,0.1963406503200531,-0.16120199859142303,0.05312862992286682
1749031252.9588206,-3.3050194422351282,-2.4458681545653285,-1.6707119941711426,5.761063802033224,-1.0504339377032679,-4.507315699254171,0.03045610710978508,0.013218817301094532,0.011684946715831757,-0.06319043040275574,0.008048325777053833,0.005560992285609245,0.1879732608795166,1.6431128978729248,0.873515248298645,0.20812928676605225,-0.1354353129863739,0.04796913266181946
1749031252.9588573,-3.304995361958639,-2.4458095035948695,-1.6706945896148682,5.760982262879171,-1.0504220167743128,-4.50733453432192,0.03032136708498001,0.013542977161705494,0.011933429166674614,-0.0631999671459198,0.00971332285553217,0.005456950981169939,0.2049938142299652,1.6744152307510376,0.8786951899528503,0.20250877737998962,-0.14955738186836243,0.04968404769897461
1749031252.9588938,-3.3049162069903772,-2.445854803124899,-1.670663833618164,5.760834562569418,-1.050363842641012,-4.5073294083224695,0.02914256416261196,0.012698388658463955,0.011205142363905907,-0.06507055461406708,0.01090163178741932,0.0050711240619421005,0.23270642757415771,1.6572003364562988,0.8859687447547913,0.18844345211982727,-0.1625911444425583,0.05725112557411194
1749031252.9589338,-3.3048911730395716,-2.4457770786681117,-1.670639991760254,5.760730254441061,-1.050389591847555,-4.507310096417562,0.030441123992204666,0.01270101685076952,0.011304461397230625,-0.06585834920406342,0.011322497390210629,0.004785924684256315,0.22548633813858032,1.7069014310836792,0.9032096266746521,0.21900823712348938,-0.14702416956424713,0.07502990961074829
1749031252.9589708,-3.304765049611227,-2.4457842312254847,-1.6706093549728394,5.760590064316549,-1.0503314177142542,-4.5073294083224695,0.03210277855396271,0.012885062023997307,0.011641891673207283,-0.06631438434123993,0.011162951588630676,0.005162523593753576,0.21327641606330872,1.6941652297973633,0.9062394499778748,0.19352716207504272,-0.15363681316375732,0.07756540179252625
1749031252.9590075,-3.3047242800342005,-2.445763250390524,-1.6706196069717407,5.7604161379630945,-1.0503419081317347,-4.507301632558004,0.032088425010442734,0.012758034281432629,0.012094859033823013,-0.06690895557403564,0.010978631675243378,0.005618643015623093,0.24484995007514954,1.7093702554702759,0.913267195224762,0.21050013601779938,-0.13343341648578644,0.06595635414123535
1749031252.9591408,-3.304664198552267,-2.4457208118834437,-1.6705951690673828,5.760307299881735,-1.050267521535055,-4.507277790700094,0.033488888293504715,0.01366815622895956,0.011805808171629906,-0.06848722696304321,0.011627250351011753,0.00637734355404973,0.22250859439373016,1.7092995643615723,0.9114841818809509,0.20457498729228973,-0.1215159147977829,0.06857717037200928
1749031252.9612517,-3.304664198552267,-2.4457208118834437,-1.6705951690673828,5.760307299881735,-1.050267521535055,-4.507277790700094,0.033488888293504715,0.01366815622895956,0.011805808171629906,-0.06848722696304321,0.011627250351011753,0.00637734355404973,0.22250859439373016,1.7092995643615723,0.9114841818809509,0.20457498729228973,-0.1215159147977829,0.06857717037200928
1749031253.0022814,-3.304544274006979,-2.4456964931883753,-1.6705560684204102,5.760039794235983,-1.050262753163473,-4.5072506109820765,0.03332056477665901,0.01376934815198183,0.011869782581925392,-0.07015596330165863,0.012679972685873508,0.006874407175928354,0.23282645642757416,1.7588603496551514,0.943893313407898,0.19210343062877655,-0.13870283961296082,0.06862819194793701
1749031253.0023274,-3.3044496218310755,-2.445629735986227,-1.670562982559204,5.7599031803901575,-1.0502150694476526,-4.5072506109820765,0.03201935067772865,0.013816336169838905,0.011902830563485622,-0.07113927602767944,0.0127303721383214,0.007143830880522728,0.2696954011917114,1.7473790645599365,0.9355706572532654,0.1948888599872589,-0.14163044095039368,0.05519774556159973
1749031253.0023713,-3.304396931325094,-2.4456550083556117,-1.670542597770691,5.759739625244894,-1.0502103010760706,-4.507257286702291,0.03361460566520691,0.014149307273328304,0.012066378258168697,-0.07199682295322418,0.011928355321288109,0.006510230712592602,0.26412874460220337,1.747567892074585,0.9606843590736389,0.18668779730796814,-0.1269514262676239,0.07618635892868042
1749031253.0024202,-3.3043838183032435,-2.4456125698485316,-1.6705307960510254,5.75960789897994,-1.0502103010760706,-4.507207457219259,0.03551063314080238,0.01398608461022377,0.012840896844863892,-0.07456981390714645,0.012730355374515057,0.00621462007984519,0.292193204164505,1.7359827756881714,0.9366390109062195,0.1906280368566513,-0.14788120985031128,0.06977051496505737
1749031253.0024583,-3.3043034712420862,-2.44555725673818,-1.6704875230789185,5.759440409928121,-1.0500920454608362,-4.507245484982626,0.03570328652858734,0.014779866673052311,0.012211127206683159,-0.07636427879333496,0.013223779387772083,0.005853877402842045,0.28567180037498474,1.7713886499404907,0.9635818004608154,0.20228782296180725,-0.13962620496749878,0.08001410961151123
1749031253.0025027,-3.3042240778552454,-2.445564409295553,-1.670457363128662,5.759299623757162,-1.0501692930804651,-4.507221047078268,0.03585333004593849,0.014897627755999565,0.01280779205262661,-0.07719944417476654,0.013059524819254875,0.00576598709449172,0.3067084550857544,1.7720659971237183,0.9784934520721436,0.1919141709804535,-0.1264793425798416,0.07892444729804993
1749031253.002542,-3.3041725794421595,-2.4455281696715296,-1.6704522371292114,5.759137022286215,-1.0500834623919886,-4.507205788289205,0.03687363862991333,0.015708034858107567,0.01327461563050747,-0.07829196751117706,0.012374192476272583,0.006151369772851467,0.3054085969924927,1.7769231796264648,0.9850303530693054,0.20677298307418823,-0.13685832917690277,0.08765935897827148
1749031253.00258,-3.3040619532214563,-2.4454766712584437,-1.6704283952713013,5.758957254677572,-1.0501096884356897,-4.507174555455343,0.03871699795126915,0.01627427712082863,0.014961984008550644,-0.07920247316360474,0.011403917334973812,0.007223458494991064,0.28716641664505005,1.7619447708129883,0.9655656218528748,0.20408882200717926,-0.13372491300106049,0.09252053499221802
1749031253.0026178,-3.3040359655963343,-2.4454599819579066,-1.6703886985778809,5.758832204132833,-1.050101105366842,-4.5071508328067225,0.03905153647065163,0.01737186871469021,0.015417954884469509,-0.08179707825183868,0.011544249951839447,0.00814285408705473,0.3064461052417755,1.7818882465362549,0.9739271998405457,0.20164960622787476,-0.11741781234741211,0.07884898781776428
1749031253.002655,-3.3038857618915003,-2.4454204044737757,-1.6703717708587646,5.758629905968466,-1.05003530183901,-4.507157627736227,0.039469048380851746,0.017607588320970535,0.01625664159655571,-0.08598962426185608,0.011519947089254856,0.007136102765798569,0.31945890188217163,1.8112425804138184,0.9870898127555847,0.24641311168670654,-0.1153668761253357,0.0920800268650055
1749031253.0026927,-3.3038607279406946,-2.4453803501524867,-1.6703131198883057,5.7584465620811365,-1.049980942402975,-4.507160965596334,0.04071703553199768,0.01808793842792511,0.016223035752773285,-0.08384157717227936,0.011254517361521721,0.007320066448301077,0.3092968463897705,1.79254949092865,0.9881983399391174,0.2513619363307953,-0.10866030305624008,0.08527791500091553
1749031253.0027332,-3.3037973085986536,-2.445341249505514,-1.670280933380127,5.75832878330306,-1.0499842802630823,-4.507145706807272,0.04127996414899826,0.018731551244854927,0.017026174813508987,-0.08191316574811935,0.01121396105736494,0.007837667129933834,0.3000286817550659,1.7819342613220215,0.9823527932167053,0.22085903584957123,-0.11239197850227356,0.09943926334381104
1749031253.0027707,-3.303690258656637,-2.445308347741598,-1.6702724695205688,5.758141743927755,-1.0499756971942347,-4.5071298519717615,0.04225476086139679,0.018904877826571465,0.01766263134777546,-0.08382190763950348,0.011759650893509388,0.008289437741041183,0.33204448223114014,1.7916555404663086,0.999873161315918,0.1943744421005249,-0.09652090072631836,0.09091812372207642
1749031253.0028071,-3.3035548369037073,-2.4452763996519984,-1.6702243089675903,5.757977592736044,-1.0499170462237757,-4.507094208394186,0.04255911707878113,0.01968153938651085,0.01823674701154232,-0.08481845259666443,0.013059668242931366,0.008581025525927544,0.33407947421073914,1.8287464380264282,0.9829580783843994,0.20613032579421997,-0.10389003157615662,0.10085946321487427
1749031253.0028439,-3.3034947554217737,-2.445240160027975,-1.670169711112976,5.757781970291891,-1.049969498311178,-4.507094208394186,0.04357177019119263,0.021195165812969208,0.018691157922148705,-0.08870924264192581,0.01280976552516222,0.008662236854434013,0.3539554476737976,1.78428316116333,0.9800445437431335,0.23846106231212616,-0.1258452832698822,0.10597610473632812
1749031253.0028806,-3.303457800542013,-2.445207258264059,-1.670164704322815,5.7576225874717615,-1.0498884359942835,-4.507090870534078,0.04403495788574219,0.02358200214803219,0.018518716096878052,-0.0873667299747467,0.012300198897719383,0.008860182017087936,0.35274308919906616,1.7686898708343506,0.9956363439559937,0.2263079583644867,-0.09724131971597672,0.11768907308578491
1749031253.0029204,-3.3033774534808558,-2.445109029809469,-1.6700983047485352,5.757433998375692,-1.049821678792135,-4.507045809422628,0.045051999390125275,0.023836471140384674,0.019126232713460922,-0.0870501846075058,0.012313616462051868,0.008975239470601082,0.37922802567481995,1.7660009860992432,0.9747132062911987,0.20550252497196198,-0.11205065250396729,0.11002641916275024
1749031253.0029588,-3.3033164183246058,-2.4450890026488246,-1.6700812578201294,5.757285582810201,-1.0498784224139612,-4.507045928631918,0.04587690532207489,0.02357253059744835,0.02022518590092659,-0.08898315578699112,0.01227793749421835,0.009017376229166985,0.3914581835269928,1.7797406911849976,0.9911653995513916,0.18836574256420135,-0.10635949671268463,0.10899180173873901
1749031253.002996,-3.3031819502459925,-2.445066591302389,-1.670029640197754,5.7570674298103235,-1.0498164335833948,-4.507029000912802,0.04763702303171158,0.023710504174232483,0.02092914842069149,-0.09155315160751343,0.012712779454886913,0.009343450888991356,0.39618611335754395,1.7775540351867676,1.0069751739501953,0.1963493525981903,-0.10968128591775894,0.08897700905799866
1749031253.0030327,-3.303129259740011,-2.445012231866354,-1.6699938774108887,5.756891238480367,-1.0498269240008753,-4.506994311009542,0.04860667884349823,0.024896999821066856,0.0210056584328413,-0.09400908648967743,0.012642697431147099,0.009102651849389076,0.36800849437713623,1.7532495260238647,0.9858739972114563,0.18052446842193604,-0.0921647846698761,0.11745764315128326
1749031253.0031383,-3.30302864709963,-2.4449483356871546,-1.6699267625808716,5.756730544358053,-1.0498269240008753,-4.507035795842306,0.04932957515120506,0.025811022147536278,0.02145705372095108,-0.0965677797794342,0.01287238858640194,0.008774099871516228,0.3835504651069641,1.7641817331314087,0.9777249693870544,0.18997526168823242,-0.08310800790786743,0.09754760563373566
1749031253.0051,-3.3029218355761927,-2.444900175134176,-1.6698826551437378,5.756538378983297,-1.0497482458697718,-4.506955329571859,0.04984790459275246,0.026173317804932594,0.022594820708036423,-0.09831590950489044,0.013469373807311058,0.007815000601112843,0.4179361164569855,1.7571831941604614,0.9717686772346497,0.20092955231666565,-0.08772806823253632,0.12186695635318756
1749031253.0463014,-3.302821938191549,-2.4448019466795863,-1.6698344945907593,5.756339657097616,-1.0497058073626917,-4.506962124501364,0.05136324092745781,0.026784703135490417,0.023121219128370285,-0.10119381546974182,0.014430806040763855,0.008633260615170002,0.421006977558136,1.80059814453125,0.9783763289451599,0.17692437767982483,-0.08252076804637909,0.12208272516727448
1749031253.0463486,-3.302706782017843,-2.4447957477965296,-1.6697993278503418,5.7561049340064905,-1.0497077147113245,-4.506939355527059,0.05268995836377144,0.028688473626971245,0.023593435063958168,-0.10407324135303497,0.0144698740914464,0.009141995571553707,0.40567299723625183,1.7283602952957153,0.9768974184989929,0.18622815608978271,-0.09399309009313583,0.12004926800727844
1749031253.046389,-3.302633825932638,-2.444717069665426,-1.6697545051574707,5.755892264633932,-1.0496490637408655,-4.506941143666403,0.05275724455714226,0.02930360659956932,0.02370319701731205,-0.10565666854381561,0.01430067140609026,0.009474758058786392,0.4396337568759918,1.7272406816482544,0.9808124303817749,0.18554358184337616,-0.0766671746969223,0.114653080701828
1749031253.0464275,-3.3025296370135706,-2.4446603260436,-1.6697221994400024,5.7556800720985315,-1.0496252218829554,-4.50692588487734,0.05509720370173454,0.028694918379187584,0.023892587050795555,-0.10561848431825638,0.01406498160213232,0.010286418721079826,0.4532663822174072,1.7434258460998535,0.9867606163024902,0.15210655331611633,-0.08447718620300293,0.124327152967453
1749031253.0464659,-3.302418057118551,-2.4445930920042933,-1.6696432828903198,5.755460846215048,-1.0496204535113733,-4.50690204301943,0.05731849744915962,0.02844107896089554,0.024502895772457123,-0.11271978914737701,0.014972567558288574,0.010859841480851173,0.40600910782814026,1.7591063976287842,0.9780722260475159,0.19146643579006195,-0.06257745623588562,0.12386439740657806
1749031253.0465083,-3.3023255507098597,-2.44455685238027,-1.6696075201034546,5.755248534470358,-1.049584690724508,-4.50687820116152,0.05577500909566879,0.028356805443763733,0.025539493188261986,-0.11270040273666382,0.015128484927117825,0.010045883245766163,0.4316187798976898,1.7775498628616333,0.9845460653305054,0.1947881430387497,-0.06598035991191864,0.12731938064098358
1749031253.046554,-3.302178208027975,-2.4444967708983363,-1.669573187828064,5.755028712540426,-1.0495451132403772,-4.506865684186117,0.057428695261478424,0.029917702078819275,0.0256289541721344,-0.11233069747686386,0.015297623351216316,0.009775117039680481,0.4302787184715271,1.7539198398590088,0.9684964418411255,0.1582525372505188,-0.05340176820755005,0.12333141267299652
1749031253.046592,-3.3020547072040003,-2.444456239739889,-1.669517993927002,5.754778492241659,-1.0495556036578577,-4.506841365491049,0.060615964233875275,0.030008742585778236,0.02556813322007656,-0.11600910127162933,0.015315474011003971,0.010964613407850266,0.43352210521698,1.7203346490859985,0.9664522409439087,0.1828257143497467,-0.060633882880210876,0.10563001036643982
1749031253.046633,-3.3019657770739954,-2.4443961582579554,-1.6694589853286743,5.754569518357076,-1.0494936148272913,-4.506817642842428,0.06104103475809097,0.02935240976512432,0.026158705353736877,-0.12148624658584595,0.015986697748303413,0.010716146789491177,0.4062097668647766,1.7583694458007812,0.9713054895401001,0.18346859514713287,-0.0502341091632843,0.1202380508184433
1749031253.0466714,-3.3018458525287073,-2.444336076776022,-1.6693954467773438,5.754349100380697,-1.0495041052447718,-4.506793800984518,0.061041783541440964,0.029600515961647034,0.026472531259059906,-0.11786099523305893,0.015626560896635056,0.010312196798622608,0.4281081557273865,1.7610234022140503,0.9576114416122437,0.16281525790691376,-0.04293408989906311,0.11521822214126587
1749031253.046709,-3.301702086125509,-2.444279809991354,-1.6693477630615234,5.754102098732748,-1.049471680318014,-4.506797138844625,0.0629478469491005,0.030031148344278336,0.02657199092209339,-0.1196739450097084,0.015784598886966705,0.010287214070558548,0.41526105999946594,1.7247217893600464,0.9549793004989624,0.14485034346580505,-0.031351491808891296,0.12523329257965088
1749031253.046746,-3.3015592733966272,-2.444246908227438,-1.669299602508545,5.7538503287132166,-1.0493977705584925,-4.506757561360494,0.06389955431222916,0.03025410883128643,0.026291176676750183,-0.12382753193378448,0.01701403222978115,0.009706965647637844,0.43211978673934937,1.7475438117980957,0.9552671313285828,0.16728562116622925,-0.035749852657318115,0.1524980068206787
1749031253.0467837,-3.301267687474386,-2.444080492059225,-1.669191837310791,5.7533466694648645,-1.0493500868426722,-4.50670308271517,0.06582005321979523,0.03040502779185772,0.026649856939911842,-0.1278860867023468,0.016906863078475,0.011164925061166286,0.3869348168373108,1.7610173225402832,0.9570746421813965,0.17591510713100433,-0.019188642501831055,0.11953791230916977
1749031253.046821,-3.301267687474386,-2.444080492059225,-1.669191837310791,5.7533466694648645,-1.0493500868426722,-4.50670308271517,0.06582005321979523,0.03040502779185772,0.026649856939911842,-0.1278860867023468,0.016906863078475,0.011164925061166286,0.3869348168373108,1.7610173225402832,0.9570746421813965,0.17591510713100433,-0.019188642501831055,0.11953791230916977
1749031253.0468612,-3.30115515390505,-2.4440132580199183,-1.6691358089447021,5.753094780236044,-1.0493024031268519,-4.50670308271517,0.06406839191913605,0.029884055256843567,0.026845641434192657,-0.12891799211502075,0.01758769527077675,0.011781221255660057,0.4105416536331177,1.778896689414978,0.94400954246521,0.16954819858074188,-0.0023298561573028564,0.14139437675476074
1749031253.0468986,-3.3010039965258997,-2.443944593469137,-1.6690726280212402,5.7527997372444055,-1.0493319670306605,-4.506682578717367,0.06797102838754654,0.030041340738534927,0.027033930644392967,-0.1318954974412918,0.01879039779305458,0.01071921642869711,0.3719625771045685,1.7708051204681396,0.9421945810317993,0.19998019933700562,-0.01426742970943451,0.14779488742351532
1749031253.0469356,-3.300903383885519,-2.4438773594298304,-1.6690090894699097,5.75255166271285,-1.0492647329913538,-4.506670061741964,0.06496387720108032,0.030233463272452354,0.02733781933784485,-0.13273273408412933,0.01839551515877247,0.010119923390448093,0.39979472756385803,1.7545784711837769,0.9407538175582886,0.1991146206855774,-0.018069729208946228,0.13470502197742462
1749031253.0469728,-3.3007364908801478,-2.443855424920553,-1.6689488887786865,5.752275573998251,-1.0492408911334437,-4.506642285977499,0.06526023894548416,0.029240984469652176,0.027414975687861443,-0.13146176934242249,0.01823517307639122,0.010418680496513844,0.4095500409603119,1.774590253829956,0.9397717118263245,0.1949262022972107,-0.0005383342504501343,0.1566452831029892
1749031253.0470095,-3.300631109868185,-2.4438044033446253,-1.6688859462738037,5.751992928772726,-1.0492051283465784,-4.506618682538168,0.06884287297725677,0.028882328420877457,0.027615219354629517,-0.13394030928611755,0.019884292036294937,0.010463752783834934,0.3783404231071472,1.79959237575531,0.9424518942832947,0.19744324684143066,-0.025151334702968597,0.16012658178806305
1749031253.0470529,-3.3004522959338587,-2.4437009296812953,-1.6688412427902222,5.751732575684347,-1.0491498152362269,-4.50662881532778,0.06677615642547607,0.029454991221427917,0.027366293594241142,-0.13249841332435608,0.019472766667604446,0.011324360966682434,0.4097287952899933,1.7959282398223877,0.95742267370224,0.19583594799041748,-0.0012147128582000732,0.14425666630268097
1749031253.0471637,-3.3003442923175257,-2.4436804256834925,-1.6687816381454468,5.751496541291036,-1.0491450468646448,-4.506598297749655,0.06817451864480972,0.0291163120418787,0.02784290350973606,-0.13205194473266602,0.01911468617618084,0.011113710701465607,0.3993488550186157,1.7916741371154785,0.936273455619812,0.1645347774028778,0.013908632099628448,0.16212549805641174
1749031253.049145,-3.3003442923175257,-2.4436804256834925,-1.6687816381454468,5.751496541291036,-1.0491450468646448,-4.506598297749655,0.06817451864480972,0.0291163120418787,0.02784290350973606,-0.13205194473266602,0.01911468617618084,0.011113710701465607,0.3993488550186157,1.7916741371154785,0.936273455619812,0.1645347774028778,0.013908632099628448,0.16212549805641174
1749031253.0902672,-3.300051514302389,-2.443552156487936,-1.668692708015442,5.750929105072775,-1.049061123524801,-4.506541554127828,0.06891387701034546,0.027928361669182777,0.02713787369430065,-0.1368306577205658,0.019096028059720993,0.010787107050418854,0.3852875828742981,1.8315857648849487,0.9483943581581116,0.2152235060930252,0.0046822503209114075,0.1496327817440033
1749031253.090314,-3.2999115625964563,-2.4434920750060023,-1.6686296463012695,5.750700342446127,-1.0490134398089808,-4.506517712269918,0.06857998669147491,0.027121974155306816,0.02713015116751194,-0.1336810290813446,0.01825866289436817,0.009859587997198105,0.38251906633377075,1.853385090827942,0.9600384831428528,0.19678553938865662,0.03716171905398369,0.15456295013427734
1749031253.090357,-3.2997687498675745,-2.4434315166869105,-1.668584942817688,5.750425326615133,-1.049004856740133,-4.506514374409811,0.0702693983912468,0.027309460565447807,0.02715710550546646,-0.13297033309936523,0.019621267914772034,0.010892018675804138,0.3665177822113037,1.841979742050171,0.9478225708007812,0.18888545036315918,0.03363952413201332,0.13811005651950836
1749031253.0903964,-3.2995813528644007,-2.4433652363219203,-1.6685560941696167,5.750149714737692,-1.0489419142352503,-4.506496254597799,0.07113586366176605,0.02716355212032795,0.027515549212694168,-0.13274763524532318,0.020184969529509544,0.011111252009868622,0.33506345748901367,1.8608832359313965,0.9349983334541321,0.19099634885787964,0.0332084521651268,0.15896251797676086
1749031253.0904343,-3.2994845549212855,-2.443340917626852,-1.6684554815292358,5.749870407372274,-1.048887077962057,-4.506450359021322,0.07163503021001816,0.026949528604745865,0.02758246846497059,-0.1330757886171341,0.020132433623075485,0.010434738360345364,0.3424937427043915,1.8770145177841187,0.9501585364341736,0.1655787229537964,0.029061347246170044,0.14529775083065033
1749031253.0904727,-3.2993128935443323,-2.4432879887022914,-1.6683986186981201,5.749629723816671,-1.0488665739642542,-4.506445233021871,0.07175544649362564,0.027313604950904846,0.02763018198311329,-0.13431724905967712,0.020308492705225945,0.010413809679448605,0.3150290846824646,1.8828433752059937,0.9309766292572021,0.18579834699630737,0.023914620280265808,0.1521504521369934
1749031253.0905104,-3.2991846243487757,-2.443252225915426,-1.6683579683303833,5.749365913658895,-1.0487845579730433,-4.506411258374349,0.07168327271938324,0.02704791910946369,0.02727852761745453,-0.13420596718788147,0.01944820024073124,0.010207140818238258,0.3228072226047516,1.925436019897461,0.9330933094024658,0.18551479279994965,0.041614603251218796,0.15628620982170105
1749031253.0905485,-3.2990251223193567,-2.443172594110006,-1.6682978868484497,5.74910186508254,-1.0487530867206019,-4.506421391163961,0.07145772129297256,0.027637004852294922,0.02650061622262001,-0.1369376927614212,0.0201033316552639,0.010640139691531658,0.3563503921031952,1.9020668268203735,0.9501941204071045,0.18162445724010468,0.04284072294831276,0.16023841500282288
1749031253.090586,-3.2988885084735315,-2.443123003045553,-1.6682426929473877,5.7487947819526575,-1.0487774054156702,-4.506388489400045,0.07128919661045074,0.027271445840597153,0.026467205956578255,-0.13685651123523712,0.02060738019645214,0.01123135071247816,0.32582518458366394,1.927266001701355,0.9616206884384155,0.19453495740890503,0.030212372541427612,0.16220664978027344
1749031253.0906296,-3.2987998167621058,-2.4430719814696253,-1.6682054996490479,5.748534667282858,-1.0486767927752894,-4.506415669118063,0.07103732228279114,0.027789492160081863,0.02692362852394581,-0.1404123455286026,0.02060917392373085,0.011024555191397667,0.347062885761261,1.9441157579421997,0.9493815898895264,0.20857621729373932,0.05771325156092644,0.1515127718448639
1749031253.090667,-3.298605267201559,-2.4430118999876917,-1.6681320667266846,5.748236048012533,-1.0486562887774866,-4.506379906331198,0.07195427268743515,0.02928740158677101,0.028793329373002052,-0.13578864932060242,0.021538229659199715,0.010864164680242538,0.3466636836528778,1.9476786851882935,0.9372398853302002,0.17452704906463623,0.0502091646194458,0.1695227324962616
1749031253.0907042,-3.2984734217273157,-2.4429756603636683,-1.6680912971496582,5.747991668968954,-1.0486200491534632,-4.506364647542135,0.07255931198596954,0.029495928436517715,0.02871895767748356,-0.13457518815994263,0.022306494414806366,0.011311219073832035,0.3320634961128235,1.9385242462158203,0.9437111020088196,0.1661340445280075,0.06898494064807892,0.1627003252506256
1749031253.0907419,-3.298310105000631,-2.4429460964598597,-1.6680158376693726,5.74773524978713,-1.0485757032977503,-4.506324950848715,0.07201168686151505,0.02894401364028454,0.028841787949204445,-0.14054371416568756,0.022033849731087685,0.010726742446422577,0.4155157208442688,1.948185920715332,0.9471571445465088,0.17401188611984253,0.046643033623695374,0.1805368810892105
1749031253.0907784,-3.29818565050234,-2.442833562890524,-1.6679710149765015,5.747439849167623,-1.0485275427447718,-4.506300751362936,0.07591071724891663,0.027155229821801186,0.02883324772119522,-0.1375114917755127,0.023183751851320267,0.011700193397700787,0.33517441153526306,1.9875620603561401,0.9508019685745239,0.1457376331090927,0.04127421975135803,0.16568657755851746
1749031253.0908163,-3.297999445592062,-2.442814966241354,-1.6679234504699707,5.747175919800558,-1.048457447682516,-4.506268326436178,0.07261357456445694,0.0309674721211195,0.02842923440039158,-0.1402534395456314,0.022680019959807396,0.012615191750228405,0.38398656249046326,1.9765981435775757,0.9631596803665161,0.1436726152896881,0.05760223791003227,0.1590231955051422
1749031253.0908537,-3.2978857199298304,-2.4427319965758265,-1.6678751707077026,5.746904122620382,-1.048490349446432,-4.5062411467181605,0.07253027707338333,0.03245808929204941,0.028190311044454575,-0.14130696654319763,0.023641075938940048,0.011919127777218819,0.39506226778030396,1.9596562385559082,0.9644331336021423,0.15058594942092896,0.0354771688580513,0.15694743394851685
1749031253.0908904,-3.2977612654315394,-2.4426943264403285,-1.6678191423416138,5.746600734978475,-1.0483892599688929,-4.5062201658831995,0.07607372850179672,0.03198200836777687,0.029433241114020348,-0.14394745230674744,0.0232830960303545,0.01256540697067976,0.3596838712692261,1.9956382513046265,0.9691131711006165,0.1423032432794571,0.043652717024087906,0.1634007692337036
1749031253.0909276,-3.297617260609762,-2.4425693951048792,-1.6677680015563965,5.746293532639303,-1.048332993184225,-4.506208244954244,0.07301566004753113,0.03373370319604874,0.030445938929915428,-0.14498451352119446,0.02213696390390396,0.010875883512198925,0.4222291111946106,1.987944483757019,0.9586626887321472,0.14772212505340576,0.041053906083106995,0.16556602716445923
1749031253.0909648,-3.297445837651388,-2.4425398312010707,-1.6676958799362183,5.745997416764059,-1.0483163038836878,-4.506196324025289,0.07594002783298492,0.03476879373192787,0.030367624014616013,-0.1495697945356369,0.023355280980467796,0.010911009274423122,0.37519371509552,1.9547560214996338,0.9422354698181152,0.146596297621727,0.03832244873046875,0.18762055039405823
1749031253.0910149,-3.2972944418536585,-2.4424597225584925,-1.667629361152649,5.745728719025411,-1.048246208821432,-4.506172482167379,0.07591356337070465,0.03419717401266098,0.030530225485563278,-0.15028458833694458,0.022025099024176598,0.011998278088867664,0.38723447918891907,1.9742166996002197,0.9544193744659424,0.1352640688419342,0.05404850095510483,0.17108085751533508
1749031253.0911334,-3.297161642705099,-2.4424144230284632,-1.667588233947754,5.745417225151815,-1.048232380543844,-4.506128851567404,0.07530608773231506,0.034953415393829346,0.030290640890598297,-0.15284422039985657,0.022282563149929047,0.01166735589504242,0.38887158036231995,1.9837111234664917,0.9628744125366211,0.1525171995162964,0.06144624948501587,0.17272433638572693
1749031253.0931392,-3.297006432210104,-2.4423042736449183,-1.6675161123275757,5.74507902839736,-1.0481999556170862,-4.5061238447772425,0.07820131629705429,0.03774309530854225,0.03069043904542923,-0.15336918830871582,0.022312941029667854,0.011311264708638191,0.4210449159145355,1.9523978233337402,0.9847630262374878,0.1375669240951538,0.03912784159183502,0.16898663341999054
1749031253.134283,-3.296854321156637,-2.4422394237914027,-1.6674691438674927,5.744801986008444,-1.0481637159930628,-4.50608474413027,0.07905685156583786,0.03905271366238594,0.03159531578421593,-0.1567455381155014,0.02116493135690689,0.011823447421193123,0.3655562400817871,1.9293625354766846,0.9606083035469055,0.16827157139778137,0.06849225610494614,0.1856812834739685
1749031253.134332,-3.2966838518725794,-2.442143579522604,-1.6674004793167114,5.74448703506545,-1.0480969587909144,-4.50607949892153,0.07875201106071472,0.03952402248978615,0.03236359730362892,-0.15344394743442535,0.021986959502100945,0.01289394125342369,0.3845781683921814,1.918787956237793,0.9621225595474243,0.15189042687416077,0.06758436560630798,0.16803458333015442
1749031253.1343734,-3.2965553442584437,-2.4420906505980433,-1.6673250198364258,5.744202720909872,-1.0480459372149866,-4.506067697201864,0.08196727186441422,0.04020029306411743,0.03210579231381416,-0.15754128992557526,0.022393885999917984,0.0135952178388834,0.39673709869384766,1.91985285282135,0.9670332670211792,0.1280682235956192,0.05192472040653229,0.16285395622253418
1749031253.1344128,-3.2963877359973353,-2.441991468469137,-1.6672340631484985,5.743843900948324,-1.0480135122882288,-4.506012741719381,0.07898206263780594,0.040337979793548584,0.0319092757999897,-0.157515749335289,0.02255062945187092,0.013459496200084686,0.4193824529647827,1.903581142425537,0.9592506289482117,0.1436372548341751,0.05876149237155914,0.18512362241744995
1749031253.134451,-3.2962315718280237,-2.4418961010374964,-1.6671780347824097,5.743567335396566,-1.0479415098773401,-4.5060076157199305,0.08151191473007202,0.04147825017571449,0.032650191336870193,-0.15870848298072815,0.02372800186276436,0.013090253807604313,0.39645805954933167,1.89212167263031,0.9571601152420044,0.12006405740976334,0.03758099675178528,0.16835430264472961
1749031253.1344895,-3.296091381703512,-2.4418193302550257,-1.667149305343628,5.7432089922721765,-1.0479095617877405,-4.505945269261495,0.08327586948871613,0.042087357491254807,0.033150456845760345,-0.160756915807724,0.02341335080564022,0.013434693217277527,0.40342557430267334,1.8913981914520264,0.9644578695297241,0.12749269604682922,0.03485484421253204,0.18010979890823364
1749031253.1345277,-3.2959232966052454,-2.4417783222594203,-1.6670427322387695,5.742900597840109,-1.0478199164019983,-4.505928341542379,0.08302624523639679,0.04250289499759674,0.03294483572244644,-0.16231302917003632,0.024632718414068222,0.013519843108952045,0.4131758213043213,1.8878687620162964,0.9562991261482239,0.11249426752328873,0.011481285095214844,0.18610124289989471
1749031253.1345656,-3.2957590262042444,-2.4416357479491175,-1.6670022010803223,5.742580520897665,-1.0477946440326136,-4.505901161824362,0.08433046191930771,0.04354487359523773,0.03324192762374878,-0.16334159672260284,0.023640552535653114,0.013650479726493359,0.43199050426483154,1.8620139360427856,0.9805668592453003,0.10493609309196472,0.01455390453338623,0.16693590581417084
1749031253.1346025,-3.2956460157977503,-2.441551824609274,-1.666907787322998,5.742229330330648,-1.0477502981769007,-4.505883995686666,0.08624868839979172,0.04468412697315216,0.034513864666223526,-0.1653859168291092,0.02395227551460266,0.012987921014428139,0.4230419993400574,1.8792847394943237,0.9816309809684753,0.09655667841434479,0.024500027298927307,0.18763141334056854
1749031253.1346443,-3.2954590956317347,-2.4414831600584925,-1.6668356657028198,5.74189709404067,-1.0477107206927698,-4.505847756062643,0.08699671924114227,0.04442407190799713,0.035620879381895065,-0.17070722579956055,0.024089964106678963,0.013239869847893715,0.4204866290092468,1.8416184186935425,0.9546182155609131,0.12978264689445496,0.012284442782402039,0.16839149594306946
1749031253.1346827,-3.2953031698810022,-2.4414030514159144,-1.6667866706848145,5.741537201195516,-1.0476701895343226,-4.505839172993795,0.0865737646818161,0.044269926846027374,0.03491852432489395,-0.17051911354064941,0.023675091564655304,0.01404422614723444,0.43343472480773926,1.871442437171936,0.9734569191932678,0.09893292188644409,0.015911981463432312,0.14922472834587097
1749031253.1347198,-3.295107666646139,-2.441249033013815,-1.6667026281356812,5.741154658585348,-1.0476582686053675,-4.505811516438619,0.08766931295394897,0.04483727365732193,0.034363213926553726,-0.17057214677333832,0.02495153620839119,0.014146481640636921,0.4531984329223633,1.8729068040847778,0.9816590547561646,0.09613650292158127,0.014010265469551086,0.1574392318725586
1749031253.134762,-3.294955317174093,-2.4411989651122035,-1.666623592376709,5.740818965225973,-1.0475481192218226,-4.505771819745199,0.08863157033920288,0.04428086057305336,0.03553406149148941,-0.17526504397392273,0.024445708841085434,0.013215193524956703,0.4685620367527008,1.878978967666626,0.9782372117042542,0.1278999298810959,0.01951020210981369,0.19158877432346344
1749031253.134799,-3.294725481663839,-2.4411078892149867,-1.6665403842926025,5.74047468879775,-1.0475571791278284,-4.5057141224490564,0.08965809643268585,0.04236968979239464,0.037089668214321136,-0.1736735701560974,0.025253813713788986,0.012445511296391487,0.43353700637817383,1.868415117263794,0.9623043537139893,0.10932120680809021,0.02280919998884201,0.16219303011894226
1749031253.1348355,-3.2945731321917933,-2.441014905969137,-1.6664535999298096,5.740099537163534,-1.0474837462054651,-4.505700413380758,0.0898144468665123,0.04436931014060974,0.03701796010136604,-0.17584054172039032,0.025218984112143517,0.01296408474445343,0.4676094353199005,1.8942315578460693,0.9642046093940735,0.09876398742198944,0.03133179247379303,0.182175874710083
1749031253.134872,-3.2943812052356165,-2.440953870812887,-1.6663883924484253,5.739743697434225,-1.0474069754229944,-4.505693618451254,0.09141963720321655,0.04621189460158348,0.038679398596286774,-0.17719213664531708,0.026383565738797188,0.013574201613664627,0.4853770434856415,1.8593451976776123,0.9669328927993774,0.09684790670871735,0.02163458615541458,0.18715696036815643
1749031253.1349092,-3.2942166964160364,-2.440850873986715,-1.6663010120391846,5.73936544635848,-1.0473554770099085,-4.505664173756735,0.09285231679677963,0.042980488389730453,0.03804383799433708,-0.17971371114253998,0.027128072455525398,0.013374179601669312,0.4872863292694092,1.8817272186279297,0.942084014415741,0.09046954661607742,0.006013974547386169,0.19330793619155884
1749031253.1349459,-3.294009510670797,-2.4407736263670863,-1.6662408113479614,5.739027964859762,-1.0472968260394495,-4.505648795758383,0.09538257867097855,0.04225343465805054,0.036230336874723434,-0.1816769242286682,0.026812497526407242,0.013039665296673775,0.38323020935058594,1.9063206911087036,0.9577034711837769,0.09993216395378113,0.02675473690032959,0.19471585750579834
1749031253.1349826,-3.2938104311572474,-2.4406820736327113,-1.6661686897277832,5.738637554436483,-1.0472319761859339,-4.505569521580831,0.09352242946624756,0.04283255711197853,0.03658834472298622,-0.18454641103744507,0.026679489761590958,0.014225905761122704,0.4673730432987213,1.9128327369689941,0.9756154417991638,0.08467800915241241,0.008557416498661041,0.1763117015361786
1749031253.1350217,-3.293610159550802,-2.4405623875060023,-1.666104793548584,5.738246190338888,-1.0472515265094202,-4.505579773579733,0.09911815822124481,0.04365698993206024,0.038370806723833084,-0.1853761225938797,0.024673480540513992,0.014493746683001518,0.4314398169517517,1.882037878036499,0.9581555128097534,0.0739469975233078,0.013037018477916718,0.17545056343078613
1749031253.1351416,-3.293426815663473,-2.4404951534666957,-1.6660327911376953,5.737878310471334,-1.0471795240985315,-4.50556451479067,0.09796402603387833,0.0436992309987545,0.038857247680425644,-0.18863216042518616,0.02516903541982174,0.01440824568271637,0.4681687355041504,1.88839852809906,0.9520230889320374,0.07047054171562195,0.04060922935605049,0.1934536099433899
1749031253.1371248,-3.2932727972613733,-2.4404245815672816,-1.6659419536590576,5.737525331764974,-1.0471366087542933,-4.505513374005453,0.1002611592411995,0.041914090514183044,0.03865586593747139,-0.1891544610261917,0.025456905364990234,0.014302718453109264,0.4336560070514679,1.9139184951782227,0.9523881673812866,0.08256001770496368,0.050883978605270386,0.19607435166835785
1749031253.1782804,-3.2930448690997522,-2.440315385858053,-1.665873408317566,5.737110841065206,-1.0470612684832972,-4.505437437688009,0.09978672116994858,0.041669365018606186,0.0388927236199379,-0.19291947782039642,0.027320193126797676,0.014996986836194992,0.4464449882507324,1.9542732238769531,0.9686747789382935,0.0554225891828537,0.022426942363381386,0.18937426805496216
1749031253.178327,-3.2928527037249964,-2.4402343235411585,-1.6657899618148804,5.73668800571517,-1.0470359961139124,-4.505444351826803,0.10376675426959991,0.04368416592478752,0.0393173024058342,-0.19592709839344025,0.027155088260769844,0.015137098729610443,0.39162909984588623,1.9266009330749512,0.9622553586959839,0.12126593291759491,0.048153188079595566,0.16667696833610535
1749031253.1783724,-3.292633120213644,-2.4401313267149867,-1.6656990051269531,5.7362955687339685,-1.0469720999347132,-4.505434099827902,0.10006771236658096,0.04348045587539673,0.0391656868159771,-0.19703145325183868,0.02802518755197525,0.0147898830473423,0.4685802459716797,1.9249467849731445,0.9672055840492249,0.09796477854251862,0.0330193005502224,0.18219947814941406
1749031253.1784122,-3.2924533526050013,-2.440066476861471,-1.6656270027160645,5.73588393905715,-1.046917740498678,-4.505384270344869,0.10482186824083328,0.04428945109248161,0.03966990485787392,-0.1993311643600464,0.02746981382369995,0.014196174219250679,0.3787074089050293,1.9556126594543457,0.9682537317276001,0.11331326514482498,0.043472420424222946,0.1749657839536667
1749031253.1784513,-3.2922096888171595,-2.439970632592672,-1.6655471324920654,5.73549913147048,-1.0468748251544397,-4.505345050488607,0.10240048915147781,0.04433416575193405,0.03908070549368858,-0.2004808634519577,0.028317980468273163,0.014672743156552315,0.436576783657074,1.942407488822937,0.9906843900680542,0.10636480152606964,0.0373297855257988,0.19359351694583893
1749031253.1784904,-3.2920408884631556,-2.439890047112936,-1.6654757261276245,5.735068785935201,-1.0468047300921839,-4.505312029515402,0.10406611114740372,0.04549428075551987,0.03949727118015289,-0.20179453492164612,0.0281907357275486,0.014897244982421398,0.3965146839618683,1.936352252960205,0.9942614436149597,0.09338143467903137,0.030661828815937042,0.1825166642665863
1749031253.1785321,-3.291786495839254,-2.439798494378561,-1.6654224395751953,5.734664547234335,-1.0467384497271937,-4.505303088818685,0.10507478564977646,0.04600256308913231,0.03923012316226959,-0.20467093586921692,0.02927095629274845,0.014588822610676289,0.4157205820083618,1.9293514490127563,0.9968182444572449,0.1286218762397766,0.03873139247298241,0.1772787719964981
1749031253.1785696,-3.291579071675436,-2.4397179088988246,-1.6653622388839722,5.734245168953695,-1.046708885823385,-4.505260650311605,0.1063038781285286,0.04688367247581482,0.03881934657692909,-0.20554760098457336,0.02919309027493,0.014919470064342022,0.4072134494781494,1.9344836473464966,1.0101423263549805,0.1053536981344223,0.035640113055706024,0.2002362608909607
1749031253.178607,-3.2913201490985315,-2.439587255517477,-1.6652663946151733,5.733813154488363,-1.046610180531637,-4.5052276293384,0.10737328231334686,0.04794579744338989,0.03923792019486427,-0.20795489847660065,0.030308296903967857,0.01624821498990059,0.4403091073036194,1.9594188928604126,1.0465717315673828,0.15101875364780426,0.024825062602758408,0.19118040800094604
1749031253.1786451,-3.291154448186056,-2.4395343265929164,-1.6651915311813354,5.73338137844161,-1.0465548674212855,-4.505204025899069,0.10984130948781967,0.04758570343255997,0.03982013463973999,-0.20786528289318085,0.02884233370423317,0.016661284491419792,0.4075533151626587,1.9571963548660278,1.0385351181030273,0.12433241307735443,0.0235220305621624,0.19792824983596802
1749031253.1786857,-3.290907684956686,-2.4394575558104457,-1.6651047468185425,5.732973801880636,-1.0465453306781214,-4.505174938832418,0.11050242930650711,0.049839816987514496,0.04080258682370186,-0.20908702909946442,0.0299078356474638,0.016250887885689735,0.4002024233341217,1.946774959564209,1.0319936275482178,0.13913539052009583,0.009524978697299957,0.18381473422050476
1749031253.1787233,-3.290645186101095,-2.4393373928465785,-1.6650205850601196,5.732542383461752,-1.0464423338519495,-4.505138222371237,0.1110524833202362,0.05058320611715317,0.041611939668655396,-0.2098112255334854,0.029470354318618774,0.017105257138609886,0.384353369474411,1.9379143714904785,1.0332077741622925,0.10980406403541565,0.030825182795524597,0.18105873465538025
1749031253.1787603,-3.2904911676989954,-2.439230581323141,-1.6649487018585205,5.732135045319357,-1.0463860670672815,-4.505107704793112,0.11069093644618988,0.05011026933789253,0.04176684468984604,-0.2102881371974945,0.02974667400121689,0.016399333253502846,0.3883436620235443,1.9419639110565186,1.0402361154556274,0.12097594887018204,0.016932055354118347,0.18801450729370117
1749031253.178797,-3.290260140095846,-2.4391075573363246,-1.6648955345153809,5.731711256295004,-1.0463202635394495,-4.505075279866354,0.11006863415241241,0.05059164762496948,0.04212888330221176,-0.21367689967155457,0.029393626376986504,0.016017049551010132,0.3999978303909302,1.9528741836547852,1.0416970252990723,0.09724012762308121,0.05569519102573395,0.19494235515594482
1749031253.1788373,-3.29002029100527,-2.439045568505758,-1.6647931337356567,5.731264459877767,-1.0462835470782679,-4.505054299031393,0.11066219955682755,0.050428833812475204,0.04231194406747818,-0.21815922856330872,0.030480599030852318,0.01607842557132244,0.44213634729385376,1.9383752346038818,1.0568013191223145,0.10957778990268707,0.011148728430271149,0.18188582360744476
1749031253.1788747,-3.2898123900042933,-2.438925405541891,-1.6646784543991089,5.730836140900411,-1.046234432850973,-4.505030457173483,0.10939762741327286,0.050412025302648544,0.04340505599975586,-0.222215935587883,0.02955937571823597,0.017456557601690292,0.4136807322502136,1.9613795280456543,1.068385124206543,0.11339228600263596,0.03067176043987274,0.19996419548988342
1749031253.178911,-3.2895835081683558,-2.438829561273092,-1.6646475791931152,5.730395304947653,-1.0461552778827112,-4.504979435597555,0.11247916519641876,0.05370046943426132,0.04494649916887283,-0.22254662215709686,0.03024057112634182,0.018232518807053566,0.423190176486969,1.9271293878555298,1.0594266653060913,0.13931073248386383,0.046671658754348755,0.18587151169776917
1749031253.1789484,-3.289325539265768,-2.4387179813780726,-1.6645139455795288,5.729921448021688,-1.0461023489581507,-4.504957977925436,0.11094062775373459,0.0515298992395401,0.04545782878994942,-0.2268190085887909,0.02967788279056549,0.018113402649760246,0.4279192090034485,1.916983962059021,1.051501989364624,0.1407819390296936,0.05265431851148605,0.17224887013435364
1749031253.1789885,-3.289105002080099,-2.438606401483053,-1.6644221544265747,5.72946189621047,-1.0460785071002405,-4.504906956349508,0.1136757880449295,0.0514192096889019,0.04832683131098747,-0.22616055607795715,0.03037838451564312,0.018398381769657135,0.41026872396469116,1.9653586149215698,1.0438575744628906,0.12456876784563065,0.03213653713464737,0.18982793390750885
1749031253.1790257,-3.288915459309713,-2.438493391076559,-1.664338231086731,5.728998291283407,-1.045995060597555,-4.504882995282308,0.11524147540330887,0.05256525054574013,0.05000195652246475,-0.22888167202472687,0.029880641028285027,0.01762332394719124,0.4333190321922302,1.9532530307769775,1.0128655433654785,0.14483009278774261,0.042826808989048004,0.19141961634159088
1749031253.1791444,-3.2886646429644983,-2.4383822880186976,-1.66422700881958,5.728569733887472,-1.0459125677691858,-4.504822913800375,0.11912158131599426,0.05516200512647629,0.04836447909474373,-0.23160284757614136,0.030364513397216797,0.017412196844816208,0.3926953971385956,1.917153239250183,1.0279392004013062,0.13432249426841736,0.04649310186505318,0.21878844499588013
1749031253.1811113,-3.28843337694277,-2.4382621250548304,-1.6641162633895874,5.728091823845663,-1.0458529631244105,-4.504783217106954,0.11555703729391098,0.05292731896042824,0.04984738677740097,-0.23493462800979614,0.030427109450101852,0.018605733290314674,0.4084477722644806,1.9571222066879272,1.015811800956726,0.13011442124843597,0.057580381631851196,0.18415945768356323
1749031253.222274,-3.2882280985461634,-2.438169141808981,-1.664015531539917,5.72766267040328,-1.0457842985736292,-4.504757348691122,0.12066873908042908,0.05275621637701988,0.05086224153637886,-0.23251910507678986,0.031482994556427,0.01875275745987892,0.41723453998565674,1.9778388738632202,1.0132699012756348,0.11568114906549454,0.07013090699911118,0.1807350516319275
1749031253.22232,-3.2879534403430384,-2.4380651913084925,-1.6639189720153809,5.727180468827047,-1.0457332769977015,-4.504707876835958,0.11883003264665604,0.053728509694337845,0.053419310599565506,-0.2370849996805191,0.031125662848353386,0.017867043614387512,0.4051544964313507,1.9587246179580688,0.9706212878227234,0.1283714324235916,0.0674663856625557,0.17978031933307648
1749031253.2223608,-3.2877374331103724,-2.4379288158812464,-1.663772702217102,5.726743924408712,-1.0457008520709437,-4.504666511212484,0.12014167755842209,0.051842812448740005,0.05074061080813408,-0.23533399403095245,0.03192093223333359,0.01764613389968872,0.43533822894096375,1.9815789461135864,0.9853764772415161,0.0958198755979538,0.06111463904380798,0.1841752827167511
1749031253.222399,-3.287454668675558,-2.4378558597960414,-1.6636649370193481,5.726300227433004,-1.0456321875201624,-4.504627291356222,0.12055199593305588,0.05429977551102638,0.05102882906794548,-0.23596425354480743,0.03353113681077957,0.01850965991616249,0.43288931250572205,1.9947540760040283,1.011367917060852,0.08072949945926666,0.06468523293733597,0.1801532357931137
1749031253.2224374,-3.28723389307131,-2.4377480945982875,-1.6635879278182983,5.725820529251852,-1.0455482641803187,-4.504606429730551,0.1210707426071167,0.05517459288239479,0.051635611802339554,-0.23881281912326813,0.033814918249845505,0.018459826707839966,0.450721800327301,1.995346188545227,0.9892887473106384,0.08618888258934021,0.056003473699092865,0.19923603534698486
1749031253.2224753,-3.287044350300924,-2.437620779077047,-1.6634807586669922,5.725325214653768,-1.0454819838153284,-4.504561726246969,0.12113005667924881,0.055353425443172455,0.05141359195113182,-0.24042503535747528,0.03492790088057518,0.017429159954190254,0.42226719856262207,1.9810287952423096,0.987680971622467,0.07353280484676361,0.05730380862951279,0.19565428793430328
1749031253.2225134,-3.286823813115255,-2.4374429188170375,-1.663384199142456,5.724846112519064,-1.0454443136798304,-4.504499737416403,0.12100199609994888,0.05610383674502373,0.050590403378009796,-0.24476785957813263,0.03477855771780014,0.017402134835720062,0.4113644063472748,1.961337685585022,0.9883947372436523,0.0721011534333229,0.07972799986600876,0.1966925710439682
1749031253.222551,-3.286529843007223,-2.437352796594137,-1.66326105594635,5.724339115410604,-1.045321289693014,-4.504508558903829,0.12195640057325363,0.05698211118578911,0.05003444850444794,-0.24871058762073517,0.03485793247818947,0.017953600734472275,0.43228793144226074,1.9319190979003906,0.9891201257705688,0.08940479904413223,0.061357300728559494,0.18586352467536926
1749031253.2225895,-3.286269489918844,-2.437202116052145,-1.6631771326065063,5.7238045809562585,-1.0452941099749964,-4.50446588197817,0.12361875921487808,0.057689644396305084,0.050658028572797775,-0.2522515654563904,0.03513485938310623,0.017718320712447166,0.44383034110069275,1.934245228767395,0.9961708784103394,0.07972069084644318,0.06667730957269669,0.1794050931930542
1749031253.2226274,-3.286041800175802,-2.437148710290426,-1.6630544662475586,5.723323094635763,-1.0451520125018519,-4.5044103304492396,0.12361883372068405,0.05865630507469177,0.050982020795345306,-0.2527334988117218,0.034942638128995895,0.018571436405181885,0.4338527321815491,1.9279673099517822,1.0076802968978882,0.1125534325838089,0.06608366966247559,0.17622582614421844
1749031253.2226646,-3.2857778708087366,-2.436981817285055,-1.6629775762557983,5.722797024040975,-1.045131031666891,-4.504359308873312,0.12629537284374237,0.05942925438284874,0.051722556352615356,-0.25892114639282227,0.035575591027736664,0.01900346949696541,0.42973411083221436,1.896905779838562,0.9841150045394897,0.10992180556058884,0.05736292898654938,0.1963181495666504
1749031253.2227013,-3.2855175177203577,-2.436920305291647,-1.6628663539886475,5.722284662514486,-1.0450237433062952,-4.504342261944906,0.1273898482322693,0.058693092316389084,0.05108979716897011,-0.2590164244174957,0.035906482487916946,0.018320702016353607,0.4839015603065491,1.952476143836975,1.0075774192810059,0.11663106828927994,0.044511839747428894,0.19184157252311707
1749031253.2227383,-3.2852657477008265,-2.436784883538717,-1.6627676486968994,5.721799838333883,-1.044966999684469,-4.504283730183737,0.12873083353042603,0.062041670083999634,0.052036359906196594,-0.2607823610305786,0.036485083401203156,0.018797125667333603,0.4488604962825775,1.8762530088424683,1.0140020847320557,0.12446779012680054,0.058129966259002686,0.19938303530216217
1749031253.2227752,-3.2850053946124476,-2.4366680584349574,-1.66269052028656,5.721277105599203,-1.0448949972735804,-4.504249397908346,0.131624236702919,0.05824070796370506,0.05381487309932709,-0.26621004939079285,0.038376860320568085,0.019669190049171448,0.494001567363739,1.9800878763198853,1.0083123445510864,0.10277099162340164,0.044265151023864746,0.1959509700536728
1749031253.2228122,-3.2847309748279017,-2.4365297756590785,-1.6625633239746094,5.720756399422445,-1.0447948614703577,-4.504218165074484,0.13347773253917694,0.06016157194972038,0.0550457127392292,-0.2651005685329437,0.038687724620103836,0.019406406208872795,0.4061627984046936,1.9428744316101074,0.977219820022583,0.1093454584479332,0.04114893823862076,0.18542374670505524
1749031253.2228487,-3.284400765095846,-2.4364634952940882,-1.6624749898910522,5.720191347389974,-1.0447056929217737,-4.504155222569601,0.13346171379089355,0.060608282685279846,0.05166609585285187,-0.26831722259521484,0.038639891892671585,0.02020246721804142,0.447786808013916,1.9562182426452637,1.0198293924331665,0.10694748163223267,0.026013918220996857,0.19026845693588257
1749031253.2228856,-3.2841647307025355,-2.436296125451559,-1.6623600721359253,5.719643461495199,-1.0446746985064905,-4.504099551831381,0.1306440681219101,0.061274852603673935,0.052930496633052826,-0.26911887526512146,0.03731333464384079,0.020123081281781197,0.468415230512619,1.9192622900009155,1.0278793573379517,0.1099744439125061,0.025916583836078644,0.1863989681005478
1749031253.2229226,-3.2839117685901087,-2.4361850223936976,-1.662264347076416,5.719130742340841,-1.0445688406573694,-4.504070822392599,0.13336747884750366,0.05977586656808853,0.05461100488901138,-0.27018365263938904,0.03626581281423569,0.019765112549066544,0.4187381863594055,2.0017623901367188,1.0042147636413574,0.1297791451215744,0.04647701978683472,0.19122110307216644
1749031253.2229602,-3.2836392561541956,-2.436080118218893,-1.6621488332748413,5.718575823097982,-1.0445283094989222,-4.504046384488241,0.1330411434173584,0.06079496070742607,0.05497658625245094,-0.27215129137039185,0.036953091621398926,0.020670641213655472,0.45824089646339417,1.9941647052764893,0.9835146069526672,0.12607011198997498,0.046016376465559006,0.18865549564361572
1749031253.222997,-3.28337532678713,-2.435939451257223,-1.662068247795105,5.718027341156759,-1.0444634596454065,-4.504005614911215,0.1335006207227707,0.061230748891830444,0.0523090735077858,-0.2747669517993927,0.03748227655887604,0.021731508895754814,0.4682328701019287,1.996233344078064,1.0213072299957275,0.11992134153842926,0.034723371267318726,0.17823198437690735
1749031253.223126,-3.2830963770495813,-2.435831686059469,-1.6619172096252441,5.71745656707839,-1.0443843046771448,-4.503953997288839,0.13596400618553162,0.06118954345583916,0.054514650255441666,-0.27716755867004395,0.0383656769990921,0.02008541114628315,0.46406930685043335,1.9919135570526123,1.0340946912765503,0.13957200944423676,0.03436055779457092,0.2154891937971115
1749031253.2251465,-3.282811943684713,-2.435665269891256,-1.6618248224258423,5.716911780625143,-1.0443232695208948,-4.503936592732565,0.1360374242067337,0.0616699643433094,0.05630982294678688,-0.2803483009338379,0.03811207786202431,0.020823149010539055,0.4573017656803131,1.986035943031311,1.0079611539840698,0.16754654049873352,0.028919387608766556,0.1856590211391449
1749031253.2662702,-3.282532517110006,-2.4355794392027796,-1.6617175340652466,5.716362464218893,-1.0441859404193323,-4.503888909016744,0.13584227859973907,0.06116662546992302,0.056584056466817856,-0.27580660581588745,0.038095951080322266,0.020506037399172783,0.4397464096546173,1.9989142417907715,1.0114115476608276,0.1557750403881073,0.04585670679807663,0.2010842263698578
1749031253.2663171,-3.282260243092672,-2.435421129266256,-1.6615979671478271,5.71581398227767,-1.0441139380084437,-4.503852669392721,0.13735751807689667,0.06142256408929825,0.056624364107847214,-0.2756137549877167,0.0373586043715477,0.020664138719439507,0.4454854130744934,1.9936401844024658,1.0076549053192139,0.1583515852689743,0.04890073835849762,0.20631098747253418
1749031253.2663586,-3.2819419542895716,-2.435305257836813,-1.6614713668823242,5.715274560242452,-1.0440853277789515,-4.503766957913534,0.1385076344013214,0.06261906027793884,0.05752018839120865,-0.2708890438079834,0.038403213024139404,0.02122418023645878,0.41619738936424255,1.9813469648361206,0.9965245723724365,0.1060543954372406,0.009266369044780731,0.18977680802345276
1749031253.2663984,-3.281696621571676,-2.435207029382223,-1.6613396406173706,5.714703309326925,-1.0439861456500452,-4.5037376324283045,0.1411137729883194,0.06242971494793892,0.05771234631538391,-0.270887166261673,0.03943406045436859,0.020924251526594162,0.378142774105072,1.990867018699646,0.9807409048080444,0.0654580146074295,0.03506392613053322,0.18987828493118286
1749031253.2664373,-3.28138238588442,-2.4350091419615687,-1.6612508296966553,5.714179503708639,-1.0439451376544397,-4.503720585499899,0.13606011867523193,0.06306411325931549,0.0575135201215744,-0.27582165598869324,0.03824901208281517,0.021563591435551643,0.4448946416378021,1.964788794517517,0.9895222783088684,0.09247706830501556,0.034993141889572144,0.1893952190876007
1749031253.2664752,-3.2811411062823694,-2.434928079644674,-1.6611436605453491,5.71364306190566,-1.0438035170184534,-4.503662053738729,0.13743114471435547,0.06422127783298492,0.057320792227983475,-0.27931472659111023,0.038265153765678406,0.022423358634114265,0.4105028510093689,1.9670761823654175,0.9831144213676453,0.06734214723110199,0.0143938809633255,0.17257753014564514
1749031253.2665138,-3.280806843434469,-2.4347883663573207,-1.6609890460968018,5.713072407036581,-1.0437896887408655,-4.5036179463015955,0.13897693157196045,0.06303795427083969,0.05799814686179161,-0.282407283782959,0.037279464304447174,0.021775849163532257,0.42289412021636963,1.9877676963806152,0.9729433059692383,0.12142474949359894,0.05718403309583664,0.19219428300857544
1749031253.2665517,-3.280541721974508,-2.4346443615355433,-1.6608917713165283,5.712523567467489,-1.043711010609762,-4.503584567700521,0.13912180066108704,0.0654173493385315,0.058215562254190445,-0.2828315794467926,0.03608061745762825,0.022257734090089798,0.3696106970310211,1.9567946195602417,0.9666959643363953,0.1191566213965416,0.07166491448879242,0.18124458193778992
1749031253.2665894,-3.280274216328756,-2.4345365963377894,-1.6607846021652222,5.711963581829824,-1.0436275641070765,-4.503493730221884,0.13746802508831024,0.06885780394077301,0.05783652141690254,-0.282833993434906,0.03736239671707153,0.021193549036979675,0.3928011655807495,1.9121170043945312,0.9794411659240723,0.12077908217906952,0.05645883083343506,0.1997426599264145
1749031253.2666273,-3.279990021382467,-2.434404035607809,-1.6606215238571167,5.711380529194631,-1.0435708204852503,-4.503461543713705,0.13930679857730865,0.06558225303888321,0.05787056311964989,-0.2811599373817444,0.03882499411702156,0.021058721467852592,0.3578045070171356,1.927548885345459,0.9780506491661072,0.10401573777198792,0.057334065437316895,0.1940026879310608
1749031253.2666645,-3.2796829382525843,-2.4342481098570765,-1.6605361700057983,5.710788953095236,-1.043490235005514,-4.503428522740499,0.14245620369911194,0.06646326184272766,0.058271825313568115,-0.2816851735115051,0.03806320205330849,0.022480513900518417,0.3793131113052368,1.914005994796753,0.9542707204818726,0.09550236910581589,0.05595993995666504,0.18241189420223236
1749031253.2667015,-3.2794347445117396,-2.434138914147848,-1.6604100465774536,5.710239875107565,-1.0434067885028284,-4.503389064465658,0.13776199519634247,0.0705036148428917,0.05712536722421646,-0.28155338764190674,0.03801366686820984,0.021026361733675003,0.41924262046813965,1.8846081495285034,0.9521123766899109,0.0977252870798111,0.045228078961372375,0.1775917112827301
1749031253.2667382,-3.279146734868185,-2.433956285516256,-1.6602779626846313,5.709644663124838,-1.0433128515826624,-4.503387395535604,0.13753266632556915,0.06737838685512543,0.05616556480526924,-0.2810925245285034,0.03828687593340874,0.021490320563316345,0.4072781801223755,1.8609637022018433,0.9638161063194275,0.11542688310146332,0.044004887342453,0.1786450296640396
1749031253.266775,-3.2788589636432093,-2.433850427667135,-1.66018545627594,5.709072756558218,-1.043250862752096,-4.503323856984274,0.1388787031173706,0.06766124069690704,0.0570937804877758,-0.2826492488384247,0.038439080119132996,0.021938364952802658,0.3910003900527954,1.8878477811813354,0.9695712327957153,0.13585124909877777,0.05572780966758728,0.17613357305526733
1749031253.2668116,-3.2785821596728724,-2.4337264500060023,-1.6600594520568848,5.708490717201986,-1.0431912581073206,-4.503265921269552,0.1399163007736206,0.06713371723890305,0.05454105883836746,-0.2799716293811798,0.03890521079301834,0.02131425216794014,0.3833586275577545,1.8935407400131226,0.9852921962738037,0.14066830277442932,0.05184033513069153,0.18117837607860565
1749031253.2668483,-3.2782555262195032,-2.4335910282530726,-1.6599239110946655,5.70794968584136,-1.0430730024920862,-4.503193442021505,0.14063511788845062,0.06663250923156738,0.055313870310783386,-0.2788580358028412,0.03943287208676338,0.02201693132519722,0.3869171440601349,1.859493613243103,0.9811365008354187,0.12221819162368774,0.041481196880340576,0.18364182114601135
