nimar13/UR3e_dataset_trayectorias/trayectorias_ejecutadas/jtraj/trayectoria_153_result.csv
timestamp,q1,q2,q3,q4,q5,q6,qd1,qd2,qd3,qd4,qd5,qd6,tau1,tau2,tau3,tau4,tau5,tau6
1749029303.2702723,-0.5539172331439417,-0.5090337556651612,-0.9885880947113037,-2.116779943505758,-4.089285198842184,-0.1321471373187464,-0.0005767185939475894,0.00030194324790500104,-0.005554188508540392,-0.0024936730042099953,-0.01793115772306919,-0.00044030873687006533,-0.3307754397392273,-0.6995996236801147,0.038932204246520996,0.3872483968734741,-0.08276200294494629,-0.14439988136291504
1749029303.2703195,-0.5539138952838343,-0.5090138477138062,-0.9886153936386108,-2.1167947254576625,-4.089293543492452,-0.132150952016012,-0.0005211369134485722,0.0002479178365319967,-0.003996845800429583,-0.0018629288533702493,-0.016718482598662376,-0.00041490475996397436,-0.33221760392189026,-0.7048468589782715,0.04120955988764763,0.39555639028549194,-0.09059521555900574,-0.14137837290763855
1749029303.270359,-0.5538900534259241,-0.5090021652034302,-0.988639235496521,-2.116772790948385,-4.089303318654196,-0.13218194643129522,-0.00052900385344401,-5.043551209382713e-05,-0.0027163021732121706,-0.001475529745221138,-0.014565014280378819,-0.00039228214882314205,-0.31961292028427124,-0.7223923206329346,0.03102513961493969,0.4033847451210022,-0.08648309111595154,-0.15045484900474548
1749029303.2704,-0.553936783467428,-0.5090068143657227,-0.9886015057563782,-2.1167637310423792,-4.089343372975485,-0.13213998476137334,-0.0005093534709885716,-0.0002397815405856818,-0.00214876770041883,-0.0012209105771034956,-0.012175843119621277,-0.0003719944797921926,-0.3026859760284424,-0.7091374397277832,0.04878314957022667,0.41222482919692993,-0.10240389406681061,-0.14830662310123444
1749029303.2704377,-0.5538900534259241,-0.5089984697154541,-0.988620400428772,-2.1167947254576625,-4.0893970171557825,-0.13215905824770147,-0.0004714534734375775,-0.0002967862819787115,-0.0017412122106179595,-0.0010419345926493406,-0.010671447031199932,-0.0003536982403602451,-0.31254905462265015,-0.7200396060943604,0.0725361704826355,0.43965303897857666,-0.071923166513443,-0.1528628170490265
1749029303.2704759,-0.5538862387286585,-0.5090347093394776,-0.988632321357727,-2.1167766056456507,-4.089414421712057,-0.1321623961078089,-0.00043862598249688745,-0.0003487966023385525,-0.001406268565915525,-0.0009091441170312464,-0.008941124193370342,-0.00033712704316712916,-0.3372155427932739,-0.726945161819458,0.07057825475931168,0.41956961154937744,-0.03539013862609863,-0.15466360747814178
1749029303.2705133,-0.553863827382223,-0.508975939159729,-0.988623857498169,-2.1167637310423792,-4.089410607014791,-0.13209706941713506,-0.0004499312781263143,-0.0007926991092972457,-0.001175826764665544,-0.0008065731963142753,-0.005637684836983681,-0.0002673370181582868,-0.29141712188720703,-0.7213318347930908,0.08587242662906647,0.4254903197288513,-0.013090312480926514,-0.1489226073026657
1749029303.2705543,-0.5539024511920374,-0.5090384048274537,-0.9886511564254761,-2.1167451343932093,-4.0894179979907435,-0.13213998476137334,-0.00043982546776533127,-0.0009856666438281536,-0.0010102232918143272,-0.0007249607006087899,-0.0030217436142265797,-0.0002374083414906636,-0.32585909962654114,-0.7016309499740601,0.09828153997659683,0.4421331286430359,-0.011786311864852905,-0.1367049664258957
1749029303.2705927,-0.5539205710040491,-0.5090537828258057,-0.9886511564254761,-2.116779943505758,-4.08947998682131,-0.1321471373187464,-0.0003579652984626591,-0.0008478207746520638,-0.0007906638784334064,-0.0006123633938841522,-0.0015658122720196843,-0.00022283672296907753,-0.3023548126220703,-0.7355250120162964,0.10678136348724365,0.43226683139801025,-0.020442649722099304,-0.1372877061367035
1749029303.2706308,-0.5539262930499476,-0.5089960855296631,-0.988635778427124,-2.116767545739645,-4.0894179979907435,-0.1321352163897913,-0.0003091648977715522,-0.0008420106023550034,-0.0006909067160449922,-0.0005340906209312379,-0.0008600363507866859,-0.00021184053912293166,-0.3195509612560272,-0.7423984408378601,0.08924899250268936,0.44995641708374023,0.01408223807811737,-0.14514310657978058
1749029303.2706683,-0.5539487043963831,-0.5090031188777466,-0.988620400428772,-2.1167766056456507,-4.089382712041036,-0.13215905824770147,-0.00034627391141839325,-0.000825286959297955,-0.0006265314295887947,-0.00048794178292155266,-5.530022826860659e-05,-0.00020222258171997964,-0.3518381714820862,-0.7676690816879272,0.11129235476255417,0.4431067705154419,0.027833014726638794,-0.13982942700386047
1749029303.270706,-0.553929630910055,-0.5090229076198121,-0.9886511564254761,-2.116779943505758,-4.089414421712057,-0.1321352163897913,-0.0003784843720495701,-0.0007756015402264893,-0.00020946016593370587,-0.0004520207003224641,0.0005998783162795007,-0.00019350710499566048,-0.3193168342113495,-0.7542791962623596,0.1240324154496193,0.4436180591583252,0.048188745975494385,-0.13747763633728027
1749029303.2707434,-0.5539239088641565,-0.5090229076198121,-0.988623857498169,-2.116791387597555,-4.089368168507711,-0.1321352163897913,-0.00039348448626697063,-0.0007095637847669423,-0.00010644488065736368,-0.00032273546094074845,0.0021840562112629414,-0.0001855225709732622,-0.3363637328147888,-0.766790509223938,0.12916529178619385,0.4632481336593628,0.05039685219526291,-0.1394244283437729
1749029303.27078,-0.553929630910055,-0.5090031188777466,-0.988642692565918,-2.116779943505758,-4.089351717625753,-0.13213140169252569,-0.00038760481402277946,-0.000734604021999985,-4.059204366058111e-05,-0.00015358687960542738,0.0037431337404996157,-0.00017817021580412984,-0.3105270266532898,-0.7701680660247803,0.13114866614341736,0.46708303689956665,0.04946935176849365,-0.13065840303897858
1749029303.2708204,-0.5539415518390101,-0.5090418618968506,-0.9886307716369629,-2.116791387597555,-4.089370791112081,-0.1321628729449671,-0.0006877980777062476,-0.0006476466660387814,-2.6503703338676132e-06,-0.00011778892803704366,0.0039624180644750595,-0.00017138259136117995,-0.3533022105693817,-0.773289680480957,0.1316644847393036,0.46413516998291016,0.054819926619529724,-0.1350293755531311
1749029303.2708588,-0.5539520422564905,-0.5089984697154541,-0.9886084794998169,-2.116783758203024,-4.089386288319723,-0.1321781317340296,-0.0007386107463389635,-0.0005782617372460663,-1.7305023902736139e-07,-0.00010623496928019449,0.003257062751799822,-0.00016509232227690518,-0.3062216639518738,-0.7916710376739502,0.13931897282600403,0.46860426664352417,0.08878722786903381,-0.1549893170595169
1749029303.2708962,-0.5539448896991175,-0.5090068143657227,-0.9886153936386108,-2.1168018780150355,-4.089374367390768,-0.132150952016012,-0.0007344854529947042,-0.0005223061889410019,-1.1298945779003589e-08,-9.953854168998078e-05,0.0026511065661907196,-0.00015924574108794332,-0.3322102129459381,-0.785666286945343,0.1400756984949112,0.46322840452194214,0.08537749946117401,-0.1439329832792282
1749029303.2709334,-0.5539448896991175,-0.5090068143657227,-0.9886000156402588,-2.116791387597555,-4.089374367390768,-0.13212806383241826,-0.0007523478125222027,-0.00047622673446312547,-7.37740424305855e-10,-9.418046829523519e-05,0.0021710372529923916,-0.0001538022916065529,-0.34682607650756836,-0.7981222867965698,0.13849233090877533,0.46463966369628906,0.10543263703584671,-0.15530085563659668
1749029303.2709708,-0.5539415518390101,-0.5090139669230958,-0.9886000156402588,-2.1167637310423792,-4.089343372975485,-0.13215905824770147,-0.0008880865061655641,-0.0004376223951112479,0.0015020298305898905,-8.94677868927829e-05,0.0020804048981517553,-0.000148717692354694,-0.33349722623825073,-0.7591632008552551,0.12409650534391403,0.4720478057861328,0.11461127549409866,-0.13957014679908752
1749029303.2710083,-0.5539138952838343,-0.5090418618968506,-0.9885846376419067,-2.116751810113424,-4.089362446461813,-0.1321662108050745,-0.0011097121750935912,-0.00040480835014022887,0.0016247155144810677,-8.522460120730102e-05,0.0023447759449481964,-0.00014395706239156425,-0.3492785394191742,-0.7878837585449219,0.13164904713630676,0.4612239599227905,0.0965898260474205,-0.13382330536842346
1749029303.27118,-0.5539568106280726,-0.5090264838984986,-0.9885915517807007,-2.116787096063131,-4.089377943669454,-0.1321628729449671,-0.0011084035504609346,-0.00037657315260730684,0.0015264132525771856,-4.821426409762353e-05,0.002855725819244981,-0.00013949436834082007,-0.3492084741592407,-0.7766847014427185,0.12581278383731842,0.45486873388290405,0.10890503227710724,-0.12942831218242645
1749029303.2731357,-0.5539401213275355,-0.5090103906444092,-0.9885637760162354,-2.116767545739645,-4.089335028325216,-0.13215524355043584,-0.0017710324609652162,-0.0003520204918459058,0.0014171090442687273,-4.025358794024214e-05,0.0030058191623538733,-0.00013529902207665145,-0.33554473519325256,-0.800603985786438,0.1161261647939682,0.4607325792312622,0.11581690609455109,-0.14938826858997345
1749029303.314282,-0.5539382139789026,-0.5090068143657227,-0.9885761737823486,-2.116787096063131,-4.089342419301168,-0.13213998476137334,-0.0016771837836131454,-0.00033047382021322846,0.0012598845642060041,-3.7543919461313635e-05,0.003068826859816909,-0.00013134750770404935,-0.34905168414115906,-0.7984193563461304,0.12461907416582108,0.4503474235534668,0.11632795631885529,-0.1282588243484497
1749029303.3143284,-0.5539382139789026,-0.5089948934367676,-0.988560140132904,-2.1167642078795375,-4.089338604603903,-0.1321628729449671,-0.001762785715982318,-0.0003114135470241308,0.001116852043196559,-6.63440414427896e-06,0.0032612623181194067,-0.00012762243568431586,-0.32309529185295105,-0.7903677225112915,0.12746945023536682,0.4655987620353699,0.10148526728153229,-0.1452966332435608
1749029303.3143685,-0.5539720694171351,-0.5090103906444092,-0.9885761737823486,-2.116767545739645,-4.089306894932882,-0.13214379945863897,-0.0017052938928827643,-0.00029443178209476173,0.0009527041693218052,-1.1723689112841384e-06,0.0030515887774527073,-0.00012410213821567595,-0.343552827835083,-0.7929097414016724,0.12028736621141434,0.45974236726760864,0.09946515411138535,-0.13925045728683472
1749029303.3144073,-0.5539501349078577,-0.5089758199504395,-0.9885761737823486,-2.1167642078795375,-4.089310709630148,-0.1321781317340296,-0.001680079847574234,-0.00027920701541006565,0.0008275194559246302,-2.0716990434266336e-07,0.0028864601626992226,-0.00013463178765960038,-0.3272278308868408,-0.7941808700561523,0.14330777525901794,0.4754495620727539,0.09691530466079712,-0.1268737018108368
1749029303.3144467,-0.5539501349078577,-0.5090311330607911,-0.9885761737823486,-2.1167832813658656,-4.089338604603903,-0.13215524355043584,-0.0017147512407973409,-0.00026547894231043756,0.0008280020556412637,-3.6609101528028987e-08,0.0026898342184722424,-0.0001393173006363213,-0.3370922803878784,-0.7829725742340088,0.1303040087223053,0.46223151683807373,0.11715300381183624,-0.13168534636497498
1749029303.3144848,-0.554000202809469,-0.5089948934367676,-0.9885915517807007,-2.116783758203024,-4.089298073445455,-0.13212424913515264,-0.002066022716462612,-0.0002530376077629626,0.0007481554639525712,-6.4692122769827165e-09,0.0023517953231930733,-0.00013721920549869537,-0.32268720865249634,-0.774048924446106,0.12081453949213028,0.45883625745773315,0.09368878602981567,-0.13790534436702728
1749029303.3145273,-0.5539773146258753,-0.5090264838984986,-0.9885880947113037,-2.116783758203024,-4.089274470006124,-0.13215524355043584,-0.0021064842585474253,-0.00024171096447389573,0.0006780211115255952,-1.1431776636428026e-09,0.002011252101510763,-0.00013406608195509762,-0.3060327172279358,-0.7559828758239746,0.11864233762025833,0.4583527445793152,0.1107664704322815,-0.14214356243610382
1749029303.3145664,-0.5539463202105921,-0.5090264838984986,-0.9885727167129517,-2.1167637310423792,-4.089365307484762,-0.1321662108050745,-0.002648920053616166,-0.00023135423543862998,0.000619628990534693,-2.0201149086851444e-10,0.0015139715978875756,-0.00013086239050608128,-0.32358700037002563,-0.7646908760070801,0.11792583763599396,0.4681105613708496,0.10793083906173706,-0.14197462797164917
1749029303.3146048,-0.5539773146258753,-0.5089913171580811,-0.9885915517807007,-2.116767545739645,-4.089282576237814,-0.13215905824770147,-0.00259848078712821,-0.0002218493027612567,0.0005704878130927682,-3.569754908339107e-11,0.001145299756899476,-0.000127773528220132,-0.316555380821228,-0.7577812671661377,0.11297158896923065,0.46222883462905884,0.11541593074798584,-0.14274217188358307
1749029303.3146424,-0.553993050252096,-0.5089913171580811,-0.9885880947113037,-2.116779943505758,-4.089329783116476,-0.13215905824770147,-0.0024644259829074144,-0.00021309439034666866,0.0005285717779770494,-6.3081315344881705e-12,0.0010535450419411063,-0.00012482011516112834,-0.33437371253967285,-0.7603487968444824,0.10765844583511353,0.4562598466873169,0.10307364165782928,-0.13593795895576477
1749029303.3146791,-0.5540321508990687,-0.509019212131836,-0.9886069297790527,-2.1167451343932093,-4.089298073445455,-0.13215190569032842,-0.0023408520501106977,-0.00020500394748523831,0.0004923981614410877,-1.1147130310820708e-12,0.000949157343711704,-0.00012200073251733556,-0.30044662952423096,-0.7355349063873291,0.11139897257089615,0.45980995893478394,0.1059144139289856,-0.135335311293602
1749029303.3147159,-0.553993050252096,-0.5090031188777466,-0.9885880947113037,-2.116783758203024,-4.089365307484762,-0.13215905824770147,-0.002082131803035736,-0.00019750585488509387,0.00046086046495474875,-1.9698149632697143e-13,0.0008853536564856768,-0.0001193050411529839,-0.3161777853965759,-0.7536430358886719,0.11252643913030624,0.44996213912963867,0.1158057376742363,-0.13804908096790314
1749029303.314753,-0.553993050252096,-0.5090139669230958,-0.9885880947113037,-2.1167637310423792,-4.089321676884786,-0.1321628729449671,-0.0019501347560435534,-0.0001905367971630767,0.0004331240488681942,-3.480869699467107e-14,0.0007868373650126159,-0.0001167251102742739,-0.3258093595504761,-0.732506513595581,0.11035870760679245,0.4504934549331665,0.1061827763915062,-0.14168308675289154
1749029303.3147902,-0.5539549032794397,-0.5090068143657227,-0.9885761737823486,-2.116767545739645,-4.089301888142721,-0.13217479387392217,-0.0017489262390881777,-0.0001840426994021982,0.0004085359105374664,-6.1510617834024256e-15,0.0007010609260760248,-0.00011425570119172335,-0.3285961151123047,-0.756519079208374,0.11222849041223526,0.4534546732902527,0.0903443768620491,-0.13638490438461304
1749029303.314827,-0.553997818623678,-0.5090347093394776,-0.9885915517807007,-2.1167947254576625,-4.0893181006061,-0.1321662108050745,-0.001672752550803125,-0.00015771333710290492,0.0003865918260999024,-1.086957147146449e-15,0.0006308822194114327,-0.00011188815551577136,-0.3159990906715393,-0.7428033351898193,0.10407410562038422,0.4532815217971802,0.10838564485311508,-0.1347222477197647
1749029303.314864,-0.5539897123919886,-0.5089913171580811,-0.9885915517807007,-2.1167642078795375,-4.089326206837789,-0.13213998476137334,-0.0017033838666975498,-0.0001436735037714243,0.0003668850986286998,-1.9207672483496197e-16,0.0005733459838666022,-0.00010961600492009893,-0.32353007793426514,-0.7321603298187256,0.10714919865131378,0.4489205479621887,0.09861646592617035,-0.15209484100341797
1749029303.3149006,-0.554028336201803,-0.5089995425990601,-0.9886188507080078,-2.116798540154928,-4.0893181006061,-0.1321471373187464,-0.00208497722633183,-0.00013914299779571593,0.00034909145324490964,-3.394197669885175e-17,0.0005253987037576735,-0.00010743540042312816,-0.33557236194610596,-0.7444863319396973,0.09877868741750717,0.45338988304138184,0.10183035582304001,-0.14651188254356384
1749029303.3149378,-0.5539944807635706,-0.5090068143657227,-0.9885915517807007,-2.116767545739645,-4.0893335978137415,-0.13212424913515264,-0.0018961243331432343,-0.00013496879546437413,0.00033294380409643054,-5.997903165234255e-18,0.0004848348908126354,-0.00010533945896895602,-0.3044857978820801,-0.7150077819824219,0.10687338560819626,0.43821418285369873,0.09659567475318909,-0.1304839849472046
1749029303.3149743,-0.5539863745318812,-0.5090138477138062,-0.9885880947113037,-2.116779943505758,-4.089294497166769,-0.13212806383241826,-0.0020930797327309847,-0.00013103843957651407,0.00031822422170080245,-1.0598924716559132e-18,0.0004501377115957439,-0.0001033232401823625,-0.3146083354949951,-0.6905597448348999,0.11565323919057846,0.4269258975982666,0.0677744597196579,-0.11493214964866638
1749029303.3150108,-0.5539792219745081,-0.508979396229126,-0.9885846376419067,-2.116783758203024,-4.089301888142721,-0.13217479387392217,-0.00184643326792866,-0.00010212014603894204,0.0003047516802325845,-1.872940987786808e-19,0.00042006999137811363,-0.00010138359357370064,-0.34129828214645386,-0.6957375407218933,0.13225221633911133,0.4322931170463562,0.08670489490032196,-0.1215805858373642
1749029303.3151224,-0.5540135542498987,-0.5089758199504395,-0.9886034727096558,-2.1167484722533167,-4.089329783116476,-0.13215905824770147,-0.0018077051499858499,-8.213554247049615e-05,0.00029237399576231837,-3.309683078321923e-20,0.00039375724736601114,-9.951502579497173e-05,-0.32198575139045715,-0.6918569803237915,0.1421647071838379,0.4290004372596741,0.09996138513088226,-0.11326664686203003
1749029303.3171232,-0.5540373961078089,-0.5090264838984986,-0.9885880947113037,-2.116814275781149,-4.089282576237814,-0.13217479387392217,-0.0017514845822006464,-7.238289254019037e-05,0.00023912895994726568,-5.848557902836308e-21,0.00037057584268040955,-9.771373152034357e-05,-0.34111177921295166,-0.6794544458389282,0.1565411388874054,0.42495518922805786,0.10829489678144455,-0.1117301881313324
1749029303.3582757,-0.5540249983416956,-0.5089758199504395,-0.9885915517807007,-2.1167832813658656,-4.0893181006061,-0.1321781317340296,-0.0018412132048979402,-7.042126526357606e-05,0.00021730612206738442,-1.0335015908674871e-21,0.00034996765316464007,-9.59772733040154e-05,-0.3296157717704773,-0.7004210948944092,0.15459886193275452,0.42395174503326416,0.07813440263271332,-0.09648388624191284
1749029303.358322,-0.5540478865252894,-0.5089840453914185,-0.9885692596435547,-2.116779943505758,-4.0893054644214075,-0.13215524355043584,-0.0019017026061192155,-6.869903882034123e-05,0.00026343375793658197,-1.8263056394113515e-22,0.0003584303776733577,-8.14109735074453e-05,-0.3437895178794861,-0.6747837066650391,0.15080919861793518,0.414181649684906,0.09115619957447052,-0.09632277488708496
1749029303.3583627,-0.5540340582477015,-0.508979396229126,-0.9885880947113037,-2.1167832813658656,-4.089314285908834,-0.13215905824770147,-0.002407478168606758,5.021410106564872e-05,0.0012142066843807697,-3.2272738239254896e-23,0.0003563179343473166,-6.883709284011275e-05,-0.32400983572006226,-0.6928108930587769,0.1512507200241089,0.4068032503128052,0.11895588040351868,-0.08087882399559021
1749029303.3584023,-0.5540407339679163,-0.5089668792537232,-0.9885601997375488,-2.1167713604369105,-4.0893181006061,-0.13214332262148076,-0.002342402935028076,4.9961956392508e-05,0.0016378655564039946,-5.7029314692064386e-24,0.0003095611173193902,-5.324301673681475e-05,-0.3066805303096771,-0.6905398964881897,0.14767271280288696,0.41861337423324585,0.12629711627960205,-0.0754404366016388
1749029303.3584404,-0.554049317036764,-0.5090068143657227,-0.9885951280593872,-2.116779943505758,-4.089301888142721,-0.13212806383241826,-0.002459173556417227,4.862350397161208e-05,0.0020958916284143925,-1.0077678342675795e-24,0.0002940233680419624,-1.575052556290757e-05,-0.3059937655925751,-0.6953256130218506,0.14991071820259094,0.4107477068901062,0.14651858806610107,-0.08272802829742432
1749029303.3584785,-0.5540526548968714,-0.5090103906444092,-0.988610565662384,-2.116767545739645,-4.089329783116476,-0.13211232820619756,-0.001939344801940024,4.734474350698292e-05,0.0020705878268927336,-1.7808316766020241e-25,0.0009806531015783548,4.6283927076729015e-05,-0.3158237040042877,-0.6983087062835693,0.14697545766830444,0.39997386932373047,0.13414999842643738,-0.07232178747653961
1749029303.3585165,-0.554049317036764,-0.5090068143657227,-0.9885798096656799,-2.1167484722533167,-4.089301888142721,-0.1321471373187464,-0.0018161910120397806,4.6131317503750324e-05,0.001665865769609809,-3.146916219387883e-26,0.002543266862630844,8.642286411486566e-05,-0.3344515860080719,-0.6978579163551331,0.16027626395225525,0.41127586364746094,0.1701112985610962,-0.06404155492782593
1749029303.358554,-0.5540340582477015,-0.5089913171580811,-0.9885761737823486,-2.1167713604369105,-4.089294497166769,-0.13215905824770147,-0.0016513483133167028,4.49785657110624e-05,0.0014317719032987952,-5.5609308917956826e-27,0.004501017741858959,0.0012098755687475204,-0.3292892575263977,-0.681591272354126,0.18180304765701294,0.39998680353164673,0.16958248615264893,-0.0651986300945282
1749029303.3585916,-0.5540249983416956,-0.5089948934367676,-0.9885637760162354,-2.116783758203024,-4.089266125355856,-0.1321662108050745,-0.0015236972831189632,4.3882046156795695e-05,0.001465916633605957,-9.826748429479797e-28,0.005841842852532864,0.0015446953475475311,-0.3198103904724121,-0.6836467981338501,0.16746361553668976,0.41671884059906006,0.1807670295238495,-0.0526147335767746
1749029303.3586295,-0.5540269056903284,-0.5089805883220215,-0.9885761737823486,-2.116779943505758,-4.089281622563497,-0.1321471373187464,-0.001582486554980278,4.283771340851672e-05,0.0015474156243726611,-1.7364895768968526e-28,0.007051208056509495,0.0016007848316803575,-0.3447922468185425,-0.6859356164932251,0.19213561713695526,0.42450377345085144,0.19318044185638428,-0.05485506355762482
1749029303.3586667,-0.554049317036764,-0.5090264838984986,-0.9885672330856323,-2.116760393182272,-4.089235130940573,-0.1321194807635706,-0.0018618045141920447,4.184192948741838e-05,0.0017033549956977367,-3.0685592034882166e-29,0.008546545170247555,0.0016725555760785937,-0.31475305557250977,-0.6811665296554565,0.1959608644247055,0.4112337827682495,0.18672232329845428,-0.05427214503288269
1749029303.3587039,-0.554049317036764,-0.5090103906444092,-0.9885637760162354,-2.1167637310423792,-4.089257780705587,-0.13217002550234014,-0.0018767245346680284,4.089141293661669e-05,0.0026581608690321445,-5.4224659146934536e-30,0.010491185821592808,0.0016142327804118395,-0.3210867643356323,-0.6812361478805542,0.16209618747234344,0.40342503786087036,0.20816785097122192,-0.04165691137313843
1749029303.3587418,-0.5540354887591761,-0.5089948934367676,-0.9885637760162354,-2.1167708835997523,-4.089265171681539,-0.13217479387392217,-0.002066237386316061,3.998310421593487e-05,0.0028210440650582314,-9.582066651010374e-31,0.012717043980956078,0.001698545878753066,-0.3169113099575043,-0.7043870687484741,0.1713733822107315,0.4171631336212158,0.21268558502197266,-0.049278974533081055
1749029303.3587794,-0.554086987172262,-0.508987621670105,-0.9885798096656799,-2.116791387597555,-4.089186970387594,-0.13213140169252569,-0.0018217733595520258,3.9114311221055686e-05,0.0024600764736533165,-1.6932516521899916e-31,0.013699457049369812,0.002015148987993598,-0.3113880753517151,-0.6829094886779785,0.179744690656662,0.4015510678291321,0.20302341878414154,-0.04077300429344177
1749029303.3588166,-0.5540922323810022,-0.5090229076198121,-0.9885637760162354,-2.116783758203024,-4.08916670480837,-0.13212806383241826,-0.0014311352279037237,3.828242188319564e-05,0.0021391338668763638,-2.9921532790929606e-32,0.014917612075805664,0.002287630457431078,-0.3135243058204651,-0.6812793016433716,0.2001650184392929,0.42350566387176514,0.2116313874721527,-0.028608202934265137
1749029303.3588548,-0.5540421644793909,-0.5090103906444092,-0.9885637760162354,-2.1167766056456507,-4.089110438023702,-0.13210040727724248,-0.0011659512529149652,3.748516974155791e-05,0.00204297574236989,-5.2874481604215295e-33,0.016196919605135918,0.002795566339045763,-0.33041486144065857,-0.6729475855827332,0.20895318686962128,0.43138033151626587,0.20957021415233612,-0.032370924949645996
1749029303.3588924,-0.5540421644793909,-0.5090103906444092,-0.9885637760162354,-2.1167766056456507,-4.089110438023702,-0.13210040727724248,-0.0011659512529149652,3.748516974155791e-05,0.00204297574236989,-5.2874481604215295e-33,0.016196919605135918,0.002795566339045763,-0.33041486144065857,-0.6729475855827332,0.20895318686962128,0.43138033151626587,0.20957021415233612,-0.032370924949645996
1749029303.35893,-0.5540660063373011,-0.5090264838984986,-0.9885399341583252,-2.1167947254576625,-4.089066807423727,-0.13215428987611944,-0.0009326694416813552,3.598636976676062e-05,0.0033241298515349627,-1.6510901816153692e-34,0.017597857862710953,0.0037556509487330914,-0.3080223500728607,-0.6910951733589172,0.20465050637722015,0.4274359345436096,0.21879848837852478,-0.029112502932548523
1749029303.358991,-0.5540426413165491,-0.5090103906444092,-0.9885245561599731,-2.1167766056456507,-4.089022223149435,-0.13212329546083623,-0.0008560959249734879,3.528098386595957e-05,0.003820171346887946,-2.9176495861800675e-35,0.017674488946795464,0.0042318436317145824,-0.3368337154388428,-0.6863695383071899,0.1982433944940567,0.43287497758865356,0.2186935693025589,-0.030471593141555786
1749029303.3590627,-0.5540850798236292,-0.5089995425990601,-0.9885245561599731,-2.116798540154928,-4.089029375706808,-0.13214236894716436,-0.0006539851892739534,3.4602788218762726e-05,0.003818747354671359,-5.155792552061256e-36,0.017563151195645332,0.004629859235137701,-0.3372865915298462,-0.6752102971076965,0.20563046634197235,0.43524783849716187,0.2095727175474167,-0.03082232177257538
1749029303.3591828,-0.5540698210345667,-0.5090103906444092,-0.988516092300415,-2.116772790948385,-4.088981691990988,-0.13208371797670537,-0.0006215751054696739,3.3950156648643315e-05,0.003874058835208416,-9.110825588616978e-37,0.016826823353767395,0.0051007079891860485,-0.33133721351623535,-0.6880945563316345,0.22042438387870789,0.4480046033859253,0.2217874675989151,-0.006994575262069702
1749029303.3611224,-0.5540731588946741,-0.5090021652034302,-0.988500714302063,-2.116779943505758,-4.088937584553854,-0.13210755983461553,-0.0007434331928379834,3.332163760205731e-05,0.004718371666967869,-1.609978486385543e-37,0.015937965363264084,0.005447602365165949,-0.33309489488601685,-0.663712739944458,0.2189154028892517,0.45534682273864746,0.22783643007278442,-0.01624162495136261
1749029303.4022825,-0.554061237965719,-0.5090264838984986,-0.988500714302063,-2.1167766056456507,-4.088929478322164,-0.13211137453188115,-0.0015509298536926508,3.2716041459934786e-05,0.005473194643855095,-2.8450010609591817e-38,0.016828566789627075,0.005603361409157515,-0.3430846333503723,-0.6893267035484314,0.20267993211746216,0.45629602670669556,0.2304585576057434,-0.00046008825302124023
1749029303.4023292,-0.554054085408346,-0.508979396229126,-0.9884887933731079,-2.116767545739645,-4.088881794606344,-0.13213044801820928,-0.0016574517358094454,3.213202580809593e-05,0.005628119222819805,-5.027414678384253e-39,0.016645852476358414,0.006280510686337948,-0.341915488243103,-0.6982663869857788,0.20986172556877136,0.46170538663864136,0.22928187251091003,-0.009461954236030579
1749029303.4023693,-0.5540850798236292,-0.5090138477138062,-0.9885112643241882,-2.1167451343932093,-4.088830057774679,-0.1321032683001917,-0.0025504296645522118,3.156849925289862e-05,0.0054876962676644325,-8.883966017111119e-40,0.016588764265179634,0.0069580078125,-0.3299640417098999,-0.6875404715538025,0.22459349036216736,0.4754786491394043,0.24494487047195435,-0.012481093406677246
1749029303.4024084,-0.5540884176837366,-0.5090264838984986,-0.9884833097457886,-2.1167766056456507,-4.088814560567037,-0.1320560614215296,-0.002903479151427746,3.102440314250998e-05,0.005934545304626226,-1.5698886825677358e-40,0.016943102702498436,0.007456022314727306,-0.29977017641067505,-0.6913384199142456,0.2155097872018814,0.48719727993011475,0.25096142292022705,-0.005215376615524292
1749029303.402447,-0.5540941397296351,-0.5089668792537232,-0.9884555339813232,-2.116779943505758,-4.088778797780172,-0.13203555742372686,-0.002605144865810871,3.04987515846733e-05,0.006712183356285095,-2.7741505698238404e-41,0.01849943958222866,0.007907291874289513,-0.32586532831192017,-0.7161983847618103,0.22154809534549713,0.4940875172615051,0.2450188845396042,0.01491972804069519
1749029303.4024856,-0.5541160742389124,-0.508975939159729,-0.9884436130523682,-2.1167713604369105,-4.088745419179098,-0.1320431868182581,-0.002618840429931879,2.9990576877025887e-05,0.007872730493545532,-4.90174202820821e-42,0.018069526180624962,0.008571015670895576,-0.33913660049438477,-0.688494086265564,0.20820137858390808,0.49305790662765503,0.28900909423828125,0.01758718490600586
1749029303.4025233,-0.5541508833514612,-0.5089913171580811,-0.9884316921234131,-2.116783758203024,-4.08871823946108,-0.1320279280291956,-0.0026658615097403526,2.949910231109243e-05,0.007825948297977448,2.0984265574952587e-05,0.018432747572660446,0.008878177031874657,-0.3420722484588623,-0.7064000368118286,0.21364913880825043,0.5033813118934631,0.2788860499858856,0.019316375255584717
1749029303.4025612,-0.5540974775897425,-0.5089948934367676,-0.988419771194458,-2.1167947254576625,-4.088682476674215,-0.13199264207948858,-0.002396426862105727,2.902346386690624e-05,0.007663276046514511,7.02802644809708e-05,0.020359022542834282,0.009191926568746567,-0.3216703534126282,-0.7137696743011475,0.22114260494709015,0.5302844643592834,0.2909033000469208,0.02561730146408081
1749029303.4025989,-0.5541213194476526,-0.5090068143657227,-0.988423228263855,-2.116767545739645,-4.088606659566061,-0.13197547594179326,-0.0024588515516370535,2.856292121578008e-05,0.007770465221256018,0.0001245655003003776,0.021681388840079308,0.009817843325436115,-0.33284562826156616,-0.7124262452125549,0.2439352124929428,0.5401220321655273,0.29878249764442444,0.03879439830780029
1749029303.402637,-0.5541213194476526,-0.5089948934367676,-0.9883924722671509,-2.116751810113424,-4.088591162358419,-0.13196069398988897,-0.0024008494801819324,2.8116764951846562e-05,0.0083171296864748,0.0014195067342370749,0.023768901824951172,0.010412008501589298,-0.3439093828201294,-0.7158858776092529,0.22617901861667633,0.5201370120048523,0.30535852909088135,0.02638298273086548
1749029303.4026744,-0.5541089216815394,-0.508987621670105,-0.9883959293365479,-2.116767545739645,-4.088542286549703,-0.1319640318499964,-0.0025651627220213413,2.76843329629628e-05,0.008314687758684158,0.0020179138518869877,0.02567279525101185,0.010246352292597294,-0.3323448896408081,-0.7068769931793213,0.23803932964801788,0.5466135740280151,0.3205718696117401,0.04547905921936035
1749029303.4027112,-0.5541709105121058,-0.5089948934367676,-0.9883995652198792,-2.116758962670797,-4.088442866002218,-0.1319516340838831,-0.0026528446469455957,2.7264977688901126e-05,0.008299284614622593,0.0024578094016760588,0.027333693578839302,0.010429546236991882,-0.323792040348053,-0.7242891788482666,0.2516860067844391,0.5503405928611755,0.3100140690803528,0.05870577692985535
1749029303.4027529,-0.5541227499591272,-0.5089984697154541,-0.9883562326431274,-2.11675562481069,-4.08842641512026,-0.13194781938661748,-0.0031631088349968195,2.6858186174649745e-05,0.008570035919547081,0.0024395075161010027,0.029615869745612144,0.010932846926152706,-0.3343505263328552,-0.7329939007759094,0.24157331883907318,0.5544254183769226,0.31126028299331665,0.05748113989830017
1749029303.402791,-0.5541918913470667,-0.5090229076198121,-0.9883289337158203,-2.116758962670797,-4.088373009358541,-0.1318886915790003,-0.003222275525331497,2.6463321773917414e-05,0.009439363144338131,0.0023982864804565907,0.031476039439439774,0.011209409683942795,-0.3395808935165405,-0.7406419515609741,0.24197058379650116,0.5681368112564087,0.30304887890815735,0.05633929371833801
1749029303.4028277,-0.5541604200946253,-0.5089758199504395,-0.9883477687835693,-2.1167437038817347,-4.088313643132345,-0.1319039503680628,-0.004137032199651003,1.3449198377202265e-05,0.009249236434698105,0.002729080617427826,0.03316427022218704,0.012322215363383293,-0.3206743597984314,-0.7338759303092957,0.24467132985591888,0.5764738917350769,0.3113401234149933,0.04072405397891998
1749029303.4028645,-0.5541537443744105,-0.508987621670105,-0.9883204698562622,-2.116727968255514,-4.088234249745504,-0.13183719316591436,-0.0036027191672474146,1.2857715773861855e-05,0.009862675331532955,0.003963554743677378,0.034764476120471954,0.012565894052386284,-0.3075217604637146,-0.76164710521698,0.26235532760620117,0.5765427350997925,0.31674572825431824,0.06579171121120453
1749029303.4029014,-0.5542123953448694,-0.508987621670105,-0.9882960319519043,-2.116716524163717,-4.088173691426412,-0.13184100786317998,-0.003091588383540511,1.2672773664235137e-05,0.009875720366835594,0.004690982401371002,0.035468291491270065,0.013146025128662586,-0.3434588313102722,-0.7461751699447632,0.25033193826675415,0.5990782976150513,0.3223179280757904,0.0508899986743927
1749029303.4029386,-0.5541952292071741,-0.5089829725078125,-0.9883155822753906,-2.116692682305807,-4.08810526529421,-0.13180858293642217,-0.002815110143274069,1.2496767340053339e-05,0.00961651187390089,0.004787353798747063,0.03661365807056427,0.013120999559760094,-0.3365204334259033,-0.7401973605155945,0.26129427552223206,0.5817155241966248,0.33195167779922485,0.07550260424613953
1749029303.402976,-0.5541999975787562,-0.5089913171580811,-0.9882569313049316,-2.1166960201659144,-4.088064972554342,-0.1317961851703089,-0.002842667745426297,1.2325622265052516e-05,0.010116692632436752,0.005050573032349348,0.037409696727991104,0.014115161262452602,-0.3234427571296692,-0.7431933879852295,0.26745888590812683,0.5969477891921997,0.3423077464103699,0.06569056212902069
1749029303.4030125,-0.5541814009295862,-0.5090336364558716,-0.9882792234420776,-2.1166960201659144,-4.087966028844015,-0.13177615800966436,-0.0029095823410898447,1.209190827466955e-06,0.010284988209605217,0.005490371957421303,0.03805266320705414,0.014400798827409744,-0.32520079612731934,-0.7621009349822998,0.26108720898628235,0.6010043025016785,0.3524041473865509,0.07057668268680573
1749029303.403232,-0.554176155720846,-0.5090103906444092,-0.9882365465164185,-2.116665025750631,-4.08786660829653,-0.1317523161517542,-0.0030466155149042606,1.1797599341889509e-08,0.01074453629553318,0.005951843690127134,0.04036799445748329,0.013847938738763332,-0.3396303057670593,-0.7591547966003418,0.2718675136566162,0.6104499697685242,0.3535895347595215,0.055141136050224304
1749029303.405117,-0.5542085806476038,-0.5089913171580811,-0.9882127046585083,-2.1166564426817835,-4.0878101030932825,-0.13170177141298467,-0.0035832449793815613,1.1510453701291112e-10,0.011440066620707512,0.006184694357216358,0.04156250134110451,0.013347792439162731,-0.33068668842315674,-0.7843527793884277,0.27325645089149475,0.6248618960380554,0.36474406719207764,0.07874105870723724
1749029303.4463074,-0.5541742483722132,-0.5090264838984986,-0.9881918430328369,-2.1166564426817835,-4.087721888219015,-0.13166600862611944,-0.003316084621474147,1.1230297291067726e-12,0.011427128687500954,0.006237866822630167,0.043123845010995865,0.013072765432298183,-0.33820340037345886,-0.7689375877380371,0.2704288363456726,0.6213040351867676,0.3837650418281555,0.08720020949840546
1749029303.4463542,-0.5542171637164515,-0.5089948934367676,-0.9881799221038818,-2.1166635952391566,-4.087649170552389,-0.13171512285341436,-0.0031667251605540514,1.0956958166566822e-14,0.011537468992173672,0.0065627675503492355,0.04480161890387535,0.013543707318603992,-0.33486202359199524,-0.754828929901123,0.27624958753585815,0.6430449485778809,0.3768436014652252,0.07865853607654572
1749029303.4463985,-0.5541742483722132,-0.5090299409678956,-0.9881485104560852,-2.116636415521139,-4.087576452885763,-0.13166457811464483,-0.0032206482719630003,1.0690271801887496e-16,0.012648706324398518,0.007032093591988087,0.04675638675689697,0.012979520484805107,-0.34566232562065125,-0.8001788854598999,0.2792094051837921,0.6471917033195496,0.3762555718421936,0.0900086909532547
1749029303.4464383,-0.5542243162738245,-0.508979396229126,-0.9881436824798584,-2.1166159115233363,-4.087426726018087,-0.13164121309389287,-0.003708072705194354,1.0430077507997511e-18,0.011669034138321877,0.008072862401604652,0.04853148013353348,0.012944459915161133,-0.3402675986289978,-0.7775120735168457,0.2750023603439331,0.653825581073761,0.36124417185783386,0.09974506497383118
1749029303.4464808,-0.5542290846454065,-0.5089829725078125,-0.988122820854187,-2.1165811024107875,-4.087345902119772,-0.13159400621523076,-0.004049281124025583,1.0176217425903863e-20,0.012028545141220093,0.00967110600322485,0.049786608666181564,0.013600127771496773,-0.33794912695884705,-0.8045012950897217,0.26063692569732666,0.6417907476425171,0.4068416953086853,0.07916060090065002
1749029303.4465194,-0.554244343434469,-0.5090031188777466,-0.988061249256134,-2.116573473016256,-4.087276760731832,-0.1316011587726038,-0.003532957984134555,9.928534564440719e-23,0.0114725511521101,0.010245239362120628,0.051851700991392136,0.014940712600946426,-0.32822147011756897,-0.7984005212783813,0.27117061614990234,0.663810133934021,0.3958074152469635,0.08196163177490234
1749029303.4465573,-0.5542243162738245,-0.5089913171580811,-0.9880340099334717,-2.116545339623922,-4.087161127720968,-0.13156539598573858,-0.0031151040457189083,9.6868796084577e-25,0.011835897341370583,0.01109912060201168,0.05344313383102417,0.015290088020265102,-0.340955525636673,-0.8168262243270874,0.28348228335380554,0.6462996602058411,0.4115045368671417,0.0990925282239914
1749029303.4465947,-0.5542905966388147,-0.5090139669230958,-0.9880359172821045,-2.116521497766012,-4.087065283452169,-0.13155681291689092,-0.0034229359589517117,9.451107541999727e-27,0.01232414785772562,0.010561254806816578,0.05477788299322128,0.01511438749730587,-0.333433598279953,-0.8057178854942322,0.2808530926704407,0.6511071920394897,0.428115576505661,0.09899774193763733
1749029303.446632,-0.5542224089251917,-0.508972243671753,-0.9880269765853882,-2.116497655908102,-4.086968962346212,-0.13152963319887334,-0.004302452318370342,9.221072712031041e-29,0.01238465029746294,0.010559303686022758,0.057510923594236374,0.015656862407922745,-0.3105621337890625,-0.8288366198539734,0.29016047716140747,0.680790364742279,0.43787261843681335,0.10551173985004425
1749029303.4466693,-0.5542596022235315,-0.5089948934367676,-0.988003134727478,-2.116480966607565,-4.086797777806417,-0.1315091292010706,-0.00418349914252758,-0.0005811151931993663,0.01315957959741354,0.010935267433524132,0.05976143479347229,0.01677556149661541,-0.3151305615901947,-0.8477340936660767,0.30136027932167053,0.6732465624809265,0.43014341592788696,0.10835990309715271
1749029303.4467065,-0.5542185942279261,-0.5090103906444092,-0.9879570007324219,-2.116484304467672,-4.08665377298464,-0.1314929167376917,-0.00407002866268158,-0.0007413202547468245,0.01319368276745081,0.011715155094861984,0.061608437448740005,0.016868144273757935,-0.31055137515068054,-0.8454439640045166,0.29659369587898254,0.6883863210678101,0.43390023708343506,0.11280116438865662
1749029303.4467432,-0.5542271772967737,-0.5090068143657227,-0.987932562828064,-2.116460462609762,-4.086600128804342,-0.13142663637270147,-0.004587696865200996,-0.0024160631000995636,0.013709594495594501,0.012018955312669277,0.06355821341276169,0.016895387321710587,-0.3184583783149719,-0.8566508293151855,0.2937260866165161,0.6715871691703796,0.44043129682540894,0.10713663697242737
1749029303.4467802,-0.5542495886432093,-0.508987621670105,-0.9879052042961121,-2.116429468194479,-4.086448256169454,-0.13140994707216436,-0.0051305280067026615,-0.0025951212737709284,0.013506577350199223,0.011689873412251472,0.06714604794979095,0.01818014495074749,-0.3366536498069763,-0.8604925870895386,0.2942773103713989,0.6914207935333252,0.4160728454589844,0.1031661331653595
1749029303.446817,-0.5542891661273401,-0.5090121787837525,-0.9879088401794434,-2.116394182244772,-4.086304251347677,-0.13142091432680303,-0.005230171140283346,-0.002068044152110815,0.014113867655396461,0.011804761365056038,0.06909189373254776,0.01898706518113613,-0.35741662979125977,-0.8758959770202637,0.29915595054626465,0.6860790848731995,0.39210373163223267,0.10229405760765076
1749029303.446854,-0.5542925039874476,-0.5090382856181641,-0.98786461353302,-2.1164008579649867,-4.0861292521106165,-0.1313689390765589,-0.004946715664118528,-0.0016151065938174725,0.01416158676147461,0.011962867341935635,0.06861567497253418,0.017795657739043236,-0.3305422067642212,-0.8754171133041382,0.3061356842517853,0.6881134510040283,0.4061833918094635,0.12854550778865814
1749029303.4468913,-0.5542963186847132,-0.5090068143657227,-0.9878485798835754,-2.116361757318014,-4.085984770451681,-0.13131744066347295,-0.004761858843266964,-0.0014728691894561052,0.015099680982530117,0.012365221045911312,0.06893108040094376,0.019474364817142487,-0.33578675985336304,-0.8862830400466919,0.303182989358902,0.6858544945716858,0.4097723066806793,0.1106528639793396
1749029303.446935,-0.5542753378497522,-0.509019212131836,-0.9878125190734863,-2.1163345775999964,-4.085852686558859,-0.13128501573671514,-0.004947202745825052,-0.0013305285247042775,0.014881279319524765,0.0126486886292696,0.07263342291116714,0.01994558423757553,-0.35022658109664917,-0.8948767185211182,0.31038302183151245,0.6761534214019775,0.4000903367996216,0.12371218204498291
1749029303.4470031,-0.5543130079852503,-0.5090031188777466,-0.9877732992172241,-2.1163140736021937,-4.085715834294454,-0.13124543825258428,-0.005089819431304932,-0.002889974508434534,0.015123853459954262,0.012299183756113052,0.07273977994918823,0.018770305439829826,-0.34461891651153564,-0.9046275019645691,0.30845677852630615,0.6989073157310486,0.4122812747955322,0.10713852196931839
1749029303.4470727,-0.5543177763568323,-0.5090359014323731,-0.9877488613128662,-2.116274972955221,-4.085595909749166,-0.13122159639467412,-0.005131918471306562,-0.003928873687982559,0.014713672921061516,0.011821933090686798,0.0755985826253891,0.019482167437672615,-0.3348281979560852,-0.9059767127037048,0.3004797399044037,0.6989174485206604,0.4021233320236206,0.1252594292163849
1749029303.4471176,-0.5543368498431605,-0.5090513986400147,-0.9877285957336426,-2.1162625751891078,-4.085447613392965,-0.1311896483050745,-0.005147900432348251,-0.003561384277418256,0.015879616141319275,0.011836075223982334,0.07694447040557861,0.019930947571992874,-0.33495470881462097,-0.8872161507606506,0.3098650574684143,0.7107759118080139,0.3964833617210388,0.13204151391983032
1749029303.4472153,-0.5543525854693812,-0.5090466302684327,-0.9876893162727356,-2.116234918633932,-4.085278336201803,-0.13113481203188115,-0.005415552295744419,-0.0028963456861674786,0.01580059342086315,0.012319162487983704,0.07566706836223602,0.019592367112636566,-0.3317558765411377,-0.9099668860435486,0.2998806834220886,0.6940165162086487,0.39485934376716614,0.13001105189323425
1749029303.4491708,-0.554385010396139,-0.5090668958476563,-0.9876843690872192,-2.1162458858885707,-4.085084263478414,-0.13107568422426397,-0.005658484995365143,-0.003886179765686393,0.015913961455225945,0.012230096384882927,0.0748574361205101,0.0209383275359869,-0.3370765745639801,-0.9275107979774475,0.32031726837158203,0.7175081968307495,0.4348856806755066,0.13407152891159058
1749029303.490276,-0.5543697516070765,-0.5091174405864258,-0.9876635074615479,-2.1161943874754847,-4.084915939961569,-0.13105422655214483,-0.0049779885448515415,-0.0047395359724760056,0.016320640221238136,0.01245646271854639,0.0775621235370636,0.02084735408425331,-0.31732478737831116,-0.9184501767158508,0.3502989411354065,0.7100474834442139,0.43727436661720276,0.13168984651565552
1749029303.490322,-0.5543764273272913,-0.5090585511973877,-0.9876054525375366,-2.1161633930602015,-4.084799114857809,-0.13100988069643194,-0.0048471493646502495,-0.004508777055889368,0.01701071858406067,0.012087990529835224,0.08012498915195465,0.020647887140512466,-0.3365829885005951,-0.9133421778678894,0.3231832981109619,0.7370652556419373,0.4379103183746338,0.1275593787431717
1749029303.4903626,-0.5543816725360315,-0.5090757173350831,-0.9875850677490234,-2.116131444970602,-4.0846620241748255,-0.13094789186586553,-0.005537644028663635,-0.004336729645729065,0.017943626269698143,0.012868695892393589,0.08077458292245865,0.021277621388435364,-0.3257506191730499,-0.9243468642234802,0.331270307302475,0.7103473544120789,0.43128064274787903,0.13411033153533936
1749029303.4904013,-0.5543363730060022,-0.5090596240809937,-0.9875606298446655,-2.116110940972799,-4.084470812474386,-0.1309416929828089,-0.005541383754462004,-0.004753770772367716,0.017295053228735924,0.013268469832837582,0.08203486353158951,0.021183401346206665,-0.34561222791671753,-0.9296673536300659,0.3318336606025696,0.7221825122833252,0.44601166248321533,0.13480398058891296
1749029303.4904397,-0.5544241110431116,-0.5091067117503663,-0.9875125885009766,-2.116079946557516,-4.08428675333132,-0.13087112108339483,-0.0055139255709946156,-0.004834186751395464,0.017794720828533173,0.01305962074548006,0.08374571055173874,0.021318426355719566,-0.3220883011817932,-0.9482489824295044,0.3407665491104126,0.7283948659896851,0.4460859000682831,0.12412208318710327
1749029303.4904776,-0.5544059912310999,-0.5090840619853516,-0.9874727725982666,-2.1160479984679164,-4.084177557622091,-0.13080054918398076,-0.005116100888699293,-0.005143903661519289,0.01846061833202839,0.012589325197041035,0.08569511771202087,0.02140628732740879,-0.34555861353874207,-0.9189049005508423,0.34393173456192017,0.7112083435058594,0.42620429396629333,0.14868523180484772
1749029303.49052,-0.5544365088092249,-0.509149507885315,-0.9874643087387085,-2.1160322628416957,-4.084008280430929,-0.13077861467470342,-0.004701321013271809,-0.005835261661559343,0.019249621778726578,0.012479821220040321,0.08787229657173157,0.0212128683924675,-0.3628397583961487,-0.9442716836929321,0.34135687351226807,0.7370819449424744,0.44364672899246216,0.15869814157485962
1749029303.4905586,-0.5544174353228968,-0.5091186326793213,-0.9874236583709717,-2.1160084209837855,-4.083789412175314,-0.13072759309877569,-0.0051182047463953495,-0.005751004908233881,0.019881654530763626,0.014502269215881824,0.09014854580163956,0.02211695909500122,-0.33837562799453735,-0.9352856874465942,0.33163225650787354,0.7248921394348145,0.4241279363632202,0.14727365970611572
1749029303.490596,-0.5544603506671351,-0.5091079038432618,-0.9873874187469482,-2.1159726581969203,-4.083611075078146,-0.13067990938295537,-0.005551139824092388,-0.006036252249032259,0.019588226452469826,0.01399527583271265,0.0910097137093544,0.02157730609178543,-0.3438835144042969,-0.9505118131637573,0.34360769391059875,0.7473300695419312,0.42741236090660095,0.15840622782707214
1749029303.4906337,-0.5544880072223108,-0.5091459316066285,-0.987332820892334,-2.115955492059225,-4.083449904118673,-0.13066274324526006,-0.005584425758570433,-0.005282275844365358,0.019586464390158653,0.014247935265302658,0.09453342854976654,0.021961363032460213,-0.32854947447776794,-0.9563693404197693,0.3622306287288666,0.7447637319564819,0.4206976890563965,0.13811954855918884
1749029303.490675,-0.5545004049884241,-0.5091554683497925,-0.987281084060669,-2.1159054241576136,-4.083226029072897,-0.1305759588824671,-0.005608697421848774,-0.005508310627192259,0.020217014476656914,0.014154634438455105,0.09666911512613297,0.023493429645895958,-0.31598320603370667,-0.9794854521751404,0.3469903767108917,0.7542563676834106,0.3895455300807953,0.12691767513751984
1749029303.4907138,-0.5545185248004358,-0.5091353219798584,-0.9872517585754395,-2.1158887348570765,-4.08305007616152,-0.1305320898639124,-0.005362239200621843,-0.005448122508823872,0.020186778157949448,0.014986704103648663,0.09381040930747986,0.023447543382644653,-0.36748847365379333,-0.9921587109565735,0.3624725639820099,0.7415391206741333,0.41069525480270386,0.13014264404773712
1749029303.4907513,-0.5544794241534632,-0.5091627401164551,-0.9872126579284668,-2.1158648929991664,-4.082850519810812,-0.13049632707704717,-0.005172119941562414,-0.005890451371669769,0.02049553208053112,0.015250281430780888,0.09451636672019958,0.023609373718500137,-0.3489386737346649,-0.9788981080055237,0.3534110486507416,0.757529616355896,0.4182257652282715,0.12707781791687012
1749029303.490788,-0.5545442740069788,-0.5091715616038819,-0.9871574640274048,-2.115829130212301,-4.082674090062277,-0.13045198122133428,-0.005731293931603432,-0.006048981100320816,0.021274033933877945,0.016088567674160004,0.09755502641201019,0.022923428565263748,-0.34743326902389526,-0.9753598570823669,0.35625213384628296,0.7545374631881714,0.4201089143753052,0.14232921600341797
1749029303.4908283,-0.5545170942889612,-0.5092263978770752,-0.9871714115142822,-2.115805288354391,-4.082532231007711,-0.13040429750551397,-0.005821037571877241,-0.005952261388301849,0.021520335227251053,0.01635437272489071,0.1000325158238411,0.021847618743777275,-0.3280205726623535,-0.9734690189361572,0.3545665740966797,0.7466854453086853,0.4130823612213135,0.1376538872718811
1749029303.4908662,-0.5545170942889612,-0.509195403461792,-0.9871196746826172,-2.115742345849508,-4.08229643503298,-0.13039142290224248,-0.00618403498083353,-0.006100945640355349,0.02192099206149578,0.017230696976184845,0.09850243479013443,0.022517699748277664,-0.34709250926971436,-0.9992386102676392,0.37901967763900757,0.7736722230911255,0.4287348985671997,0.1504688560962677
1749029303.4909034,-0.5545633474933069,-0.5092263978770752,-0.9870686531066895,-2.115725656548971,-4.082116190587179,-0.13035136858095342,-0.00635380856692791,-0.005418409127742052,0.02211184613406658,0.01690385676920414,0.09982100874185562,0.02262226864695549,-0.3455679416656494,-0.9997268915176392,0.3731940686702728,0.7524903416633606,0.4580225348472595,0.16740158200263977
1749029303.4909406,-0.5545647780047815,-0.5092274707606812,-0.9870169162750244,-2.115685602227682,-4.081888739262716,-0.13026553789247686,-0.00545242615044117,-0.006090105045586824,0.022824885323643684,0.016825951635837555,0.10337007790803909,0.023671893402934074,-0.343558669090271,-1.002014398574829,0.3726983666419983,0.7448244690895081,0.42926493287086487,0.15855532884597778
1749029303.490981,-0.5545719305621546,-0.5092192453197022,-0.9869881868362427,-2.115681310693258,-4.081656519566671,-0.13020879427065069,-0.0059862579219043255,-0.006176902446895838,0.02357136458158493,0.017616089433431625,0.1059165820479393,0.02431843802332878,-0.36821120977401733,-0.9988306760787964,0.36836427450180054,0.7681728005409241,0.4227544665336609,0.15761131048202515
1749029303.4910192,-0.5546148459063929,-0.5092429679683228,-0.9869204759597778,-2.115648408929342,-4.081421200429098,-0.13017303148378545,-0.006095841992646456,-0.006568174343556166,0.02371370606124401,0.017628256231546402,0.10642755031585693,0.024619359523057938,-0.3649469316005707,-1.0154353380203247,0.3738938868045807,0.7566904425621033,0.4392726421356201,0.15610110759735107
1749029303.4911358,-0.5545509497271937,-0.5092590612224122,-0.9868577122688293,-2.1155902347960414,-4.081283156071798,-0.13007814088930303,-0.00656207837164402,-0.006875556893646717,0.02350553125143051,0.01788213849067688,0.107465960085392,0.025478806346654892,-0.3314449191093445,-1.0149714946746826,0.37119537591934204,0.7542673945426941,0.4452952444553375,0.15928320586681366
1749029303.4931397,-0.5546353499041956,-0.5092864793590088,-0.9868645668029785,-2.115561624566549,-4.081070963536398,-0.13003379503359014,-0.006331236567348242,-0.006844634655863047,0.024040671065449715,0.019207173958420753,0.10981624573469162,0.025082338601350784,-0.3467165231704712,-1.0316320657730103,0.3932810425758362,0.7501576542854309,0.44395774602890015,0.17210052907466888
1749029303.534289,-0.5546320120440882,-0.5092948240092774,-0.9867925643920898,-2.115513940850729,-4.080838982258932,-0.13000232378114873,-0.006149780470877886,-0.006503087934106588,0.02518066018819809,0.01930910348892212,0.11234478652477264,0.02538129687309265,-0.33899661898612976,-1.0227879285812378,0.384898841381073,0.7614046335220337,0.44589927792549133,0.17298424243927002
1749029303.534338,-0.5546124617206019,-0.5093191427043458,-0.9867596626281738,-2.115485807458395,-4.080604139958517,-0.1299961248980921,-0.0061226338148117065,-0.007245996035635471,0.026183633133769035,0.019270507618784904,0.11412140727043152,0.026310676708817482,-0.3626185655593872,-1.0254261493682861,0.38480380177497864,0.7526905536651611,0.450022429227829,0.18489445745944977
1749029303.53438,-0.5546401182757776,-0.5093067449382325,-0.986700177192688,-2.1154314480223597,-4.080378595982687,-0.12987834612001592,-0.006811473518610001,-0.00738134142011404,0.026585286483168602,0.02064003422856331,0.11625494062900543,0.027705423533916473,-0.34844687581062317,-1.0227220058441162,0.37586474418640137,0.7623050808906555,0.4347658157348633,0.17399713397026062
1749029303.5344195,-0.5546415487872522,-0.5093155664256592,-0.9866632223129272,-2.115379949609274,-4.080118719731466,-0.12985355058778936,-0.007544304244220257,-0.00740313483402133,0.026598433032631874,0.0201066005975008,0.11770990490913391,0.027802538126707077,-0.367898166179657,-1.0533480644226074,0.3905075192451477,0.7625539898872375,0.44125890731811523,0.1573600023984909
1749029303.5344584,-0.5546882788287562,-0.5093392890742798,-0.9865884780883789,-2.1153465710081996,-4.079922024403707,-0.1298125425921839,-0.007070676889270544,-0.007226041052490473,0.026624055579304695,0.01959954760968685,0.11870642751455307,0.02892434224486351,-0.3457639813423157,-1.0574171543121338,0.38814154267311096,0.7824466824531555,0.4296250343322754,0.15450507402420044
1749029303.5345,-0.5546487013446253,-0.5093708795360108,-0.9865437746047974,-2.1153227291502894,-4.079646412526266,-0.12970239320863897,-0.007260576356202364,-0.0083005391061306,0.02749825082719326,0.019610123708844185,0.11822851747274399,0.028634406626224518,-0.36174094676971436,-1.0558438301086426,0.3860647678375244,0.7658185362815857,0.4544094204902649,0.15965692698955536
1749029303.5345395,-0.554699722920553,-0.5093518060496827,-0.9865233898162842,-2.115267892877096,-4.079413954411642,-0.1296771208392542,-0.007912887260317802,-0.00804178137332201,0.027872882783412933,0.019448932260274887,0.12169031798839569,0.03037969209253788,-0.337885320186615,-1.0628728866577148,0.3906363844871521,0.7676897048950195,0.47100603580474854,0.17323273420333862
1749029303.5345788,-0.554727856312887,-0.5093673032573243,-0.9864137768745422,-2.115232130090231,-4.079177443181173,-0.1296451727496546,-0.008020460605621338,-0.00785540696233511,0.02851526252925396,0.019518684595823288,0.12294119596481323,0.030013585463166237,-0.35894495248794556,-1.0732288360595703,0.3865259885787964,0.7787833213806152,0.4353317618370056,0.1832115799188614
1749029303.534616,-0.5547617117511194,-0.5094030660441895,-0.9863688945770264,-2.115199705163473,-4.078906122838156,-0.1295693556415003,-0.007662965450435877,-0.007996338419616222,0.02867373824119568,0.020367195829749107,0.12156254053115845,0.030397603288292885,-0.37889188528060913,-1.080986738204956,0.3844641447067261,0.7689474821090698,0.45246315002441406,0.16575761139392853
1749029303.5346575,-0.5547412077533167,-0.5094185632518311,-0.9863089323043823,-2.1151515446104945,-4.078700844441549,-0.12948352495302373,-0.007447980344295502,-0.008066825568675995,0.02930345945060253,0.021009914577007294,0.12266021221876144,0.02948160283267498,-0.3440695106983185,-1.090315818786621,0.3772861361503601,0.7675928473472595,0.46950745582580566,0.16027148067951202
1749029303.5346956,-0.5547760168658655,-0.5093841117671509,-0.9862608313560486,-2.115103860894674,-4.078432385121481,-0.12941486040224248,-0.007375423796474934,-0.00858861394226551,0.02946222946047783,0.020919058471918106,0.1278001070022583,0.030649038031697273,-0.3647725284099579,-1.093298077583313,0.3941717743873596,0.7658517956733704,0.4440695643424988,0.17420384287834167
1749029303.5347333,-0.5547655264483851,-0.5094114106944581,-0.9861664175987244,-2.115037580529684,-4.078141991292135,-0.12936622301210576,-0.008161555044353008,-0.008291131816804409,0.029976366087794304,0.0213470458984375,0.12651503086090088,0.030475564301013947,-0.3536791503429413,-1.0999058485031128,0.3932487666606903,0.7694211006164551,0.4512188732624054,0.18800631165504456
1749029303.534771,-0.5547769705401819,-0.5094619554332276,-0.9861479997634888,-2.115017076531881,-4.077889267598287,-0.129279915486471,-0.00786788109689951,-0.008650055155158043,0.030577441677451134,0.02115756645798683,0.12819430232048035,0.03286796808242798,-0.3460237681865692,-1.10398268699646,0.39118072390556335,0.7600234746932983,0.4577574133872986,0.17041537165641785
1749029303.5348117,-0.5548165480243128,-0.5094975990108033,-0.9860844612121582,-2.1149612865843714,-4.077608410512106,-0.12922412553896123,-0.007576160132884979,-0.009183183312416077,0.03010028973221779,0.022079460322856903,0.13057197630405426,0.032994870096445084,-0.35499969124794006,-1.106967806816101,0.3881112337112427,0.7689179182052612,0.4533799886703491,0.18234334886074066
1749029303.53485,-0.5548060576068323,-0.5095214408687134,-0.9860397577285767,-2.114925046960348,-4.07733661333193,-0.12919837633241826,-0.007966645061969757,-0.009579137898981571,0.03108980879187584,0.022386178374290466,0.1341162621974945,0.032750364392995834,-0.34171921014785767,-1.1003687381744385,0.39255133271217346,0.7557274103164673,0.45085495710372925,0.17869141697883606
1749029303.5348873,-0.5548093954669397,-0.5095024865916749,-0.985967755317688,-2.1148740253844203,-4.077114168797628,-0.1291111151324671,-0.008272035047411919,-0.009118613786995411,0.032721858471632004,0.022281330078840256,0.1369076669216156,0.033425040543079376,-0.3565398156642914,-1.0999512672424316,0.3830986022949219,0.76478111743927,0.4372144937515259,0.17224258184432983
1749029303.5349247,-0.5548747221576136,-0.5094869893840333,-0.9859008193016052,-2.114833017388815,-4.076811615620748,-0.129035774861471,-0.008987192995846272,-0.009030377492308617,0.03268386423587799,0.02295934036374092,0.13761477172374725,0.033560432493686676,-0.35718944668769836,-1.1340715885162354,0.3824927806854248,0.7483155727386475,0.4401068687438965,0.17415723204612732
1749029303.5349658,-0.5548747221576136,-0.5095388454249878,-0.9858013391494751,-2.1147781811156214,-4.076538626347677,-0.12896377245058233,-0.008106240071356297,-0.009796918369829655,0.03179388493299484,0.02362440899014473,0.14388932287693024,0.03522998467087746,-0.38219934701919556,-1.121824860572815,0.39182615280151367,0.7402423024177551,0.42050209641456604,0.17501412332057953
1749029303.535004,-0.5548747221576136,-0.5095388454249878,-0.9858013391494751,-2.1147781811156214,-4.076538626347677,-0.12896377245058233,-0.008106240071356297,-0.009796918369829655,0.03179388493299484,0.02362440899014473,0.14388932287693024,0.03522998467087746,-0.38219934701919556,-1.121824860572815,0.39182615280151367,0.7402423024177551,0.42050209641456604,0.17501412332057953
1749029303.5350416,-0.5548885504352015,-0.5095470708659668,-0.9856778979301453,-2.1146866283812464,-4.075907532368795,-0.12884408632387334,-0.008697135373950005,-0.010649326257407665,0.033533837646245956,0.023025494068861008,0.13836964964866638,0.03522472083568573,-0.35807663202285767,-1.1292699575424194,0.39553239941596985,0.7431963682174683,0.46642816066741943,0.17554040253162384
1749029303.5351536,-0.5549243132220667,-0.5096017879298707,-0.9856247305870056,-2.1146346531310023,-4.0756617228137415,-0.12876731554140264,-0.009160996414721012,-0.010099128820002079,0.033563099801540375,0.022886328399181366,0.14491400122642517,0.0364699587225914,-0.35521918535232544,-1.1456024646759033,0.38340699672698975,0.7675416469573975,0.4311721920967102,0.16991010308265686
1749029303.537144,-0.5549486319171351,-0.5096138280681153,-0.9855958223342896,-2.1145836315550746,-4.075334850941793,-0.12865716615785772,-0.008561212569475174,-0.01043644268065691,0.03438135236501694,0.024074913933873177,0.14224427938461304,0.0357883982360363,-0.3765295445919037,-1.1405484676361084,0.3966638743877411,0.7503573894500732,0.4232196509838104,0.16811344027519226
1749029303.582304,-0.5550020376788538,-0.509654240017273,-0.9854896068572998,-2.1145273647704066,-4.075058762227194,-0.1286395231830042,-0.009118848480284214,-0.01052058581262827,0.03433925658464432,0.024697691202163696,0.1431605964899063,0.03585182875394821,-0.3448556959629059,-1.130916714668274,0.3835723400115967,0.752639889717102,0.45161062479019165,0.1779043972492218
1749029303.5823498,-0.5550177733050745,-0.5096244376948853,-0.985435962677002,-2.114488264123434,-4.074749533330099,-0.1285484472857874,-0.008675340563058853,-0.010945475660264492,0.03327777609229088,0.024607116356492043,0.14432087540626526,0.03631553798913956,-0.36540961265563965,-1.1380252838134766,0.4067918062210083,0.73845374584198,0.43679073452949524,0.1797890067100525
1749029303.5823903,-0.5550187269793909,-0.5096398156932374,-0.985356867313385,-2.1144477329649867,-4.074421469365255,-0.12847692171205694,-0.008091360330581665,-0.011265824548900127,0.033298060297966,0.025034300982952118,0.1450228989124298,0.0367075577378273,-0.3447110056877136,-1.1370043754577637,0.4076065719127655,0.7329989671707153,0.408886194229126,0.18348920345306396
1749029303.5824301,-0.5549934546100062,-0.5096946519664307,-0.9852849841117859,-2.1144000492491664,-4.07418400446047,-0.12842017809023076,-0.008308105170726776,-0.011079319752752781,0.03436610847711563,0.024601919576525688,0.14523915946483612,0.038108211010694504,-0.3703208267688751,-1.154507040977478,0.4012703001499176,0.7506179213523865,0.4624980688095093,0.15821516513824463
1749029303.582471,-0.5550397078143519,-0.5097261232188721,-0.9852163791656494,-2.114352365533346,-4.073805157338278,-0.128336254750387,-0.009296796284615993,-0.011250813491642475,0.03511076048016548,0.025075804442167282,0.1485169678926468,0.03872627019882202,-0.37240371108055115,-1.1594841480255127,0.39922502636909485,0.7296615242958069,0.45431584119796753,0.16728544235229492
1749029303.5825093,-0.5550859610186976,-0.5097308915904541,-0.9851757287979126,-2.1142851314940394,-4.073575083409445,-0.128214184437887,-0.00942386407405138,-0.010985043831169605,0.03606608882546425,0.02524181641638279,0.15150566399097443,0.03755714371800423,-0.3429863452911377,-1.1609445810317993,0.3959406614303589,0.7556348443031311,0.4573025405406952,0.17102119326591492
1749029303.582547,-0.5550530592547815,-0.5097547334483643,-0.9850844144821167,-2.1142407856383265,-4.073247973118917,-0.12817746797670537,-0.009422230534255505,-0.011039415374398232,0.03671659529209137,0.02563520148396492,0.15483412146568298,0.03884296491742134,-0.3359370827674866,-1.168070673942566,0.4095514714717865,0.7318411469459534,0.4388886094093323,0.1783180683851242
1749029303.5825849,-0.5550740400897425,-0.5097511571696778,-0.9850005507469177,-2.1141778431334437,-4.072872702275411,-0.12806207338442022,-0.01055880356580019,-0.012003249488770962,0.03690854087471962,0.025570223107933998,0.1559327095746994,0.0395687110722065,-0.35119664669036865,-1.1711854934692383,0.4073185622692108,0.762293815612793,0.442147821187973,0.18446439504623413
1749029303.5826218,-0.5551303068744105,-0.5097677272609253,-0.9849403500556946,-2.114098688165182,-4.072611633931295,-0.12798577943910772,-0.009393016807734966,-0.011460592970252037,0.037020243704319,0.02651827409863472,0.1559230089187622,0.039307381957769394,-0.3579946756362915,-1.1725237369537354,0.4077102541923523,0.736388623714447,0.45825809240341187,0.1679551750421524
1749029303.5826585,-0.5551250616656702,-0.5098112386516114,-0.9848591685295105,-2.1140815220274867,-4.072270218526022,-0.1279380957232874,-0.010442918166518211,-0.012223591096699238,0.037973009049892426,0.02662566304206848,0.15881995856761932,0.039391741156578064,-0.3392927348613739,-1.1699388027191162,0.4022802412509918,0.7449898719787598,0.475834459066391,0.18576979637145996
1749029303.5826957,-0.5551436583148401,-0.5098576110652466,-0.9847657084465027,-2.1140147648253382,-4.071953598652975,-0.12781936327089483,-0.010512257926166058,-0.012300057336688042,0.03863418474793434,0.025994986295700073,0.15813997387886047,0.0393977053463459,-0.3536224365234375,-1.1726078987121582,0.3862256705760956,0.7482798099517822,0.44443321228027344,0.17861849069595337
1749029303.5827334,-0.5551417509662073,-0.5098744195750733,-0.9846936464309692,-2.113981386224264,-4.071589533482687,-0.12777501741518194,-0.010150791145861149,-0.012248722836375237,0.03820333629846573,0.026470007374882698,0.15678682923316956,0.03953267261385918,-0.33642834424972534,-1.1606166362762451,0.4019809365272522,0.734744131565094,0.45492687821388245,0.2033015936613083
1749029303.5827699,-0.5551689306842249,-0.5098790687373658,-0.9846095442771912,-2.1139146290221156,-4.071269098912374,-0.12769109407533819,-0.010258489288389683,-0.01258779875934124,0.038663268089294434,0.026743941009044647,0.16371890902519226,0.03992796316742897,-0.34146666526794434,-1.1841027736663818,0.4072870910167694,0.7363325357437134,0.46205830574035645,0.19654995203018188
1749029303.5828068,-0.5551999250995081,-0.5099385541728516,-0.9845476746559143,-2.11385502437734,-4.070937220250265,-0.12763005891908819,-0.010047082789242268,-0.011866440996527672,0.03988967090845108,0.027035539969801903,0.16270121932029724,0.04154194891452789,-0.3447980284690857,-1.180034875869751,0.3852652907371521,0.7345062494277954,0.4748789668083191,0.18927881121635437
1749029303.582844,-0.5552428404437464,-0.5099349778941651,-0.9844601154327393,-2.1138111553587855,-4.07065993944277,-0.1275389830218714,-0.00923094805330038,-0.012967548333108425,0.040374744683504105,0.026976797729730606,0.16695046424865723,0.04247047379612923,-0.367249071598053,-1.1626168489456177,0.3919198513031006,0.7452362179756165,0.46299195289611816,0.19309109449386597
1749029303.5828812,-0.5552275816546839,-0.5099634689143677,-0.9843881130218506,-2.113751073876852,-4.0702882448779505,-0.127420727406637,-0.01102947723120451,-0.012335196137428284,0.04091676324605942,0.027331681922078133,0.17149700224399567,0.042595528066158295,-0.38443881273269653,-1.1551028490066528,0.3903215527534485,0.7361668944358826,0.46856337785720825,0.19294628500938416
1749029303.5829182,-0.5552361647235315,-0.5099795621684571,-0.9843076467514038,-2.1136723957457484,-4.0699244181262415,-0.12736303011049444,-0.011483346112072468,-0.012532666325569153,0.041335418820381165,0.026998108252882957,0.1722666174173355,0.04386432096362114,-0.3481972813606262,-1.1720479726791382,0.3941325545310974,0.7498750686645508,0.44955912232398987,0.18125197291374207
1749029303.582968,-0.5552943388568323,-0.5100069803050538,-0.9842163324356079,-2.1136399708189906,-4.069599215184347,-0.12723285356630498,-0.010399047285318375,-0.012545613572001457,0.041926417499780655,0.027521148324012756,0.17889869213104248,0.044620685279369354,-0.3432042598724365,-1.171893835067749,0.37865760922431946,0.7313340902328491,0.4324839115142822,0.17929160594940186
1749029303.5830405,-0.5552995840655726,-0.510046200161316,-0.9841365218162537,-2.113584180871481,-4.06922156015505,-0.12719947496523076,-0.011081893928349018,-0.012730531394481659,0.04177989065647125,0.027277149260044098,0.17829671502113342,0.0440819188952446,-0.3394938111305237,-1.1849883794784546,0.36645811796188354,0.748707115650177,0.45020991563796997,0.18964514136314392
1749029303.5831,-0.5553544203387659,-0.5100630086711426,-0.9840490818023682,-2.1135174236693324,-4.06886870065798,-0.12708789507021123,-0.011643577367067337,-0.012425334192812443,0.04161949083209038,0.027417927980422974,0.178913414478302,0.04304523393511772,-0.3495316505432129,-1.1933505535125732,0.39086806774139404,0.7471402883529663,0.47763606905937195,0.20825210213661194
1749029303.5831432,-0.5553634802447718,-0.5100754064372559,-0.9839736819267273,-2.1134916744627894,-4.068562332783834,-0.12696582475771123,-0.011355813592672348,-0.012017888948321342,0.042297232896089554,0.027232656255364418,0.17938818037509918,0.04446997866034508,-0.332487016916275,-1.1909027099609375,0.3813334107398987,0.7619786858558655,0.45519375801086426,0.18295428156852722
1749029303.5831912,-0.5553868452655237,-0.5101183217814942,-0.9838927388191223,-2.1134168110289515,-4.068151299153463,-0.12687331834901983,-0.010397616773843765,-0.012720398604869843,0.042386122047901154,0.027704734355211258,0.17989838123321533,0.04462553560733795,-0.33945223689079285,-1.1764225959777832,0.37599843740463257,0.7679940462112427,0.46933770179748535,0.1932135373353958
1749029303.5833027,-0.5553873221026819,-0.5101075929454346,-0.9838275909423828,-2.1133653126158656,-4.067732636128561,-0.1267932097064417,-0.00968087650835514,-0.01206553727388382,0.042496226727962494,0.027040019631385803,0.1791442334651947,0.044553242623806,-0.34614285826683044,-1.1948153972625732,0.3858376741409302,0.7805070877075195,0.48846879601478577,0.20148396492004395
1749029303.5851488,-0.5553887526141565,-0.5101785224727173,-0.983731746673584,-2.11330570797109,-4.067398134862081,-0.12669736543764287,-0.009745686315000057,-0.012578500434756279,0.04303792491555214,0.028180355206131935,0.1812528669834137,0.04549066722393036,-0.3470521867275238,-1.1970371007919312,0.37594980001449585,0.7745440006256104,0.4784039258956909,0.20642922818660736
1749029303.6262922,-0.5554245154010218,-0.5101557534984131,-0.9836246967315674,-2.113277574578756,-4.066991392766134,-0.12659818330873662,-0.010812107473611832,-0.012535404413938522,0.04365302622318268,0.028220267966389656,0.1850091964006424,0.0458759181201458,-0.3371901512145996,-1.1866391897201538,0.38969507813453674,0.7548423409461975,0.5022205710411072,0.17640945315361023
1749029303.6263385,-0.5554369131671351,-0.5101867479136963,-0.9835401773452759,-2.1132170162596644,-4.0665908495532435,-0.12649852434267217,-0.009678617119789124,-0.012582510709762573,0.04337892308831215,0.029431749135255814,0.19017022848129272,0.045914873480796814,-0.3644198477268219,-1.20204758644104,0.36883389949798584,0.7840675115585327,0.4907352924346924,0.20113296806812286
1749029303.6263826,-0.5554474035846155,-0.5102313321879883,-0.983460545539856,-2.113157411614889,-4.0662811438189905,-0.12641841570009404,-0.009678651578724384,-0.012590399943292141,0.043938957154750824,0.029828406870365143,0.19287985563278198,0.04583952575922012,-0.3581489324569702,-1.1942203044891357,0.3742947280406952,0.7854699492454529,0.47716301679611206,0.17932526767253876
1749029303.6264234,-0.5554912726031702,-0.5102939170650025,-0.9833800792694092,-2.1130668125548304,-4.065849844609396,-0.12632304826845342,-0.010382633656263351,-0.012687081471085548,0.04617162421345711,0.031011415645480156,0.1956462860107422,0.045625630766153336,-0.34938880801200867,-1.2184697389602661,0.3507324755191803,0.7718812227249146,0.4686433672904968,0.20573335886001587
1749029303.6264613,-0.5555742422686976,-0.5102914136699219,-0.983255922794342,-2.1130229435362757,-4.065453592930929,-0.1261990706073206,-0.010682252235710621,-0.013196591287851334,0.044961798936128616,0.030890043824911118,0.1954224705696106,0.04596014693379402,-0.33195260167121887,-1.1976220607757568,0.3775220811367035,0.780912458896637,0.4722352623939514,0.20711207389831543
1749029303.626503,-0.5555394331561487,-0.510346845989563,-0.9831809997558594,-2.1129352054991664,-4.065052096043722,-0.12614614168276006,-0.01107177883386612,-0.0127082709223032,0.043298859149217606,0.031506456434726715,0.19781437516212463,0.04783705994486809,-0.3247601389884949,-1.2051506042480469,0.3830950856208801,0.7985551357269287,0.45260366797447205,0.19543208181858063
1749029303.626542,-0.5555327574359339,-0.5103467267802735,-0.9831110239028931,-2.112863679925436,-4.064655844365255,-0.1260007063495081,-0.011264858767390251,-0.013326083309948444,0.04548923671245575,0.03166075423359871,0.19506272673606873,0.04837459325790405,-0.32144996523857117,-1.2157890796661377,0.3807571232318878,0.7809630632400513,0.4774287939071655,0.1975296437740326
1749029303.6265807,-0.555575195943014,-0.5103669923594971,-0.9829917550086975,-2.1128159962096156,-4.064302984868185,-0.1259549299823206,-0.010758180171251297,-0.013288847170770168,0.047491490840911865,0.032212432473897934,0.19752827286720276,0.04803195968270302,-0.3374730050563812,-1.2174525260925293,0.37888288497924805,0.7975961565971375,0.5109260678291321,0.20528949797153473
1749029303.626622,-0.5555914084063929,-0.5103908342174073,-0.9829114675521851,-2.112744470635885,-4.063875023518698,-0.12585908571352178,-0.010775825940072536,-0.013841402716934681,0.048310913145542145,0.03290363773703575,0.19926925003528595,0.05100317671895027,-0.35396817326545715,-1.1991918087005615,0.35383185744285583,0.7883203029632568,0.4835381507873535,0.2121172994375229
1749029303.6266606,-0.5555809179889124,-0.5104110997966309,-0.9828156232833862,-2.1126767597594203,-4.063487116490499,-0.12571651140321904,-0.010853206738829613,-0.013233007863163948,0.045788586139678955,0.03348651900887489,0.203366219997406,0.05134618282318115,-0.32453271746635437,-1.21575927734375,0.3900105059146881,0.7849106788635254,0.4917084276676178,0.18925000727176666
1749029303.6266983,-0.55560809770693,-0.5104616445354004,-0.9827001094818115,-2.1125976047911585,-4.063092533742086,-0.12565976778139287,-0.011171361431479454,-0.01338335033506155,0.047162026166915894,0.033729273825883865,0.20955954492092133,0.05121173337101936,-0.3505321741104126,-1.2283750772476196,0.3876305818557739,0.786065936088562,0.4828720986843109,0.20856866240501404
1749029303.6267362,-0.5556252638446253,-0.5104972881129761,-0.982638955116272,-2.112545152703756,-4.06266171136965,-0.12559158006776983,-0.011848879046738148,-0.013541290536522865,0.04855812340974808,0.03288959339261055,0.21559849381446838,0.050305064767599106,-0.34412840008735657,-1.2280707359313965,0.35953640937805176,0.7913938164710999,0.45586687326431274,0.21359393000602722
1749029303.6267734,-0.5556953589068812,-0.5105056327632447,-0.9825395345687866,-2.112485548058981,-4.062201563511984,-0.125437084828512,-0.01133283507078886,-0.013570122420787811,0.04905521124601364,0.03261283412575722,0.21286137402057648,0.049386393278837204,-0.3388926684856415,-1.2329919338226318,0.3597855567932129,0.8046116232872009,0.46777844429016113,0.2310207486152649
1749029303.6268108,-0.5557344595538538,-0.5105069440654297,-0.9824401140213013,-2.1124102077879847,-4.061784569417135,-0.1253722349749964,-0.011557123623788357,-0.013972378335893154,0.04880550131201744,0.032925546169281006,0.21646423637866974,0.05167560651898384,-0.33704113960266113,-1.2139259576797485,0.374686062335968,0.7994373440742493,0.4575643539428711,0.19772860407829285
1749029303.626848,-0.5557192007647913,-0.51056261480365,-0.9823290109634399,-2.1123348675169886,-4.061354700719015,-0.12524158159364873,-0.011891288682818413,-0.013823039829730988,0.048737648874521255,0.03347241133451462,0.21215587854385376,0.05451468750834465,-0.34257960319519043,-1.2226307392120361,0.3762860596179962,0.8089848160743713,0.4827163517475128,0.20708271861076355
1749029303.626886,-0.5557211081134241,-0.510559157734253,-0.9822366237640381,-2.112239500085348,-4.060903135930197,-0.12512189546693975,-0.011918260715901852,-0.012872911989688873,0.04866960272192955,0.03477644547820091,0.21248026192188263,0.05531315132975578,-0.3357478976249695,-1.239715337753296,0.36538267135620117,0.7993214726448059,0.4996092915534973,0.19293223321437836
1749029303.6269233,-0.5557554403888147,-0.5105949205211182,-0.9821521043777466,-2.1121679745116175,-4.060455147420065,-0.1250527540790003,-0.012113254517316818,-0.015253940597176552,0.05014223977923393,0.035658325999975204,0.2159016877412796,0.05569632723927498,-0.31595343351364136,-1.224832534790039,0.37694889307022095,0.7971940636634827,0.5031574368476868,0.18917562067508698
1749029303.6269853,-0.5557907263385218,-0.5105995696834107,-0.9820404052734375,-2.1121236286559046,-4.060081545506613,-0.12492925325502569,-0.011234653182327747,-0.015007372945547104,0.05058295279741287,0.03592223301529884,0.22030484676361084,0.05484563857316971,-0.35405898094177246,-1.2036577463150024,0.3562605082988739,0.7823474407196045,0.4989555776119232,0.1959555745124817
1749029303.627056,-0.5557997862445276,-0.5106550020030518,-0.9819549322128296,-2.112039705316061,-4.059660975133077,-0.12479859987367803,-0.011374929919838905,-0.014499126933515072,0.05008353665471077,0.035539597272872925,0.22411030530929565,0.05544004216790199,-0.3577173948287964,-1.246423602104187,0.3690702021121979,0.7745885848999023,0.4986640214920044,0.21231287717819214
1749029303.6271114,-0.5558236281024378,-0.5106977981380005,-0.9818271398544312,-2.1120029888548792,-4.059209887181417,-0.12469464937318975,-0.011822784319519997,-0.01489097811281681,0.0514199361205101,0.03521256521344185,0.22771315276622772,0.055816400796175,-0.3580925762653351,-1.2214816808700562,0.3699790835380554,0.7974246144294739,0.4499219059944153,0.20202049612998962
1749029303.6272311,-0.5558975378619593,-0.510715202694275,-0.9817002415657043,-2.1118933163084925,-4.058764998112814,-0.12461787859071904,-0.012142173945903778,-0.015070690773427486,0.05245431512594223,0.035601161420345306,0.2282494604587555,0.05652047321200371,-0.34370532631874084,-1.2384986877441406,0.3721162676811218,0.8058242797851562,0.485801100730896,0.2139309048652649
1749029303.6291497,-0.5558837095843714,-0.5107389253428956,-0.9816397428512573,-2.111805578271383,-4.0582962671863,-0.12450534502138311,-0.013337202370166779,-0.015541424974799156,0.050564467906951904,0.03718670457601547,0.22994311153888702,0.056936152279376984,-0.343681275844574,-1.211543321609497,0.3514133393764496,0.8010175228118896,0.4971369206905365,0.2065068930387497
1749029303.6702816,-0.5559576193438929,-0.5108027023128052,-0.9814929962158203,-2.1117412052550257,-4.0578792730914515,-0.1243508497821253,-0.01346474140882492,-0.01596299186348915,0.05146566405892372,0.0388144850730896,0.22576911747455597,0.05761120095849037,-0.3444248139858246,-1.2312560081481934,0.3620014786720276,0.7765668630599976,0.5155993700027466,0.20823805034160614
1749029303.6703277,-0.556000057850973,-0.5107711118510743,-0.9813958406448364,-2.1116424999632777,-4.057406727467672,-0.12422782579530889,-0.013395252637565136,-0.01545974612236023,0.05179590359330177,0.03981193155050278,0.22857609391212463,0.05859869346022606,-0.32881495356559753,-1.2214208841323853,0.35701635479927063,0.7757957577705383,0.5370722413063049,0.1881244033575058
1749029303.670372,-0.5559676329242151,-0.5108471673778077,-0.9812831878662109,-2.111589571038717,-4.056935373936788,-0.12410003343691045,-0.012543005868792534,-0.016226014122366905,0.05342134088277817,0.04014931246638298,0.22859233617782593,0.058769918978214264,-0.33244019746780396,-1.2370275259017944,0.3424394130706787,0.7831061482429504,0.5777295231819153,0.19428308308124542
1749029303.6704128,-0.5559862295733851,-0.5108507436564942,-0.9812036752700806,-2.1114751301207484,-4.056499306355612,-0.1239846388446253,-0.012635494582355022,-0.015958551317453384,0.051011256873607635,0.03976783528923988,0.2359486222267151,0.05869600176811218,-0.3391568660736084,-1.2349449396133423,0.37785032391548157,0.7743958830833435,0.5696367621421814,0.19186466932296753
1749029303.6704528,-0.5560067335711878,-0.5108722013286133,-0.981099009513855,-2.1114188633360804,-4.056003872548239,-0.12387687364687139,-0.012402829714119434,-0.016048219054937363,0.052047133445739746,0.03906937316060066,0.24161134660243988,0.05734771490097046,-0.3391653895378113,-1.2228667736053467,0.37193453311920166,0.7877192497253418,0.5184241533279419,0.1919056475162506
1749029303.6704917,-0.5560839811908167,-0.5109619659236451,-0.9809905886650085,-2.111324449578756,-4.055505339299337,-0.12376481691469365,-0.012088615447282791,-0.016228599473834038,0.05335448682308197,0.039166465401649475,0.2501755654811859,0.058641593903303146,-0.3811110854148865,-1.2353861331939697,0.342740923166275,0.783032238483429,0.47809627652168274,0.1890983134508133
1749029303.6705298,-0.5560482184039515,-0.5109014076045533,-0.9808912873268127,-2.111279626885885,-4.055032555256979,-0.1236489454852503,-0.013410227373242378,-0.016429053619503975,0.05353385582566261,0.0384441502392292,0.25002264976501465,0.0592259056866169,-0.3760222792625427,-1.2289310693740845,0.3718680441379547,0.7893067598342896,0.47910457849502563,0.18585963547229767
1749029303.6705675,-0.5561130682574671,-0.5110102456859131,-0.9807841181755066,-2.1112076244749964,-4.054506127034323,-0.12353688875307256,-0.01405287068337202,-0.016852790489792824,0.05365270748734474,0.03900628909468651,0.24942612648010254,0.060230452567338943,-0.38482460379600525,-1.2383410930633545,0.3687293529510498,0.7789319753646851,0.43684256076812744,0.19387343525886536
1749029303.6706045,-0.5560925642596644,-0.5110150140574952,-0.9806864261627197,-2.111112257043356,-4.054002825413839,-0.12342912355531865,-0.014499930664896965,-0.01675943285226822,0.05316556245088577,0.04078399017453194,0.24844291806221008,0.0606803223490715,-0.3487389087677002,-1.2334568500518799,0.36946266889572144,0.776465654373169,0.4689738154411316,0.185760498046875
1749029303.6706417,-0.5561659971820276,-0.5110578101924439,-0.9805787801742554,-2.1110059223570765,-4.0535355249988,-0.12328178087343389,-0.013592321425676346,-0.01711541973054409,0.053018175065517426,0.04245823621749878,0.246530681848526,0.060157064348459244,-0.34152305126190186,-1.2333076000213623,0.3763693571090698,0.7655884027481079,0.4940609037876129,0.1836354285478592
1749029303.6706789,-0.5561659971820276,-0.5110578101924439,-0.9805787801742554,-2.1110059223570765,-4.0535355249988,-0.12328178087343389,-0.013592321425676346,-0.01711541973054409,0.053018175065517426,0.04245823621749878,0.246530681848526,0.060157064348459244,-0.34152305126190186,-1.2333076000213623,0.3763693571090698,0.7655884027481079,0.4940609037876129,0.1836354285478592
1749029303.670716,-0.556183163319723,-0.5111269515803833,-0.9803434610366821,-2.110842367211813,-4.052544180546896,-0.12309295335878545,-0.01301545463502407,-0.01719239167869091,0.05417300760746002,0.0415114127099514,0.2510683834552765,0.06165482848882675,-0.3896062970161438,-1.2390490770339966,0.389108270406723,0.7580641508102417,0.4860641360282898,0.1929103136062622
1749029303.6707563,-0.5562661329852503,-0.5111714166453858,-0.9802587628364563,-2.1107708416380824,-4.052059475575582,-0.12293464342226201,-0.013897036202251911,-0.017366621643304825,0.05503576248884201,0.04019730165600777,0.2546706199645996,0.0631946474313736,-0.38565194606781006,-1.222744345664978,0.38078320026397705,0.771844744682312,0.4791487455368042,0.17673301696777344
1749029303.6707947,-0.5562399069415491,-0.511210636501648,-0.9801468253135681,-2.110671659509176,-4.051552359257833,-0.12282258669008428,-0.013642747886478901,-0.017419422045350075,0.05507008358836174,0.040837958455085754,0.25808197259902954,0.061237264424562454,-0.3845002353191376,-1.2179415225982666,0.38568806648254395,0.7651889324188232,0.463666170835495,0.1965530663728714
1749029303.6708312,-0.5562728087054651,-0.5112499755671998,-0.9800266027450562,-2.110591550866598,-4.05101710954775,-0.12265187898744756,-0.014551815576851368,-0.018701676279306412,0.0562601201236248,0.042309973388910294,0.2544254660606384,0.060882579535245895,-0.36104971170425415,-1.2214388847351074,0.4089559316635132,0.7736995220184326,0.5054428577423096,0.2065069079399109
1749029303.670868,-0.5563152472125452,-0.5112744134715577,-0.9799190163612366,-2.1104961834349574,-4.050506893788473,-0.12251645723451787,-0.0146450474858284,-0.01762867532670498,0.05766034871339798,0.04448826611042023,0.2577001452445984,0.06232370063662529,-0.3638852536678314,-1.2283923625946045,0.3792282044887543,0.7218946814537048,0.476839154958725,0.17566783726215363
1749029303.6709042,-0.5563738981830042,-0.5112875264934083,-0.9797993898391724,-2.11038937191152,-4.050026480351583,-0.12244302431215459,-0.015041646547615528,-0.017714887857437134,0.05764732137322426,0.04241715371608734,0.25887811183929443,0.06310172379016876,-0.3760615885257721,-1.227786898612976,0.38171324133872986,0.7480352520942688,0.506495475769043,0.1898525059223175
1749029303.6709464,-0.5564282576190394,-0.51132686555896,-0.9797030091285706,-2.1103321514525355,-4.049491469060079,-0.12225324312318975,-0.014479584991931915,-0.01801852136850357,0.05696933716535568,0.04177460819482803,0.26148003339767456,0.06207197159528732,-0.3966226577758789,-1.2498258352279663,0.3755461871623993,0.7451932430267334,0.5047611594200134,0.17850899696350098
1749029303.6709845,-0.5563839117633265,-0.5113511842540284,-0.9795635342597961,-2.1102644405760707,-4.04901105562319,-0.12216359773744756,-0.014705398119986057,-0.018022816628217697,0.05672374740242958,0.042400065809488297,0.2653481364250183,0.0643812045454979,-0.35397908091545105,-1.2279032468795776,0.4014663100242615,0.7349817156791687,0.4969522953033447,0.18775945901870728
1749029303.6710212,-0.5564382711993616,-0.5114268821528931,-0.9794552326202393,-2.1101418934264125,-4.048436466847555,-0.12203675905336553,-0.014440097846090794,-0.018518133088946342,0.05649122968316078,0.042413219809532166,0.26786327362060547,0.06493692100048065,-0.3587585389614105,-1.2221730947494507,0.4046285152435303,0.7473422288894653,0.4822190999984741,0.17396137118339539
1749029303.6711304,-0.5564315954791468,-0.511454777126648,-0.9793704748153687,-2.1100899181761683,-4.0479047934161585,-0.12188941637148076,-0.014768683351576328,-0.0181865431368351,0.05877482146024704,0.040938083082437515,0.2685490548610687,0.06347858160734177,-0.3604965806007385,-1.2350273132324219,0.39106741547584534,0.7561761736869812,0.47649604082107544,0.18402686715126038
1749029303.673118,-0.5565207640277308,-0.5114832681468506,-0.9792190194129944,-2.1100217304625453,-4.047333065663473,-0.12176257768739873,-0.014540741220116615,-0.01840893365442753,0.05940428003668785,0.04008089378476143,0.26706424355506897,0.06163814663887024,-0.369098424911499,-1.2167942523956299,0.37943053245544434,0.7599336504936218,0.4600290060043335,0.19890250265598297
1749029303.714293,-0.5565035978900355,-0.5115071100047608,-0.9791144132614136,-2.109957357446188,-4.046778504048483,-0.12166864076723272,-0.015788495540618896,-0.01870330423116684,0.05757351219654083,0.038998380303382874,0.2673555612564087,0.061110660433769226,-0.3628759980201721,-1.2197465896606445,0.41759973764419556,0.7774853110313416,0.4835953712463379,0.21752920746803284
1749029303.7143397,-0.5565460363971155,-0.5115397733500977,-0.9789949059486389,-2.1098700962462367,-4.0462499300586146,-0.12156850496401006,-0.015406705439090729,-0.017908858135342598,0.0596727654337883,0.03939153626561165,0.2694781720638275,0.06440071761608124,-0.35274165868759155,-1.2312811613082886,0.410400390625,0.7830891013145447,0.4649733304977417,0.22134235501289368
1749029303.7143807,-0.5565908590899866,-0.5115600389293213,-0.9788739681243896,-2.109767576257223,-4.0457215944873255,-0.1214373747455042,-0.01522214338183403,-0.017493585124611855,0.062393464148044586,0.04099021479487419,0.2741110920906067,0.06565722078084946,-0.38166970014572144,-1.243634581565857,0.3755187392234802,0.785929262638092,0.44722190499305725,0.19803105294704437
1749029303.7144203,-0.556594196950094,-0.5116618436625977,-0.9787079095840454,-2.1096955738463343,-4.045199457799093,-0.12126189867128545,-0.014409126713871956,-0.01843555085361004,0.05979975312948227,0.04297677427530289,0.276960551738739,0.06652193516492844,-0.40429797768592834,-1.233490228652954,0.3839629888534546,0.7826979756355286,0.42084193229675293,0.19738343358039856
1749029303.714459,-0.55664569536318,-0.5116630357554932,-0.9786068797111511,-2.1095806560912074,-4.044607702885763,-0.12113029161562139,-0.015066864900290966,-0.01807618886232376,0.059534572064876556,0.04428322613239288,0.27890774607658386,0.06636810302734375,-0.3775520920753479,-1.2473537921905518,0.40869030356407166,0.7644621133804321,0.40749239921569824,0.21760499477386475
1749029303.7144973,-0.5566661993609827,-0.5116833013347168,-0.9784866571426392,-2.1095320187010707,-4.044056240712301,-0.12102634111513311,-0.016335122287273407,-0.018343688920140266,0.06046992167830467,0.04260137677192688,0.27518755197525024,0.06743442267179489,-0.37579870223999023,-1.22641921043396,0.4105672538280487,0.7678565979003906,0.45375731587409973,0.21300043165683746
1749029303.7145352,-0.5567334334002894,-0.5117237132838746,-0.9783743619918823,-2.109441419641012,-4.04350454012026,-0.12088948885072881,-0.01691734418272972,-0.01860605552792549,0.06127742677927017,0.04208141565322876,0.2697586715221405,0.06809324026107788,-0.38675418496131897,-1.217969298362732,0.3962233364582062,0.8086597919464111,0.47938644886016846,0.20609959959983826
1749029303.7145734,-0.5567739645587366,-0.5117783111384888,-0.9782269597053528,-2.1093222103514613,-4.0429609457599085,-0.12076932588686162,-0.017570966854691505,-0.018222378566861153,0.06169148162007332,0.04323311522603035,0.26953792572021484,0.06857750564813614,-0.35344964265823364,-1.239121913909912,0.4165476858615875,0.8005503416061401,0.5360219478607178,0.21684706211090088
1749029303.714611,-0.5567930380450647,-0.5118112129024048,-0.9781183004379272,-2.1092621288695277,-4.042393509541647,-0.12064153352846319,-0.016653884202241898,-0.018203016370534897,0.061656951904296875,0.04437470808625221,0.27259260416030884,0.0683356374502182,-0.39297550916671753,-1.227606177330017,0.4230075776576996,0.8169291019439697,0.5453945398330688,0.2234402596950531
1749029303.7146487,-0.5568135420428675,-0.5118171733668824,-0.9779825806617737,-2.1091705761351527,-4.04177958170046,-0.12046987215151006,-0.016964972019195557,-0.017815636470913887,0.0621916800737381,0.045807208865880966,0.2787304222583771,0.06968651711940765,-0.365101158618927,-1.226921796798706,0.4155920147895813,0.7925529479980469,0.5246237516403198,0.22881288826465607
1749029303.7146862,-0.5568307081805628,-0.5119105142406006,-0.9778469800949097,-2.109075208703512,-4.041249338780538,-0.12029105821718389,-0.016456233337521553,-0.016910657286643982,0.0632082000374794,0.046637311577796936,0.2840741276741028,0.07092654705047607,-0.3913060426712036,-1.2506341934204102,0.4074922502040863,0.7811469435691833,0.45521384477615356,0.2239595204591751
1749029303.7147233,-0.5569046179400843,-0.5119152826121827,-0.9777309894561768,-2.1089798412718714,-4.040651146565573,-0.12019092241396123,-0.016290877014398575,-0.018030790612101555,0.06451655179262161,0.04659254848957062,0.2872224748134613,0.07070799171924591,-0.38494598865509033,-1.2314410209655762,0.3930402398109436,0.8044982552528381,0.4535554051399231,0.22322091460227966
1749029303.714761,-0.556887451802389,-0.5119860929301758,-0.9775744676589966,-2.10888733486318,-4.040020767842428,-0.12003785768617803,-0.01690390147268772,-0.017099576070904732,0.06597965210676193,0.0458163358271122,0.28390565514564514,0.07109763473272324,-0.36510366201400757,-1.2501490116119385,0.40780022740364075,0.8108730316162109,0.45907124876976013,0.21912920475006104
1749029303.714798,-0.5569575468646448,-0.5119872850230713,-0.9774194955825806,-2.10880770305776,-4.039472405110494,-0.11986285844911748,-0.016659041866660118,-0.016896255314350128,0.06699594855308533,0.04541391879320145,0.2848499119281769,0.0698021799325943,-0.36931508779525757,-1.2472225427627563,0.37665343284606934,0.8151305317878723,0.47208771109580994,0.2213367223739624
1749029303.7148395,-0.55695087114443,-0.5120425981334229,-0.9772753715515137,-2.108708520928854,-4.03887659708132,-0.11971885362734014,-0.017531031742691994,-0.017406435683369637,0.06446259468793869,0.045773450285196304,0.2868053615093231,0.0713445246219635,-0.37382271885871887,-1.2738020420074463,0.39883163571357727,0.8004493117332458,0.4719814360141754,0.22282877564430237
1749029303.714877,-0.5570414702044886,-0.5120508235744019,-0.9771669507026672,-2.108616968194479,-4.038314167653219,-0.11961824098695928,-0.017256461083889008,-0.016794979572296143,0.06471514701843262,0.04667173698544502,0.28912562131881714,0.07410909980535507,-0.3783018887042999,-1.2630093097686768,0.4132264256477356,0.806870698928833,0.4737929701805115,0.20080414414405823
1749029303.7149148,-0.5570810476886194,-0.5120907586864014,-0.9770306348800659,-2.1085101566710414,-4.037725750599996,-0.11945897737611944,-0.01736270636320114,-0.017559004947543144,0.06833269447088242,0.04873203486204147,0.2936822175979614,0.0732087641954422,-0.33973628282546997,-1.273407220840454,0.37572890520095825,0.8063102960586548,0.4379355311393738,0.2091263383626938
1749029303.714952,-0.557082478200094,-0.5121228259852906,-0.9768990278244019,-2.10839905361318,-4.037122551594869,-0.11929542223085576,-0.01721801608800888,-0.017725160345435143,0.06568645685911179,0.05166096240282059,0.2946423590183258,0.07091865688562393,-0.3770598769187927,-1.2823997735977173,0.39066994190216064,0.7778357863426208,0.4487525224685669,0.2173628807067871
1749029303.714989,-0.5571187178241175,-0.5121520322612305,-0.9767580032348633,-2.1083232365050257,-4.036511723195211,-0.11915523210634404,-0.01690172590315342,-0.018727179616689682,0.06677144765853882,0.052505973726511,0.2912425398826599,0.07241624593734741,-0.359607458114624,-1.2326375246047974,0.39186689257621765,0.7678655982017517,0.45172691345214844,0.20995378494262695
1749029303.715026,-0.5572074095355433,-0.5121520322612305,-0.9766104817390442,-2.1082188091673792,-4.03597599664797,-0.1190112272845667,-0.01745934598147869,-0.018320176750421524,0.06796088069677353,0.05104847624897957,0.291477233171463,0.07303638011217117,-0.3869003355503082,-1.2817789316177368,0.37904033064842224,0.7807482481002808,0.47231149673461914,0.22432376444339752
1749029303.715127,-0.557227913533346,-0.5122305911830445,-0.9764662981033325,-2.1081320248045863,-4.035367552434103,-0.11886722246278936,-0.017120538279414177,-0.017599616199731827,0.06806387007236481,0.04904615879058838,0.29159486293792725,0.0754706859588623,-0.3797210454940796,-1.2979971170425415,0.3661014437675476,0.8056762218475342,0.5249552130699158,0.207444429397583
1749029303.7171156,-0.5572450796710413,-0.512223557834961,-0.9763660430908203,-2.1080247364439906,-4.0347259680377405,-0.11870795885194951,-0.017628183588385582,-0.018429789692163467,0.06844580918550491,0.049835219979286194,0.2940686345100403,0.07594489306211472,-0.3646007478237152,-1.2836835384368896,0.36580851674079895,0.8092146515846252,0.5321781635284424,0.1990816593170166
1749029303.7582903,-0.5572741667376917,-0.5122717183879395,-0.9761866927146912,-2.107901235620016,-4.034102026616232,-0.11856395403017217,-0.017555175349116325,-0.018081050366163254,0.06872723996639252,0.05287203565239906,0.2983892560005188,0.07590111345052719,-0.36439406871795654,-1.312864065170288,0.3619858920574188,0.7776623964309692,0.4723329544067383,0.20672598481178284
1749029303.7583358,-0.557286564503805,-0.5123306077769776,-0.976081132888794,-2.1077939472594203,-4.033549133931295,-0.11842376390566045,-0.01708044670522213,-0.018892308697104454,0.06956858932971954,0.054412536323070526,0.30170536041259766,0.07436445355415344,-0.3779228627681732,-1.2908802032470703,0.35728785395622253,0.7737780213356018,0.4885298013687134,0.21284404397010803
1749029303.7583766,-0.5573223272906702,-0.512359694843628,-0.9759348034858704,-2.1076747379698695,-4.032864157353536,-0.1182487646685999,-0.017390375956892967,-0.019236085936427116,0.06945402175188065,0.05512961000204086,0.3004288375377655,0.07552129775285721,-0.3865407705307007,-1.27298104763031,0.3561515510082245,0.7515451908111572,0.49423947930336,0.21978740394115448
1749029303.7584162,-0.557354752217428,-0.5123799604228516,-0.9757490754127502,-2.1075827083983363,-4.032287661229269,-0.11817485490907842,-0.017155390232801437,-0.018085606396198273,0.07005662471055984,0.056851860135793686,0.30287882685661316,0.07545710355043411,-0.36923229694366455,-1.3061224222183228,0.3697322607040405,0.7391515970230103,0.5072148442268372,0.21176747977733612
1749029303.7584543,-0.5573909918414515,-0.5124038022807618,-0.9756278991699219,-2.10745968441152,-4.0316999594317835,-0.11798745790590459,-0.017465148121118546,-0.018585603684186935,0.06990238279104233,0.057057879865169525,0.30735841393470764,0.07683973014354706,-0.36610907316207886,-1.2909504175186157,0.36786726117134094,0.7257881760597229,0.5080617666244507,0.21699601411819458
1749029303.7584927,-0.5574834982501429,-0.5124555391124268,-0.975483238697052,-2.1073800526061,-4.031115595494406,-0.11781245866884404,-0.01751689612865448,-0.018801160156726837,0.07001553475856781,0.05608157813549042,0.3113367557525635,0.07737494260072708,-0.37553900480270386,-1.307158350944519,0.3729141056537628,0.723395586013794,0.504586935043335,0.2132994532585144
1749029303.7585316,-0.5575006643878382,-0.5124983352473755,-0.9753239750862122,-2.1072451076903285,-4.030461374913351,-0.11763221422304326,-0.01760082319378853,-0.018743004649877548,0.07149738818407059,0.05453655123710632,0.3126896023750305,0.07736353576183319,-0.38273975253105164,-1.311057209968567,0.35979336500167847,0.7061095833778381,0.5055630803108215,0.21524640917778015
1749029303.7585697,-0.5575597921954554,-0.5125548404506226,-0.9752142429351807,-2.1071530781187953,-4.029846254979269,-0.11745340028871709,-0.01850939355790615,-0.019321713596582413,0.07055501639842987,0.0541100800037384,0.3133915364742279,0.07771148532629013,-0.3812885582447052,-1.3042610883712769,0.36090967059135437,0.7406682968139648,0.49474838376045227,0.2159186750650406
1749029303.758608,-0.5575760046588343,-0.5125906032374878,-0.9750598073005676,-2.107018133203024,-4.02919847169985,-0.11731321016420537,-0.0186490248888731,-0.02046802081167698,0.07325038313865662,0.055709321051836014,0.3144152760505676,0.07737650722265244,-0.3674449324607849,-1.3068491220474243,0.33689460158348083,0.7174622416496277,0.5215561389923096,0.2151675522327423
1749029303.7586462,-0.5576131979571741,-0.5125954908183594,-0.9749026298522949,-2.1069065533080042,-4.028606955205099,-0.11721641222109014,-0.018783139064908028,-0.020264308899641037,0.06997649371623993,0.05561547726392746,0.3156508505344391,0.07857906073331833,-0.37101083993911743,-1.310934066772461,0.35721343755722046,0.7145006060600281,0.5536165833473206,0.22541946172714233
1749029303.7586842,-0.557652775441305,-0.5126322072795411,-0.9747632145881653,-2.1067992649474085,-4.027936760579244,-0.11703282991518194,-0.019499365240335464,-0.020199384540319443,0.0699395015835762,0.055099718272686005,0.32017531991004944,0.07970207184553146,-0.366474449634552,-1.28779137134552,0.3744361996650696,0.7046383619308472,0.5538503527641296,0.2014191448688507
1749029303.7587216,-0.5576427618609827,-0.5127149385264893,-0.9746313691139221,-2.1066957912840785,-4.027285639439718,-0.11684924760927373,-0.018711308017373085,-0.02101225033402443,0.07297752797603607,0.05354545637965202,0.3259866535663605,0.07975737005472183,-0.3735033869743347,-1.288316249847412,0.3543267548084259,0.7212728261947632,0.5066901445388794,0.22862598299980164
1749029303.7587593,-0.5577004591571253,-0.512754039173462,-0.9744718670845032,-2.1065880260863246,-4.026685063038961,-0.11669665971864873,-0.01839114911854267,-0.021245285868644714,0.07077629119157791,0.052818458527326584,0.3315713703632355,0.07951419055461884,-0.3685823678970337,-1.3053078651428223,0.36077991127967834,0.7321978211402893,0.4792992174625397,0.21484753489494324
1749029303.7587965,-0.5577300230609339,-0.5127952855876465,-0.9743308424949646,-2.1064888439574183,-4.025986496602194,-0.11659604707826787,-0.018474573269486427,-0.02117583341896534,0.07131940126419067,0.0525650754570961,0.33062365651130676,0.08073803782463074,-0.3915221691131592,-1.2901298999786377,0.37431997060775757,0.7309265732765198,0.5041020512580872,0.22319428622722626
1749029303.7588334,-0.5577967802630823,-0.5128428500941773,-0.9741804003715515,-2.106432100335592,-4.025310579930441,-0.11636096635927373,-0.018967224285006523,-0.02120419777929783,0.07221900671720505,0.051519397646188736,0.33138328790664673,0.08136940747499466,-0.3743398189544678,-1.2983497381210327,0.37303629517555237,0.7226205468177795,0.5246703028678894,0.21807006001472473
1749029303.7588704,-0.5578034559832972,-0.5128666919520875,-0.9740580916404724,-2.1062938175597132,-4.024699274693624,-0.11622077623476201,-0.019322441890835762,-0.022060908377170563,0.0721794068813324,0.05107191205024719,0.3330833613872528,0.08239852637052536,-0.36814939975738525,-1.3176765441894531,0.36897772550582886,0.740463137626648,0.5115734338760376,0.2079472690820694
