nimar13/UR3e_dataset_trayectorias/trayectorias_ejecutadas/jtraj/trayectoria_062_result.csv
timestamp,q1,q2,q3,q4,q5,q6,qd1,qd2,qd3,qd4,qd5,qd6,tau1,tau2,tau3,tau4,tau5,tau6
1749026899.5947268,-2.9021502176867884,-1.2558133763125916,1.6534746328936976,5.648832011013784,3.364492893218994,-2.730734173451559,-0.04127443954348564,0.019167182967066765,0.005204207729548216,0.027556871995329857,0.05473640188574791,-0.04152003675699234,-0.21036826074123383,-0.7453778386116028,-0.694632351398468,0.10293224453926086,0.08954201638698578,-0.13049528002738953
1749026899.594777,-2.90220290819277,-1.2557541590980072,1.6534674803363245,5.648864495545187,3.3645336627960205,-2.730856720601217,-0.03973063826560974,0.018538791686296463,0.004658855963498354,0.02565048448741436,0.05091506242752075,-0.03819803521037102,-0.20605087280273438,-0.7418575286865234,-0.6817871928215027,0.10021045058965683,0.09893711656332016,-0.12759937345981598
1749026899.5948186,-2.902224604283468,-1.2557338041118165,1.6534984747516077,5.648927855282583,3.3646960258483887,-2.7309096495257776,-0.03527773171663284,0.017489029094576836,0.0043007074855268,0.02307945489883423,0.047717709094285965,-0.035447560250759125,-0.22796447575092316,-0.7381777167320251,-0.7049587368965149,0.11967108398675919,0.09292708337306976,-0.1461164355278015
1749026899.5948567,-2.9022727648364466,-1.255701707010605,1.653475586568014,5.6489412663276575,3.3647570610046387,-2.7309778372394007,-0.03408949077129364,0.016275698319077492,0.0036209002137184143,0.021223101764917374,0.04569210484623909,-0.03348281979560852,-0.2549789845943451,-0.7368072867393494,-0.6947259306907654,0.10085298120975494,0.09640093892812729,-0.14731183648109436
1749026899.5948946,-2.9023242632495325,-1.2556379598430176,1.6534794012652796,5.6489648697669885,3.364835739135742,-2.731021229420797,-0.03243798390030861,0.015675732865929604,0.0029433919116854668,0.019687408581376076,0.0430225133895874,-0.03091459907591343,-0.22641921043395996,-0.7324946522712708,-0.6961540579795837,0.10651951283216476,0.09740885347127914,-0.14868400990962982
1749026899.5949323,-2.9024503866778772,-1.2556260389140625,1.6534832159625452,5.6490317461784265,3.3648931980133057,-2.731042210255758,-0.03057093173265457,0.013810424134135246,0.0023579115513712168,0.018051058053970337,0.04047677665948868,-0.030115637928247452,-0.26292189955711365,-0.7370335459709167,-0.6876420378684998,0.12440796196460724,0.11374351382255554,-0.14421634376049042
1749026899.5949695,-2.9025068918811243,-1.2556178134730835,1.6534913221942347,5.649024712830343,3.3649682998657227,-2.7311490217791956,-0.030786992982029915,0.01308685913681984,0.0015941312303766608,0.017258334904909134,0.038316890597343445,-0.02880449965596199,-0.23957590758800507,-0.7326997518539429,-0.6848381161689758,0.09785379469394684,0.09380686283111572,-0.14008550345897675
1749026899.5950065,-2.9025474230395716,-1.2555745106986542,1.6534951368915003,5.649060714035787,3.3650360107421875,-2.7311771551715296,-0.026572251692414284,0.011667627841234207,0.0013288832269608974,0.016862668097019196,0.03601725026965141,-0.028305936604738235,-0.23875823616981506,-0.7108038067817688,-0.6932494640350342,0.13049885630607605,0.08131527900695801,-0.1551615297794342
1749026899.5950434,-2.9025874773608606,-1.2556046706489106,1.6534951368915003,5.6491121528442285,3.365142822265625,-2.7312374750720423,-0.024510053917765617,0.011119690723717213,0.0011027223663404584,0.01502726599574089,0.03310694918036461,-0.025451086461544037,-0.23989588022232056,-0.7191305160522461,-0.692938506603241,0.11143109947443008,0.09891532361507416,-0.13065597414970398
1749026899.59508,-2.902639929448263,-1.2555686396411438,1.6534794012652796,5.649136233120718,3.365206718444824,-2.7312658468829554,-0.022674772888422012,0.010237468406558037,0.001058348803780973,0.01358164194971323,0.03135884925723076,-0.02258881740272045,-0.2688971757888794,-0.7138410806655884,-0.692664623260498,0.12523111701011658,0.08937767893075943,-0.15304642915725708
1749026899.5951176,-2.902637783681051,-1.255537526016571,1.6534832159625452,5.649156558304586,3.365199565887451,-2.7313600222217005,-0.02183741144835949,0.007881611585617065,0.0009136779699474573,0.013347379863262177,0.027743233367800713,-0.021221499890089035,-0.23289936780929565,-0.6713965535163879,-0.67461758852005,0.12368214875459671,0.10472959280014038,-0.1350528746843338
1749026899.5951543,-2.902736012135641,-1.2555448573878785,1.6534984747516077,5.6491877911384485,3.3653032779693604,-2.7313993612872522,-0.020798761397600174,0.009584932588040829,0.0008812003652565181,0.012692945078015327,0.025439273566007614,-0.019029783084988594,-0.22352604568004608,-0.6958364248275757,-0.6814743876457214,0.1269860863685608,0.09391968697309494,-0.1350598931312561
1749026899.5951915,-2.902787987385885,-1.2555012565902253,1.6534794012652796,5.649211215763845,3.3652968406677246,-2.7313886324511927,-0.019475530833005905,0.00873566884547472,0.0008075305377133191,0.012343272566795349,0.022939413785934448,-0.01796196773648262,-0.2123522013425827,-0.7321551442146301,-0.6800207495689392,0.12963126599788666,0.10873468965291977,-0.16148439049720764
1749026899.5952282,-2.9028356711017054,-1.2554893654635926,1.6534794012652796,5.649228322296896,3.3653674125671387,-2.7314212957965296,-0.017782025039196014,0.006716158241033554,0.0007274230592884123,0.011638476513326168,0.022593218833208084,-0.01676110550761223,-0.20637300610542297,-0.7601070404052734,-0.6960104703903198,0.09204298257827759,0.09432301670312881,-0.1399642676115036
1749026899.595265,-2.902863327656881,-1.255457953815796,1.6534636656390589,5.649259197502889,3.3653995990753174,-2.7314725557910364,-0.015460904687643051,0.004594510421156883,0.0006607331451959908,0.010394918732345104,0.021165067330002785,-0.014621916227042675,-0.22234569489955902,-0.733859658241272,-0.691211998462677,0.1010773554444313,0.11039012670516968,-0.15284527838230133
1749026899.5953014,-2.9028573671924036,-1.2554810804179688,1.6534674803363245,5.649267899781027,3.3654544353485107,-2.731480900441305,-0.014655562117695808,0.0025886432267725468,0.0006051475065760314,0.009295787662267685,0.019119175150990486,-0.012963888235390186,-0.23098433017730713,-0.7286131381988525,-0.6916587948799133,0.06937351077795029,0.09206706285476685,-0.14376801252365112
1749026899.5953395,-2.902912680302755,-1.255472556953766,1.6534832159625452,5.64926432350234,3.365455389022827,-2.73150879541506,-0.013253660872578621,0.0018430365016683936,0.0004568753647617996,0.007197124417871237,0.018057534471154213,-0.011775409802794456,-0.19758009910583496,-0.7618148326873779,-0.7002367377281189,0.0779738575220108,0.09351055324077606,-0.1391254961490631
1749026899.5953767,-2.902952257786886,-1.2554460924914856,1.6534951368915003,5.649276244431295,3.3654916286468506,-2.7315638701068323,-0.01168058067560196,0.0014323509531095624,0.00038673458038829267,0.0046126749366521835,0.01588260941207409,-0.01062795240432024,-0.19043682515621185,-0.7801806330680847,-0.6891729831695557,0.054810188710689545,0.09060494601726532,-0.14660242199897766
1749026899.5954163,-2.902979914342062,-1.2554774445346375,1.6534722487079065,5.649279761105337,3.365551233291626,-2.731544558201925,-0.01036339346319437,0.0009502928587608039,0.00038853357546031475,0.002403614576905966,0.01404407899826765,-0.009055403992533684,-0.1734507977962494,-0.7931801080703735,-0.6785433292388916,0.05442558974027634,0.08679607510566711,-0.1280209720134735
1749026899.5954545,-2.9030423800097864,-1.255472556953766,1.6534951368915003,5.649272727757253,3.3655638694763184,-2.7315529028521937,-0.007308834232389927,0.0007796823047101498,0.0003914790286216885,0.0013605908025056124,0.012351433746516705,-0.006866774521768093,-0.13129785656929016,-0.7864829301834106,-0.6856846809387207,0.060347605496644974,0.07105101644992828,-0.1263597458600998
1749026899.595754,-2.9029930273639124,-1.255468950872757,1.6534794012652796,5.649272727757253,3.3655993938446045,-2.731561009083883,-0.004573537036776543,0.000664382241666317,0.0004238183901179582,0.0007965630502440035,0.011095653288066387,-0.004661522805690765,-0.1463768184185028,-0.799114465713501,-0.686549961566925,0.05627797544002533,0.05766143277287483,-0.10828740894794464
1749026899.5977619,-2.9030121008502405,-1.2554570001414795,1.6535032431231897,5.649295198708334,3.3655993938446045,-2.7315927187549036,-0.00273336935788393,0.0005788450944237411,0.00044286123011261225,0.0005702324560843408,0.008315332233905792,-0.0031151475850492716,-0.1282534897327423,-0.8250717520713806,-0.7101394534111023,0.059263676404953,0.008212648332118988,-0.10231644660234451
1749026899.6382792,-2.903008524571554,-1.2554570001414795,1.6534984747516077,5.649257230549612,3.3656187057495117,-2.731541935597555,-0.0004279772692825645,0.0005128291668370366,0.00042980918078683317,0.0001984128321055323,0.004787030629813671,-0.0017740139737725258,-0.11623415350914001,-0.833260178565979,-0.6883041262626648,0.038417041301727295,0.019969947636127472,-0.09504090249538422
1749026899.6383262,-2.9030121008502405,-1.2554652255824585,1.6534913221942347,5.649291682034292,3.365588665008545,-2.7316036860095423,-4.17560613641399e-06,0.0003778596583288163,0.00040643196552991867,-0.00041338748997077346,0.0023990790359675884,-0.0007465918315574527,-0.10416698455810547,-0.8516781330108643,-0.6900530457496643,0.024756401777267456,0.003765508532524109,-0.08364197611808777
1749026899.6383667,-2.9029739538775843,-1.2554810804179688,1.6534951368915003,5.649253654270925,3.365572929382324,-2.7315648237811487,-4.073974224638732e-08,0.0003341794654261321,0.00038476320332847536,-0.0011503315763548017,0.0011234022676944733,-0.0003991368575952947,-0.07606545090675354,-0.8503890633583069,-0.693105161190033,0.02440151572227478,-0.00762273371219635,-0.060680508613586426
1749026899.6384048,-2.9030001799212855,-1.2554450792125245,1.653475586568014,5.64926432350234,3.3655922412872314,-2.731571976338522,0.003339918330311775,0.0002371618029428646,0.00046130860573612154,-0.0019447039812803268,-0.00043810144416056573,-0.00020700546156149358,-0.06290823221206665,-0.8829292058944702,-0.6898776888847351,0.017539508640766144,-0.03800688683986664,-0.07906704396009445
1749026899.6384428,-2.9029691855060022,-1.2554966372302552,1.6534913221942347,5.649279761105337,3.3656113147735596,-2.731612030659811,0.0039186966605484486,-3.80829515052028e-05,0.0004319789004512131,-0.002410060027614236,-0.0012556861620396376,-5.109424819238484e-05,-0.10245466232299805,-0.8910187482833862,-0.6893184185028076,0.030593864619731903,-0.03666429966688156,-0.0429309606552124
1749026899.6384807,-2.9029763380633753,-1.2554847759059449,1.6534603277789515,5.649252164154806,3.3655645847320557,-2.7316036860095423,0.003834090894088149,-0.00021271574951242656,0.000395003124140203,-0.0023605828173458576,-0.0022214276250451803,-9.028889508044813e-06,-0.08213252574205399,-0.8993278741836548,-0.6898998618125916,0.0177970752120018,-0.046248987317085266,-0.0394323468208313
1749026899.6385188,-2.902984682713644,-1.2555435460856934,1.6534636656390589,5.649252164154806,3.365591049194336,-2.7316001097308558,0.004116668365895748,-0.0003260988160036504,0.0003631364379543811,-0.0024012690410017967,-0.003741803113371134,-1.5954994978528703e-06,-0.05442199110984802,-0.9037972688674927,-0.6932501196861267,0.01015450805425644,-0.062026336789131165,-0.042382195591926575
1749026899.6385567,-2.9029064814196985,-1.255531446342804,1.6534636656390589,5.649267899781027,3.365536689758301,-2.7315338293658655,0.005280478857457638,-0.0015203329967334867,0.00039402852416969836,-0.002333330688998103,-0.004257283639162779,0.0025849200319498777,-0.06299819052219391,-0.9127978086471558,-0.6776635646820068,-0.0002728477120399475,-0.06926587224006653,-0.03836555778980255
1749026899.6385944,-2.9029017130481165,-1.2555241149714966,1.6534636656390589,5.649236726551809,3.365583896636963,-2.731560293828146,0.0053286198526620865,-0.0016115842154249549,0.0003745887952391058,-0.002228718949481845,-0.003902747994288802,0.004627735819667578,-0.07064107060432434,-0.894879937171936,-0.6826083064079285,0.001725122332572937,-0.0734470933675766,-0.05110850930213928
1749026899.6386313,-2.902912680302755,-1.2555012863925477,1.6534722487079065,5.649255680828848,3.3655600547790527,-2.7315529028521937,0.00581046799197793,-0.0016559921205043793,0.00035074492916464806,-0.002068249275907874,-0.0032793604768812656,0.00431561516597867,-0.06152714788913727,-0.9329043626785278,-0.6814777851104736,0.003181569278240204,-0.09940150380134583,-0.06661190092563629
1749026899.6386688,-2.902905527745382,-1.2555314165404816,1.6534951368915003,5.649255680828848,3.365567445755005,-2.7315481344806116,0.005826488137245178,-0.0016481966013088822,0.00032938754884526134,-0.0019016992300748825,-0.0029576444067060947,0.003549891524016857,-0.0650634914636612,-0.9128683805465698,-0.6711244583129883,-0.002145126461982727,-0.10394111275672913,-0.03456515073776245
1749026899.6387062,-2.9028850237475794,-1.2555012863925477,1.6534794012652796,5.6492212293441675,3.3655550479888916,-2.731544558201925,0.005902446806430817,-0.0015318101504817605,0.00035520244273357093,-0.001755746896378696,-0.0036029373295605183,0.0025197186041623354,-0.07702239602804184,-0.9402339458465576,-0.6721448302268982,0.010265029966831207,-0.12284958362579346,-0.024985119700431824
1749026899.638743,-2.902868096028463,-1.2554857295802613,1.6535070578204554,5.649255680828848,3.365558624267578,-2.7315290609942835,0.005116818472743034,-0.0014722723281010985,0.00034201942617073655,-0.001587746781297028,-0.004506234545260668,0.002016314072534442,-0.08288967609405518,-0.9278213977813721,-0.6667600870132446,0.010146811604499817,-0.12149134278297424,-0.027650997042655945
1749026899.6387837,-2.902872864400045,-1.255504922275879,1.6535070578204554,5.649247276573934,3.3655550479888916,-2.731513563786642,0.004727786872535944,-0.0014071166515350342,0.0003590238920878619,-0.001435688929632306,-0.004304913803935051,0.0016725310124456882,-0.05310533940792084,-0.9521255493164062,-0.6735995411872864,0.009481854736804962,-0.12160789966583252,-0.02058178186416626
1749026899.6388223,-2.9028454462634485,-1.255548582678177,1.6534913221942347,5.649243759899893,3.3655083179473877,-2.7315519491778772,0.0042939321137964725,-0.0015352513873949647,0.00035222270525991917,-0.0013320028083398938,-0.0036946148611605167,0.001396834384649992,-0.03517194092273712,-0.9406174421310425,-0.6687906384468079,-0.000659354031085968,-0.12803678214550018,-0.017971426248550415
1749026899.6388593,-2.9028573671924036,-1.2554930013469239,1.6534636656390589,5.649240243225851,3.3655190467834473,-2.7315481344806116,0.0035088127478957176,-0.0013833524426445365,0.00034908382804133,-0.0011495599756017327,-0.0032844909001141787,0.001396532403305173,-0.06192672252655029,-0.93677818775177,-0.6685565710067749,-0.01372990757226944,-0.12677840888500214,-0.012722328305244446
1749026899.6388965,-2.9028764406787317,-1.2555253070643921,1.6534794012652796,5.6491970894630334,3.3654699325561523,-2.7315171400653284,0.0031879006419330835,-0.0011521721025928855,0.00036098816781304777,-0.001141548971645534,-0.002970003755763173,0.0016079485649242997,-0.07075522094964981,-0.9290359020233154,-0.67589271068573,0.011505521833896637,-0.13113579154014587,-0.032994344830513
1749026899.6389327,-2.902868096028463,-1.255516843204834,1.6534794012652796,5.649228322296896,3.365480899810791,-2.7315052191363733,0.0024475071113556623,-0.0009498000727035105,0.0003661038354039192,-0.001141436048783362,-0.0027128502260893583,0.0015582327032461762,-0.034378841519355774,-0.9475666284561157,-0.6548746824264526,0.009003028273582458,-0.12398113310337067,-0.019097253680229187
1749026899.6389704,-2.902841869984762,-1.2555326980403443,1.6534951368915003,5.6492318389709375,3.3654844760894775,-2.731544558201925,0.002175810979679227,-0.0008075664518401027,0.0003943174087908119,-0.0011866317363455892,-0.0025864497292786837,0.0014615990221500397,-0.02885592170059681,-0.9526716470718384,-0.6562011241912842,0.021837659180164337,-0.13848641514778137,-0.017999961972236633
1749026899.6390066,-2.902849022542135,-1.2555131179145356,1.6535070578204554,5.649221288948812,3.365480661392212,-2.731501642857687,0.0016663031419739127,-0.0007024387014098465,0.0004243148141540587,-0.0012066009221598506,-0.002740701427683234,0.0012969241943210363,-0.04335890710353851,-0.917887806892395,-0.6543607115745544,-0.004125282168388367,-0.12476323544979095,-0.019914135336875916
1749026899.6397338,-2.902802292500631,-1.2555012863925477,1.6534951368915003,5.649212884693899,3.3655154705047607,-2.731513563786642,0.001212910981848836,-0.0005190817755647004,0.0008955671801231802,-0.0010270967613905668,-0.002690323395654559,0.0012102526379749179,-0.02566676400601864,-0.8823628425598145,-0.6384554505348206,0.018261544406414032,-0.12689124047756195,-0.01901964843273163
1749026899.6416948,-2.902802292500631,-1.2555012863925477,1.6534951368915003,5.649212884693899,3.3655154705047607,-2.731513563786642,0.001212910981848836,-0.0005190817755647004,0.0008955671801231802,-0.0010270967613905668,-0.002690323395654559,0.0012102526379749179,-0.02566676400601864,-0.8823628425598145,-0.6384554505348206,0.018261544406414032,-0.12689124047756195,-0.01901964843273163
1749026899.6822808,-2.9028335253344935,-1.2555012863925477,1.653487507496969,5.649228322296896,3.3655035495758057,-2.731486145650045,0.0009548938251100481,-0.0004644535656552762,0.001963820308446884,-0.00086923036724329,-0.0026007567066699266,0.0011088834144175053,-0.05033912509679794,-0.8498470783233643,-0.6228488683700562,0.014909066259860992,-0.12251600623130798,-0.022656455636024475
1749026899.6823277,-2.9028263727771204,-1.255513147716858,1.6534960905658167,5.649212884693899,3.3654725551605225,-2.731520716344015,0.000670001667458564,-0.000233538041356951,0.004306302405893803,-0.0006574457511305809,-0.0019232240738347173,0.0009490459342487156,-0.07520624250173569,-0.8305363655090332,-0.6613246202468872,0.023197002708911896,-0.12085625529289246,-0.007261931896209717
1749026899.6823707,-2.9028764406787317,-1.2555485528758545,1.6534960905658167,5.649235415249624,3.3655035495758057,-2.7315052191363733,0.0005831578746438026,0.00013646608567796648,0.0036700970958918333,-0.0005857481155544519,-0.0015155271394178271,0.0008619635482318699,-0.1060449406504631,-0.7882757782936096,-0.666903018951416,0.012731947004795074,-0.1250796616077423,-0.007485255599021912
1749026899.6824095,-2.902841869984762,-1.255470172767975,1.6535537878619593,5.6492318389709375,3.3655264377593994,-2.731473509465353,0.00041410952690057456,0.0002948784385807812,0.0029689869843423367,-0.0005281918565742671,-0.0013623882550746202,0.0007737356936559081,-0.09877046942710876,-0.7835713624954224,-0.6587658524513245,0.022082187235355377,-0.15040452778339386,-0.01578788459300995
1749026899.6824472,-2.9028213659869593,-1.2554857295802613,1.653534237538473,5.649212884693899,3.365488052368164,-2.7315052191363733,0.000307691574562341,0.00036157850991003215,0.0024204393848776817,-0.0005377146881073713,-0.0010726391337811947,0.0006991260452196002,-0.12147267907857895,-0.7728258371353149,-0.6680722236633301,-0.015386678278446198,-0.14008729159832,-0.015890851616859436
1749026899.682484,-2.9028058687793177,-1.2555085581592103,1.653539005910055,5.649228322296896,3.365468740463257,-2.73150879541506,0.0002560175198595971,0.00034550196141935885,0.0020658981520682573,-0.000552304380107671,-0.0010980904335156083,0.0006371999043039978,-0.14968585968017578,-0.7638468742370605,-0.6557724475860596,-0.010635510087013245,-0.151903435587883,-0.028104692697525024
1749026899.6825216,-2.9028871695147913,-1.2554820340922852,1.653539005910055,5.649247276573934,3.3654532432556152,-2.7315052191363733,-0.0003756285586860031,0.0011364227393642068,0.0018393220379948616,-0.0005139809800311923,-0.002119682263582945,0.0005852800095453858,-0.162477508187294,-0.7420504093170166,-0.6588372588157654,-0.025925971567630768,-0.15656276047229767,-0.024079635739326477
1749026899.682559,-2.902868096028463,-1.255457953815796,1.653539005910055,5.649216401367941,3.3654651641845703,-2.731497112904684,-0.00255906512029469,0.0011001159437000751,0.0017595462268218398,-0.0014326502569019794,-0.003417881205677986,0.0005411732709035277,-0.15676075220108032,-0.7346517443656921,-0.667872428894043,-0.04950743913650513,-0.1669691652059555,-0.036537185311317444
1749026899.6825957,-2.90283710161318,-1.2555085581592103,1.653567139302389,5.64920066574172,3.365483522415161,-2.731501642857687,-0.0033730953000485897,0.0010693017393350601,0.0016070324927568436,-0.0033606821671128273,-0.0043652537278831005,0.0005032756016589701,-0.18311700224876404,-0.7527114748954773,-0.669059693813324,-0.04284599423408508,-0.18882139027118683,-0.04986162483692169
1749026899.682633,-2.9028802553759974,-1.2554774445346375,1.6535704771624964,5.6492318389709375,3.3654325008392334,-2.7315052191363733,-0.003412847872823477,0.0010735101532191038,0.0014615721302106977,-0.004793050233274698,-0.005495171528309584,0.00047034313320182264,-0.21105153858661652,-0.7338885068893433,-0.684616208076477,-0.05722424387931824,-0.19341941177845,-0.03148479759693146
1749026899.6826704,-2.902883593236105,-1.2554774445346375,1.6535351912127894,5.6491970894630334,3.365436315536499,-2.7315052191363733,-0.004114791750907898,0.001210567425005138,0.0011639066506177187,-0.006059030536562204,-0.006998051423579454,0.00044145286665298045,-0.2467799037694931,-0.7411861419677734,-0.6836831569671631,-0.06487998366355896,-0.2131376713514328,-0.036727070808410645
1749026899.6827078,-2.9028993288623255,-1.2554893654635926,1.653579060231344,5.6491771815116785,3.365447998046875,-2.7314897219287317,-0.005346645601093769,0.001172121032141149,0.0009573466377332807,-0.007890164852142334,-0.009648507460951805,0.00041592324851080775,-0.2629907727241516,-0.7372149229049683,-0.6925188302993774,-0.05693905055522919,-0.21488569676876068,-0.03964720666408539
1749026899.6827445,-2.9029272238360804,-1.2555003327182312,1.653567139302389,5.649118590145864,3.365407705307007,-2.7315126101123255,-0.0070175426080822945,0.0013130555162206292,0.0008127597975544631,-0.00970678124576807,-0.012015404179692268,0.0003931841056328267,-0.2666381001472473,-0.7263449430465698,-0.707486093044281,-0.0877504050731659,-0.23138734698295593,-0.0610869899392128
1749026899.6827817,-2.902923647557394,-1.2554810804179688,1.6535595099078577,5.649172293930807,3.3653533458709717,-2.7315171400653284,-0.007920132018625736,0.0012283700052648783,0.0007061453652568161,-0.011234764009714127,-0.014313634485006332,0.00037279949174262583,-0.2548671364784241,-0.7339451313018799,-0.7290228009223938,-0.07573255896568298,-0.2215539515018463,-0.052544206380844116
1749026899.682819,-2.902912680302755,-1.2555436056903382,1.6535633246051233,5.6491256830985925,3.365349292755127,-2.7315052191363733,-0.009328835643827915,0.0011508933966979384,0.0006242560339160264,-0.012974892742931843,-0.016138825565576553,0.00035443491651676595,-0.2557970881462097,-0.724216878414154,-0.7310125827789307,-0.08353631943464279,-0.23703938722610474,-0.05533387511968613
1749026899.6828566,-2.9029162565814417,-1.2554930013469239,1.6535633246051233,5.649077760964193,3.3653013706207275,-2.7314897219287317,-0.009564938023686409,0.0010805781930685043,0.0005595007096417248,-0.015433800406754017,-0.017651930451393127,0.0003377935790922493,-0.2601746916770935,-0.7060672044754028,-0.7448261976242065,-0.10126175731420517,-0.2336122691631317,-0.056438446044921875
1749026899.6829019,-2.9029439131366175,-1.2554665070823212,1.6535351912127894,5.649077760964193,3.365281343460083,-2.7315052191363733,-0.01007145270705223,0.0009737357031553984,0.0004341578751336783,-0.01682100258767605,-0.020270008593797684,0.0003226409025955945,-0.2860202491283417,-0.7220401763916016,-0.7320729494094849,-0.09050702303647995,-0.21584445238113403,-0.06677635759115219
1749026899.6829445,-2.9029691855060022,-1.2554689210704346,1.653567139302389,5.649019169598379,3.365248680114746,-2.731520716344015,-0.011572974734008312,0.0008809596765786409,0.0003868739877361804,-0.01674537919461727,-0.021353863179683685,0.0003087976947426796,-0.28148412704467773,-0.6971462965011597,-0.7556589245796204,-0.0789024755358696,-0.2133636772632599,-0.058927685022354126
1749026899.6829817,-2.9030192534076136,-1.2555003327182312,1.6535552183734339,5.649005639344015,3.365224838256836,-2.7315362135516565,-0.012659537605941296,0.000881468178704381,0.0003211847215425223,-0.016512617468833923,-0.020856637507677078,0.00029609090415760875,-0.29460957646369934,-0.7103897929191589,-0.7668284177780151,-0.07967127859592438,-0.21663957834243774,-0.08198278397321701
1749026899.6830192,-2.9030171076404017,-1.2554774445346375,1.6535475889789026,5.648988950043478,3.365138053894043,-2.731513563786642,-0.013141951523721218,0.000909162568859756,0.00026602219440974295,-0.01586669310927391,-0.02056381106376648,0.0002721134515013546,-0.33343175053596497,-0.698016881942749,-0.7839750051498413,-0.08093567192554474,-0.20922449231147766,-0.054893165826797485
1749026899.6836765,-2.9030638376819056,-1.2554930013469239,1.653531853352682,5.648976790695944,3.3651015758514404,-2.7315171400653284,-0.014541295357048512,0.0013038835022598505,0.00018866830214392394,-0.015512312762439251,-0.018280355259776115,0.0002434937487123534,-0.30113476514816284,-0.7280943393707275,-0.7865036129951477,-0.08771490305662155,-0.20280945301055908,-0.07349702715873718
1749026899.6856964,-2.9030376116382044,-1.2554689210704346,1.6535514036761683,5.648925530701437,3.365081787109375,-2.731497828160421,-0.015254820697009563,0.0012746636057272553,-0.00014262614422477782,-0.014974483288824558,-0.0170961432158947,0.00023134087678045034,-0.31448835134506226,-0.7172802686691284,-0.811895489692688,-0.08389817923307419,-0.21166521310806274,-0.09388121962547302
1749026899.7262793,-2.9030805269824427,-1.2555003327182312,1.653539005910055,5.648877608567037,3.365053415298462,-2.7315171400653284,-0.016912249848246574,0.0012112725526094437,-0.00028947932878509164,-0.015247205272316933,-0.016591180115938187,0.00022259318211581558,-0.29842260479927063,-0.7073333263397217,-0.8178993463516235,-0.0855427235364914,-0.22003088891506195,-0.06932464987039566
1749026899.7263236,-2.9031949679004114,-1.2555195850184937,1.6535232702838343,5.648881184845724,3.3650641441345215,-2.731540028248922,-0.01811991073191166,0.0010653984500095248,-0.0019178615184500813,-0.015551493503153324,-0.017071159556508064,0.00021493021631613374,-0.30602219700813293,-0.7158901691436768,-0.8321154117584229,-0.11093468964099884,-0.2059563249349594,-0.07276389747858047
1749026899.726364,-2.9031527678119105,-1.2555003327182312,1.6535552183734339,5.648841607361593,3.3649933338165283,-2.731501642857687,-0.01779160462319851,0.0009692601743154228,-0.002197135239839554,-0.015681160613894463,-0.015442918054759502,9.151151607511565e-05,-0.30418819189071655,-0.7300808429718018,-0.8294355869293213,-0.11389967799186707,-0.22841258347034454,-0.07431939244270325
1749026899.7264023,-2.9032042662249964,-1.2554689210704346,1.6535351912127894,5.648836779385366,3.3649959564208984,-2.7314980665790003,-0.01824752613902092,0.0009561130427755415,-0.0023592126090079546,-0.015714086592197418,-0.014561974443495274,5.6895169109338894e-05,-0.2768591642379761,-0.720802903175354,-0.850145161151886,-0.11197949945926666,-0.222429558634758,-0.07392686605453491
1749026899.7264402,-2.9032331148730677,-1.2554606360248108,1.6535308996783655,5.648778188019552,3.364933729171753,-2.7315171400653284,-0.01788639836013317,0.0008134640520438552,-0.002183282980695367,-0.01652550883591175,-0.014899454079568386,3.501597893773578e-05,-0.31612342596054077,-0.7350771427154541,-0.8863766193389893,-0.11560811847448349,-0.24756905436515808,-0.07791291177272797
1749026899.7264779,-2.9032607714282435,-1.2554450792125245,1.6535151640521448,5.6487663862998865,3.364933729171753,-2.7315362135516565,-0.01773584634065628,0.000786461983807385,-0.0022834746632725,-0.017644362524151802,-0.014807803556323051,6.1876903600932565e-06,-0.2966078519821167,-0.715751051902771,-0.8973970413208008,-0.147325798869133,-0.26970598101615906,-0.09361273050308228
1749026899.7265153,-2.903269116078512,-1.2554761928370972,1.6535232702838343,5.648757982044973,3.3648905754089355,-2.7315171400653284,-0.018740633502602577,0.0007288369815796614,-0.0036908606998622417,-0.01824408769607544,-0.015839558094739914,1.0934298870779458e-06,-0.3096246123313904,-0.7350459098815918,-0.913645327091217,-0.1489720344543457,-0.28309062123298645,-0.10408085584640503
1749026899.7265546,-2.9033482710467737,-1.2554689210704346,1.6535080114947718,5.648733901768484,3.364865779876709,-2.731525484715597,-0.019105181097984314,0.0006535056163556874,-0.005182271357625723,-0.020038040354847908,-0.018203137442469597,1.9322052935422107e-07,-0.30192700028419495,-0.7305870056152344,-0.9140690565109253,-0.16373734176158905,-0.27628400921821594,-0.1105305477976799
1749026899.7265925,-2.9033687750445765,-1.2554378074458619,1.6535032431231897,5.648710059910574,3.3648102283477783,-2.73153263727297,-0.019322751089930534,0.0005920841358602047,-0.006291394587606192,-0.02256004884839058,-0.02015177346765995,3.4144093774557405e-08,-0.2899669110774994,-0.7222186326980591,-0.9142223000526428,-0.16543973982334137,-0.2742096185684204,-0.09272706508636475
1749026899.7266297,-2.903447930012838,-1.2555003327182312,1.6535032431231897,5.648658561497488,3.3647708892822266,-2.7315171400653284,-0.020084189251065254,0.0005412037717178464,-0.005870848428457975,-0.025448814034461975,-0.02146637812256813,6.033619381895505e-09,-0.296895831823349,-0.7557797431945801,-0.9382284879684448,-0.18671363592147827,-0.295318603515625,-0.11268916726112366
1749026899.7266665,-2.903468434010641,-1.255472556953766,1.6534994284259241,5.648643064289846,3.3647544384002686,-2.731513563786642,-0.02023773454129696,0.0004983782419003546,-0.00641590217128396,-0.026872558519244194,-0.023132096976041794,-0.0010710770729929209,-0.29778853058815,-0.7357441186904907,-0.9486259818077087,-0.18279853463172913,-0.29059386253356934,-0.10894696414470673
1749026899.7267048,-2.9034886995898646,-1.2554450792125245,1.6534722487079065,5.648559200554647,3.3647217750549316,-2.731513563786642,-0.020324964076280594,0.00046183503582142293,-0.008090442046523094,-0.028381649404764175,-0.023353328928351402,-0.0013393649132922292,-0.29277247190475464,-0.7451804876327515,-0.9474073648452759,-0.20309653878211975,-0.30444177985191345,-0.10391658544540405
1749026899.7267447,-2.9035332838641565,-1.2554606360248108,1.6534832159625452,5.6485270140464685,3.364655017852783,-2.731544558201925,-0.020935053005814552,0.00043028712389059365,-0.009369077160954475,-0.030788803473114967,-0.02564108744263649,-0.0012660593492910266,-0.2730374038219452,-0.7423558235168457,-0.9464429020881653,-0.20080770552158356,-0.3199424147605896,-0.12607505917549133
1749026899.7267814,-2.903616015111105,-1.2554378074458619,1.6534550825702112,5.64843629577712,3.3645718097686768,-2.731544558201925,-0.021434834226965904,0.00040277023799717426,-0.009690524078905582,-0.03320200741291046,-0.028131455183029175,-0.0012965267524123192,-0.28513970971107483,-0.7135295867919922,-0.9456334710121155,-0.20807357132434845,-0.3129909038543701,-0.1389971226453781
1749026899.726818,-2.903687063847677,-1.2554450792125245,1.6534431616412562,5.648410844593801,3.364534616470337,-2.7315409819232386,-0.021659350022673607,0.0003785662120208144,-0.010467404499650002,-0.03467617928981781,-0.03105587512254715,-0.0012750398600474,-0.3071255683898926,-0.7246371507644653,-0.9798843264579773,-0.21390751004219055,-0.3259257674217224,-0.14061999320983887
1749026899.7268543,-2.903665367756979,-1.2554378074458619,1.6534469763385218,5.648307847767629,3.3644943237304688,-2.7315529028521937,-0.021985739469528198,0.0003571049601305276,-0.010674296878278255,-0.03632349893450737,-0.03277861326932907,-0.0012452381197363138,-0.31493470072746277,-0.7592064142227173,-0.9856696724891663,-0.2265545129776001,-0.3201198875904083,-0.11257705092430115
1749026899.726891,-2.9037602583514612,-1.2554378074458619,1.6534112135516565,5.648247766285696,3.364396333694458,-2.7315338293658655,-0.023235928267240524,0.00033794232876971364,-0.011194352991878986,-0.03810027986764908,-0.035191942006349564,-0.0013333222595974803,-0.28885167837142944,-0.7422877550125122,-0.9920622706413269,-0.23646968603134155,-0.3220330774784088,-0.14317499101161957
1749026899.726927,-2.903787676488058,-1.2554219526103516,1.6533644835101526,5.648145067482748,3.3643598556518555,-2.731537405644552,-0.023470306769013405,0.00032074045157060027,-0.012175077572464943,-0.04079751670360565,-0.03656405583024025,-0.0014260509051382542,-0.3007197380065918,-0.7330052852630615,-0.9794300198554993,-0.21560874581336975,-0.3190867304801941,-0.13247987627983093
1749026899.7269635,-2.9038286844836634,-1.2554606658271332,1.6533525625811976,5.648064660816946,3.364224672317505,-2.731544558201925,-0.023737376555800438,0.0003052009269595146,-0.011738191358745098,-0.044396474957466125,-0.03839416056871414,-0.0018700732616707683,-0.3101441562175751,-0.7471247911453247,-0.963828980922699,-0.23124483227729797,-0.32314446568489075,-0.14782316982746124
1749026899.7269998,-2.9038994948016565,-1.2554689210704346,1.6533005873309534,5.647961723595419,3.36417555809021,-2.7315338293658655,-0.02316415123641491,0.0002910973271355033,-0.012185157276690006,-0.04379122704267502,-0.0404786691069603,-0.0020672029349952936,-0.3433419167995453,-0.7470308542251587,-0.9767091870307922,-0.24416571855545044,-0.3279537558555603,-0.14360129833221436
1749026899.7277122,-2.9039321581469935,-1.2554884117892762,1.6532967726336878,5.647900926857748,3.364112377166748,-2.7315409819232386,-0.024505024775862694,0.0002782410883810371,-0.012346397154033184,-0.0450710654258728,-0.04163164272904396,-0.0023621285799890757,-0.3466135561466217,-0.7522403001785278,-0.9892107248306274,-0.2704394459724426,-0.34342604875564575,-0.149110347032547
1749026899.729681,-2.9039993921863,-1.2554761928370972,1.6532805601703089,5.647805082588949,3.3639819622039795,-2.7315881888019007,-0.027755867689847946,0.0002664710918907076,-0.013663318939507008,-0.04836154729127884,-0.04239845648407936,-0.002381313592195511,-0.3035551905632019,-0.7425456047058105,-0.9883383512496948,-0.23432591557502747,-0.3492177724838257,-0.1591288298368454
1749026899.770493,-2.9040330092059534,-1.2554496687701722,1.653240982686178,5.64769737699584,3.3639140129089355,-2.7315648237811487,-0.027470329776406288,0.0002556562831159681,-0.013689391314983368,-0.0498378649353981,-0.044500529766082764,-0.0023350294213742018,-0.3243606686592102,-0.7383787631988525,-0.9738508462905884,-0.2453595995903015,-0.3486884534358978,-0.147497296333313
1749026899.77057,-2.904092852269308,-1.2554847759059449,1.6532357374774378,5.647585975914755,3.3638527393341064,-2.7315529028521937,-0.027751773595809937,0.00024568691151216626,-0.013660456985235214,-0.04968636482954025,-0.04616276174783707,-0.002510294783860445,-0.30745741724967957,-0.7426999807357788,-0.9967873096466064,-0.23616516590118408,-0.3508915603160858,-0.16700419783592224
1749026899.7706392,-2.9041481653796595,-1.2554847759059449,1.6531999746905726,5.647459256439962,3.3637497425079346,-2.731549326573507,-0.029200639575719833,0.0002364648098591715,-0.013509819284081459,-0.048911936581134796,-0.04682840034365654,-0.0031321013811975718,-0.3138827681541443,-0.7509661912918091,-0.9896451234817505,-0.26421380043029785,-0.37130093574523926,-0.18245507776737213
1749026899.770708,-2.904196325932638,-1.2554615896991272,1.6531880537616175,5.647398161679067,3.3636412620544434,-2.7316046396838587,-0.029849156737327576,0.00022790783259551972,-0.014364217408001423,-0.050321441143751144,-0.04726625233888626,-0.00417192280292511,-0.2998952865600586,-0.7308788299560547,-0.978771448135376,-0.26964735984802246,-0.37611034512519836,-0.16286133229732513
1749026899.7707758,-2.9042959848987024,-1.2554738086513062,1.6531561056720179,5.647271084576406,3.3635621070861816,-2.7315855661975306,-0.02932397462427616,0.00021995253337081522,-0.01459104847162962,-0.052398812025785446,-0.048469770699739456,-0.005099872592836618,-0.3472522795200348,-0.7409175634384155,-0.9872416257858276,-0.26680558919906616,-0.3833356201648712,-0.15210787951946259
1749026899.7708435,-2.9043715635882776,-1.2554798883250733,1.6531279722796839,5.6471478817756555,3.363490104675293,-2.7315855661975306,-0.02981100231409073,0.00021253249724395573,-0.014815380796790123,-0.054533232003450394,-0.050156112760305405,-0.004834308288991451,-0.36615630984306335,-0.7469710111618042,-1.0064456462860107,-0.2692001461982727,-0.3944593071937561,-0.15063290297985077
1749026899.7709103,-2.904393259678976,-1.2554450792125245,1.6531079451190394,5.647062647133627,3.36336612701416,-2.7316249052630823,-0.03269027918577194,0.00020559482800308615,-0.01494434755295515,-0.05639108270406723,-0.052103765308856964,-0.00428956001996994,-0.3384076952934265,-0.7530326843261719,-1.0133143663406372,-0.2573160231113434,-0.41810646653175354,-0.1491820067167282
1749026899.7709756,-2.9045122305499476,-1.2554884117892762,1.6530683676349085,5.6469397423561,3.3632619380950928,-2.7316249052630823,-0.034390173852443695,0.00019909896946046501,-0.015211655758321285,-0.05794557183980942,-0.05425509810447693,-0.003908899612724781,-0.31903040409088135,-0.7412195205688477,-1.0151273012161255,-0.26565292477607727,-0.41958674788475037,-0.16502942144870758
1749026899.7710407,-2.9045444170581263,-1.2554761928370972,1.6530407110797327,5.646828222065725,3.3631045818328857,-2.731640402470724,-0.03445535898208618,0.00019299954874441028,-0.015090098604559898,-0.059455983340740204,-0.05527835339307785,-0.003738932078704238,-0.3618115782737732,-0.7583279609680176,-1.0189064741134644,-0.27092909812927246,-0.43991807103157043,-0.14330263435840607
1749026899.7711074,-2.9046083132373255,-1.2554533642581482,1.653013054524557,5.646665799408712,3.363062858581543,-2.7316368261920374,-0.03529861569404602,0.00018726247071754187,-0.01560411136597395,-0.06176471337676048,-0.05825056508183479,-0.0038191566709429026,-0.3584902286529541,-0.7726898193359375,-1.0320930480957031,-0.2759837508201599,-0.4308813214302063,-0.1590401530265808
1749026899.7711735,-2.9046292940722864,-1.2554847759059449,1.6529772917376917,5.646564769535818,3.3629310131073,-2.7316558996783655,-0.03601288050413132,0.00018185688531957567,-0.015688704326748848,-0.06394879519939423,-0.060492221266031265,-0.005175246857106686,-0.3366377651691437,-0.7774673700332642,-1.0257492065429688,-0.26476961374282837,-0.4364732801914215,-0.16975083947181702
1749026899.7712383,-2.9047520796405237,-1.255492017870285,1.6529572645770472,5.64642612913207,3.362741231918335,-2.7316885630237024,-0.03813173621892929,0.0001767545472830534,-0.016302911564707756,-0.06574252247810364,-0.06178158149123192,-0.005758581683039665,-0.34905919432640076,-0.7469707727432251,-1.034886360168457,-0.25968289375305176,-0.42437684535980225,-0.14494512975215912
1749026899.7713022,-2.904797617589132,-1.255492017870285,1.652921501790182,5.646285760193624,3.3626132011413574,-2.7316606680499476,-0.03767048940062523,0.00017192958330269903,-0.01603890024125576,-0.0680539608001709,-0.06301066279411316,-0.005617999937385321,-0.3389776051044464,-0.7613327503204346,-1.0431183576583862,-0.2501620054244995,-0.42189687490463257,-0.15198206901550293
1749026899.7713678,-2.904916588460104,-1.255464331512787,1.6528971830951136,5.6461389539535425,3.362489938735962,-2.7316885630237024,-0.0388028547167778,0.0001673636434134096,-0.017423288896679878,-0.06954856961965561,-0.06643202155828476,-0.00480306101962924,-0.34556815028190613,-0.7394371032714844,-1.0411443710327148,-0.2552480101585388,-0.4497019350528717,-0.14019924402236938
1749026899.771432,-2.9049885908709925,-1.2554606360248108,1.6528962294207972,5.64599888303832,3.3623616695404053,-2.7317383925067347,-0.04008561000227928,0.00016303248412441462,-0.018369115889072418,-0.07095185667276382,-0.07062978297472,-0.003580621909350157,-0.3443444073200226,-0.7766588926315308,-1.0425667762756348,-0.25387340784072876,-0.418108731508255,-0.15553641319274902
1749026899.7714975,-2.905048433934347,-1.2554606360248108,1.6528375784503382,5.645839381008901,3.362241506576538,-2.7316814104663294,-0.04198436811566353,0.0001589195744600147,-0.018583856523036957,-0.0757584497332573,-0.07090304791927338,-0.00298561854287982,-0.336092472076416,-0.7488396167755127,-1.0388729572296143,-0.23901760578155518,-0.40497371554374695,-0.15601566433906555
1749026899.7715616,-2.905070130025045,-1.2554378074458619,1.652773682271139,5.64569245555953,3.3620901107788086,-2.731704060231344,-0.04275970160961151,0.0001550097658764571,-0.018591756001114845,-0.07671666890382767,-0.07242336869239807,-0.002990548498928547,-0.3544900715351105,-0.7535750865936279,-1.0561692714691162,-0.2127184271812439,-0.4208243489265442,-0.16935135424137115
1749026899.7716262,-2.9052444140063685,-1.2554533642581482,1.652773682271139,5.645533251553335,3.3619067668914795,-2.731677834187643,-0.044704630970954895,0.0001512873568572104,-0.018774397671222687,-0.07469318807125092,-0.0764063149690628,-0.004850635305047035,-0.35295382142066956,-0.7686431407928467,-1.0697919130325317,-0.24305382370948792,-0.41633379459381104,-0.15088419616222382
1749026899.7716916,-2.9053402582751673,-1.2554341119578858,1.6527331511126917,5.64541910865859,3.361802101135254,-2.7317166964160364,-0.045170143246650696,0.00014773933799006045,-0.020206347107887268,-0.07433520257472992,-0.07826273888349533,-0.006145461928099394,-0.353753000497818,-0.7659305334091187,-1.0636438131332397,-0.25549569725990295,-0.39718031883239746,-0.15268054604530334
1749026899.7717571,-2.9053776899920862,-1.2554533642581482,1.6526969114886683,5.645249473839559,3.361607551574707,-2.73173958459963,-0.046168506145477295,0.00014435422781389207,-0.02128366380929947,-0.07654206454753876,-0.08220287412405014,-0.0063029988668859005,-0.34130778908729553,-0.7689011096954346,-1.0431582927703857,-0.23891262710094452,-0.38239017128944397,-0.15152740478515625
1749026899.7719133,-2.905468765889303,-1.2554378670505066,1.6527007261859339,5.645085382252493,3.3614673614501953,-2.731724802647726,-0.04681411758065224,0.00014112090866547078,-0.021396901458501816,-0.07691661268472672,-0.08337324112653732,-0.005673673003911972,-0.35385364294052124,-0.7624694108963013,-1.0602989196777344,-0.2408778965473175,-0.3692164719104767,-0.14515464007854462
1749026899.77379,-2.9055493513690394,-1.2554570001414795,1.6526215712176722,5.64494143703536,3.36130428314209,-2.7317758242236536,-0.047372326254844666,0.0001380288158543408,-0.02123626321554184,-0.08046041429042816,-0.08085645735263824,-0.004727782681584358,-0.3673759400844574,-0.7538590431213379,-1.0641613006591797,-0.23159781098365784,-0.38630738854408264,-0.1630495935678482
1749026899.8145125,-2.905653778706686,-1.2554847759059449,1.6525581518756312,5.644774246006765,3.3610661029815674,-2.7317758242236536,-0.04817229136824608,0.00013506980030797422,-0.02227858267724514,-0.08070586621761322,-0.0813726857304573,-0.0044958931393921375,-0.3977040648460388,-0.7786659002304077,-1.0566048622131348,-0.21493089199066162,-0.37705767154693604,-0.15104903280735016
1749026899.8145916,-2.9057534376727503,-1.2554496687701722,1.6525033156024378,5.644594299584188,3.360992908477783,-2.7317994276629847,-0.049613725394010544,0.00013223472342360765,-0.022955019026994705,-0.0769149586558342,-0.08259899169206619,-0.00520583800971508,-0.39837491512298584,-0.7610490322113037,-1.0538331270217896,-0.25852108001708984,-0.38376590609550476,-0.17449365556240082
1749026899.8146632,-2.9058614412890833,-1.2554884117892762,1.652478043233053,5.644442128926077,3.3608248233795166,-2.731760327016012,-0.050831519067287445,0.0001295154943363741,-0.023586934432387352,-0.07785870879888535,-0.08280032873153687,-0.005812518764287233,-0.3936895728111267,-0.7691673040390015,-1.0861449241638184,-0.268566370010376,-0.39461004734039307,-0.1481686532497406
1749026899.8147306,-2.9060044924365442,-1.2554533642581482,1.6524542013751429,5.6442869184310815,3.3605995178222656,-2.7317803541766565,-0.05270722880959511,0.00012690717994701117,-0.024706566706299782,-0.08049266040325165,-0.08247018605470657,-0.005879935808479786,-0.3745664358139038,-0.7794477939605713,-1.069207787513733,-0.2752164602279663,-0.40935593843460083,-0.15511533617973328
1749026899.8148031,-2.9062095324145716,-1.255479858522751,1.6523345152484339,5.6439358470733545,3.3603177070617676,-2.731823269520895,-0.05412948131561279,0.00012199176853755489,-0.02494245022535324,-0.08371740579605103,-0.08385393023490906,-0.004837938584387302,-0.36874473094940186,-0.7710016965866089,-1.068054437637329,-0.2934720516204834,-0.4067392349243164,-0.14947079122066498
1749026899.8148727,-2.9062095324145716,-1.255479858522751,1.6523345152484339,5.6439358470733545,3.3603177070617676,-2.731823269520895,-0.05412948131561279,0.00012199176853755489,-0.02494245022535324,-0.08371740579605103,-0.08385393023490906,-0.004837938584387302,-0.36874473094940186,-0.7710016965866089,-1.068054437637329,-0.2934720516204834,-0.4067392349243164,-0.14947079122066498
1749026899.814942,-2.9062827269183558,-1.2554652255824585,1.6522863546954554,5.643752801209249,3.360116720199585,-2.7318041960345667,-0.05748920515179634,0.00011967511818511412,-0.025414131581783295,-0.08501497656106949,-0.08314221352338791,-0.0055704317055642605,-0.3179462254047394,-0.7723621129989624,-1.0421427488327026,-0.27717429399490356,-0.42880284786224365,-0.17516371607780457
1749026899.8150103,-2.906463925038473,-1.2554570001414795,1.6522224585162562,5.643604564457693,3.3599488735198975,-2.731839958821432,-0.054699841886758804,0.0001174441640614532,-0.025987863540649414,-0.08714213222265244,-0.08396656066179276,-0.006310582160949707,-0.3792552947998047,-0.7770113945007324,-1.0641894340515137,-0.27531057596206665,-0.4316853880882263,-0.14610540866851807
1749026899.8150795,-2.906557861958639,-1.2554533642581482,1.6521747748004358,5.643421101361074,3.3597846031188965,-2.731852356587545,-0.056826118379831314,0.00011529434414114803,-0.026488156989216805,-0.09007488191127777,-0.08446735143661499,-0.006607400253415108,-0.3633783459663391,-0.7744543552398682,-1.069596767425537,-0.2755966782569885,-0.47293582558631897,-0.17495650053024292
1749026899.8151464,-2.906665865574972,-1.2554616195014496,1.6521146933185022,5.643229412823477,3.359617233276367,-2.7319029013263147,-0.058609738945961,0.0001132227698690258,-0.02789170667529106,-0.09209306538105011,-0.08645454049110413,-0.006286139599978924,-0.3690101206302643,-0.7664903402328491,-1.05902898311615,-0.2786007523536682,-0.45980915427207947,-0.1260422170162201
1749026899.8152084,-2.9067774454699915,-1.2554414433291932,1.65208608308901,5.643027412682333,3.3594565391540527,-2.7318487803088587,-0.0601477213203907,0.00011122402793262154,-0.027412768453359604,-0.09463631361722946,-0.08985424041748047,-0.005005406681448221,-0.3663020730018616,-0.785173773765564,-1.0681335926055908,-0.29192715883255005,-0.45509204268455505,-0.1687442660331726
1749026899.8152711,-2.9069517294513147,-1.2554378074458619,1.6520345846759241,5.64285837390975,3.3592772483825684,-2.7318761984454554,-0.058325015008449554,0.00010929426935035735,-0.02665322832763195,-0.09789441525936127,-0.09318967163562775,-0.00448718061670661,-0.3946269452571869,-0.7931478023529053,-1.0793051719665527,-0.2750920057296753,-0.45715224742889404,-0.17540739476680756
1749026899.815336,-2.9070656935321253,-1.2554652255824585,1.6519830862628382,5.6426632879074,3.3590545654296875,-2.7318881193744105,-0.06068946421146393,0.00010743069287855178,-0.026481973007321358,-0.10031432658433914,-0.09219460189342499,-0.004747220780700445,-0.3727530837059021,-0.7786916494369507,-1.1133102178573608,-0.2823408842086792,-0.4724165201187134,-0.15687304735183716
1749026899.815402,-2.9071617762195032,-1.2554652255824585,1.6519272963153284,5.642436909466543,3.3589019775390625,-2.7318761984454554,-0.06130481883883476,0.0001056294931913726,-0.02759113907814026,-0.10342233628034592,-0.09442545473575592,-0.005855833645910025,-0.34756964445114136,-0.7963589429855347,-1.1100846529006958,-0.2603718042373657,-0.4922620952129364,-0.17113442718982697
1749026899.8154688,-2.9072817007647913,-1.2554487747005005,1.651891056691305,5.642240750580587,3.35867977142334,-2.7319348494159144,-0.06226734071969986,0.00010388720693299547,-0.02858520671725273,-0.10641372948884964,-0.09757669270038605,-0.006664807442575693,-0.38980957865715027,-0.8135277032852173,-1.0887000560760498,-0.2688369154930115,-0.4823743402957916,-0.16718517243862152
1749026899.8155346,-2.9074488321887415,-1.2554643017104645,1.6518314520465296,5.642033505230703,3.3585073947906494,-2.7319238821612757,-0.06347021460533142,3.812083014054224e-05,-0.028040233999490738,-0.10728439688682556,-0.10468704253435135,-0.006146586965769529,-0.36891013383865356,-0.8350545167922974,-1.1074920892715454,-0.24704080820083618,-0.46235427260398865,-0.15188215672969818
1749026899.8155973,-2.907537285481588,-1.2554919880679627,1.6517952124225062,5.641809630184927,3.358241558074951,-2.731943670903341,-0.06495442986488342,3.055433262488805e-05,-0.029395079240202904,-0.11053556203842163,-0.10569606721401215,-0.005051493179053068,-0.404572069644928,-0.8512676954269409,-1.126486897468567,-0.2714146077632904,-0.4687332510948181,-0.18653900921344757
1749026899.815662,-2.907665793095724,-1.2554450792125245,1.651766602193014,5.641590583115377,3.358029842376709,-2.7319517771350306,-0.06726495921611786,2.9977905796840787e-05,-0.03095531277358532,-0.11377496272325516,-0.10639985650777817,-0.005746150854974985,-0.3451416492462158,-0.8497753143310547,-1.1097888946533203,-0.22605721652507782,-0.4706735610961914,-0.17704860866069794
1749026899.8157246,-2.9078293482409876,-1.2554810506156464,1.6516717115985315,5.641332256584921,3.357755661010742,-2.7319517771350306,-0.06866542249917984,2.9486209314200096e-05,-0.030658084899187088,-0.11014405637979507,-0.10947296768426895,-0.006567507516592741,-0.36884427070617676,-0.8722087144851685,-1.1312305927276611,-0.2812861204147339,-0.4689221978187561,-0.15549859404563904
1749026899.8157637,-2.9079890886889856,-1.2554570001414795,1.6516121069537562,5.64114277341918,3.3575620651245117,-2.7319446245776575,-0.07037990540266037,2.9010983780608512e-05,-0.030538080260157585,-0.11108796298503876,-0.11155948787927628,-0.007893998175859451,-0.3391211926937103,-0.8659361600875854,-1.133538007736206,-0.2553447484970093,-0.47107940912246704,-0.175876647233963
1749026899.816728,-2.9082542101489466,-1.2554847759059449,1.651491943989889,5.640668856888571,3.3571200370788574,-2.7320151964770716,-0.06971772760152817,2.8105023375246674e-05,-0.03374892473220825,-0.11490119248628616,-0.11823497712612152,-0.006612120661884546,-0.3792556822299957,-0.8621664047241211,-1.1134591102600098,-0.25563564896583557,-0.4090633988380432,-0.17099878191947937
1749026899.8176587,-2.9082542101489466,-1.2554847759059449,1.651491943989889,5.640668856888571,3.3571200370788574,-2.7320151964770716,-0.06971772760152817,2.8105023375246674e-05,-0.03374892473220825,-0.11490119248628616,-0.11823497712612152,-0.006612120661884546,-0.3792556822299957,-0.8621664047241211,-1.1134591102600098,-0.25563564896583557,-0.4090633988380432,-0.17099878191947937
1749026899.858285,-2.9084020296679896,-1.2554689210704346,1.6514008680926722,5.640417444496908,3.3569116592407227,-2.7320268789874476,-0.07176317274570465,1.4270992323872633e-05,-0.03408396244049072,-0.11240316927433014,-0.11859015375375748,-0.006836095824837685,-0.33589133620262146,-0.874787449836731,-1.1006921529769897,-0.29321959614753723,-0.41235145926475525,-0.15751783549785614
1749026899.8583314,-2.908565346394674,-1.2554570001414795,1.6513484160052698,5.640232729702749,3.3566486835479736,-2.7320433298694056,-0.06952495127916336,1.3631178262585308e-05,-0.03396597132086754,-0.11426082253456116,-0.11973439902067184,-0.0075355335138738155,-0.38350945711135864,-0.8738856315612793,-1.1338766813278198,-0.28809863328933716,-0.41160547733306885,-0.13669967651367188
1749026899.8583724,-2.9087324778186243,-1.2554652255824585,1.6512606779681605,5.639993357449331,3.3563930988311768,-2.732032124196188,-0.07304666191339493,1.3423786185740028e-05,-0.03488641604781151,-0.11696698516607285,-0.1199779286980629,-0.0073605929501354694,-0.40979623794555664,-0.8900265693664551,-1.1351158618927002,-0.3135848045349121,-0.4254470467567444,-0.1725129783153534
1749026899.8584108,-2.908853594456808,-1.2554292243770142,1.6511886755572718,5.639734613686361,3.356166362762451,-2.7320709864245813,-0.07539010792970657,1.3097060502786917e-07,-0.034862518310546875,-0.1204642504453659,-0.12022554874420166,-0.007089344784617424,-0.3722720146179199,-0.8862769603729248,-1.1174328327178955,-0.2852676808834076,-0.4268028736114502,-0.1692640781402588
1749026899.858449,-2.908978287373678,-1.255425588493683,1.651132885609762,5.639483558922567,3.355919122695923,-2.732067410145895,-0.07697579264640808,1.2778286206938105e-09,-0.036622222512960434,-0.12394911050796509,-0.12106597423553467,-0.006949510890990496,-0.3550538420677185,-0.8978084325790405,-1.1120619773864746,-0.30058881640434265,-0.43558648228645325,-0.14811578392982483
1749026899.858488,-2.9091463724719446,-1.2554689210704346,1.6510608831988733,5.6392013905342,3.355721950531006,-2.7321067492114466,-0.07704728841781616,1.2467272873795121e-11,-0.03675574064254761,-0.12770946323871613,-0.11994245648384094,-0.007570110727101564,-0.3855624198913574,-0.9003794193267822,-1.108940839767456,-0.28296369314193726,-0.45082685351371765,-0.16019845008850098
1749026899.8585262,-2.9093061129199427,-1.255472556953766,1.6509888807879847,5.638949739723959,3.355471611022949,-2.7320948282824915,-0.07819211483001709,1.2163828158693463e-13,-0.036540474742650986,-0.1295166015625,-0.12226788699626923,-0.0071659996174275875,-0.3594866693019867,-0.9153190851211548,-1.112350583076477,-0.25934135913848877,-0.4522021412849426,-0.14932525157928467
1749026899.8585649,-2.9095006624804896,-1.255507544880249,1.6509173552142542,5.638701903610983,3.3551855087280273,-2.732083861027853,-0.07974950969219208,1.1867766977276977e-15,-0.03607837110757828,-0.1341169774532318,-0.12488383799791336,-0.006513141095638275,-0.3839254081249237,-0.928869366645813,-1.1291486024856567,-0.27197232842445374,-0.45679789781570435,-0.16583386063575745
1749026899.8586028,-2.9096530119525355,-1.2554847759059449,1.6508730093585413,5.6384227750594995,3.354922294616699,-2.732131067906515,-0.0801256000995636,-0.000971017696429044,-0.03650931268930435,-0.13399972021579742,-0.12574268877506256,-0.0061695026233792305,-0.381487637758255,-0.9261597394943237,-1.137376070022583,-0.25203651189804077,-0.4746653735637665,-0.1602044701576233
1749026899.85864,-2.909837786351339,-1.2554966372302552,1.6507733503924769,5.638123559742727,3.3546860218048096,-2.732131067906515,-0.08093276619911194,-0.0010137601057067513,-0.036961767822504044,-0.1337570697069168,-0.12868060171604156,-0.006756083574146032,-0.36259233951568604,-0.9227226972579956,-1.1491949558258057,-0.2677518129348755,-0.4632679224014282,-0.16061559319496155
1749026899.858678,-2.909996573125021,-1.2554651957801362,1.6507328192340296,5.637863564282217,3.3544023036956787,-2.7321584860431116,-0.08108282834291458,-0.000829195196274668,-0.037559062242507935,-0.13771674036979675,-0.136433407664299,-0.00765125872567296,-0.4214683473110199,-0.9086340665817261,-1.1552622318267822,-0.2701284885406494,-0.43570128083229065,-0.15376681089401245
1749026899.858715,-2.910165611897604,-1.2554847759059449,1.650626007710592,5.637568938523092,3.3541316986083984,-2.732182327901022,-0.08375828713178635,-0.0007000865298323333,-0.038630977272987366,-0.1377989947795868,-0.1368103176355362,-0.00750644039362669,-0.3808063268661499,-0.9219092130661011,-1.1521122455596924,-0.24422623217105865,-0.4281277656555176,-0.1677526980638504
1749026899.858752,-2.910372320805685,-1.2554737788489838,1.6505420843707483,5.63729755857543,3.3538360595703125,-2.732171599064962,-0.08508982509374619,-0.0007140586385503411,-0.039033859968185425,-0.13568788766860962,-0.137760192155838,-0.007795628160238266,-0.3655126690864563,-0.9406687021255493,-1.147715449333191,-0.2808988392353058,-0.43009138107299805,-0.15735451877117157
1749026899.8587894,-2.910513703023092,-1.2554496985724946,1.6504581610309046,5.637006807118215,3.353530168533325,-2.732171599064962,-0.08508004248142242,-0.0006404632586054504,-0.03923756629228592,-0.13584096729755402,-0.14092318713665009,-0.00770201999694109,-0.3809797167778015,-0.9549833536148071,-1.1532158851623535,-0.28697818517684937,-0.41439592838287354,-0.1537705808877945
1749026899.858827,-2.9106627146350306,-1.2555085879615326,1.6503742376910608,5.636750328331747,3.3532581329345703,-2.7321835199939173,-0.08859378844499588,-0.0005726339295506477,-0.039080146700143814,-0.13832977414131165,-0.1395052969455719,-0.00827684998512268,-0.34286510944366455,-0.9597784280776978,-1.1635851860046387,-0.289213091135025,-0.4174072742462158,-0.1810021847486496
1749026899.858864,-2.910853449498312,-1.2554341715625306,1.6502869764911097,5.6364784119422815,3.352947473526001,-2.732211414967672,-0.08661156892776489,-0.0006011124351061881,-0.039674196392297745,-0.14088764786720276,-0.13791239261627197,-0.008770793676376343,-0.3702491521835327,-0.9706341028213501,-1.1652965545654297,-0.2783816456794739,-0.44819197058677673,-0.14312304556369781
1749026899.8589015,-2.911030117665426,-1.2554533642581482,1.6502187887774866,5.636141109257498,3.352715253829956,-2.732246224080221,-0.09041468799114227,-0.0006045334157533944,-0.040213413536548615,-0.14382410049438477,-0.13654346764087677,-0.008727085776627064,-0.3747631311416626,-0.973647952079773,-1.1737041473388672,-0.2926294207572937,-0.45259714126586914,-0.17186453938484192
1749026899.8589394,-2.911187473927633,-1.2554725867560883,1.6501663366900843,5.6358603713806055,3.3524088859558105,-2.732262674962179,-0.08847608417272568,-0.0005816776538267732,-0.04044904187321663,-0.14620018005371094,-0.14149263501167297,-0.009070021100342274,-0.40064042806625366,-0.984272837638855,-1.162531852722168,-0.2873574495315552,-0.4295147955417633,-0.1661948561668396
1749026899.8589764,-2.911374632512228,-1.2554810804179688,1.6500666777240198,5.635558056622305,3.352128744125366,-2.7322517077075403,-0.09105882793664932,-0.0005187071510590613,-0.04155522957444191,-0.15113018453121185,-0.1396961212158203,-0.008879464119672775,-0.40088528394699097,-0.9865285158157349,-1.1698429584503174,-0.2630379796028137,-0.455684632062912,-0.1573392152786255
1749026899.859013,-2.9116018454181116,-1.2554774445346375,1.6499946753131312,5.635265874653616,3.351893901824951,-2.7322829405414026,-0.09373980015516281,-0.0005573048838414252,-0.04291277751326561,-0.1538158655166626,-0.14208579063415527,-0.008976330049335957,-0.3551344871520996,-0.9770078659057617,-1.1694982051849365,-0.23742148280143738,-0.47161316871643066,-0.1579713523387909
1749026899.8597074,-2.9117706457721155,-1.2554305058768769,1.6499303022967737,5.634932029038229,3.351574659347534,-2.732307259236471,-0.09451951831579208,-0.0005853408365510404,-0.04213538020849228,-0.15566401183605194,-0.14888447523117065,-0.009260918013751507,-0.38930031657218933,-1.006085991859436,-1.1916428804397583,-0.2811405658721924,-0.47640204429626465,-0.1547214835882187
1749026899.8616776,-2.911938730870382,-1.2554652255824585,1.6498234907733362,5.634605455189504,3.3512673377990723,-2.732314650212423,-0.09557723999023438,-0.0010637586237862706,-0.04162440448999405,-0.1597769558429718,-0.14815987646579742,-0.00951346568763256,-0.4124641418457031,-1.025341510772705,-1.203924298286438,-0.2313643991947174,-0.49708056449890137,-0.16611456871032715
1749026899.9022865,-2.9121859709369105,-1.2555003625205536,1.6497553030597132,5.634312855988302,3.350996971130371,-2.732377831135885,-0.09827035665512085,-0.0012060216395184398,-0.04318782687187195,-0.1581224948167801,-0.15199564397335052,-0.009436540305614471,-0.35610103607177734,-1.0177395343780518,-1.209214687347412,-0.25145047903060913,-0.5042005777359009,-0.16751892864704132
1749026899.9023333,-2.9123852888690394,-1.2554774445346375,1.6496875921832483,5.634025800019064,3.350653648376465,-2.7323861757861536,-0.09608714282512665,-0.001189917209558189,-0.04433990269899368,-0.1601102501153946,-0.1566130518913269,-0.009187973104417324,-0.36704832315444946,-1.0134769678115845,-1.202318787574768,-0.25699275732040405,-0.46823564171791077,-0.14608317613601685
1749026899.9023764,-2.912577454243795,-1.2554847759059449,1.6496036688434046,5.633679675846853,3.3503339290618896,-2.732370440159933,-0.09950773417949677,-0.0012227825354784727,-0.046170007437467575,-0.158015176653862,-0.158804789185524,-0.008960031904280186,-0.36171796917915344,-1.0387078523635864,-1.187421202659607,-0.2790309190750122,-0.4820103645324707,-0.15810564160346985
1749026899.9024215,-2.912696186696188,-1.2555158895305176,1.6495197455035608,5.633379268437185,3.3500771522521973,-2.7323876062976282,-0.09807654470205307,-0.00134987139608711,-0.04565458372235298,-0.15732033550739288,-0.1612040400505066,-0.008715471252799034,-0.43108245730400085,-1.0425626039505005,-1.1990957260131836,-0.3091656565666199,-0.48394614458084106,-0.16212457418441772
1749026899.9024622,-2.9129508177386683,-1.2555003327182312,1.6494043509112757,5.63307152965621,3.3497352600097656,-2.732433621083395,-0.1010064035654068,-0.0016414251876994967,-0.04527754336595535,-0.15983402729034424,-0.1617560088634491,-0.008423633873462677,-0.4177013039588928,-1.0609318017959595,-1.2340753078460693,-0.3278055191040039,-0.49147218465805054,-0.1587265133857727
1749026899.9025006,-2.9131861368762415,-1.2555158597281952,1.6493085066424769,5.632716882019796,3.349395751953125,-2.7324145475970667,-0.10262461006641388,-0.0018103978363797069,-0.048160143196582794,-0.16362565755844116,-0.16169936954975128,-0.008807634003460407,-0.3760644793510437,-1.0511555671691895,-1.1936196088790894,-0.3184594511985779,-0.48305487632751465,-0.16278746724128723
1749026899.9025388,-2.913347069417135,-1.255504922275879,1.6492202917682093,5.63235108831481,3.3489983081817627,-2.7324309984790247,-0.10254475474357605,-0.0018844357691705227,-0.04792572557926178,-0.16718332469463348,-0.1638926863670349,-0.009246141649782658,-0.4171241819858551,-1.0656577348709106,-1.218104600906372,-0.2991672158241272,-0.5126731395721436,-0.16778238117694855
1749026899.9025807,-2.913798157368795,-1.2555012863925477,1.6489899794207972,5.631632971554556,3.348378896713257,-2.7324703375445765,-0.10574523359537125,-0.002283500274643302,-0.049844902008771896,-0.17719829082489014,-0.1700545847415924,-0.009643957950174809,-0.41433611512184143,-1.0510755777359009,-1.1846246719360352,-0.28255122900009155,-0.49544769525527954,-0.13766920566558838
1749026899.9026196,-2.913798157368795,-1.2555012863925477,1.6489899794207972,5.631632971554556,3.348378896713257,-2.7324703375445765,-0.10574523359537125,-0.002283500274643302,-0.049844902008771896,-0.17719829082489014,-0.1700545847415924,-0.009643957950174809,-0.41433611512184143,-1.0510755777359009,-1.1846246719360352,-0.28255122900009155,-0.49544769525527954,-0.13766920566558838
1749026899.9026573,-2.913983408604757,-1.2554929715446015,1.6489012877093714,5.631269323616781,3.3480279445648193,-2.732537810002462,-0.10580246150493622,-0.0030049635097384453,-0.04997140169143677,-0.178106427192688,-0.16981549561023712,-0.009232995100319386,-0.3721667230129242,-1.0717118978500366,-1.1993895769119263,-0.2510926425457001,-0.47502151131629944,-0.16202789545059204
1749026899.9026952,-2.914207998906271,-1.2555131179145356,1.6487591902362269,5.63092582204894,3.34769868850708,-2.732525889073507,-0.10714782029390335,-0.0029214564710855484,-0.0496072955429554,-0.17646290361881256,-0.17139196395874023,-0.009141558781266212,-0.4136870503425598,-1.077488660812378,-1.1931748390197754,-0.26862749457359314,-0.4800146818161011,-0.14983677864074707
1749026899.902736,-2.914443079625265,-1.2555640798858185,1.6487014929400843,5.630602645664968,3.347317695617676,-2.7325425783740442,-0.10922326147556305,-0.0031891842372715473,-0.05005312338471413,-0.17962761223316193,-0.17913661897182465,-0.009344345889985561,-0.40893828868865967,-1.0794076919555664,-1.198201060295105,-0.23482993245124817,-0.4477132558822632,-0.16319924592971802
1749026899.9027743,-2.914647165928976,-1.2555641394904633,1.6486056486712855,5.630231427937307,3.346954822540283,-2.7325742880450647,-0.11010151356458664,-0.002949069021269679,-0.052023470401763916,-0.17544685304164886,-0.1788662075996399,-0.009434773586690426,-0.3867833614349365,-1.0782835483551025,-1.1917212009429932,-0.28479331731796265,-0.456110417842865,-0.14817705750465393
1749026899.9028113,-2.914902989064352,-1.2555327278426667,1.6484702269183558,5.629894661694326,3.3465476036071777,-2.732570473347799,-0.11366166174411774,-0.0031530901324003935,-0.05212521180510521,-0.17641453444957733,-0.18100935220718384,-0.009676533751189709,-0.37502825260162354,-1.1034445762634277,-1.1931723356246948,-0.2836689352989197,-0.4543215334415436,-0.15444085001945496
1749026899.9028487,-2.9151156584369105,-1.2555094224265595,1.6483591238604944,5.629513072758474,3.3462133407592773,-2.732609812413351,-0.10968536883592606,-0.004236495587974787,-0.052733100950717926,-0.17737902700901031,-0.18185772001743317,-0.009687650017440319,-0.44262176752090454,-1.084559679031372,-1.1831756830215454,-0.3143811821937561,-0.44445598125457764,-0.15925294160842896
1749026899.9028893,-2.9153507391559046,-1.2555486124804993,1.648278538380758,5.629192042141714,3.3459384441375732,-2.73266846338381,-0.11503555625677109,-0.0050919740460813046,-0.05395321920514107,-0.17893020808696747,-0.1801762729883194,-0.009491946548223495,-0.41190338134765625,-1.0584964752197266,-1.1884527206420898,-0.30380088090896606,-0.43228045105934143,-0.1588922142982483
1749026899.9029284,-2.915544335042135,-1.2556036871722718,1.6481240431415003,5.628798413067617,3.3455753326416016,-2.7326419989215296,-0.1135392114520073,-0.004898676648736,-0.054113734513521194,-0.18404620885849,-0.182623952627182,-0.00976528599858284,-0.4322119355201721,-1.0864002704620361,-1.1723411083221436,-0.3220566213130951,-0.4300828278064728,-0.15530449151992798
1749026899.9029663,-2.9157634417163294,-1.2555854183486481,1.6480510870562952,5.628435599594869,3.3452160358428955,-2.7326610724078577,-0.11685816943645477,-0.0043950993567705154,-0.05414427071809769,-0.18739639222621918,-0.17945128679275513,-0.010538413189351559,-0.3915840983390808,-1.0700194835662842,-1.180088758468628,-0.30552080273628235,-0.45580238103866577,-0.1542072594165802
1749026899.9030035,-2.916081492100851,-1.255643443470337,1.6479433218585413,5.628052699356832,3.3448293209075928,-2.732701126729147,-0.117465078830719,-0.003715199651196599,-0.056824617087841034,-0.19433987140655518,-0.18458865582942963,-0.010484292171895504,-0.3840606212615967,-1.0869834423065186,-1.1621674299240112,-0.27659329771995544,-0.4749060273170471,-0.14899685978889465
1749026899.903044,-2.9162748495685022,-1.2556201976588746,1.64783221880068,5.627649831562795,3.3444671630859375,-2.732724968587057,-0.12024518847465515,-0.003496819408610463,-0.05430332198739052,-0.19258520007133484,-0.18268966674804688,-0.010335851460695267,-0.3704403042793274,-1.082461953163147,-1.1785184144973755,-0.2862934172153473,-0.519379198551178,-0.14887256920337677
1749026899.903671,-2.916542355214254,-1.2555576127818604,1.6477277914630335,5.6272862432296655,3.344104051589966,-2.732717577611105,-0.11804895848035812,-0.0041214292868971825,-0.054900217801332474,-0.19379976391792297,-0.1853690892457962,-0.009984096512198448,-0.4343183636665344,-1.1065369844436646,-1.1838805675506592,-0.3114280700683594,-0.5194178819656372,-0.15407419204711914
1749026899.9056797,-2.9167705217944544,-1.2555540365031739,1.6476476828204554,5.626914667874136,3.3437161445617676,-2.732734028493063,-0.11955554038286209,-0.004484219942241907,-0.054829154163599014,-0.19279927015304565,-0.18886815011501312,-0.00958411768078804,-0.3977576196193695,-1.1018692255020142,-1.176774263381958,-0.2977237403392792,-0.5035252571105957,-0.14944589138031006
1749026899.9462879,-2.916936699544088,-1.2556479436210175,1.6474931875811976,5.626519965916433,3.3433446884155273,-2.732758108769552,-0.12227651476860046,-0.0048563480377197266,-0.058563318103551865,-0.19255755841732025,-0.1914253681898117,-0.009819218888878822,-0.4225582182407379,-1.1050000190734863,-1.1613577604293823,-0.3205033242702484,-0.49993711709976196,-0.1586483120918274
1749026899.9463334,-2.91720420518984,-1.2556092006019135,1.6474011580096644,5.6261178133781335,3.342942237854004,-2.7327807585345667,-0.12412820756435394,-0.0047373357228934765,-0.05586931109428406,-0.19346357882022858,-0.19408592581748962,-0.01022022683173418,-0.4220815896987915,-1.1095515489578247,-1.1712604761123657,-0.36664220690727234,-0.5167175531387329,-0.15459613502025604
1749026899.946374,-2.917428795491354,-1.2556287807277222,1.6472581068622034,5.625741469651022,3.342581272125244,-2.732797447835104,-0.12513893842697144,-0.004228898789733648,-0.05693428963422775,-0.19737564027309418,-0.19815143942832947,-0.01016472838819027,-0.4330423176288605,-1.1046465635299683,-1.1874685287475586,-0.35143065452575684,-0.5058901906013489,-0.1401381641626358
1749026899.9464126,-2.9177120367633265,-1.2556406420520325,1.6471927801715296,5.625346708088674,3.3421664237976074,-2.7328248659717005,-0.1257701963186264,-0.004037922248244286,-0.058321595191955566,-0.20121480524539948,-0.2008807510137558,-0.010094979777932167,-0.43259477615356445,-1.126750111579895,-1.177519679069519,-0.3798729479312897,-0.4886009395122528,-0.1438409835100174
1749026899.9464507,-2.9179869333850306,-1.2556480330279847,1.6470573584186,5.624874460488119,3.341740608215332,-2.732833210621969,-0.12593968212604523,-0.00342052080668509,-0.05820335075259209,-0.20528361201286316,-0.20206445455551147,-0.010105443187057972,-0.3965054750442505,-1.1312731504440308,-1.1520426273345947,-0.31362229585647583,-0.4612017869949341,-0.14657311141490936
1749026899.9464886,-2.918161217366354,-1.2556250852397461,1.6469219366656702,5.624508309155264,3.341395378112793,-2.7328694502459925,-0.12453053146600723,-0.003517834935337305,-0.05657810717821121,-0.20987512171268463,-0.20390447974205017,-0.009633169509470463,-0.34661051630973816,-1.1212009191513062,-1.122391700744629,-0.2400970458984375,-0.4338836073875427,-0.15037183463573456
1749026899.9465349,-2.918471876774923,-1.2556913656047364,1.6468022505389612,5.6240824339683435,3.340963840484619,-2.7328885237323206,-0.12263191491365433,-0.003628243925049901,-0.05464857816696167,-0.20515865087509155,-0.20039905607700348,-0.009266522713005543,-0.4014139771461487,-1.1429882049560547,-1.1545689105987549,-0.28433507680892944,-0.45734456181526184,-0.16201215982437134
1749026899.946574,-2.918680969868795,-1.2556370061687012,1.6466978232013147,5.62369470575408,3.3405494689941406,-2.7328932921039026,-0.12463898211717606,-0.003941120579838753,-0.054817020893096924,-0.2063935548067093,-0.2020256370306015,-0.01014958880841732,-0.4137157201766968,-1.1281601190567017,-1.1709582805633545,-0.2857833504676819,-0.49486812949180603,-0.16780592501163483
1749026899.946612,-2.918917481099264,-1.2556489270976563,1.6465781370746058,5.623264658242025,3.340100049972534,-2.7328932921039026,-0.12661834061145782,-0.0036277943290770054,-0.05720401182770729,-0.20385831594467163,-0.20382928848266602,-0.010516154579818249,-0.5304757952690125,-1.1699450016021729,-1.1961840391159058,-0.3596842586994171,-0.49243366718292236,-0.1640772819519043
1749026899.9466536,-2.9192286173449915,-1.2556766730597992,1.6464512983905237,5.622864830284872,3.33974027633667,-2.732929531727926,-0.13282349705696106,-0.004018418025225401,-0.06120787933468819,-0.20579959452152252,-0.20735959708690643,-0.010943394154310226,-0.4444630742073059,-1.1535953283309937,-1.1748547554016113,-0.3717540204524994,-0.47944605350494385,-0.17292869091033936
1749026899.946692,-2.919541899357931,-1.2557040613940735,1.6463354269610804,5.622469711094656,3.339308261871338,-2.732980791722433,-0.1393483430147171,-0.004761373158544302,-0.06278609484434128,-0.20991650223731995,-0.20941004157066345,-0.01124526746571064,-0.40287983417510986,-1.158483862876892,-1.1567556858062744,-0.3893929421901703,-0.4696728587150574,-0.1626957505941391
1749026899.946729,-2.919718090687887,-1.2556730073741456,1.6462343374835413,5.622058856278219,3.3389203548431396,-2.7329772154437464,-0.13737359642982483,-0.004724608268588781,-0.06268852204084396,-0.21463267505168915,-0.2119879424571991,-0.011959778144955635,-0.42041271924972534,-1.148557186126709,-1.147405982017517,-0.36947476863861084,-0.4812088906764984,-0.1538122296333313
1749026899.946766,-2.9200082460986536,-1.2557391685298462,1.6460989157306116,5.621621060162344,3.3384931087493896,-2.733016554509298,-0.13846255838871002,-0.004958877339959145,-0.061143677681684494,-0.2169492244720459,-0.20752893388271332,-0.01206087227910757,-0.44557449221611023,-1.1620923280715942,-1.1767911911010742,-0.4025028347969055,-0.5169233083724976,-0.15097254514694214
1749026899.9468024,-2.9202688376056116,-1.255673961048462,1.6459839979754847,5.621193814068594,3.3380656242370605,-2.733025375996725,-0.14070163667201996,-0.004813773557543755,-0.06138008460402489,-0.22108259797096252,-0.2115093469619751,-0.012239922769367695,-0.39931321144104004,-1.156394600868225,-1.1773598194122314,-0.39322564005851746,-0.527099072933197,-0.1516684889793396
1749026899.946839,-2.920579497014181,-1.2556812924197693,1.6458175818072718,5.6207347986991785,3.337650775909424,-2.7330766359912317,-0.13700823485851288,-0.004833397921174765,-0.06306786835193634,-0.2238597720861435,-0.20986628532409668,-0.011901798658072948,-0.4487137496471405,-1.1717126369476318,-1.1400856971740723,-0.3663172721862793,-0.5358001589775085,-0.1499239206314087
1749026899.9468758,-2.9208436647998255,-1.2557520431331177,1.6457436720477503,5.620295631676473,3.3371918201446533,-2.733088556920187,-0.13601242005825043,-0.004606285598129034,-0.05971304327249527,-0.22594237327575684,-0.21262946724891663,-0.011006303131580353,-0.4256226718425751,-1.1516891717910767,-1.1460812091827393,-0.3927060067653656,-0.5481706857681274,-0.17128214240074158
1749026899.9469128,-2.9211507479297083,-1.2557282608798523,1.6456201712237757,5.61982552984313,3.3367602825164795,-2.733100477849142,-0.13784582912921906,-0.004256192594766617,-0.05854428932070732,-0.22259138524532318,-0.2182263880968094,-0.01143790502101183,-0.466516375541687,-1.1968413591384888,-1.2232701778411865,-0.4174717962741852,-0.544049084186554,-0.1673123985528946
1749026899.9469495,-2.9213927427874964,-1.2557053130916138,1.6454690138446253,5.61938230970458,3.3362860679626465,-2.733124319707052,-0.14194804430007935,-0.004438141826540232,-0.06174740940332413,-0.2246525138616562,-0.22435127198696136,-0.011638015508651733,-0.46295422315597534,-1.1826072931289673,-1.200034737586975,-0.420149028301239,-0.5131546258926392,-0.16340792179107666
1749026899.9469862,-2.921661678944723,-1.2557017368129273,1.6453459898578089,5.61893908956603,3.3358309268951416,-2.733194891606466,-0.14422987401485443,-0.0041155447252094746,-0.06534124165773392,-0.22874052822589874,-0.22749564051628113,-0.012647165916860104,-0.4050917625427246,-1.191409707069397,-1.1326669454574585,-0.4135456681251526,-0.4522817134857178,-0.1702503114938736
1749026899.9470296,-2.9219844977008265,-1.2557679277709504,1.6452215353595179,5.618503200798788,3.335383415222168,-2.7331648508654993,-0.14427340030670166,-0.003963482100516558,-0.06204623356461525,-0.23248502612113953,-0.22758930921554565,-0.012693761847913265,-0.44258853793144226,-1.2045108079910278,-1.1779446601867676,-0.43779563903808594,-0.4779345691204071,-0.14422862231731415
1749026899.947673,-2.9222379366504114,-1.255753294830658,1.6450899283038538,5.617989766388693,3.3349080085754395,-2.7332120577441614,-0.14568474888801575,-0.004369404632598162,-0.06289509683847427,-0.2407756894826889,-0.22831401228904724,-0.011441066861152649,-0.44181904196739197,-1.2098556756973267,-1.1834216117858887,-0.40331944823265076,-0.4893661141395569,-0.16341525316238403
1749026899.949667,-2.922553602849142,-1.2557218831828614,1.644942585621969,5.6175264594848535,3.3344531059265137,-2.733220163975851,-0.1469109207391739,-0.004620806314051151,-0.06501491367816925,-0.24287521839141846,-0.23000966012477875,-0.011898651719093323,-0.439237117767334,-1.2120914459228516,-1.1769264936447144,-0.3808290362358093,-0.493663489818573,-0.16416636109352112
1749026899.9903095,-2.922818962727682,-1.255741075878479,1.6448224226581019,5.617074775486746,3.333951234817505,-2.7332330385791224,-0.14693686366081238,-0.0052594393491744995,-0.06612607836723328,-0.24788571894168854,-0.23033857345581055,-0.012144865468144417,-0.4223516285419464,-1.2089251279830933,-1.1455334424972534,-0.3439589738845825,-0.48660266399383545,-0.15625745058059692
1749026899.9903708,-2.9231539408313196,-1.2557724875262757,1.6446908156024378,5.616580652981558,3.333530902862549,-2.7332871595965784,-0.14981313049793243,-0.0056267608888447285,-0.06628623604774475,-0.24290722608566284,-0.2358957827091217,-0.012874802574515343,-0.4105607867240906,-1.2273552417755127,-1.143873929977417,-0.367022305727005,-0.47512730956077576,-0.15661707520484924
1749026899.990433,-2.923450771962301,-1.255777047281601,1.6445940176593226,5.616117822914877,3.333021879196167,-2.7332924048053187,-0.14573585987091064,-0.005550459027290344,-0.06468700617551804,-0.24063026905059814,-0.23295000195503235,-0.012645093724131584,-0.5036066174507141,-1.1987987756729126,-1.1791971921920776,-0.41506636142730713,-0.4820549190044403,-0.1477912813425064
1749026899.9904754,-2.9238134066211146,-1.2558002334884186,1.6444276014911097,5.615626859455862,3.3325579166412354,-2.733359162007467,-0.15016430616378784,-0.0059050461277365685,-0.06642691791057587,-0.239155113697052,-0.23301491141319275,-0.012983154505491257,-0.4197072386741638,-1.202840805053711,-1.172161340713501,-0.43374747037887573,-0.4919058680534363,-0.1578799933195114
1749026899.9905157,-2.9240554014789026,-1.2557892364314576,1.644311253224508,5.615108358650961,3.3321170806884766,-2.7333362738238733,-0.15247829258441925,-0.0052531082183122635,-0.06770103424787521,-0.24206490814685822,-0.23050722479820251,-0.013116315938532352,-0.4131106734275818,-1.2150578498840332,-1.1607452630996704,-0.46040838956832886,-0.49284645915031433,-0.15320894122123718
1749026899.9905548,-2.924375120793478,-1.2558014553836365,1.644167725239889,5.614629375725546,3.331665277481079,-2.733368221913473,-0.153293177485466,-0.005157664883881807,-0.0668620839715004,-0.24773293733596802,-0.2330033779144287,-0.013168159872293472,-0.42063528299331665,-1.2285526990890503,-1.1620553731918335,-0.43899771571159363,-0.49687790870666504,-0.14488036930561066
1749026899.9906113,-2.924671236668722,-1.2558639508536835,1.6440084616290491,5.614111470967092,3.331162691116333,-2.733396355305807,-0.15171685814857483,-0.005087412428110838,-0.06538348644971848,-0.2529233694076538,-0.22910501062870026,-0.013115021400153637,-0.4331163763999939,-1.2317047119140625,-1.1847760677337646,-0.43848422169685364,-0.5609557032585144,-0.15559421479701996
1749026899.9906695,-2.9249442259417933,-1.255875901584961,1.6438925901996058,5.613608646183767,3.330718517303467,-2.7334118525134485,-0.15559764206409454,-0.005284687038511038,-0.0674184188246727,-0.25284549593925476,-0.2348724603652954,-0.01213102787733078,-0.3814498782157898,-1.228705883026123,-1.1887189149856567,-0.4060629904270172,-0.5416129231452942,-0.16015636920928955
1749026899.9907308,-2.9252997080432337,-1.255851761703827,1.6437447706805628,5.613096821099081,3.330216646194458,-2.733471457158224,-0.1560923308134079,-0.005336412228643894,-0.06692036241292953,-0.2560560703277588,-0.239882230758667,-0.012349501252174377,-0.41989627480506897,-1.2395563125610352,-1.1928892135620117,-0.3934037685394287,-0.5501309037208557,-0.17665793001651764
1749026899.9907975,-2.925584141408102,-1.255844460134842,1.6436250845538538,5.612585890084066,3.3297557830810547,-2.73344856897463,-0.15590618550777435,-0.00495175551623106,-0.06578841060400009,-0.254194974899292,-0.24717776477336884,-0.012951209209859371,-0.4130077660083771,-1.229783296585083,-1.1917930841445923,-0.3778976500034332,-0.5119426846504211,-0.1542268842458725
1749026899.9908485,-2.9258998076068323,-1.2558567386916657,1.6434853712665003,5.6120760319526575,3.3292624950408936,-2.733534876500265,-0.15506987273693085,-0.004828333389014006,-0.06666118651628494,-0.25589513778686523,-0.24954012036323547,-0.013321868143975735,-0.4654911756515503,-1.2529420852661133,-1.2108163833618164,-0.41219016909599304,-0.5090296864509583,-0.15949063003063202
1749026899.9908874,-2.9262362162219446,-1.2559073132327576,1.6433571020709437,5.611564266472616,3.3287198543548584,-2.7335622946368616,-0.15754275023937225,-0.005154110491275787,-0.06743539869785309,-0.2558501362800598,-0.24769262969493866,-0.013286886736750603,-0.44232481718063354,-1.269122838973999,-1.2105084657669067,-0.43236908316612244,-0.506264865398407,-0.16823865473270416
1749026899.9909248,-2.926591221486227,-1.2558731597713013,1.6432059446917933,5.611034381180563,3.3282558917999268,-2.733551327382223,-0.16006597876548767,-0.0052122753113508224,-0.06641172617673874,-0.2621273100376129,-0.2471223622560501,-0.012906966730952263,-0.40449637174606323,-1.2442634105682373,-1.2338060140609741,-0.3772202730178833,-0.5433136224746704,-0.17158210277557373
1749026899.9909616,-2.9269071261035364,-1.2558890146068116,1.64309007326235,5.6104920385177515,3.327740430831909,-2.733572069798605,-0.1610070914030075,-0.006039714440703392,-0.06754016131162643,-0.2634938061237335,-0.24688687920570374,-0.013319358229637146,-0.37717050313949585,-1.2346785068511963,-1.214003562927246,-0.38678401708602905,-0.5488541126251221,-0.17582760751247406
1749026899.9909985,-2.927492920552389,-1.2559128564647217,1.6427987257586878,5.609414326935568,3.3266704082489014,-2.7336352507220667,-0.16019508242607117,-0.006060571875423193,-0.06789205223321915,-0.26002243161201477,-0.2576656937599182,-0.014288647100329399,-0.4695059061050415,-1.2527068853378296,-1.265576958656311,-0.39630645513534546,-0.5398790240287781,-0.1642780601978302
1749026899.9910357,-2.927492920552389,-1.2559128564647217,1.6427987257586878,5.609414326935568,3.3266704082489014,-2.7336352507220667,-0.16019508242607117,-0.006060571875423193,-0.06789205223321915,-0.26002243161201477,-0.2576656937599182,-0.014288647100329399,-0.4695059061050415,-1.2527068853378296,-1.265576958656311,-0.39630645513534546,-0.5398790240287781,-0.1642780601978302
1749026899.9910722,-2.9277897516833704,-1.2559406620315094,1.6426551977740687,5.608915078430929,3.326131582260132,-2.7336278597461146,-0.16287575662136078,-0.005741280969232321,-0.07005895674228668,-0.25988057255744934,-0.260964035987854,-0.013630139641463757,-0.40077632665634155,-1.2652502059936523,-1.2457011938095093,-0.3852160573005676,-0.4929730296134949,-0.18196642398834229
1749026899.9911091,-2.9281602541552942,-1.255940632229187,1.6425393263446253,5.608384597092428,3.3256008625030518,-2.733664099370138,-0.16248302161693573,-0.005109615158289671,-0.07196394354104996,-0.2601454257965088,-0.26321694254875183,-0.01389100681990385,-0.44078487157821655,-1.2761818170547485,-1.2161909341812134,-0.40509819984436035,-0.4443286061286926,-0.17998193204402924
1749026899.9911454,-2.9284570852862757,-1.255909190779068,1.6423404852496546,5.607857990055837,3.325119972229004,-2.7337072531329554,-0.1621449589729309,-0.004948464687913656,-0.07263124734163284,-0.26386559009552,-0.2584826350212097,-0.014206750318408012,-0.44373124837875366,-1.2688559293746948,-1.207302212715149,-0.4173104166984558,-0.44667288661003113,-0.19375933706760406
1749026899.9911823,-2.9291327635394495,-1.255948857670166,1.6420605818377894,5.6067412970359705,3.324110746383667,-2.733767334614889,-0.16842781007289886,-0.0052038924768567085,-0.07511018961668015,-0.2709102928638458,-0.25350067019462585,-0.015131477266550064,-0.43038055300712585,-1.2914974689483643,-1.2176958322525024,-0.3547033667564392,-0.5097510814666748,-0.18718013167381287
1749026899.991695,-2.9291327635394495,-1.255948857670166,1.6420605818377894,5.6067412970359705,3.324110746383667,-2.733767334614889,-0.16842781007289886,-0.0052038924768567085,-0.07511018961668015,-0.2709102928638458,-0.25350067019462585,-0.015131477266550064,-0.43038055300712585,-1.2914974689483643,-1.2176958322525024,-0.3547033667564392,-0.5097510814666748,-0.18718013167381287
1749026899.9936564,-2.9294920603381556,-1.2559922498515625,1.6419323126422327,5.606178390770712,3.3235864639282227,-2.733803097401754,-0.16730430722236633,-0.005361186806112528,-0.07468296587467194,-0.2727673351764679,-0.25464874505996704,-0.015141719952225685,-0.4578978419303894,-1.2853881120681763,-1.2037252187728882,-0.3351387083530426,-0.5299133658409119,-0.16532288491725922
1749026900.034281,-2.929812733327047,-1.2559524935534974,1.6417415777789515,5.605635988503256,3.3230788707733154,-2.733842674885885,-0.16881102323532104,-0.004934240598231554,-0.07407088577747345,-0.2709880471229553,-0.2598828971385956,-0.014947736635804176,-0.47452887892723083,-1.3007960319519043,-1.2313547134399414,-0.34673118591308594,-0.549322247505188,-0.1826663464307785
1749026900.0343263,-2.9301605860339563,-1.2559739512256165,1.6415980497943323,5.605073380261221,3.3225371837615967,-2.733878199254171,-0.17180776596069336,-0.005017636809498072,-0.07586227357387543,-0.2712551951408386,-0.2644907534122467,-0.01460086740553379,-0.4542347192764282,-1.2974727153778076,-1.2226186990737915,-0.3698307275772095,-0.5281424522399902,-0.1744764894247055
1749026900.0343666,-2.9304500261889856,-1.2559848588756104,1.6414616743670862,5.604549932270803,3.3219974040985107,-2.733905855809347,-0.17195650935173035,-0.005665210075676441,-0.07495227456092834,-0.2716491222381592,-0.2682651877403259,-0.013954753056168556,-0.4185660481452942,-1.2910573482513428,-1.1995453834533691,-0.36527520418167114,-0.4976232647895813,-0.1740652471780777
1749026900.0344057,-2.9307900110827845,-1.255981222992279,1.6413214842425745,5.604014622956075,3.3214616775512695,-2.7339065710650843,-0.17069533467292786,-0.005826424341648817,-0.07371164858341217,-0.27337607741355896,-0.2684420943260193,-0.014444696716964245,-0.4353863000869751,-1.3006854057312012,-1.2413885593414307,-0.34271296858787537,-0.49490949511528015,-0.18935272097587585
1749026900.0344489,-2.9311450163470667,-1.2560159725001832,1.6411741415606897,5.603464174061575,3.320929765701294,-2.733981434498922,-0.16936932504177094,-0.006352334748953581,-0.07574767619371414,-0.27647268772125244,-0.26381155848503113,-0.014956365339457989,-0.4846664369106293,-1.2721986770629883,-1.2352548837661743,-0.3781534433364868,-0.521339476108551,-0.1936044692993164
1749026900.0344877,-2.931466881428854,-1.2560169261744996,1.6410306135760706,5.602894770890035,3.3203353881835938,-2.7339823881732386,-0.17225900292396545,-0.00635537039488554,-0.07604258507490158,-0.2751019597053528,-0.26847073435783386,-0.015219787135720253,-0.43025919795036316,-1.2816358804702759,-1.2120405435562134,-0.3499979078769684,-0.5227437615394592,-0.18506872653961182
1749026900.0345254,-2.93185002008547,-1.2560132306865235,1.6408279577838343,5.602378654270925,3.319819927215576,-2.73402983347048,-0.17504297196865082,-0.005560748744755983,-0.07676442712545395,-0.2750888168811798,-0.27633991837501526,-0.01446716021746397,-0.41105717420578003,-1.304195761680603,-1.204437255859375,-0.3630406856536865,-0.5363043546676636,-0.16934895515441895
1749026900.0345626,-2.9322052637683313,-1.2560413044742127,1.6406672636615198,5.6018327353294275,3.319284677505493,-2.7340460459338587,-0.1767967939376831,-0.005760315805673599,-0.07823319733142853,-0.27547717094421387,-0.2819419801235199,-0.015177825465798378,-0.4568398594856262,-1.3241921663284302,-1.1971653699874878,-0.3722359836101532,-0.4642070233821869,-0.20336532592773438
1749026900.034603,-2.9325228373156946,-1.2560883623412629,1.6405356566058558,5.601257908135214,3.3187100887298584,-2.7340856234179896,-0.1774904578924179,-0.006014241371303797,-0.07972999662160873,-0.2766924500465393,-0.28372639417648315,-0.015996962785720825,-0.475288987159729,-1.3097954988479614,-1.2165603637695312,-0.43764376640319824,-0.4598239064216614,-0.1808515191078186
1749026900.0346415,-2.932944361363546,-1.256033943300583,1.6403678099261683,5.600679802685537,3.3181240558624268,-2.734121863042013,-0.18171627819538116,-0.0069405511021614075,-0.08137659728527069,-0.2817521393299103,-0.282537579536438,-0.01549446489661932,-0.4275733530521393,-1.3020751476287842,-1.19930899143219,-0.4303414225578308,-0.4649917483329773,-0.180705726146698
1749026900.034679,-2.9332593123065394,-1.2560809415629883,1.640200440083639,5.60008983591155,3.317619562149048,-2.7341538111316126,-0.18253813683986664,-0.006861777510493994,-0.08249817043542862,-0.28669893741607666,-0.27907830476760864,-0.015224076807498932,-0.44922327995300293,-1.2692270278930664,-1.1757789850234985,-0.4070962071418762,-0.4773120582103729,-0.1990475058555603
1749026900.0347168,-2.9336112181292933,-1.256131575708725,1.6400254408465784,5.5995144722755334,3.3170409202575684,-2.7341538111316126,-0.17974798381328583,-0.006432258989661932,-0.08207113295793533,-0.28840371966362,-0.2739430367946625,-0.015618378296494484,-0.4406284689903259,-1.2992608547210693,-1.1745455265045166,-0.3627602756023407,-0.5316637754440308,-0.172532856464386
1749026900.0347543,-2.933979097996847,-1.2560891968062897,1.6398418585406702,5.598955201893606,3.316476821899414,-2.7342398802386683,-0.1801047921180725,-0.0060404157266020775,-0.08025401830673218,-0.29133325815200806,-0.2771037220954895,-0.015775954350829124,-0.4403669238090515,-1.3110442161560059,-1.1714705228805542,-0.3390102982521057,-0.5469653010368347,-0.18761807680130005
1749026900.0347922,-2.9343469778644007,-1.2561047834208985,1.6396854559527796,5.598348903446951,3.315913200378418,-2.734232727681295,-0.18165263533592224,-0.006230575032532215,-0.08208578824996948,-0.28803566098213196,-0.2840759754180908,-0.015351366251707077,-0.4397132992744446,-1.299994945526123,-1.1981606483459473,-0.4100632667541504,-0.5393897891044617,-0.2029798924922943
1749026900.0348306,-2.9347625414477747,-1.2561444205096741,1.6395419279681605,5.59779982545928,3.3153152465820312,-2.734269444142477,-0.18379923701286316,-0.007057359907776117,-0.08061324805021286,-0.2884711027145386,-0.29038742184638977,-0.01538051012903452,-0.46602654457092285,-1.2912447452545166,-1.1942287683486938,-0.4286045432090759,-0.5051819682121277,-0.20376595854759216
1749026900.034868,-2.9351192156421106,-1.2561636132052918,1.6393516699420374,5.597177791386404,3.3147594928741455,-2.7343128363238733,-0.1857413649559021,-0.007047914434224367,-0.08152004331350327,-0.2963595986366272,-0.2928437292575836,-0.015543864108622074,-0.4121537506580353,-1.2939916849136353,-1.179294228553772,-0.3774014115333557,-0.4747456908226013,-0.2064305990934372
1749026900.0349054,-2.935538355504171,-1.256164864902832,1.6391947905169886,5.596595692425527,3.3141961097717285,-2.734314028416769,-0.18674667179584503,-0.007017407100647688,-0.08301156759262085,-0.30431821942329407,-0.2915852665901184,-0.016598504036664963,-0.4319012463092804,-1.3067489862442017,-1.1653786897659302,-0.36617058515548706,-0.481475293636322,-0.19878293573856354
1749026900.0349426,-2.935852829610006,-1.2561767858317872,1.6390236059771937,5.595981168537893,3.3136141300201416,-2.734356943761007,-0.1857094019651413,-0.006949097849428654,-0.08372052013874054,-0.3037589490413666,-0.29115137457847595,-0.016219008713960648,-0.4812191128730774,-1.3030847311019897,-1.182756781578064,-0.36581262946128845,-0.50346839427948,-0.19786351919174194
1749026900.0349817,-2.936263386403219,-1.2561887067607422,1.6388629118548792,5.5953701613243005,3.313018321990967,-2.734412733708517,-0.1847619116306305,-0.006637933198362589,-0.08512326329946518,-0.3033080995082855,-0.29731929302215576,-0.016879912465810776,-0.4984423518180847,-1.296364426612854,-1.1581534147262573,-0.3616701066493988,-0.5274696946144104,-0.20187383890151978
1749026900.0350213,-2.9366474787341517,-1.2561923426440735,1.6386564413653772,5.594782876759329,3.312450885772705,-2.734428946171896,-0.18701346218585968,-0.006966876331716776,-0.08469948917627335,-0.30095815658569336,-0.29936715960502625,-0.016679778695106506,-0.39735132455825806,-1.3046833276748657,-1.1329026222229004,-0.3681974411010742,-0.4793855547904968,-0.1919044703245163
1749026900.035712,-2.9370318094836634,-1.2561932665160676,1.638508145009176,5.594125497132101,3.3118250370025635,-2.7344654242144983,-0.1859254688024521,-0.006437336094677448,-0.08339767903089523,-0.3007138967514038,-0.30116480588912964,-0.016225185245275497,-0.4885052442550659,-1.3205715417861938,-1.1739437580108643,-0.3982750475406647,-0.48414456844329834,-0.186301589012146
1749026900.0376809,-2.9373839537249964,-1.2562054854682465,1.6383093039142054,5.59354858377532,3.311272382736206,-2.7344890276538294,-0.18784105777740479,-0.006409098394215107,-0.08186938613653183,-0.302386075258255,-0.29930567741394043,-0.016230508685112,-0.49375298619270325,-1.3177751302719116,-1.2017569541931152,-0.42354947328567505,-0.4898744821548462,-0.19893446564674377
1749026900.0782914,-2.9377570788012903,-1.256247566347458,1.6381576696978968,5.592941272049703,3.310626268386841,-2.734509293233053,-0.1914776712656021,-0.006355497520416975,-0.08244330435991287,-0.30873480439186096,-0.2991499900817871,-0.017156118527054787,-0.4121253788471222,-1.322692632675171,-1.1762490272521973,-0.40179967880249023,-0.4882381558418274,-0.19903402030467987
1749026900.0783432,-2.938141171132223,-1.2562487882426758,1.6379745642291468,5.59228931644515,3.3100264072418213,-2.734595600758688,-0.19063767790794373,-0.006865209899842739,-0.08177300542593002,-0.3080272972583771,-0.2959761321544647,-0.01685708574950695,-0.3744797706604004,-1.2851132154464722,-1.1907198429107666,-0.39663419127464294,-0.5163335204124451,-0.19415077567100525
1749026900.0783854,-2.9385181109057825,-1.2562954288772126,1.637841526662008,5.591700541764059,3.3094186782836914,-2.734565321599142,-0.18832169473171234,-0.00695596169680357,-0.08204548060894012,-0.3063774108886719,-0.3019685745239258,-0.016366785392165184,-0.431135892868042,-1.3067772388458252,-1.190470576286316,-0.3887946605682373,-0.4971220791339874,-0.19255563616752625
1749026900.0784247,-2.9393141905414026,-1.256253407602646,1.63747483888735,5.590451049595632,3.308201789855957,-2.73466402689089,-0.1918095499277115,-0.006067335139960051,-0.08498590439558029,-0.3080252408981323,-0.31160420179367065,-0.017366450279951096,-0.482064425945282,-1.3151726722717285,-1.2036608457565308,-0.46176159381866455,-0.4801483452320099,-0.215089350938797
1749026900.0784624,-2.9393141905414026,-1.256253407602646,1.63747483888735,5.590451049595632,3.308201789855957,-2.73466402689089,-0.1918095499277115,-0.006067335139960051,-0.08498590439558029,-0.3080252408981323,-0.31160420179367065,-0.017366450279951096,-0.482064425945282,-1.3151726722717285,-1.2036608457565308,-0.46176159381866455,-0.4801483452320099,-0.215089350938797
1749026900.0785048,-2.939659659062521,-1.2562726599029084,1.6373031775103968,5.589836168080129,3.3076257705688477,-2.7347076574908655,-0.19511856138706207,-0.005907375831156969,-0.08800357580184937,-0.31248167157173157,-0.3083391487598419,-0.017285427078604698,-0.3910253345966339,-1.3036937713623047,-1.1679472923278809,-0.4563760757446289,-0.49825769662857056,-0.21299657225608826
1749026900.0785444,-2.940086905156271,-1.2562893492034455,1.6371434370623987,5.589259791165151,3.306990623474121,-2.7347078959094446,-0.19642004370689392,-0.006800741422921419,-0.0850791335105896,-0.3182600736618042,-0.30668404698371887,-0.017392994835972786,-0.4210447669029236,-1.2906689643859863,-1.1740249395370483,-0.39762505888938904,-0.5031744241714478,-0.2127992957830429
1749026900.0785832,-2.9404855410205286,-1.2563208204558869,1.636975113545553,5.588605689793386,3.3063409328460693,-2.7347522417651575,-0.19578130543231964,-0.005911664105951786,-0.08349054306745529,-0.3180292844772339,-0.30351516604423523,-0.01780315488576889,-0.4301069378852844,-1.2944977283477783,-1.2078173160552979,-0.4182860851287842,-0.5815305113792419,-0.19122128188610077
1749026900.0786219,-2.9409218470202845,-1.2563833159259339,1.636808220540182,5.587927806168356,3.3057525157928467,-2.734772507344381,-0.19622953236103058,-0.004987039603292942,-0.08608376979827881,-0.3167334496974945,-0.3070410192012787,-0.01715267263352871,-0.4304589033126831,-1.3087139129638672,-1.1807206869125366,-0.43673262000083923,-0.5601411461830139,-0.1940462291240692
1749026900.0786633,-2.941282097493307,-1.2563641232303162,1.636620823537008,5.587315070420065,3.3050737380981445,-2.7348082701312464,-0.19608618319034576,-0.004148500971496105,-0.08361540734767914,-0.3178798258304596,-0.31375420093536377,-0.016728181391954422,-0.44900283217430115,-1.3233145475387573,-1.2184120416641235,-0.4567705988883972,-0.5267519950866699,-0.19688503444194794
1749026900.078702,-2.9417370001422327,-1.2563567918590088,1.636453930531637,5.586681175022878,3.3044421672821045,-2.7348905245410364,-0.1964307278394699,-0.004807128570973873,-0.0838174894452095,-0.3213562071323395,-0.31683146953582764,-0.018734391778707504,-0.5244608521461487,-1.3119850158691406,-1.2498304843902588,-0.4744676649570465,-0.5149250030517578,-0.19674305617809296
1749026900.0787401,-2.9421103636371058,-1.2563723486712952,1.6362736860858362,5.586053478508749,3.3037915229797363,-2.7348952929126185,-0.1995251327753067,-0.0057198056019842625,-0.08644729107618332,-0.3292699456214905,-0.31653180718421936,-0.019154760986566544,-0.4703856408596039,-1.316942572593689,-1.2367748022079468,-0.44411730766296387,-0.5022852420806885,-0.20055466890335083
1749026900.0787778,-2.942495648060934,-1.256400154238083,1.6361129919635218,5.585406350880422,3.3031532764434814,-2.734903637562887,-0.20211172103881836,-0.0055746715515851974,-0.08798912912607193,-0.3338102102279663,-0.31368252635002136,-0.01867821253836155,-0.4589148461818695,-1.3063600063323975,-1.2405214309692383,-0.4480811357498169,-0.5390138626098633,-0.21210578083992004
1749026900.0788195,-2.942894999180929,-1.2563457649997254,1.6359298864947718,5.584740984230795,3.3025407791137695,-2.7350056807147425,-0.2039092481136322,-0.004994259215891361,-0.08862873166799545,-0.33239835500717163,-0.3174416422843933,-0.019103102385997772,-0.39146333932876587,-1.319706916809082,-1.2231192588806152,-0.42819416522979736,-0.529593288898468,-0.21604105830192566
1749026900.0788581,-2.9433496634112757,-1.256380633716919,1.6357577482806605,5.5840704319770715,3.301917552947998,-2.735004727040426,-0.2027808278799057,-0.004191971849650145,-0.08853425085544586,-0.3303205668926239,-0.3201795816421509,-0.019115949049592018,-0.41792064905166626,-1.3272720575332642,-1.2039697170257568,-0.46483278274536133,-0.5385974049568176,-0.18149331212043762
1749026900.0788956,-2.9437418619738978,-1.2564239364913483,1.6355589071856897,5.583386766701498,3.301295042037964,-2.7350667158709925,-0.20272761583328247,-0.0035063885152339935,-0.09024546295404434,-0.33451971411705017,-0.3208582401275635,-0.01793934777379036,-0.4555860161781311,-1.3697562217712402,-1.225337266921997,-0.47803643345832825,-0.5414063334465027,-0.20482823252677917
1749026900.0789332,-2.9441843668567103,-1.256380633716919,1.6353943983661097,5.582703578263082,3.300617218017578,-2.7351067701922815,-0.2022990733385086,-0.0042243292555212975,-0.08956421911716461,-0.33815544843673706,-0.31951552629470825,-0.017830584198236465,-0.5184083580970764,-1.3531148433685303,-1.2204787731170654,-0.4973090887069702,-0.5867953300476074,-0.203014075756073
1749026900.0789733,-2.944589440022604,-1.2564120155623932,1.6351998488055628,5.582045244961538,3.2999966144561768,-2.735142532979147,-0.2039768546819687,-0.0054405732080340385,-0.09035343676805496,-0.3443923890590668,-0.3213990032672882,-0.018016904592514038,-0.49836266040802,-1.3378561735153198,-1.2254832983016968,-0.42432206869125366,-0.5928663611412048,-0.18565312027931213
