nimar13/UR3e_dataset_trayectorias/trayectorias_ejecutadas/jtraj/trayectoria_007_result.csv
timestamp,q1,q2,q3,q4,q5,q6,qd1,qd2,qd3,qd4,qd5,qd6,tau1,tau2,tau3,tau4,tau5,tau6
1749024847.858349,4.638867378234863,-1.21197001755748,0.023705307637349904,-3.085020204583639,4.78887414932251,-6.246189195905821,0.014982459135353565,0.00031541098724119365,-0.0012955880956724286,-0.010767772793769836,0.01103730034083128,-0.021669311448931694,0.22770154476165771,-0.3224467635154724,-0.36184394359588623,0.09851668030023575,0.2002512812614441,-0.1066451370716095
1749024847.858396,4.6389031410217285,-1.2119889122298737,0.023717228566304982,-3.0850168667235316,4.788889408111572,-6.246218029652731,0.012958389706909657,0.00030217290623113513,-0.0010014837607741356,-0.009692028164863586,0.010009033605456352,-0.019292917102575302,0.2090470790863037,-0.3322226405143738,-0.3532150983810425,0.1481029987335205,0.18368735909461975,-0.11580707877874374
1749024847.8584366,4.638946056365967,-1.211981789474823,0.023705307637349904,-3.085032125512594,4.788902759552002,-6.246273104344503,0.012429079972207546,0.0002541197754908353,-0.0008177627460099757,-0.007672530598938465,0.00842459499835968,-0.01699555478990078,0.2130509912967682,-0.3427320122718811,-0.3635093569755554,0.1584838479757309,0.1366354525089264,-0.1071419045329094
1749024847.8584757,4.638946056365967,-1.211981789474823,0.023705307637349904,-3.085032125512594,4.788902759552002,-6.246273104344503,0.012429079972207546,0.0002541197754908353,-0.0008177627460099757,-0.007672530598938465,0.00842459499835968,-0.01699555478990078,0.2130509912967682,-0.3427320122718811,-0.3635093569755554,0.1584838479757309,0.1366354525089264,-0.1071419045329094
1749024847.8585136,4.638951301574707,-1.212001459007599,0.02368623415102178,-3.0850287876524867,4.788890838623047,-6.246262341980831,0.010588095523416996,0.000243929578573443,-0.000691541819833219,-0.005498560145497322,0.005435468163341284,-0.015477490611374378,0.20818418264389038,-0.35394394397735596,-0.34261471033096313,0.1545390784740448,0.14241693913936615,-0.11821451038122177
1749024847.8585515,4.638987064361572,-1.2119889122298737,0.02368623415102178,-3.085036893884176,4.7888875007629395,-6.246341824774639,0.007567941676825285,0.0002263941860292107,-0.0005285507650114596,-0.0016790053341537714,0.0018357511144131422,-0.01158593688160181,0.1481669545173645,-0.35462361574172974,-0.322631299495697,0.16133084893226624,0.12940943241119385,-0.10893626511096954
1749024847.8585892,4.638998985290527,-1.212001459007599,0.02372438112367803,-3.085036893884176,4.788872241973877,-6.246350083743231,0.004982382990419865,0.00021854064834769815,-0.00047293113311752677,-0.0010728709166869521,0.0012497290736064315,-0.00959144625812769,0.14482903480529785,-0.3553280830383301,-0.3273252248764038,0.15453395247459412,0.12289955466985703,-0.12701553106307983
1749024847.858627,4.638967990875244,-1.2119978231242676,0.023729626332418263,-3.0850211582579554,4.7888875007629395,-6.246381066982643,0.0021166058722883463,0.00021121387544553727,-0.0004278980486560613,-0.0008042426779866219,0.0009607067913748324,-0.008449973538517952,0.12032828480005264,-0.3749430179595947,-0.32611018419265747,0.18061195313930511,0.09303164482116699,-0.06930272281169891
1749024847.8586645,4.63899564743042,-1.2119663816741486,0.023705307637349904,-3.0850407085814417,4.788880348205566,-6.246390041206972,0.0009866160107776523,0.00020436201884876937,-0.0003906775382347405,-0.0005399258225224912,0.0006629357230849564,-0.0058989571407437325,0.1245608702301979,-0.38125091791152954,-0.3253554701805115,0.177162766456604,0.08320420980453491,-0.06515999138355255
1749024847.8587077,4.638983249664307,-1.211981789474823,0.02370912233461553,-3.085024972955221,4.788853168487549,-6.246393576507465,-0.0015106602804735303,0.00019794114632532,-0.00032464039395563304,0.00022577500203624368,0.0004375034768600017,-0.0038572950288653374,0.13728204369544983,-0.3679180443286896,-0.32186728715896606,0.1842183619737625,0.04738394916057587,-0.06105995178222656
1749024847.8587463,4.638983249664307,-1.211981789474823,0.02370912233461553,-3.085024972955221,4.788853168487549,-6.246393576507465,-0.0015106602804735303,0.00019794114632532,-0.00032464039395563304,0.00022577500203624368,0.0004375034768600017,-0.0038572950288653374,0.13728204369544983,-0.3679180443286896,-0.32186728715896606,0.1842183619737625,0.04738394916057587,-0.06105995178222656
1749024847.8587844,4.638994216918945,-1.2120132607272645,0.023717228566304982,-3.085044046441549,4.788914680480957,-6.246370274816648,-0.003285040846094489,0.00019191137107554823,-0.00026870102738030255,0.0011499265674501657,-0.00021662921062670648,-0.0019389864755794406,0.14074617624282837,-0.33435213565826416,-0.30022764205932617,0.19086876511573792,0.04270999878644943,-0.05852846801280975
1749024847.8588247,4.639018535614014,-1.212001459007599,0.02372438112367803,-3.085013052026266,4.78892183303833,-6.2463863531695765,-0.0026887566782534122,0.00018623811774887145,-0.00024807461886666715,0.0019535673782229424,-0.00045967308687977493,-0.0004118960059713572,0.10850014537572861,-0.34555310010910034,-0.3124874234199524,0.1928030103445053,0.03187881410121918,-0.04401639103889465
1749024847.8588624,4.638970375061035,-1.2120084327510376,0.023748222981588185,-3.0850092373290003,4.788853168487549,-6.246362034474508,-0.0026325767394155264,0.0001758416328812018,-0.0001913791784318164,0.0015686614206060767,-0.0015788538148626685,-1.2862111361755524e-05,0.0742160752415657,-0.3630478084087372,-0.30960237979888916,0.19590789079666138,0.030491903424263,-0.003116220235824585
1749024847.8588994,4.638959884643555,-1.2119509738734742,0.023710076008931935,-3.0850359402098597,4.788890838623047,-6.2463465745197695,-0.0038156164810061455,0.0001710668730083853,-0.00015591135888826102,0.001455585123039782,-0.0015898174606263638,0.0024174689315259457,0.08612591028213501,-0.3707106113433838,-0.30036991834640503,0.21897146105766296,0.021807238459587097,-0.012747779488563538
1749024847.8589365,4.638959884643555,-1.2119509738734742,0.023710076008931935,-3.0850359402098597,4.788890838623047,-6.2463465745197695,-0.0038156164810061455,0.0001710668730083853,-0.00015591135888826102,0.001455585123039782,-0.0015898174606263638,0.0024174689315259457,0.08612591028213501,-0.3707106113433838,-0.30036991834640503,0.21897146105766296,0.021807238459587097,-0.012747779488563538
1749024847.8589733,4.638951301574707,-1.2119650703719635,0.023744885121480763,-3.085001131097311,4.78889799118042,-6.246350143347875,-0.0052511864341795444,0.0001622554991627112,0.00011955407535424456,0.001666313037276268,-0.0018739148508757353,0.004197318572551012,0.0798766016960144,-0.3615959584712982,-0.30370795726776123,0.22039464116096497,0.019508816301822662,0.016401037573814392
1749024847.8590097,4.638973712921143,-1.2119615835002442,0.023741070424215138,-3.0849696598448695,4.788860321044922,-6.246350113545553,-0.00491188932210207,0.00018006375466939062,0.00014388072304427624,0.0024837639648467302,-0.002074412303045392,0.003961208276450634,0.07221604138612747,-0.3833571672439575,-0.2919003963470459,0.21760490536689758,0.02155335247516632,0.015947014093399048
1749024847.8590465,4.638973712921143,-1.2119615835002442,0.023741070424215138,-3.0849696598448695,4.788860321044922,-6.246350113545553,-0.00491188932210207,0.00018006375466939062,0.00014388072304427624,0.0024837639648467302,-0.002074412303045392,0.003961208276450634,0.07221604138612747,-0.3833571672439575,-0.2919003963470459,0.21760490536689758,0.02155335247516632,0.015947014093399048
1749024847.859084,4.638899803161621,-1.2119272214225312,0.023741070424215138,-3.084996362725729,4.788909912109375,-6.246350143347875,-0.005203174892812967,0.0001721347070997581,0.00017429282888770103,0.0038539590314030647,-0.002303820103406906,0.006223926320672035,0.05720779299736023,-0.36233845353126526,-0.28977155685424805,0.1898527890443802,-0.0024414360523223877,0.022416718304157257
1749024847.8591201,4.638899803161621,-1.2119272214225312,0.023741070424215138,-3.084996362725729,4.788909912109375,-6.246350143347875,-0.005203174892812967,0.0001721347070997581,0.00017429282888770103,0.0038539590314030647,-0.002303820103406906,0.006223926320672035,0.05720779299736023,-0.36233845353126526,-0.28977155685424805,0.1898527890443802,-0.0024414360523223877,0.022416718304157257
1749024847.8591564,4.638880729675293,-1.2119342547706147,0.023737255726949513,-3.0849653683104457,4.788829326629639,-6.246322408561603,-0.003955337218940258,0.00016427987429779023,0.00019749811326619238,0.0027652718126773834,-0.0014870243612676859,0.005934031214565039,0.04137960076332092,-0.36231279373168945,-0.2937053442001343,0.2049342393875122,-0.009199336171150208,0.022369928658008575
1749024847.8592699,4.6389031410217285,-1.2119580668262024,0.023749653493062794,-3.0849253139891566,4.788836479187012,-6.246306929980413,-0.004102466162294149,0.0001606152654858306,0.00019153053290210664,0.002280191518366337,-0.0014102912973612547,0.0051713427528738976,0.033743031322956085,-0.37563568353652954,-0.31051284074783325,0.19499021768569946,-0.01845678687095642,0.015695281326770782
1749024847.8604848,4.6389031410217285,-1.2119580668262024,0.023749653493062794,-3.0849253139891566,4.788836479187012,-6.246306929980413,-0.004102466162294149,0.0001606152654858306,0.00019153053290210664,0.002280191518366337,-0.0014102912973612547,0.0051713427528738976,0.033743031322956085,-0.37563568353652954,-0.31051284074783325,0.19499021768569946,-0.01845678687095642,0.015695281326770782
1749024847.9063036,4.63887882232666,-1.2119650703719635,0.02375346819032842,-3.0849725208678187,4.788878917694092,-6.246310573314325,-0.004770409781485796,0.00011577154509723186,0.00044923555105924606,0.002097463235259056,-0.0012564014177769423,0.004594583995640278,0.05277252197265625,-0.36095544695854187,-0.2989967465400696,0.2050323486328125,-0.01588723063468933,0.03883334994316101
1749024847.9063509,4.6389031410217285,-1.2119272214225312,0.023749653493062794,-3.0849601231017054,4.788848400115967,-6.246302198861734,-0.004284020513296127,0.0001233750517712906,0.00048425691784359515,0.0017690223176032305,-0.0011409858707338572,0.005487382411956787,0.07307195663452148,-0.3532412052154541,-0.3197439908981323,0.2094016671180725,-0.020552009344100952,0.030171863734722137
1749024847.906406,4.63885498046875,-1.211965100174286,0.023769203816549123,-3.084945341149801,4.788839817047119,-6.246286731456415,-0.003316418267786503,0.00016346891061402857,0.00040282649570144713,0.0010334713151678443,-0.0010768191423267126,0.005416843108832836,0.0563710480928421,-0.3476226329803467,-0.30706506967544556,0.20930370688438416,-0.004736393690109253,0.019800551235675812
1749024847.9064488,4.6388444900512695,-1.2119531494430085,0.02375346819032842,-3.0849529705443324,4.788824558258057,-6.246305745338098,-0.002717411145567894,0.0011483830166980624,0.00036974085378460586,0.0008390022558160126,-0.001168869319371879,0.0045373463071882725,0.03346904367208481,-0.3595389127731323,-0.3103678226470947,0.20268237590789795,-0.00978618860244751,0.022301770746707916
1749024847.9064877,4.6388444900512695,-1.2119531494430085,0.02375346819032842,-3.0849529705443324,4.788824558258057,-6.246305745338098,-0.002717411145567894,0.0011483830166980624,0.00036974085378460586,0.0008390022558160126,-0.001168869319371879,0.0045373463071882725,0.03346904367208481,-0.3595389127731323,-0.3103678226470947,0.20268237590789795,-0.00978618860244751,0.022301770746707916
1749024847.9065254,4.638877868652344,-1.2119068962386628,0.02375346819032842,-3.0849691830077113,4.788827896118164,-6.246258676295177,-0.0016635182546451688,0.0022106999531388283,0.0003175062302034348,0.0006091794348321855,-0.0009201205684803426,0.002665755106136203,0.05042714625597,-0.3405470550060272,-0.2966199517250061,0.22289668023586273,0.01861756294965744,0.04047014191746712
1749024847.9065635,4.638846397399902,-1.2118914288333436,0.023757282887594044,-3.0849415264525355,4.788877487182617,-6.246293880288498,-0.0013271088246256113,0.0029281291645020247,0.00034783771843649447,0.0006216959445737302,-0.0007890238775871694,0.0022485521622002125,0.07488392293453217,-0.29443085193634033,-0.2733033299446106,0.2288968414068222,0.014219850301742554,0.022377148270606995
1749024847.906601,4.638846397399902,-1.2118914288333436,0.023757282887594044,-3.0849415264525355,4.788877487182617,-6.246293880288498,-0.0013271088246256113,0.0029281291645020247,0.00034783771843649447,0.0006216959445737302,-0.0007890238775871694,0.0022485521622002125,0.07488392293453217,-0.29443085193634033,-0.2733033299446106,0.2288968414068222,0.014219850301742554,0.022377148270606995
1749024847.906651,4.638874530792236,-1.21193282425914,0.023737255726949513,-3.0849343738951625,4.788807392120361,-6.246297493820087,-0.0006418324774131179,0.005257641896605492,0.0005801130319014192,0.0006122011691331863,-0.0006102422485128045,0.0016251958440989256,0.09929709881544113,-0.32297781109809875,-0.2638622522354126,0.23875576257705688,0.021043792366981506,0.01613837480545044
1749024847.9066985,4.63885498046875,-1.2119293373874207,0.02375346819032842,-3.084956785241598,4.788832664489746,-6.246274512504236,-0.00042375613702461123,0.005680552218109369,0.002319677732884884,0.0006858949782326818,-0.0005480190739035606,0.0015179403126239777,0.11745200306177139,-0.3260059058666229,-0.2735767662525177,0.241712287068367,0.005158931016921997,0.038086820393800735
1749024847.906737,4.638843059539795,-1.2118669909289856,0.023757282887594044,-3.0849253139891566,4.7888054847717285,-6.246258743350403,9.239692008122802e-05,0.005090420600026846,0.0026231880765408278,0.0024117387365549803,-0.0004973457544110715,0.0018338108202442527,0.1289437711238861,-0.34676221013069153,-0.2740033268928528,0.24109964072704315,0.01680508255958557,0.03809315338730812
1749024847.9067745,4.638835906982422,-1.2119091314128418,0.023765389119283498,-3.084929128686422,4.788889408111572,-6.2462902704821985,0.0005976380780339241,0.004810836631804705,0.0020155473612248898,0.002550242468714714,-0.00045527805923484266,0.0033640412148088217,0.12118149548768997,-0.33394476771354675,-0.29351577162742615,0.22889241576194763,0.01325497031211853,0.05230754613876343
1749024847.9068122,4.63885498046875,-1.2118895810893555,0.023769203816549123,-3.0849133930602015,4.788839817047119,-6.24625871354808,0.001987383933737874,0.004198519513010979,0.0015783188864588737,0.0022915967274457216,-0.0004197915259283036,0.0044950623996555805,0.10696032643318176,-0.3414326608181,-0.29175424575805664,0.2452285885810852,0.015381798148155212,0.02651403285562992
1749024847.9068496,4.638870716094971,-1.2118538183024903,0.023769203816549123,-3.084917207757467,4.788844585418701,-6.246285286043779,0.0018662209622561932,0.0042845262214541435,0.0012933325488120317,0.001969591248780489,-0.0004114963812753558,0.0050822957418859005,0.13655394315719604,-0.3333379924297333,-0.29229703545570374,0.23328657448291779,-0.012010902166366577,0.03957080841064453
1749024847.9068897,4.638870716094971,-1.2118538183024903,0.023769203816549123,-3.084917207757467,4.788844585418701,-6.246285286043779,0.0018662209622561932,0.0042845262214541435,0.0012933325488120317,0.001969591248780489,-0.0004114963812753558,0.0050822957418859005,0.13655394315719604,-0.3333379924297333,-0.29229703545570374,0.23328657448291779,-0.012010902166366577,0.03957080841064453
1749024847.9069269,4.638885974884033,-1.2118503016284485,0.0237811247455042,-3.0849210224547328,4.788839817047119,-6.246219258998529,0.0016505855601280928,0.004378676414489746,0.0010954831959679723,0.0018386880401521921,-0.00041616379166953266,0.005188952665776014,0.12664680182933807,-0.32959991693496704,-0.30545279383659363,0.2516201138496399,-0.04065240919589996,0.03416848182678223
1749024847.9069638,4.63887882232666,-1.2118313771537323,0.023765389119283498,-3.0848704777159632,4.788851737976074,-6.246222775672571,0.0010141246020793915,0.004656089469790459,0.0008394113974645734,0.0032713294494897127,-0.0004595015780068934,0.005233806557953358,0.19049206376075745,-0.3196179270744324,-0.31467634439468384,0.25429031252861023,-0.057246625423431396,0.07762270420789719
1749024847.9070013,4.638858795166016,-1.2118334931186219,0.0237811247455042,-3.0848895512022914,4.788808822631836,-6.246245425437586,0.0010880428599193692,0.005285995546728373,0.000751563988160342,0.0037767761386930943,-0.003807097440585494,0.006416572257876396,0.1769343614578247,-0.3349488377571106,-0.3015201985836029,0.24014608561992645,-0.07163339853286743,0.0737566351890564
1749024847.907039,4.638858795166016,-1.2118334931186219,0.0237811247455042,-3.0848895512022914,4.788808822631836,-6.246245425437586,0.0010880428599193692,0.005285995546728373,0.000751563988160342,0.0037767761386930943,-0.003807097440585494,0.006416572257876396,0.1769343614578247,-0.3349488377571106,-0.3015201985836029,0.24014608561992645,-0.07163339853286743,0.0737566351890564
1749024847.907076,4.638894557952881,-1.2117676597884675,0.0237811247455042,-3.084874292413229,4.788827896118164,-6.2461796703385275,0.0021326453424990177,0.004933830816298723,0.0006216526962816715,0.003260296070948243,-0.007039289455860853,0.0099953543394804,0.17680560052394867,-0.3272441625595093,-0.31467404961586,0.2476840317249298,-0.08782555162906647,0.08616035431623459
1749024847.9071124,4.638894557952881,-1.2117676597884675,0.0237811247455042,-3.084874292413229,4.788827896118164,-6.2461796703385275,0.0021326453424990177,0.004933830816298723,0.0006216526962816715,0.003260296070948243,-0.007039289455860853,0.0099953543394804,0.17680560052394867,-0.3272441625595093,-0.31467404961586,0.2476840317249298,-0.08782555162906647,0.08616035431623459
1749024847.9071503,4.638899803161621,-1.2117712062648316,0.023784462605611623,-3.084865709344381,4.788819313049316,-6.246197503303186,0.0032723608892410994,0.004917184356600046,0.00046442641178146005,0.0019603651016950607,-0.009911286644637585,0.012581106275320053,0.15858060121536255,-0.34551042318344116,-0.33623287081718445,0.24469991028308868,-0.10681875050067902,0.10580598562955856
1749024847.9072638,4.638899803161621,-1.2117712062648316,0.023784462605611623,-3.084865709344381,4.788819313049316,-6.246197503303186,0.0032723608892410994,0.004917184356600046,0.00046442641178146005,0.0019603651016950607,-0.009911286644637585,0.012581106275320053,0.15858060121536255,-0.34551042318344116,-0.33623287081718445,0.24469991028308868,-0.10681875050067902,0.10580598562955856
1749024847.9085197,4.638922214508057,-1.2117698949626465,0.023765389119283498,-3.084881444970602,4.788780212402344,-6.2461701224194925,0.002903614891692996,0.004615240264683962,0.0004320060252211988,0.0016816869610920548,-0.01140793226659298,0.013264087028801441,0.19199582934379578,-0.3348717987537384,-0.3458508849143982,0.24753747880458832,-0.10898984968662262,0.08272084593772888
1749024847.9502752,4.6389031410217285,-1.2117271286300202,0.02375823656191045,-3.0848852596678675,4.78874397277832,-6.246133867894308,0.0024975549895316362,0.004238475579768419,0.00015337280638050288,0.002378822071477771,-0.015665529295802116,0.01538427360355854,0.19409792125225067,-0.3196655809879303,-0.35767319798469543,0.26833367347717285,-0.13168764114379883,0.09486677497625351
1749024847.9503214,4.6389312744140625,-1.2117544573596497,0.023769203816549123,-3.0848504505553187,4.788691520690918,-6.24610294425954,0.003186669899150729,0.0038238894194364548,7.22117256373167e-05,0.0024942990858107805,-0.01740480214357376,0.01651044376194477,0.20095087587833405,-0.3218233585357666,-0.35886016488075256,0.27591609954833984,-0.12057286500930786,0.11814038455486298
1749024847.9503627,4.638927459716797,-1.2117544573596497,0.023749653493062794,-3.084869524041647,4.788766860961914,-6.246097866688864,0.003825844032689929,0.003631704719737172,1.4815480426477734e-05,0.002550448291003704,-0.018638834357261658,0.016642432659864426,0.18873506784439087,-0.3286416530609131,-0.38524168729782104,0.2661045491695404,-0.1376478672027588,0.10334175080060959
1749024847.9504015,4.6389312744140625,-1.2117341321757813,0.023772541676656544,-3.0848576031126917,4.788661956787109,-6.246042806898252,0.003465514164417982,0.003641650779172778,9.673449312685989e-07,0.002318412996828556,-0.020637989044189453,0.017313165590167046,0.18636628985404968,-0.3257329761981964,-0.3717156648635864,0.2670176029205322,-0.14457236230373383,0.09816460311412811
1749024847.9504433,4.638918399810791,-1.21177692831073,0.0237811247455042,-3.084841390649313,4.788657188415527,-6.246018711720602,0.002713765250518918,0.0036715411115437746,6.316071221590391e-08,0.0022298931144177914,-0.020441079512238503,0.01688540168106556,0.1960657835006714,-0.32082831859588623,-0.39563578367233276,0.2678312659263611,-0.12674015760421753,0.1144513189792633
1749024847.950493,4.6389617919921875,-1.2117649179748078,0.023746315632955373,-3.0848576031126917,4.78864860534668,-6.246010087673561,0.0026967593003064394,0.0037211452145129442,-0.0016844277270138264,0.002606100868433714,-0.018193325027823448,0.016228776425123215,0.2161123901605606,-0.3179553747177124,-0.40592676401138306,0.2759820520877838,-0.13726849853992462,0.10884459316730499
1749024847.950534,4.6389241218566895,-1.2117649775794526,0.023765389119283498,-3.084841390649313,4.788569927215576,-6.245974388216631,0.00274881930090487,0.003675594460219145,-0.0024705759715288877,0.0033922349102795124,-0.0173526331782341,0.015765724703669548,0.21913613379001617,-0.31739628314971924,-0.3948517441749573,0.279503732919693,-0.14652791619300842,0.12195426225662231
1749024847.9505763,4.6389241218566895,-1.2117649775794526,0.023765389119283498,-3.084841390649313,4.788569927215576,-6.245974388216631,0.00274881930090487,0.003675594460219145,-0.0024705759715288877,0.0033922349102795124,-0.0173526331782341,0.015765724703669548,0.21913613379001617,-0.31739628314971924,-0.3948517441749573,0.279503732919693,-0.14652791619300842,0.12195426225662231
1749024847.9506164,4.6389546394348145,-1.2116944056800385,0.023737255726949513,-3.084829946557516,4.788488388061523,-6.245917622243063,0.0031856163404881954,0.003086307318881154,-0.0019533312879502773,0.0040056281723082066,-0.017591822892427444,0.01751100644469261,0.2295079529285431,-0.33597496151924133,-0.3987998962402344,0.2850741446018219,-0.1599688082933426,0.12078692018985748
1749024847.9506545,4.6389546394348145,-1.2116944056800385,0.023737255726949513,-3.084829946557516,4.788488388061523,-6.245917622243063,0.0031856163404881954,0.003086307318881154,-0.0019533312879502773,0.0040056281723082066,-0.017591822892427444,0.01751100644469261,0.2295079529285431,-0.33597496151924133,-0.3987998962402344,0.2850741446018219,-0.1599688082933426,0.12078692018985748
1749024847.9506922,4.638963222503662,-1.2116753619960328,0.023757282887594044,-3.0848175487914027,4.788442134857178,-6.24584231922497,0.0037075814325362444,0.0026877811178565025,-0.0015350369503721595,0.0033452650532126427,-0.019185326993465424,0.016656113788485527,0.20992687344551086,-0.32481372356414795,-0.42650991678237915,0.2932925522327423,-0.16474363207817078,0.1379782110452652
1749024847.950729,4.638978481292725,-1.2117014092257996,0.023729626332418263,-3.084837575952047,4.788418292999268,-6.245806079600946,0.003812429029494524,0.0025437616277486086,-0.0024928576312959194,0.003675531130284071,-0.018806783482432365,0.01810159534215927,0.20828643441200256,-0.31134718656539917,-0.4373769760131836,0.30884769558906555,-0.17899273335933685,0.13912275433540344
1749024847.950766,4.638959884643555,-1.2116705042174836,0.023744885121480763,-3.084790369073385,4.788383960723877,-6.245797697697775,0.0037433539982885122,0.00279809907078743,-0.004319990985095501,0.004787546116858721,-0.019587960094213486,0.018625063821673393,0.2506181597709656,-0.32169175148010254,-0.42859506607055664,0.3134312629699707,-0.17328287661075592,0.15173757076263428
1749024847.950803,4.6390061378479,-1.2116894584945221,0.023748222981588185,-3.08475460628652,4.788358688354492,-6.245761703942911,0.003774231532588601,0.0030833380296826363,-0.004904106259346008,0.00668092118576169,-0.02126195654273033,0.019847119227051735,0.24239465594291687,-0.3381853699684143,-0.41468554735183716,0.293999582529068,-0.18665945529937744,0.1572350263595581
1749024847.9508393,4.6390061378479,-1.2116894584945221,0.023748222981588185,-3.08475460628652,4.788358688354492,-6.245761703942911,0.003774231532588601,0.0030833380296826363,-0.004904106259346008,0.00668092118576169,-0.02126195654273033,0.019847119227051735,0.24239465594291687,-0.3381853699684143,-0.41468554735183716,0.293999582529068,-0.18665945529937744,0.1572350263595581
1749024847.9508753,4.638924598693848,-1.2116894882968445,0.023721043263570607,-3.0847507915892542,4.788275241851807,-6.245662108306782,0.004242340102791786,0.0031901919282972813,-0.004683659877628088,0.00801437720656395,-0.023133784532546997,0.022473955526947975,0.24478858709335327,-0.32395070791244507,-0.44638901948928833,0.3103781044483185,-0.20496481657028198,0.1838207244873047
1749024847.950912,4.638924598693848,-1.2116894882968445,0.023721043263570607,-3.0847507915892542,4.788275241851807,-6.245662108306782,0.004242340102791786,0.0031901919282972813,-0.004683659877628088,0.00801437720656395,-0.023133784532546997,0.022473955526947975,0.24478858709335327,-0.32395070791244507,-0.44638901948928833,0.3103781044483185,-0.20496481657028198,0.1838207244873047
1749024847.9509482,4.639021873474121,-1.2116705638221283,0.023705307637349904,-3.084734102288717,4.788133144378662,-6.245617691670553,0.004645208362489939,0.0032822268549352884,-0.006055298261344433,0.008188564330339432,-0.026894187554717064,0.025543848052620888,0.2602843642234802,-0.3355579376220703,-0.4419782757759094,0.31992292404174805,-0.2076278179883957,0.1800297200679779
1749024847.950985,4.639042377471924,-1.211672769193985,0.02370912233461553,-3.0847488842406214,4.788081645965576,-6.245553761963741,0.005752961151301861,0.0035767434164881706,-0.006133859511464834,0.008666865527629852,-0.029077794402837753,0.027166182175278664,0.27050817012786865,-0.3295484781265259,-0.431351900100708,0.3089427053928375,-0.18563498556613922,0.1799980103969574
1749024847.951021,4.639057636260986,-1.2116222840598603,0.02367717424501592,-3.0846859417357386,4.788068771362305,-6.245469592754738,0.005780896171927452,0.003561371937394142,-0.006420243065804243,0.008718264289200306,-0.03066897578537464,0.028982948511838913,0.2565518617630005,-0.34025055170059204,-0.44759729504585266,0.3252878785133362,-0.23719167709350586,0.19236616790294647
1749024847.951132,4.639057636260986,-1.2116222840598603,0.02367717424501592,-3.0846859417357386,4.788068771362305,-6.245469592754738,0.005780896171927452,0.003561371937394142,-0.006420243065804243,0.008718264289200306,-0.03066897578537464,0.028982948511838913,0.2565518617630005,-0.34025055170059204,-0.44759729504585266,0.3252878785133362,-0.23719167709350586,0.19236616790294647
1749024847.9525304,4.639026165008545,-1.2115878623775025,0.023657147084371388,-3.0846620998778285,4.787933349609375,-6.24537351751794,0.005726063624024391,0.0033574544358998537,-0.007407133933156729,0.010505600832402706,-0.03382782265543938,0.03345266357064247,0.29434239864349365,-0.3243892192840576,-0.4510504901409149,0.3273054361343384,-0.22999361157417297,0.1868360936641693
1749024847.9942768,4.639090061187744,-1.2115950149348755,0.023626152669088185,-3.0846382580199183,4.787843227386475,-6.245263137166397,0.005827378481626511,0.003532283939421177,-0.007709752768278122,0.01043645478785038,-0.034144189208745956,0.03609791025519371,0.2914671301841736,-0.30614030361175537,-0.4402299225330353,0.3297685980796814,-0.2459055483341217,0.20374195277690887
1749024847.9943218,4.639090061187744,-1.2115950149348755,0.023626152669088185,-3.0846382580199183,4.787843227386475,-6.245263137166397,0.005827378481626511,0.003532283939421177,-0.007709752768278122,0.01043645478785038,-0.034144189208745956,0.03609791025519371,0.2914671301841736,-0.30614030361175537,-0.4402299225330353,0.3297685980796814,-0.2459055483341217,0.20374195277690887
1749024847.9943635,4.639090061187744,-1.2115901571563263,0.02364522615541631,-3.084614416162008,4.787778377532959,-6.245225947593347,0.006424822844564915,0.0039005368016660213,-0.007610450964421034,0.010662475600838661,-0.03590615466237068,0.037703532725572586,0.283311665058136,-0.35281407833099365,-0.439687043428421,0.32725679874420166,-0.24759353697299957,0.19027748703956604
1749024847.9944034,4.639095306396484,-1.2116524440101166,0.02360231081117803,-3.084550996819967,4.787651062011719,-6.245054301117555,0.006801261566579342,0.0044775125570595264,-0.008605183102190495,0.01086030900478363,-0.03787490725517273,0.04056079685688019,0.2726956605911255,-0.34157443046569824,-0.43942075967788696,0.3397061228752136,-0.26687657833099365,0.18750391900539398
1749024847.9944453,4.63914155960083,-1.211590127354004,0.023581806813375294,-3.08455814937734,4.78762149810791,-6.244978755955593,0.006245278287678957,0.004586021415889263,-0.008048630319535732,0.011348600499331951,-0.04062199220061302,0.04210402071475983,0.2708229422569275,-0.3334267735481262,-0.4582487642765045,0.33339381217956543,-0.264095276594162,0.1879163533449173
1749024847.9944928,4.63914155960083,-1.211590127354004,0.023581806813375294,-3.08455814937734,4.78762149810791,-6.244978755955593,0.006245278287678957,0.004586021415889263,-0.008048630319535732,0.011348600499331951,-0.04062199220061302,0.04210402071475983,0.2708229422569275,-0.3334267735481262,-0.4582487642765045,0.33339381217956543,-0.264095276594162,0.1879163533449173
1749024847.9945328,4.6391191482543945,-1.211590127354004,0.023569409047262013,-3.0845304928221644,4.787476539611816,-6.2449100019978445,0.0066873556934297085,0.004510241094976664,-0.00818831380456686,0.01131044514477253,-0.042872268706560135,0.04364273324608803,0.2716625928878784,-0.32802319526672363,-0.43919962644577026,0.32918888330459595,-0.2634623348712921,0.1868998259305954
1749024847.9945707,4.639146327972412,-1.2115538877299805,0.023549381886617482,-3.084494730035299,4.787355899810791,-6.244702402745382,0.007285434287041426,0.004058970604091883,-0.009056431241333485,0.01032775454223156,-0.044368501752614975,0.04610295966267586,0.28070950508117676,-0.34104347229003906,-0.44302088022232056,0.3549748957157135,-0.2899046838283539,0.18995195627212524
1749024847.9946144,4.639146327972412,-1.2115538877299805,0.023549381886617482,-3.084494730035299,4.787355899810791,-6.244702402745382,0.007285434287041426,0.004058970604091883,-0.009056431241333485,0.01032775454223156,-0.044368501752614975,0.04610295966267586,0.28070950508117676,-0.34104347229003906,-0.44302088022232056,0.3549748957157135,-0.2899046838283539,0.18995195627212524
1749024847.9946535,4.639170169830322,-1.2115419668010254,0.023525540028707326,-3.084470888177389,4.787222385406494,-6.244618550186054,0.006669653579592705,0.003852065186947584,-0.0096691083163023,0.010806556791067123,-0.045864615589380264,0.04700345918536186,0.2531559467315674,-0.3735344409942627,-0.4662790894508362,0.3386278748512268,-0.292863667011261,0.18356557190418243
1749024847.994691,4.639170169830322,-1.2115259629539032,0.023505989705220998,-3.0844465694823207,4.787102699279785,-6.244537946079866,0.006533461157232523,0.0030782287940382957,-0.009303340688347816,0.011373752728104591,-0.04778079316020012,0.04693029448390007,0.2730480134487152,-0.3557383716106415,-0.45944860577583313,0.3495780825614929,-0.30481821298599243,0.18190689384937286
1749024847.9947276,4.639210224151611,-1.2115573746016999,0.02344209352602178,-3.084395547906393,4.786970138549805,-6.244338575993673,0.006691341288387775,0.002640586346387863,-0.009933246299624443,0.011173986829817295,-0.04961499944329262,0.048858094960451126,0.2711016833782196,-0.348051518201828,-0.45213010907173157,0.3452907204627991,-0.30991294980049133,0.18272286653518677
1749024847.9947646,4.639218807220459,-1.2115295690349122,0.023445908223287404,-3.0843597851195277,4.786862373352051,-6.244203001503841,0.006808989215642214,0.0029502944089472294,-0.009543461725115776,0.011151566170156002,-0.05137694254517555,0.05233065038919449,0.260766863822937,-0.3327854871749878,-0.45590513944625854,0.34520310163497925,-0.3256000578403473,0.17783547937870026
1749024847.9948008,4.63925313949585,-1.2115610402873536,0.023422066365377248,-3.0843597851195277,4.786736011505127,-6.24413782755007,0.006478847470134497,0.0030182767659425735,-0.00999272707849741,0.011163514107465744,-0.054151423275470734,0.05184520035982132,0.2640348970890045,-0.3243856430053711,-0.47063249349594116,0.3467084467411041,-0.3365173935890198,0.1677263230085373
1749024847.9948373,4.639257907867432,-1.2114868623069306,0.023401562367574513,-3.084320207635397,4.786597728729248,-6.244026262556211,0.0074681974947452545,0.0030196169391274452,-0.010106220841407776,0.011716732755303383,-0.056454431265592575,0.050714511424303055,0.29034367203712463,-0.3346797227859497,-0.46300584077835083,0.3450465202331543,-0.3118177652359009,0.18495610356330872
1749024847.9948738,4.639261245727539,-1.2115141612342377,0.02339345613588506,-3.0842963657774867,4.786468029022217,-6.24388707826008,0.007269791327416897,0.0029035736806690693,-0.010822366923093796,0.01150771975517273,-0.05721978843212128,0.050391703844070435,0.2807719111442566,-0.3329548239707947,-0.44846978783607483,0.35410076379776,-0.3429713547229767,0.19984842836856842
1749024847.9949107,4.639285087585449,-1.211505727177002,0.023405377064840138,-3.0843073330321253,4.786367893218994,-6.243829064314262,0.008044783025979996,0.002750617917627096,-0.010272410698235035,0.011262532323598862,-0.05946004018187523,0.052573081105947495,0.270011842250824,-0.32531118392944336,-0.4620756208896637,0.3563510775566101,-0.3394854664802551,0.21073409914970398
1749024847.9949474,4.639285087585449,-1.211505727177002,0.023405377064840138,-3.0843073330321253,4.786367893218994,-6.243829064314262,0.008044783025979996,0.002750617917627096,-0.010272410698235035,0.011262532323598862,-0.05946004018187523,0.052573081105947495,0.270011842250824,-0.32531118392944336,-0.4620756208896637,0.3563510775566101,-0.3394854664802551,0.21073409914970398
1749024847.994984,4.639267444610596,-1.2115330559066315,0.02334148088564092,-3.084294935266012,4.7862701416015625,-6.243713934217588,0.007739922031760216,0.002489445498213172,-0.01105585228651762,0.01129353791475296,-0.06364976614713669,0.05477027967572212,0.2846587002277374,-0.34017854928970337,-0.4579210579395294,0.35911422967910767,-0.3358144164085388,0.20779147744178772
1749024847.995021,4.6393141746521,-1.211462990646698,0.023325268422262013,-3.084212442437643,4.785976886749268,-6.243473869060175,0.008750839158892632,0.002694573486223817,-0.01161897275596857,0.011406510137021542,-0.06803077459335327,0.0581379234790802,0.2722839117050171,-0.3244810402393341,-0.4628421366214752,0.36714881658554077,-0.3187715411186218,0.20169740915298462
1749024847.9952242,4.6393141746521,-1.211462990646698,0.023325268422262013,-3.084212442437643,4.785976886749268,-6.243473869060175,0.008750839158892632,0.002694573486223817,-0.01161897275596857,0.011406510137021542,-0.06803077459335327,0.0581379234790802,0.2722839117050171,-0.3244810402393341,-0.4628421366214752,0.36714881658554077,-0.3187715411186218,0.20169740915298462
1749024847.996672,4.6392951011657715,-1.2115315955928345,0.023269478474752248,-3.0842162571349085,4.7858452796936035,-6.243319213633434,0.008803000673651695,0.0025424761697649956,-0.01236798521131277,0.011410822160542011,-0.06736448407173157,0.0608789436519146,0.2868402302265167,-0.3521577715873718,-0.46556755900382996,0.36412513256073,-0.3073667287826538,0.19099435210227966
1749024848.0382853,4.639327526092529,-1.2115007799914856,0.023273293172017873,-3.084195753137106,4.78570556640625,-6.243229858820335,0.008858375251293182,0.0025955880992114544,-0.012481017038226128,0.011916677467525005,-0.06913717091083527,0.06216806918382645,0.2934211194515228,-0.31103047728538513,-0.4473486542701721,0.3811130225658417,-0.31326156854629517,0.20031024515628815
1749024848.0383308,4.639389514923096,-1.2114699643901368,0.023185555134908498,-3.084163328210348,4.78541898727417,-6.242969691996471,0.009056288748979568,0.0036145136691629887,-0.01310181524604559,0.012676198966801167,-0.07281886041164398,0.06228147819638252,0.28728199005126953,-0.3227550685405731,-0.4442141652107239,0.37979739904403687,-0.3080211579799652,0.21368202567100525
1749024848.0383742,4.639429092407227,-1.2114854019931336,0.023165527974263966,-3.0841552219786585,4.7852606773376465,-6.242896143590109,0.009849722497165203,0.003442348213866353,-0.013190106488764286,0.012910064309835434,-0.07661788165569305,0.06555762887001038,0.27264487743377686,-0.327058345079422,-0.44572967290878296,0.3974429965019226,-0.2789090573787689,0.2106708437204361
1749024848.0384145,4.639429092407227,-1.2114854019931336,0.023165527974263966,-3.0841552219786585,4.7852606773376465,-6.242896143590109,0.009849722497165203,0.003442348213866353,-0.013190106488764286,0.012910064309835434,-0.07661788165569305,0.06555762887001038,0.27264487743377686,-0.327058345079422,-0.44572967290878296,0.3974429965019226,-0.2789090573787689,0.2106708437204361
1749024848.038466,4.639410018920898,-1.21145452678714,0.023122612630025685,-3.0840846500792445,4.785089492797852,-6.242725193743603,0.009533446282148361,0.0035964136477559805,-0.01301202829927206,0.014220216311514378,-0.07561580836772919,0.06701410561800003,0.2826255261898041,-0.34416577219963074,-0.4505559504032135,0.38721469044685364,-0.30200856924057007,0.2226063311100006
1749024848.03851,4.639439582824707,-1.2114384931376954,0.02308971086610967,-3.0840679607787074,4.784766674041748,-6.2424095200942915,0.009466372430324554,0.003054707543924451,-0.013071906752884388,0.015110968612134457,-0.0764075443148613,0.07096575945615768,0.29208141565322876,-0.3161505162715912,-0.4350112974643707,0.4065503478050232,-0.31052452325820923,0.20988956093788147
1749024848.038554,4.6394476890563965,-1.2114580434611817,0.023053471242086232,-3.084031721154684,4.784623622894287,-6.242280788962738,0.00999689381569624,0.0030591641552746296,-0.010889208875596523,0.015673205256462097,-0.07638318836688995,0.07322268933057785,0.27534201741218567,-0.3260308802127838,-0.4536488354206085,0.4156392812728882,-0.31812840700149536,0.2009292095899582
1749024848.038593,4.6394476890563965,-1.2114580434611817,0.023053471242086232,-3.084031721154684,4.784623622894287,-6.242280788962738,0.00999689381569624,0.0030591641552746296,-0.010889208875596523,0.015673205256462097,-0.07638318836688995,0.07322268933057785,0.27534201741218567,-0.3260308802127838,-0.4536488354206085,0.4156392812728882,-0.31812840700149536,0.2009292095899582
1749024848.0386305,4.639499187469482,-1.2114805740169068,0.023029629384176076,-3.08396114925527,4.784511566162109,-6.242109470312492,0.010184332728385925,0.0032920704688876867,-0.013503119349479675,0.01592930406332016,-0.07936226576566696,0.07476046681404114,0.26833608746528625,-0.31202244758605957,-0.43547675013542175,0.3950642943382263,-0.30385681986808777,0.20678859949111938
1749024848.0386672,4.6395263671875,-1.2114491027644654,0.022981945668355763,-3.0839082203307093,4.784180164337158,-6.241805542503492,0.010424131527543068,0.003037495771422982,-0.012796277180314064,0.01687496528029442,-0.0789647102355957,0.07630857080221176,0.28464603424072266,-0.2953238785266876,-0.42452916502952576,0.3896298408508301,-0.3339039981365204,0.19338509440422058
1749024848.0387042,4.639550685882568,-1.211402879362442,0.022945706044332326,-3.083884378472799,4.78400993347168,-6.2416722553419035,0.010461193509399891,0.003974773455411196,-0.012025666423141956,0.018041089177131653,-0.07910236716270447,0.07670295983552933,0.28005942702293396,-0.3469685912132263,-0.43591949343681335,0.402371346950531,-0.3478260040283203,0.19350764155387878
1749024848.0387404,4.639543533325195,-1.211399422293045,0.022944275532857716,-3.083813806573385,4.783876419067383,-6.241496779267685,0.010219909250736237,0.004102190025150776,-0.011965825222432613,0.018504222854971886,-0.07898859679698944,0.07783687859773636,0.2782910168170929,-0.32881006598472595,-0.44661667943000793,0.40721315145492554,-0.35212284326553345,0.18809092044830322
1749024848.0387774,4.639581680297852,-1.2113944751075287,0.022909466420308888,-3.0837885342040003,4.783647537231445,-6.241360001509086,0.010851019993424416,0.004077963065356016,-0.01246786117553711,0.018769796937704086,-0.08227497339248657,0.07948578894138336,0.27352890372276306,-0.3203727900981903,-0.43728235363960266,0.4078977108001709,-0.34940797090530396,0.16755975782871246
1749024848.038814,4.639590263366699,-1.2113790971091767,0.02288228670229131,-3.0837613544859828,4.783482074737549,-6.2411760727511805,0.0105005893856287,0.003650491824373603,-0.011970934458076954,0.019245928153395653,-0.08231183141469955,0.0794156864285469,0.2762506306171417,-0.32784247398376465,-0.454406201839447,0.4008486866950989,-0.36308687925338745,0.1875115931034088
1749024848.0388505,4.639664173126221,-1.2114252907088776,0.022849384938375294,-3.083694120446676,4.783330917358398,-6.2409889365183275,0.011104769073426723,0.003614682937040925,-0.012395195662975311,0.019387556239962578,-0.08640434592962265,0.08020316809415817,0.27923014760017395,-0.3115946352481842,-0.4284502863883972,0.40555140376091003,-0.35304686427116394,0.18561196327209473
1749024848.0388885,4.63967752456665,-1.2114049953273316,0.022837464009420216,-3.0836931667723597,4.783100605010986,-6.240816809480087,0.011080032214522362,0.003328936640173197,-0.012157023884356022,0.019101731479167938,-0.08844803273677826,0.08035922050476074,0.27325206995010376,-0.2960626780986786,-0.4331400990486145,0.4097791314125061,-0.35511377453804016,0.22000786662101746
1749024848.0389252,4.63966178894043,-1.2113944453052063,0.02278596559633428,-3.083641668359274,4.78297233581543,-6.240687422697441,0.010258961468935013,0.0033747232519090176,-0.012458784505724907,0.019566405564546585,-0.08594205230474472,0.08118806034326553,0.31797099113464355,-0.31861719489097595,-0.43014663457870483,0.39943552017211914,-0.3525729477405548,0.19913128018379211
1749024848.0389614,4.63966178894043,-1.2113944453052063,0.02278596559633428,-3.083641668359274,4.78297233581543,-6.240687422697441,0.010258961468935013,0.0033747232519090176,-0.012458784505724907,0.019566405564546585,-0.08594205230474472,0.08118806034326553,0.31797099113464355,-0.31861719489097595,-0.43014663457870483,0.39943552017211914,-0.3525729477405548,0.19913128018379211
1749024848.0390017,4.639732837677002,-1.2113482517055054,0.0227893034564417,-3.0836059055724085,4.782796382904053,-6.240508191530601,0.011354652233421803,0.004203693475574255,-0.012388530187308788,0.020218325778841972,-0.08766274154186249,0.08369661867618561,0.27771103382110596,-0.3080404996871948,-0.4431036114692688,0.41354918479919434,-0.3680342137813568,0.1898818016052246
1749024848.0390391,4.639745712280273,-1.2114001375487824,0.022738281880513966,-3.0835100613036097,4.782371997833252,-6.240175564085142,0.010884584859013557,0.00489954836666584,-0.013038682751357555,0.0213338453322649,-0.09725753962993622,0.08464913070201874,0.29066574573516846,-0.3429044187068939,-0.44283562898635864,0.40798771381378174,-0.3697196841239929,0.22413849830627441
1749024848.03915,4.639745712280273,-1.2114001375487824,0.022738281880513966,-3.0835100613036097,4.782371997833252,-6.240175564085142,0.010884584859013557,0.00489954836666584,-0.013038682751357555,0.0213338453322649,-0.09725753962993622,0.08464913070201874,0.29066574573516846,-0.3429044187068939,-0.44283562898635864,0.40798771381378174,-0.3697196841239929,0.22413849830627441
1749024848.040503,4.639754295349121,-1.2113586825183411,0.022678200398580373,-3.0834418735899867,4.782008171081543,-6.239804640655414,0.011995484121143818,0.004276786930859089,-0.013461585156619549,0.021749794483184814,-0.09959661215543747,0.08826174587011337,0.2771710753440857,-0.3041183054447174,-0.4350586533546448,0.41801369190216064,-0.36344611644744873,0.25621166825294495
1749024848.0822906,4.639817714691162,-1.2113140386394043,0.022645298634664357,-3.0833903751769007,4.781808853149414,-6.239667762313978,0.01182074099779129,0.004308679141104221,-0.013097401708364487,0.02249916084110737,-0.102718785405159,0.09141239523887634,0.27911636233329773,-0.316521555185318,-0.4533088505268097,0.41917210817337036,-0.3487797975540161,0.21701601147651672
1749024848.0823367,4.639817714691162,-1.2113140386394043,0.022645298634664357,-3.0833903751769007,4.781808853149414,-6.239667762313978,0.01182074099779129,0.004308679141104221,-0.013097401708364487,0.02249916084110737,-0.102718785405159,0.09141239523887634,0.27911636233329773,-0.316521555185318,-0.4533088505268097,0.41917210817337036,-0.3487797975540161,0.21701601147651672
1749024848.0823777,4.639881610870361,-1.2113259595683594,0.022609535847799123,-3.0832983456053675,4.781344413757324,-6.239255734031097,0.01144250575453043,0.004430755041539669,-0.013909093104302883,0.023016082122921944,-0.10658378154039383,0.0947047770023346,0.27617523074150085,-0.31953123211860657,-0.4495214521884918,0.402095764875412,-0.344816654920578,0.23512600362300873
1749024848.0824175,4.639893054962158,-1.21129863083873,0.022573773060933888,-3.0832468471922816,4.781151294708252,-6.239079058413402,0.011460167355835438,0.004784882068634033,-0.014732038602232933,0.022747348994016647,-0.10586186498403549,0.09618747979402542,0.26090583205223083,-0.3037382960319519,-0.4443395137786865,0.4124538004398346,-0.34242987632751465,0.2384689599275589
1749024848.0824564,4.639902114868164,-1.2112936836532135,0.02254659334291631,-3.0831991634764613,4.780950546264648,-6.238902561609642,0.010648819617927074,0.004796597640961409,-0.014053658582270145,0.023359674960374832,-0.10764665901660919,0.10171633213758469,0.2634042799472809,-0.32219091057777405,-0.44431400299072266,0.4249792993068695,-0.37385454773902893,0.2276962250471115
1749024848.0824943,4.639871597290039,-1.2112901967814942,0.022510353718892873,-3.0831667385497035,4.780685901641846,-6.238698099051611,0.010752345435321331,0.004731507506221533,-0.014933489263057709,0.024077599868178368,-0.10995476692914963,0.10263103246688843,0.26834288239479065,-0.34027808904647827,-0.44939807057380676,0.4102708697319031,-0.38141894340515137,0.20982015132904053
1749024848.0825322,4.639871597290039,-1.2112901967814942,0.022510353718892873,-3.0831667385497035,4.780685901641846,-6.238698099051611,0.010752345435321331,0.004731507506221533,-0.014933489263057709,0.024077599868178368,-0.10995476692914963,0.10263103246688843,0.26834288239479065,-0.34027808904647827,-0.44939807057380676,0.4102708697319031,-0.38141894340515137,0.20982015132904053
1749024848.0825694,4.639926910400391,-1.2112693947604676,0.0224536100970667,-3.0830589733519496,4.780259609222412,-6.238274112586872,0.011357582174241543,0.004602314904332161,-0.015850786119699478,0.024717316031455994,-0.11261271685361862,0.10549971461296082,0.2740791440010071,-0.2899262309074402,-0.4468180537223816,0.41312044858932495,-0.3770943284034729,0.22265200316905975
1749024848.0826068,4.639926910400391,-1.2112693947604676,0.0224536100970667,-3.0830589733519496,4.780259609222412,-6.238274112586872,0.011357582174241543,0.004602314904332161,-0.015850786119699478,0.024717316031455994,-0.11261271685361862,0.10549971461296082,0.2740791440010071,-0.2899262309074402,-0.4468180537223816,0.41312044858932495,-0.3770943284034729,0.22265200316905975
1749024848.0826445,4.6399946212768555,-1.211278275852539,0.022426430379049123,-3.0829879246153773,4.7800703048706055,-6.23801447102894,0.0116400932893157,0.00440698629245162,-0.01564284786581993,0.024705924093723297,-0.11287107318639755,0.10893584787845612,0.28318825364112854,-0.3310947120189667,-0.4474570155143738,0.4301714301109314,-0.39687782526016235,0.22528688609600067
1749024848.0826821,4.640015125274658,-1.2112455827048798,0.02236968675722295,-3.082911630670065,4.779616355895996,-6.237570446227686,0.011172240599989891,0.005421311594545841,-0.016522806137800217,0.0258018895983696,-0.11764723807573318,0.11118825525045395,0.2530536353588104,-0.3071553409099579,-0.44256603717803955,0.4347003102302551,-0.40261146426200867,0.2210717499256134
1749024848.0827196,4.640042304992676,-1.2112336319736023,0.022333447133199513,-3.082855363885397,4.779346466064453,-6.2373312825905245,0.011094573885202408,0.005426760762929916,-0.01644771918654442,0.02614767476916313,-0.1184958666563034,0.11095787584781647,0.268352210521698,-0.32823237776756287,-0.4581284821033478,0.425205260515213,-0.41527771949768066,0.20935438573360443
1749024848.0827568,4.640042304992676,-1.2112336319736023,0.022333447133199513,-3.082855363885397,4.779346466064453,-6.2373312825905245,0.011094573885202408,0.005426760762929916,-0.01644771918654442,0.02614767476916313,-0.1184958666563034,0.11095787584781647,0.268352210521698,-0.32823237776756287,-0.4581284821033478,0.425205260515213,-0.41527771949768066,0.20935438573360443
1749024848.0827942,4.640082836151123,-1.2112335723689576,0.022261921559469044,-3.082747598687643,4.778848171234131,-6.236869916562931,0.011432752013206482,0.004997351206839085,-0.016895627602934837,0.02637440152466297,-0.12597548961639404,0.11540254205465317,0.2695213854312897,-0.3044373095035553,-0.4582641124725342,0.42579153180122375,-0.3920709490776062,0.2005370408296585
1749024848.082831,4.640145301818848,-1.2112251979163666,0.022206608449117482,-3.0826879940428675,4.778532981872559,-6.23668018007745,0.011750657111406326,0.005179994273930788,-0.017495252192020416,0.027073808014392853,-0.12801355123519897,0.11370683461427689,0.2713391184806824,-0.31425240635871887,-0.45264676213264465,0.44935375452041626,-0.3897225260734558,0.221856951713562
1749024848.0828676,4.640145301818848,-1.2112251979163666,0.022206608449117482,-3.0826879940428675,4.778532981872559,-6.23668018007745,0.011750657111406326,0.005179994273930788,-0.017495252192020416,0.027073808014392853,-0.12801355123519897,0.11370683461427689,0.2713391184806824,-0.31425240635871887,-0.45264676213264465,0.44935375452041626,-0.3897225260734558,0.221856951713562
1749024848.0829046,4.640141487121582,-1.2111908358386536,0.02220184007753545,-3.0826288662352503,4.778350830078125,-6.236413624380724,0.0120153883472085,0.005610262975096703,-0.01765756495296955,0.02747489884495735,-0.13197407126426697,0.11385203897953033,0.27766847610473633,-0.312505304813385,-0.44977471232414246,0.4183190166950226,-0.3855665922164917,0.23001258075237274
1749024848.0829415,4.640130996704102,-1.2111754578403016,0.022153679524556935,-3.0825849972166957,4.7780070304870605,-6.236208141093151,0.011733593419194221,0.005624906625598669,-0.0178114902228117,0.028175532817840576,-0.13673712313175201,0.11831594258546829,0.2854228913784027,-0.30439746379852295,-0.4586400091648102,0.43687334656715393,-0.3452707529067993,0.21320439875125885
1749024848.0829785,4.640229225158691,-1.2111272674850007,0.02209359804262334,-3.0824691257872523,4.777476787567139,-6.235728025679485,0.012602631002664566,0.0065414924174547195,-0.018334299325942993,0.030377421528100967,-0.1350548416376114,0.12045019865036011,0.28153878450393677,-0.33357325196266174,-0.44765743613243103,0.411149799823761,-0.3675115704536438,0.2366727590560913
1749024848.0830154,4.640249252319336,-1.2111307841590424,0.022042099629537404,-3.082393785516256,4.777217388153076,-6.235436953847305,0.011917155236005783,0.005857191979885101,-0.018669266253709793,0.030236773192882538,-0.13676567375659943,0.12350869923830032,0.2823839485645294,-0.33138421177864075,-0.44640278816223145,0.41753432154655457,-0.3420858681201935,0.2646085321903229
1749024848.0831206,4.640257835388184,-1.2111342710307618,0.02202159563173467,-3.0823337040343226,4.776920318603516,-6.2351695897625845,0.012761780992150307,0.006112818606197834,-0.019136369228363037,0.03040951117873192,-0.13705572485923767,0.12782840430736542,0.27772486209869385,-0.33450502157211304,-0.4595254063606262,0.41566312313079834,-0.3861472010612488,0.22939325869083405
1749024848.0845213,4.640288829803467,-1.2111377579024811,0.021970574055806935,-3.0822931728758753,4.776652812957764,-6.234944842998878,0.012735763564705849,0.006416809279471636,-0.01899544522166252,0.029940973967313766,-0.13571350276470184,0.13079997897148132,0.27209123969078064,-0.3255487084388733,-0.45347732305526733,0.420146107673645,-0.37098926305770874,0.21769195795059204
1749024848.1265585,4.640309810638428,-1.2111069721034546,0.021915260945455373,-3.082245012322897,4.776412487030029,-6.234680351112978,0.012919960543513298,0.00630212901160121,-0.019136935472488403,0.029940683394670486,-0.13834139704704285,0.1331028938293457,0.2787456214427948,-0.3569195568561554,-0.4492548108100891,0.4371696412563324,-0.3861607611179352,0.2308146357536316
1749024848.1266375,4.640352249145508,-1.2110789579204102,0.021917645131246388,-3.082182069818014,4.776153087615967,-6.234423514698641,0.012929392047226429,0.0065038627944886684,-0.019465873017907143,0.03122476488351822,-0.1370680332183838,0.13424797356128693,0.27422642707824707,-0.33263564109802246,-0.44995570182800293,0.4298780560493469,-0.3918590545654297,0.21247754991054535
1749024848.12671,4.640345096588135,-1.211082474594452,0.021877590809957326,-3.0820943317809046,4.775882244110107,-6.234143410121099,0.012914962135255337,0.006358500570058823,-0.019482795149087906,0.032133523374795914,-0.13746309280395508,0.13513106107711792,0.28762248158454895,-0.32898980379104614,-0.4549212157726288,0.42793548107147217,-0.4058713912963867,0.1942194700241089
1749024848.126782,4.640345096588135,-1.211082474594452,0.021877590809957326,-3.0820943317809046,4.775882244110107,-6.234143410121099,0.012914962135255337,0.006358500570058823,-0.019482795149087906,0.032133523374795914,-0.13746309280395508,0.13513106107711792,0.28762248158454895,-0.32898980379104614,-0.4549212157726288,0.42793548107147217,-0.4058713912963867,0.1942194700241089
1749024848.1268537,4.640334606170654,-1.2110581558993836,0.021829907094137013,-3.082034250298971,4.775569438934326,-6.2338748204158705,0.01351470872759819,0.006102686282247305,-0.020004022866487503,0.032621949911117554,-0.14349737763404846,0.13557693362236023,0.27479973435401917,-0.3230443000793457,-0.46814316511154175,0.4107338488101959,-0.40286141633987427,0.19434098899364471
1749024848.126924,4.640432834625244,-1.2110498708537598,0.02174264589418584,-3.0818873844542445,4.774965286254883,-6.233354624603884,0.014253208413720131,0.006240193732082844,-0.02034641057252884,0.03270801529288292,-0.14870773255825043,0.1347787082195282,0.2819466292858124,-0.333046555519104,-0.4572660028934479,0.4223741888999939,-0.40335413813591003,0.21601328253746033
1749024848.1269941,4.640446662902832,-1.2110071045211335,0.0216754118548792,-3.0818501911559046,4.77466344833374,-6.233062818889515,0.013873050920665264,0.006152356509119272,-0.020128214731812477,0.03260977938771248,-0.15224258601665497,0.13418364524841309,0.2814200520515442,-0.32269585132598877,-0.4667722284793854,0.4226050078868866,-0.4007706642150879,0.24691814184188843
1749024848.1270638,4.640446662902832,-1.2110071045211335,0.0216754118548792,-3.0818501911559046,4.77466344833374,-6.233062818889515,0.013873050920665264,0.006152356509119272,-0.020128214731812477,0.03260977938771248,-0.15224258601665497,0.13418364524841309,0.2814200520515442,-0.32269585132598877,-0.4667722284793854,0.4226050078868866,-0.4007706642150879,0.24691814184188843
1749024848.1271346,4.64048957824707,-1.2109952133945008,0.02166635194887334,-3.0817748508849085,4.774376392364502,-6.232821285967724,0.014645758084952831,0.006438474636524916,-0.020980913192033768,0.03406413272023201,-0.15503878891468048,0.1369876265525818,0.2991907298564911,-0.33312639594078064,-0.4687976539134979,0.4284818470478058,-0.38319435715675354,0.21097546815872192
1749024848.1272047,4.640556335449219,-1.2109987002662201,0.021574322377340138,-3.0816246471800746,4.773699760437012,-6.232195444648163,0.0154107715934515,0.0057761287316679955,-0.02187415398657322,0.03439953923225403,-0.1565639078617096,0.13731035590171814,0.2760172188282013,-0.32544487714767456,-0.45457619428634644,0.4217696785926819,-0.3940258026123047,0.29003265500068665
1749024848.1272519,4.640542507171631,-1.2109778684428711,0.021538559590474904,-3.0815559826292933,4.773373603820801,-6.23193716654648,0.015473119914531708,0.006627218332141638,-0.021711882203817368,0.035704415291547775,-0.15788638591766357,0.14403770864009857,0.29563242197036743,-0.31912070512771606,-0.4546574354171753,0.40115365386009216,-0.40020281076431274,0.2684566378593445
1749024848.1272898,4.640600681304932,-1.2109694343856354,0.021490399037496388,-3.0814930401244105,4.773073196411133,-6.231617503111259,0.016199907287955284,0.0069792671129107475,-0.02179763838648796,0.03492385521531105,-0.15927067399024963,0.14450021088123322,0.27722829580307007,-0.32590246200561523,-0.4657163619995117,0.40910643339157104,-0.39752253890037537,0.2686806917190552
1749024848.1273272,4.6406569480896,-1.210954026584961,0.02142650285829717,-3.0814243755736292,4.772808074951172,-6.231348864977257,0.015778472647070885,0.006502382457256317,-0.022725863382220268,0.03480682894587517,-0.16048528254032135,0.14770512282848358,0.3038986325263977,-0.339297354221344,-0.48386386036872864,0.41672834753990173,-0.4048581123352051,0.2466588318347931
1749024848.1273656,4.640727996826172,-1.2109813553145905,0.021390740071431935,-3.0813609562315882,4.772454738616943,-6.231029764060871,0.015600425191223621,0.006360202562063932,-0.0231715627014637,0.03485066816210747,-0.16124974191188812,0.1493654102087021,0.30349230766296387,-0.3366971015930176,-0.4771190881729126,0.4319528639316559,-0.39657309651374817,0.2307588905096054
1749024848.1274025,4.6407551765441895,-1.2109301847270508,0.021370712910787404,-3.0812889538206996,4.772116661071777,-6.230741258953707,0.016162272542715073,0.0067377821542322636,-0.023081040009856224,0.034532539546489716,-0.1637440323829651,0.1523641049861908,0.26031094789505005,-0.3258991539478302,-0.46570301055908203,0.4318327307701111,-0.4169989228248596,0.24190229177474976
1749024848.1274412,4.6407551765441895,-1.2109301847270508,0.021370712910787404,-3.0812889538206996,4.772116661071777,-6.230741258953707,0.016162272542715073,0.0067377821542322636,-0.023081040009856224,0.034532539546489716,-0.1637440323829651,0.1523641049861908,0.26031094789505005,-0.3258991539478302,-0.46570301055908203,0.4318327307701111,-0.4169989228248596,0.24190229177474976
1749024848.1274807,4.640748023986816,-1.2109254163554688,0.021329704915181935,-3.081224580804342,4.771755695343018,-6.230472807084219,0.015881095081567764,0.006992161739617586,-0.0229951124638319,0.035238757729530334,-0.16714069247245789,0.15365135669708252,0.2924466133117676,-0.3166264593601227,-0.4606144428253174,0.43067917227745056,-0.39684364199638367,0.23156127333641052
1749024848.1275177,4.640859603881836,-1.2108630996993561,0.02121431032289678,-3.081069131890768,4.7711052894592285,-6.229871865605013,0.01667528972029686,0.007653998211026192,-0.02516772970557213,0.03667089715600014,-0.17466747760772705,0.15733161568641663,0.30615806579589844,-0.3660775125026703,-0.456738144159317,0.4121083617210388,-0.39155352115631104,0.21416744589805603
1749024848.1275556,4.640859603881836,-1.2108630996993561,0.02121431032289678,-3.081069131890768,4.7711052894592285,-6.229871865605013,0.01667528972029686,0.007653998211026192,-0.02516772970557213,0.03667089715600014,-0.17466747760772705,0.15733161568641663,0.30615806579589844,-0.3660775125026703,-0.456738144159317,0.4121083617210388,-0.39155352115631104,0.21416744589805603
1749024848.1275926,4.640888690948486,-1.210846261387207,0.02111846605409795,-3.080921789208883,4.770471096038818,-6.229189787303106,0.017660774290561676,0.006375561933964491,-0.024042408913373947,0.03632550686597824,-0.1769477128982544,0.16028878092765808,0.2902146577835083,-0.3223738372325897,-0.47724589705467224,0.4307864308357239,-0.3777735233306885,0.25752052664756775
1749024848.1277077,4.640888690948486,-1.210846261387207,0.02111846605409795,-3.080921789208883,4.770471096038818,-6.229189787303106,0.017660774290561676,0.006375561933964491,-0.024042408913373947,0.03632550686597824,-0.1769477128982544,0.16028878092765808,0.2902146577835083,-0.3223738372325897,-0.47724589705467224,0.4307864308357239,-0.3777735233306885,0.25752052664756775
1749024848.1285493,4.640908718109131,-1.2108616691878815,0.021089855824605763,-3.0808497867979945,4.770064830780029,-6.22891112068762,0.018012141808867455,0.007198314648121595,-0.024938160553574562,0.03700223192572594,-0.17869724333286285,0.16135293245315552,0.3045843243598938,-0.3280823826789856,-0.4657757580280304,0.4212844669818878,-0.37991446256637573,0.263590544462204
1749024848.1703084,4.6409220695495605,-1.2108224493316193,0.021013561879293263,-3.0807625255980433,4.769773960113525,-6.228568982576029,0.018501240760087967,0.007686162833124399,-0.024911997839808464,0.03725836053490639,-0.1792166531085968,0.16390788555145264,0.29329872131347656,-0.3434000313282013,-0.46950778365135193,0.42410343885421753,-0.38037094473838806,0.2706013023853302
1749024848.1703606,4.641016483306885,-1.2107981008342286,0.020906750355855763,-3.0806194744505824,4.768951892852783,-6.227844830845491,0.01884937658905983,0.00672634644433856,-0.026816368103027344,0.03785282000899315,-0.17829501628875732,0.17174211144447327,0.2822303771972656,-0.3462952971458435,-0.4629044532775879,0.4302248954772949,-0.441587895154953,0.26615774631500244
1749024848.170403,4.641068458557129,-1.2108170253089447,0.020847145711080373,-3.0805474720396937,4.768621444702148,-6.2275192255722445,0.01907307095825672,0.006769378669559956,-0.026991253718733788,0.038566071540117264,-0.18375864624977112,0.1738698035478592,0.2967289388179779,-0.3248146176338196,-0.4626282751560211,0.4403834044933319,-0.4032784700393677,0.26437607407569885
1749024848.1704495,4.6410698890686035,-1.2107777756503602,0.020821873341695607,-3.0804788074889125,4.768246650695801,-6.227131281291143,0.018622558563947678,0.007482104003429413,-0.02691549062728882,0.03950744867324829,-0.18347911536693573,0.17488636076450348,0.2807702124118805,-0.32323160767555237,-0.45316940546035767,0.4386461079120636,-0.4198393225669861,0.24793317914009094
1749024848.1704907,4.6410698890686035,-1.2107777756503602,0.020821873341695607,-3.0804788074889125,4.768246650695801,-6.227131281291143,0.018622558563947678,0.007482104003429413,-0.02691549062728882,0.03950744867324829,-0.18347911536693573,0.17488636076450348,0.2807702124118805,-0.32323160767555237,-0.45316940546035767,0.4386461079120636,-0.4198393225669861,0.24793317914009094
1749024848.1705296,4.641191482543945,-1.2107469004443665,0.020710293446676076,-3.0803195438780726,4.767496585845947,-6.2264577637063425,0.01727832481265068,0.00714140385389328,-0.02783859521150589,0.040375951677560806,-0.19145892560482025,0.17357967793941498,0.3089157044887543,-0.3403046429157257,-0.44422802329063416,0.43777531385421753,-0.4153299629688263,0.23242449760437012
1749024848.1705675,4.641191482543945,-1.2107469004443665,0.020710293446676076,-3.0803195438780726,4.767496585845947,-6.2264577637063425,0.01727832481265068,0.00714140385389328,-0.02783859521150589,0.040375951677560806,-0.19145892560482025,0.17357967793941498,0.3089157044887543,-0.3403046429157257,-0.44422802329063416,0.43777531385421753,-0.4153299629688263,0.23242449760437012
1749024848.1706054,4.641260623931885,-1.210726575260498,0.020586792622701466,-3.0801836452879847,4.7666802406311035,-6.225816592817203,0.020686998963356018,0.008272401988506317,-0.02831631898880005,0.040841132402420044,-0.19585928320884705,0.17274604737758636,0.2690419852733612,-0.33513855934143066,-0.4589325785636902,0.4411419630050659,-0.3778042793273926,0.2584105134010315
1749024848.1706438,4.641292095184326,-1.2106714707664032,0.02054292360414678,-3.080064912835592,4.766306400299072,-6.2254093440817755,0.020314514636993408,0.007560637313872576,-0.028750453144311905,0.04207119718194008,-0.19583506882190704,0.17466029524803162,0.2899155914783478,-0.33717894554138184,-0.4524458944797516,0.44453707337379456,-0.3814125061035156,0.31686273217201233
1749024848.1706812,4.641292095184326,-1.2106714707664032,0.02054292360414678,-3.080064912835592,4.766306400299072,-6.2254093440817755,0.020314514636993408,0.007560637313872576,-0.028750453144311905,0.04207119718194008,-0.19583506882190704,0.17466029524803162,0.2899155914783478,-0.33717894554138184,-0.4524458944797516,0.44453707337379456,-0.3814125061035156,0.31686273217201233
1749024848.1707182,4.641402721405029,-1.2106630069068451,0.020434204732076466,-3.0799323521056117,4.765528678894043,-6.224697113280193,0.0198612492531538,0.006713213864713907,-0.029096858575940132,0.043298475444316864,-0.19713346660137177,0.18000970780849457,0.29727935791015625,-0.33739006519317627,-0.44304201006889343,0.4401222765445709,-0.3792242407798767,0.3036959171295166
1749024848.1707554,4.641427993774414,-1.2106818717769166,0.020362679158345998,-3.079820772210592,4.765113353729248,-6.224364139382736,0.020504962652921677,0.007265686988830566,-0.029663316905498505,0.043968554586172104,-0.2008473426103592,0.18429134786128998,0.2635689973831177,-0.34667760133743286,-0.43301117420196533,0.4372774362564087,-0.4052012264728546,0.28022652864456177
1749024848.1707957,4.641445159912109,-1.2106356781772156,0.0203021208392542,-3.0797649822630824,4.764713764190674,-6.223976493124859,0.020856531336903572,0.008080104365944862,-0.029314789921045303,0.04427393898367882,-0.2004670798778534,0.18665513396263123,0.2956322431564331,-0.3402424454689026,-0.45182400941848755,0.45323413610458374,-0.3962133228778839,0.30989742279052734
1749024848.1708336,4.64150333404541,-1.210630254154541,0.020254437123433888,-3.079677244225973,4.764326572418213,-6.223615154867069,0.021135125309228897,0.006987317930907011,-0.029841139912605286,0.046250976622104645,-0.20541033148765564,0.18863153457641602,0.2803446054458618,-0.32879242300987244,-0.4504314661026001,0.43278032541275024,-0.3958192467689514,0.27879083156585693
1749024848.1708708,4.64150333404541,-1.210630254154541,0.020254437123433888,-3.079677244225973,4.764326572418213,-6.223615154867069,0.021135125309228897,0.006987317930907011,-0.029841139912605286,0.046250976622104645,-0.20541033148765564,0.18863153457641602,0.2803446054458618,-0.32879242300987244,-0.4504314661026001,0.43278032541275024,-0.3958192467689514,0.27879083156585693
1749024848.1709077,4.641579627990723,-1.210633711223938,0.020150009785787404,-3.079482217828268,4.76353645324707,-6.222800344471828,0.021168339997529984,0.007077139336615801,-0.029796607792377472,0.045900437980890274,-0.20777904987335205,0.19299739599227905,0.2754649221897125,-0.34329161047935486,-0.44254496693611145,0.45019423961639404,-0.4148872494697571,0.2634514570236206
1749024848.170946,4.641579627990723,-1.210633711223938,0.020150009785787404,-3.079482217828268,4.76353645324707,-6.222800344471828,0.021168339997529984,0.007077139336615801,-0.029796607792377472,0.045900437980890274,-0.20777904987335205,0.19299739599227905,0.2754649221897125,-0.34329161047935486,-0.44254496693611145,0.45019423961639404,-0.4148872494697571,0.2634514570236206
1749024848.1709828,4.641635417938232,-1.2105910044959565,0.02006227174867803,-3.0793591938414515,4.7631144523620605,-6.222474068646328,0.021450916305184364,0.007395666558295488,-0.029652755707502365,0.04547061398625374,-0.20808999240398407,0.18892307579517365,0.2954287528991699,-0.3367931842803955,-0.4491763710975647,0.4294867515563965,-0.4125274419784546,0.3029457926750183
1749024848.1710196,4.641716003417969,-1.2105671626380463,0.019942585621969044,-3.079179426232809,4.762253284454346,-6.2216585280941885,0.021559927612543106,0.0073345075361430645,-0.03024258464574814,0.046047866344451904,-0.20966169238090515,0.19550085067749023,0.31896737217903137,-0.3155406415462494,-0.45772767066955566,0.4596196413040161,-0.4356401264667511,0.329542338848114
1749024848.1710563,4.641764163970947,-1.210542843942978,0.01988250414003545,-3.079130788842672,4.761788368225098,-6.221265889947311,0.0218888558447361,0.00775951100513339,-0.030514216050505638,0.046246204525232315,-0.21099910140037537,0.1987522542476654,0.2936839461326599,-0.34225165843963623,-0.4488011598587036,0.43949347734451294,-0.4662468731403351,0.31355300545692444
1749024848.1711695,4.641764163970947,-1.210542843942978,0.01988250414003545,-3.079130788842672,4.761788368225098,-6.221265889947311,0.0218888558447361,0.00775951100513339,-0.030514216050505638,0.046246204525232315,-0.21099910140037537,0.1987522542476654,0.2936839461326599,-0.34225165843963623,-0.4488011598587036,0.43949347734451294,-0.4662468731403351,0.31355300545692444
1749024848.1725135,4.641855239868164,-1.2105113726905365,0.01975900331606084,-3.078907629052633,4.760949611663818,-6.220460985098974,0.02158057875931263,0.007147605996578932,-0.0314435139298439,0.04936348274350166,-0.21884797513484955,0.20600847899913788,0.3104415535926819,-0.3165906071662903,-0.46263793110847473,0.4437294602394104,-0.4430813193321228,0.2934434711933136
1749024848.2142959,4.641855239868164,-1.2105113726905365,0.01975900331606084,-3.078907629052633,4.760949611663818,-6.220460985098974,0.02158057875931263,0.007147605996578932,-0.0314435139298439,0.04936348274350166,-0.21884797513484955,0.20600847899913788,0.3104415535926819,-0.3165906071662903,-0.46263793110847473,0.4437294602394104,-0.4430813193321228,0.2934434711933136
1749024848.2143419,4.641939163208008,-1.2105254989913483,0.01963359514345342,-3.078728338281149,4.760007858276367,-6.219632629548208,0.023166656494140625,0.007095901761204004,-0.03187505900859833,0.04762941226363182,-0.22601103782653809,0.20755496621131897,0.30178302526474,-0.32908952236175537,-0.4570786654949188,0.44854500889778137,-0.39993858337402344,0.27927836775779724
1749024848.2143865,4.641939163208008,-1.2105254989913483,0.01963359514345342,-3.078728338281149,4.760007858276367,-6.219632629548208,0.023166656494140625,0.007095901761204004,-0.03187505900859833,0.04762941226363182,-0.22601103782653809,0.20755496621131897,0.30178302526474,-0.32908952236175537,-0.4570786654949188,0.44854500889778137,-0.39993858337402344,0.27927836775779724
1749024848.2144256,4.641932964324951,-1.2105289560607453,0.019554917012349904,-3.0786482296385707,4.759571552276611,-6.219189126287596,0.023067481815814972,0.0076204026117920876,-0.032320909202098846,0.046762797981500626,-0.22646869719028473,0.2112138271331787,0.292483925819397,-0.3234056234359741,-0.45582327246665955,0.4676223397254944,-0.38380715250968933,0.24552038311958313
1749024848.2144637,4.642086505889893,-1.2104393702796479,0.01943856874574834,-3.0784412823119105,4.758615016937256,-6.21836040565838,0.02333066239953041,0.007291959132999182,-0.03274635225534439,0.04838794469833374,-0.224496990442276,0.21332308650016785,0.299050509929657,-0.3243453800678253,-0.45198485255241394,0.45396846532821655,-0.409400999546051,0.28221210837364197
1749024848.2145019,4.6421308517456055,-1.2104695302299042,0.019347492848531544,-3.0783730945982875,4.758176326751709,-6.217931431029932,0.02366870641708374,0.0073928749188780785,-0.032177675515413284,0.0491144098341465,-0.2294057011604309,0.21050910651683807,0.30054566264152527,-0.32302379608154297,-0.45541709661483765,0.4661383628845215,-0.4318930506706238,0.3037942051887512
1749024848.2145398,4.642113208770752,-1.2104415756515046,0.01927501360048467,-3.078238149682516,4.75776481628418,-6.217480000351564,0.024029353633522987,0.007330142427235842,-0.033574074506759644,0.050060972571372986,-0.22891370952129364,0.2117992639541626,0.2776942253112793,-0.3272765576839447,-0.44597846269607544,0.4561014771461487,-0.43006834387779236,0.31406280398368835
1749024848.214586,4.642191410064697,-1.2104177933982392,0.01923066774477178,-3.0781265697874964,4.757294654846191,-6.217027154062883,0.023989731445908546,0.007166087627410889,-0.03518097475171089,0.052229177206754684,-0.23858888447284698,0.2142084687948227,0.2955152094364166,-0.3065621256828308,-0.434312105178833,0.45117655396461487,-0.3863265812397003,0.30192914605140686
1749024848.2146256,4.642191410064697,-1.2104177933982392,0.01923066774477178,-3.0781265697874964,4.757294654846191,-6.217027154062883,0.023989731445908546,0.007166087627410889,-0.03518097475171089,0.052229177206754684,-0.23858888447284698,0.2142084687948227,0.2955152094364166,-0.3065621256828308,-0.434312105178833,0.45117655396461487,-0.3863265812397003,0.30192914605140686
1749024848.2146666,4.642287731170654,-1.2103939217380066,0.019099060689107716,-3.0779272518553675,4.756336212158203,-6.216198291872637,0.023978356271982193,0.007547663990408182,-0.0324857123196125,0.052734460681676865,-0.2357902079820633,0.21459868550300598,0.29572775959968567,-0.34040340781211853,-0.4730726480484009,0.43567606806755066,-0.4042212665081024,0.30760571360588074
1749024848.2147043,4.642371654510498,-1.2103834313205262,0.019038979207174123,-3.0778314075865687,4.755882263183594,-6.215738456939356,0.02369535341858864,0.00768416840583086,-0.03358527272939682,0.05069277435541153,-0.2321576029062271,0.21736733615398407,0.279949814081192,-0.3294149339199066,-0.45606547594070435,0.46361926198005676,-0.42159464955329895,0.29157739877700806
1749024848.2147417,4.642371654510498,-1.2103834313205262,0.019038979207174123,-3.0778314075865687,4.755882263183594,-6.215738456939356,0.02369535341858864,0.00768416840583086,-0.03358527272939682,0.05069277435541153,-0.2321576029062271,0.21736733615398407,0.279949814081192,-0.3294149339199066,-0.45606547594070435,0.46361926198005676,-0.42159464955329895,0.29157739877700806
1749024848.2147837,4.642462730407715,-1.210335062151291,0.018910710011617482,-3.0776120624937953,4.754923343658447,-6.214888949190275,0.02477825991809368,0.007499466650187969,-0.03474295139312744,0.05180593952536583,-0.23258836567401886,0.22270765900611877,0.30115365982055664,-0.2952018678188324,-0.4445508122444153,0.46291598677635193,-0.47831958532333374,0.2904835045337677
1749024848.2148228,4.642526626586914,-1.210354135637619,0.01881581941713506,-3.077527185479635,4.754422187805176,-6.21439636150469,0.025031965225934982,0.008970142342150211,-0.03560415282845497,0.052136048674583435,-0.23966355621814728,0.22372005879878998,0.2778870463371277,-0.32107675075531006,-0.44936487078666687,0.44159334897994995,-0.46448302268981934,0.3030926287174225
1749024848.2148595,4.642577648162842,-1.2103184026530762,0.018743817006246388,-3.077412267724508,4.753982067108154,-6.213956479226248,0.025055602192878723,0.00845405738800764,-0.035449739545583725,0.05211462453007698,-0.24419790506362915,0.22710388898849487,0.29244348406791687,-0.32752183079719543,-0.44299519062042236,0.46275991201400757,-0.4792897701263428,0.30706802010536194
1749024848.214896,4.642575740814209,-1.2103184026530762,0.01870280901064092,-3.0773169002928675,4.7534661293029785,-6.21349618980755,0.02501589059829712,0.008042242377996445,-0.03427615389227867,0.05192650854587555,-0.25042036175727844,0.22914443910121918,0.2971716523170471,-0.3246440887451172,-0.4690488576889038,0.46692410111427307,-0.4263378381729126,0.3088482618331909
1749024848.2149355,4.642635345458984,-1.2102910739234467,0.018615070973531544,-3.0772091350951136,4.75300931930542,-6.213074993585245,0.024872710928320885,0.008687584660947323,-0.034515634179115295,0.052000101655721664,-0.25310370326042175,0.23011764883995056,0.3115425407886505,-0.3189777135848999,-0.46365806460380554,0.4752027988433838,-0.42152169346809387,0.2930830717086792
1749024848.214973,4.642711162567139,-1.2102548342994233,0.018555466328756154,-3.0770822964110316,4.7524919509887695,-6.212584007774488,0.024719884619116783,0.008708484470844269,-0.03528621792793274,0.052289120852947235,-0.2514815330505371,0.23157039284706116,0.2922978401184082,-0.3149043321609497,-0.466914564371109,0.47495532035827637,-0.4194921851158142,0.29373881220817566
1749024848.2150097,4.642702102661133,-1.210261808042862,0.018486801777974904,-3.076977869073385,4.751954555511475,-6.212107938026087,0.025184951722621918,0.008651185780763626,-0.034578751772642136,0.05198414996266365,-0.24954646825790405,0.23273441195487976,0.2778681218624115,-0.3146595060825348,-0.4681817889213562,0.4821416139602661,-0.4476374387741089,0.28682202100753784
1749024848.215047,4.642702102661133,-1.210261808042862,0.018486801777974904,-3.076977869073385,4.751954555511475,-6.212107938026087,0.025184951722621918,0.008651185780763626,-0.034578751772642136,0.05198414996266365,-0.24954646825790405,0.23273441195487976,0.2778681218624115,-0.3146595060825348,-0.4681817889213562,0.4821416139602661,-0.4476374387741089,0.28682202100753784
1749024848.215158,4.642791271209717,-1.210230992441513,0.018446270619527638,-3.076885839501852,4.751405239105225,-6.211658325289385,0.025799047201871872,0.008624761365354061,-0.03594650700688362,0.05367803946137428,-0.2503211498260498,0.23568181693553925,0.28545522689819336,-0.3084586560726166,-0.45790666341781616,0.46876248717308044,-0.48215293884277344,0.27832528948783875
1749024848.2165294,4.642914772033691,-1.21017079175029,0.018298927937642873,-3.076658865014547,4.750341892242432,-6.21069892892708,0.026786943897604942,0.009491519071161747,-0.036009401082992554,0.055155474692583084,-0.2611731290817261,0.23754331469535828,0.29951736330986023,-0.3355914354324341,-0.4594499170780182,0.47073036432266235,-0.4179478883743286,0.2927013337612152
1749024848.258319,4.642946720123291,-1.2101904314807435,0.018222633992330373,-3.0765510998167933,4.749853134155273,-6.210230466221468,0.0270314309746027,0.009438718669116497,-0.03604022040963173,0.05545966327190399,-0.26500630378723145,0.23836879432201385,0.2813006043434143,-0.3392820954322815,-0.4807751178741455,0.4626365900039673,-0.40134942531585693,0.28810086846351624
1749024848.2583654,4.64299201965332,-1.2101813715747376,0.018151108418599904,-3.0764242611327113,4.749297142028809,-6.20972162136902,0.0265855323523283,0.009995090775191784,-0.03628344461321831,0.056369468569755554,-0.2649863660335541,0.24049288034439087,0.2967756688594818,-0.31190797686576843,-0.4802643358707428,0.4733278453350067,-0.395005464553833,0.2856990396976471
1749024848.258406,4.643093109130859,-1.2101197403720398,0.018082443867818654,-3.076338907281393,4.74877405166626,-6.2092642972814005,0.02678571827709675,0.009909721091389656,-0.03662275895476341,0.05727827548980713,-0.2638818621635437,0.24335265159606934,0.29429611563682556,-0.3405765891075134,-0.4770328104496002,0.45891886949539185,-0.35337725281715393,0.29174160957336426
1749024848.2584486,4.643099784851074,-1.2100763779929657,0.018010918294088185,-3.0762278042235316,4.74822473526001,-6.2087634841548365,0.026532165706157684,0.010458137840032578,-0.03709825128316879,0.05675365775823593,-0.2613638937473297,0.24286232888698578,0.2910425662994385,-0.3211926519870758,-0.48521888256073,0.47483325004577637,-0.3909694254398346,0.2607743442058563
1749024848.258489,4.6431474685668945,-1.210114763384201,0.01793080965151006,-3.076085229913229,4.747775554656982,-6.20829134831299,0.02665405534207821,0.011390026658773422,-0.03716997429728508,0.05758845433592796,-0.25636062026023865,0.2470019906759262,0.2830580472946167,-0.3337368965148926,-0.47123879194259644,0.45008665323257446,-0.44333893060684204,0.2717289924621582
1749024848.2585278,4.643240451812744,-1.2100868088058014,0.01786691347231084,-3.0759808025755824,4.747241020202637,-6.2077674383865755,0.026778554543852806,0.010077896527945995,-0.03767544776201248,0.058087073266506195,-0.25990352034568787,0.24485141038894653,0.32500168681144714,-0.34912586212158203,-0.49889063835144043,0.4662240743637085,-0.4358021914958954,0.29622191190719604
1749024848.2585661,4.643269062042236,-1.210066632633545,0.017803017293111623,-3.0758568249144496,4.746740818023682,-6.207255658005373,0.026954039931297302,0.009954564273357391,-0.03822723403573036,0.0587289035320282,-0.2651600241661072,0.2462167590856552,0.2909139394760132,-0.3305360674858093,-0.4819852411746979,0.46683812141418457,-0.45110854506492615,0.2985168695449829
1749024848.2586076,4.643313884735107,-1.2100269061378022,0.017722908650533498,-3.075737615624899,4.746183395385742,-6.206770409141676,0.026182344183325768,0.011030590161681175,-0.03841110318899155,0.06076958775520325,-0.27114105224609375,0.24596092104911804,0.3071451783180237,-0.36407870054244995,-0.47709015011787415,0.46200287342071533,-0.43582433462142944,0.28456318378448486
1749024848.2586465,4.643313884735107,-1.2100269061378022,0.017722908650533498,-3.075737615624899,4.746183395385742,-6.206770409141676,0.026182344183325768,0.011030590161681175,-0.03841110318899155,0.06076958775520325,-0.27114105224609375,0.24596092104911804,0.3071451783180237,-0.36407870054244995,-0.47709015011787415,0.46200287342071533,-0.43582433462142944,0.28456318378448486
1749024848.2586837,4.643424987792969,-1.2099787455848237,0.017582241688863576,-3.075505872766012,4.7450947761535645,-6.205773268138067,0.028053397312760353,0.010520625859498978,-0.040484342724084854,0.058506712317466736,-0.2713094651699066,0.2477479726076126,0.3131428360939026,-0.353889137506485,-0.46827757358551025,0.4506790041923523,-0.4357726573944092,0.27069538831710815
1749024848.258721,4.643424987792969,-1.2099787455848237,0.017582241688863576,-3.075505872766012,4.7450947761535645,-6.205773268138067,0.028053397312760353,0.010520625859498978,-0.040484342724084854,0.058506712317466736,-0.2713094651699066,0.2477479726076126,0.3131428360939026,-0.353889137506485,-0.46827757358551025,0.4506790041923523,-0.4357726573944092,0.27069538831710815
1749024848.2587614,4.6435418128967285,-1.2099345487407227,0.017411057149068654,-3.0752440891661585,4.744013786315918,-6.204729255531923,0.028691992163658142,0.010705136694014072,-0.038055382668972015,0.058934666216373444,-0.2750228941440582,0.25163382291793823,0.28274428844451904,-0.34698936343193054,-0.49752262234687805,0.48015379905700684,-0.46995067596435547,0.2811380922794342
1749024848.2588007,4.6435418128967285,-1.2099345487407227,0.017411057149068654,-3.0752440891661585,4.744013786315918,-6.204729255531923,0.028691992163658142,0.010705136694014072,-0.038055382668972015,0.058934666216373444,-0.2750228941440582,0.25163382291793823,0.28274428844451904,-0.34698936343193054,-0.49752262234687805,0.48015379905700684,-0.46995067596435547,0.2811380922794342
1749024848.2588372,4.643577575683594,-1.2099416714957734,0.017299954091207326,-3.0751472912230433,4.743432998657227,-6.204294752572672,0.02732415311038494,0.010286013595759869,-0.04027356579899788,0.05941680818796158,-0.2857288420200348,0.2560032904148102,0.32506173849105835,-0.3572213351726532,-0.4956073462963104,0.4919604957103729,-0.4161529839038849,0.2797984182834625
1749024848.258874,4.643666744232178,-1.209893361931183,0.01718312898744756,-3.0749041042723597,4.742341041564941,-6.2032193953739565,0.02968001365661621,0.010123741813004017,-0.04312989115715027,0.06268427520990372,-0.2937949597835541,0.25889867544174194,0.29547420144081116,-0.3636576533317566,-0.46530863642692566,0.47775816917419434,-0.3264230489730835,0.27876654267311096
1749024848.2589142,4.643742084503174,-1.2098849576762696,0.01707917848695928,-3.074803968469137,4.741715431213379,-6.202675123010771,0.02929348684847355,0.010874382220208645,-0.04286843165755272,0.06432837247848511,-0.28614944219589233,0.258810430765152,0.33211618661880493,-0.3571542799472809,-0.45787420868873596,0.4389404058456421,-0.3855137825012207,0.2967814803123474
1749024848.2589521,4.643824577331543,-1.209850625400879,0.01699525514711553,-3.0746528110899867,4.741107940673828,-6.20214701840748,0.02961519919335842,0.011004464700818062,-0.04024509713053703,0.06278618425130844,-0.2847340404987335,0.26229241490364075,0.3037341833114624,-0.3733970820903778,-0.4733870029449463,0.4724527597427368,-0.40304121375083923,0.2840580344200134
1749024848.2589889,4.643824577331543,-1.209850625400879,0.01699525514711553,-3.0746528110899867,4.741107940673828,-6.20214701840748,0.02961519919335842,0.011004464700818062,-0.04024509713053703,0.06278618425130844,-0.2847340404987335,0.26229241490364075,0.3037341833114624,-0.3733970820903778,-0.4733870029449463,0.4724527597427368,-0.40304121375083923,0.2840580344200134
1749024848.2590256,4.643862247467041,-1.2098612052253266,0.016907993947164357,-3.074533601800436,4.740564823150635,-6.201661702488558,0.03118816763162613,0.010474779643118382,-0.04169626533985138,0.060667864978313446,-0.28632986545562744,0.26298171281814575,0.2608347535133362,-0.36447620391845703,-0.4812021553516388,0.47587108612060547,-0.42986029386520386,0.30315080285072327
1749024848.2590659,4.64400577545166,-1.209775136118271,0.01677114168276006,-3.074273725549215,4.739405155181885,-6.20057345578541,0.029619816690683365,0.010704021900892258,-0.04250197857618332,0.06468871980905533,-0.2925370931625366,0.26582106947898865,0.3155103921890259,-0.3552034795284271,-0.47492867708206177,0.4465464949607849,-0.417297899723053,0.32027071714401245
1749024848.2591739,4.6440839767456055,-1.2097304624370118,0.016691033040181935,-3.0741263828673304,4.738842487335205,-6.200052287672655,0.029219796881079674,0.01028893981128931,-0.042430438101291656,0.06562988460063934,-0.29556524753570557,0.26749664545059204,0.3195057809352875,-0.35661548376083374,-0.47995415329933167,0.44521060585975647,-0.4021254777908325,0.3174600303173065
1749024848.2605312,4.6440839767456055,-1.2097304624370118,0.016691033040181935,-3.0741263828673304,4.738842487335205,-6.200052287672655,0.029219796881079674,0.01028893981128931,-0.042430438101291656,0.06562988460063934,-0.29556524753570557,0.26749664545059204,0.3195057809352875,-0.35661548376083374,-0.47995415329933167,0.44521060585975647,-0.4021254777908325,0.3174600303173065
1749024848.302292,4.6442084312438965,-1.2096877259067078,0.01650697389711553,-3.0738822422423304,4.737658500671387,-6.198983248566286,0.03168926760554314,0.010564619675278664,-0.04324242100119591,0.06519506126642227,-0.29727134108543396,0.2736145853996277,0.31737956404685974,-0.3603963851928711,-0.4749085307121277,0.4396432638168335,-0.3949933648109436,0.31005460023880005
1749024848.3023386,4.644252300262451,-1.2096758049777527,0.016403977070943654,-3.0737434826292933,4.7370686531066895,-6.198431920503275,0.030758673325181007,0.010060461238026619,-0.0436079278588295,0.06430470198392868,-0.29766473174095154,0.27655985951423645,0.3093308210372925,-0.36905980110168457,-0.48059961199760437,0.4527164101600647,-0.4431954026222229,0.3126516342163086
1749024848.3023787,4.644297122955322,-1.209655449991562,0.016355339680806935,-3.073608537713522,4.736477851867676,-6.197952855621473,0.03149842098355293,0.010100454092025757,-0.043160684406757355,0.06294743716716766,-0.3008507490158081,0.2759389877319336,0.3224656581878662,-0.3548569679260254,-0.4583292305469513,0.4614580273628235,-0.45476874709129333,0.3186596930027008
1749024848.3024256,4.644381046295166,-1.2096155744842072,0.016224209462301076,-3.0734998188414515,4.735850811004639,-6.197354611252443,0.03140614926815033,0.010053607635200024,-0.04386043921113014,0.06477038562297821,-0.306113064289093,0.2811581492424011,0.31248658895492554,-0.37903711199760437,-0.4850003719329834,0.4359355866909027,-0.4329555630683899,0.3098495304584503
1749024848.302469,4.644381046295166,-1.2096155744842072,0.016224209462301076,-3.0734998188414515,4.735850811004639,-6.197354611252443,0.03140614926815033,0.010053607635200024,-0.04386043921113014,0.06477038562297821,-0.306113064289093,0.2811581492424011,0.31248658895492554,-0.37903711199760437,-0.4850003719329834,0.4359355866909027,-0.4329555630683899,0.3098495304584503
1749024848.3025208,4.6444854736328125,-1.2096107763103028,0.016083542500631154,-3.073217054406637,4.7346649169921875,-6.196212891732351,0.03141248971223831,0.010111666284501553,-0.044542331248521805,0.0660894438624382,-0.3036494851112366,0.2837599515914917,0.30511921644210815,-0.3574746251106262,-0.4726683497428894,0.4320114850997925,-0.42218953371047974,0.3141118288040161
1749024848.3025658,4.6444854736328125,-1.2096107763103028,0.016083542500631154,-3.073217054406637,4.7346649169921875,-6.196212891732351,0.03141248971223831,0.010111666284501553,-0.044542331248521805,0.0660894438624382,-0.3036494851112366,0.2837599515914917,0.30511921644210815,-0.3574746251106262,-0.4726683497428894,0.4320114850997925,-0.42218953371047974,0.3141118288040161
1749024848.3026052,4.644545555114746,-1.2095491153052826,0.01600343385805303,-3.073085447350973,4.7340240478515625,-6.195624236260549,0.031045924872159958,0.010274788364768028,-0.044343553483486176,0.06582711637020111,-0.30091631412506104,0.2866625189781189,0.3141224682331085,-0.3745274245738983,-0.47362932562828064,0.42836350202560425,-0.46126049757003784,0.31351301074028015
1749024848.3026474,4.644677639007568,-1.2095298630050202,0.01581126848329717,-3.0728336773314417,4.732841968536377,-6.194522876535551,0.03232567757368088,0.009954306297004223,-0.04521327465772629,0.06593726575374603,-0.3133651316165924,0.28577664494514465,0.31360262632369995,-0.3601680397987366,-0.47764724493026733,0.44423964619636536,-0.44090890884399414,0.31803765892982483
1749024848.3026862,4.644755840301514,-1.2095144552043458,0.015726868306295216,-3.0726944408812464,4.7322163581848145,-6.193951253090994,0.03152862563729286,0.01057215966284275,-0.04521435499191284,0.06692693382501602,-0.3188837170600891,0.28676801919937134,0.32797491550445557,-0.3833484649658203,-0.4695112705230713,0.4412769377231598,-0.4207894504070282,0.3619682788848877
1749024848.3027363,4.6448283195495605,-1.2094752055457612,0.015627686177388966,-3.072543283502096,4.731606483459473,-6.193365935479299,0.03241625055670738,0.009036146104335785,-0.045942213386297226,0.06705683469772339,-0.3195689022541046,0.2897116541862488,0.31284385919570923,-0.35526418685913086,-0.4718753397464752,0.43478089570999146,-0.3951234817504883,0.35419565439224243
1749024848.3027763,4.644887924194336,-1.2095059913447876,0.015539948140279591,-3.0724035702147425,4.730945110321045,-6.192797687147753,0.03221246972680092,0.0077679757960140705,-0.04594994708895683,0.0669194906949997,-0.32039615511894226,0.2934567332267761,0.3286009132862091,-0.34132760763168335,-0.47671931982040405,0.44095540046691895,-0.44542303681373596,0.3491800129413605
1749024848.302817,4.644901275634766,-1.209463284616806,0.015447441731588185,-3.0722834072508753,4.7303009033203125,-6.19221201935877,0.03259166330099106,0.008250276558101177,-0.046558577567338943,0.06785520911216736,-0.31748825311660767,0.29603999853134155,0.32894474267959595,-0.35314905643463135,-0.46763336658477783,0.4297264516353607,-0.453391432762146,0.3311310410499573
1749024848.302855,4.644954681396484,-1.209435300236084,0.015347782765523732,-3.0721246204771937,4.729654788970947,-6.1915727893458765,0.032984234392642975,0.009110906161367893,-0.04595749452710152,0.06678401678800583,-0.32152435183525085,0.2966243624687195,0.3103575110435486,-0.33705782890319824,-0.46959662437438965,0.43450602889060974,-0.4409496784210205,0.31122732162475586
1749024848.3028915,4.645076751708984,-1.2094459396651764,0.01528340974916631,-3.072024007836813,4.729015827178955,-6.191046532486574,0.03379599004983902,0.009183736518025398,-0.04574188217520714,0.06741555035114288,-0.32539039850234985,0.29819613695144653,0.30576997995376587,-0.3666827082633972,-0.47022852301597595,0.4434005618095398,-0.4213956594467163,0.3178611695766449
1749024848.3029284,4.645076751708984,-1.2094459396651764,0.01528340974916631,-3.072024007836813,4.729015827178955,-6.191046532486574,0.03379599004983902,0.009183736518025398,-0.04574188217520714,0.06741555035114288,-0.32539039850234985,0.29819613695144653,0.30576997995376587,-0.3666827082633972,-0.47022852301597595,0.4434005618095398,-0.4213956594467163,0.3178611695766449
1749024848.302965,4.645242691040039,-1.2094066900065918,0.015056435261861623,-3.0717526874937953,4.727630138397217,-6.18976374367346,0.03404170647263527,0.009250430390238762,-0.04866604879498482,0.07015896588563919,-0.32740992307662964,0.3002855181694031,0.32328176498413086,-0.350006639957428,-0.4477868974208832,0.42269930243492126,-0.349488765001297,0.347028523683548
1749024848.3030012,4.6452836990356445,-1.2093514066985627,0.014983479176656544,-3.071601530114645,4.726987838745117,-6.189222444091932,0.035819850862026215,0.009297719225287437,-0.046102676540613174,0.06789978593587875,-0.3246167004108429,0.3012579381465912,0.2895987033843994,-0.3668818473815918,-0.47579479217529297,0.43622148036956787,-0.4362914562225342,0.3330162763595581
1749024848.3030374,4.645355701446533,-1.2093466085246583,0.014887634907857716,-3.071466108361715,4.72633695602417,-6.1886009390102785,0.03485505282878876,0.008836394175887108,-0.046800822019577026,0.0677894726395607,-0.32551154494285583,0.304470956325531,0.2960283160209656,-0.36509186029434204,-0.48560309410095215,0.45007336139678955,-0.4253232479095459,0.31782034039497375
1749024848.303074,4.645355701446533,-1.2093466085246583,0.014887634907857716,-3.071466108361715,4.72633695602417,-6.1886009390102785,0.03485505282878876,0.008836394175887108,-0.046800822019577026,0.0677894726395607,-0.32551154494285583,0.304470956325531,0.2960283160209656,-0.36509186029434204,-0.48560309410095215,0.45007336139678955,-0.4253232479095459,0.31782034039497375
1749024848.3031833,4.645415782928467,-1.2093122762492676,0.01478749910463506,-3.0713540516295375,4.725722789764404,-6.188003946338789,0.03386571630835533,0.009249750524759293,-0.04724382609128952,0.06877492368221283,-0.3287363648414612,0.3065074384212494,0.3073781430721283,-0.3416634202003479,-0.4870845675468445,0.45755746960639954,-0.4116113483905792,0.34342843294143677
1749024848.3045542,4.645524501800537,-1.2093192797950287,0.014583412800924123,-3.0710631809630335,4.724390506744385,-6.1867753008948725,0.033921148627996445,0.0085184620693326,-0.04872060567140579,0.07240881770849228,-0.3287554681301117,0.3056041896343231,0.30256327986717224,-0.3353622257709503,-0.4616144001483917,0.44695863127708435,-0.441142737865448,0.36170580983161926
1749024848.3462749,4.6455769538879395,-1.209298924808838,0.014480415974752248,-3.0709125004210414,4.723742485046387,-6.186153669153349,0.032918862998485565,0.008855626918375492,-0.04746592044830322,0.07210352271795273,-0.3296360671520233,0.30826863646507263,0.3315308392047882,-0.34708577394485474,-0.4961031377315521,0.44248273968696594,-0.45146769285202026,0.365062952041626
1749024848.3463197,4.6455769538879395,-1.209298924808838,0.014480415974752248,-3.0709125004210414,4.723742485046387,-6.186153669153349,0.032918862998485565,0.008855626918375492,-0.04746592044830322,0.07210352271795273,-0.3296360671520233,0.30826863646507263,0.3315308392047882,-0.34708577394485474,-0.4961031377315521,0.44248273968696594,-0.45146769285202026,0.365062952041626
1749024848.3463595,4.645686149597168,-1.2092800301364441,0.014388386403219044,-3.07076420406484,4.723038196563721,-6.185537908469335,0.03413981571793556,0.008363167755305767,-0.04942936450242996,0.07096533477306366,-0.33171460032463074,0.3122599720954895,0.3230177164077759,-0.3451007902622223,-0.474363774061203,0.43921470642089844,-0.4721250832080841,0.35393381118774414
1749024848.346398,4.645735740661621,-1.2092746061137696,0.014280144368306935,-3.070620199243063,4.722356796264648,-6.184864070509569,0.035516321659088135,0.008506548590958118,-0.05035971477627754,0.07135777175426483,-0.33778876066207886,0.3147757649421692,0.2864528000354767,-0.34751516580581665,-0.45236721634864807,0.45231103897094727,-0.4265533685684204,0.3190575838088989
1749024848.3464427,4.645832061767578,-1.2092555326274415,0.014184300099508107,-3.070461412469381,4.72166109085083,-6.184256199990408,0.03410344943404198,0.008423266932368279,-0.049397289752960205,0.07259103655815125,-0.34277698397636414,0.31645867228507996,0.3014827370643616,-0.3336593210697174,-0.4657548666000366,0.4489102363586426,-0.39011603593826294,0.34339869022369385
1749024848.34649,4.6459479331970215,-1.2091925901225586,0.013983551655904591,-3.070181509057516,4.720227241516113,-6.1830308626042765,0.03516805171966553,0.009027157910168171,-0.050566110759973526,0.07364071160554886,-0.3408436179161072,0.3152102828025818,0.32699698209762573,-0.3406592905521393,-0.47048598527908325,0.4368419051170349,-0.40030017495155334,0.3465604782104492
1749024848.3465288,4.6459479331970215,-1.2091925901225586,0.013983551655904591,-3.070181509057516,4.720227241516113,-6.1830308626042765,0.03516805171966553,0.009027157910168171,-0.050566110759973526,0.07364071160554886,-0.3408436179161072,0.3152102828025818,0.32699698209762573,-0.3406592905521393,-0.47048598527908325,0.4368419051170349,-0.40030017495155334,0.3465604782104492
1749024848.3465667,4.646114826202393,-1.2091751259616395,0.01374847093691045,-3.069890638391012,4.718827724456787,-6.181773286555902,0.03508966788649559,0.00874545332044363,-0.05092126876115799,0.07428848743438721,-0.3429497182369232,0.32448610663414,0.3099774122238159,-0.30326011776924133,-0.4445897936820984,0.43837103247642517,-0.40451234579086304,0.3222423493862152
1749024848.3466036,4.646114826202393,-1.2091751259616395,0.01374847093691045,-3.069890638391012,4.718827724456787,-6.181773286555902,0.03508966788649559,0.00874545332044363,-0.05092126876115799,0.07428848743438721,-0.3429497182369232,0.32448610663414,0.3099774122238159,-0.30326011776924133,-0.4445897936820984,0.43837103247642517,-0.40451234579086304,0.3222423493862152
1749024848.34664,4.646176338195801,-1.2091787618449708,0.013671700154439748,-3.0697156391539515,4.718142509460449,-6.1811054090606135,0.035113826394081116,0.009547685272991657,-0.051313262432813644,0.07460303604602814,-0.34406715631484985,0.3268725574016571,0.3193184435367584,-0.33527863025665283,-0.45000240206718445,0.4318479001522064,-0.41456395387649536,0.3191377520561218
1749024848.3466778,4.6463303565979,-1.2091241043857117,0.013471428547994435,-3.069432397881979,4.716777801513672,-6.179760378097193,0.03594164550304413,0.009051915258169174,-0.05352966487407684,0.0759926363825798,-0.3434826731681824,0.32951298356056213,0.31553012132644653,-0.3064851760864258,-0.41769349575042725,0.4336962401866913,-0.40018215775489807,0.29863059520721436
1749024848.346715,4.6463303565979,-1.2091241043857117,0.013471428547994435,-3.069432397881979,4.716777801513672,-6.179760378097193,0.03594164550304413,0.009051915258169174,-0.05352966487407684,0.0759926363825798,-0.3434826731681824,0.32951298356056213,0.31553012132644653,-0.3064851760864258,-0.41769349575042725,0.4336962401866913,-0.40018215775489807,0.29863059520721436
1749024848.3467524,4.646477699279785,-1.2091072362712403,0.013263527547017873,-3.0691453419127406,4.7153778076171875,-6.1784260908709925,0.035179201513528824,0.009455200284719467,-0.050101421773433685,0.075141541659832,-0.34786084294319153,0.3347296416759491,0.3258444368839264,-0.3083653748035431,-0.4544963240623474,0.4435576796531677,-0.41590437293052673,0.2756643295288086
1749024848.3467898,4.646477699279785,-1.2091072362712403,0.013263527547017873,-3.0691453419127406,4.7153778076171875,-6.1784260908709925,0.035179201513528824,0.009455200284719467,-0.050101421773433685,0.075141541659832,-0.34786084294319153,0.3347296416759491,0.3258444368839264,-0.3083653748035431,-0.4544963240623474,0.4435576796531677,-0.41590437293052673,0.2756643295288086
1749024848.3468308,4.646602630615234,-1.209114359026291,0.013016525899068654,-3.06878723720693,4.713908672332764,-6.177072350178854,0.036097366362810135,0.010423055849969387,-0.05435024946928024,0.07914990931749344,-0.3561517596244812,0.3306170403957367,0.3381282687187195,-0.30402326583862305,-0.41222935914993286,0.43952494859695435,-0.3985029458999634,0.27323442697525024
1749024848.34687,4.646651744842529,-1.2090590757182618,0.012920681630269826,-3.0686856708922328,4.713242530822754,-6.176411766801969,0.03684799373149872,0.011715983040630817,-0.05148465558886528,0.07684580236673355,-0.354818731546402,0.3293931484222412,0.3066864311695099,-0.3088489770889282,-0.4263748824596405,0.43920835852622986,-0.4201197624206543,0.30936118960380554
1749024848.3469067,4.646651744842529,-1.2090590757182618,0.012920681630269826,-3.0686856708922328,4.713242530822754,-6.176411766801969,0.03684799373149872,0.011715983040630817,-0.05148465558886528,0.07684580236673355,-0.354818731546402,0.3293931484222412,0.3066864311695099,-0.3088489770889282,-0.4263748824596405,0.43920835852622986,-0.4201197624206543,0.30936118960380554
