nimar13/UR3e_dataset_trayectorias/trayectorias_ejecutadas/jtraj/trayectoria_200_result.csv
timestamp,q1,q2,q3,q4,q5,q6,qd1,qd2,qd3,qd4,qd5,qd6,tau1,tau2,tau3,tau4,tau5,tau6
1749030791.2345085,0.7016587853431702,0.25511495649304194,-1.3401176929473877,-2.57481112102651,-5.936922315751211,2.3214311599731445,0.00018118372827302665,7.94280602287982e-20,-0.0002084774459945038,0.0010165622225031257,-0.0006330744945444167,0.0004395922878757119,0.3256987929344177,-1.2864525318145752,-0.3788524866104126,0.27392709255218506,-0.3392932415008545,0.08218318223953247
1749030791.2345872,0.7016849517822266,0.25510303556408687,-1.3401260375976562,-2.5748025379576625,-5.936921362076895,2.321446657180786,0.0001741703599691391,7.749483775916913e-22,-0.00015157759480644017,0.0010869420366361737,0.00021291633311193436,0.0004108745197299868,0.32843467593193054,-1.2921056747436523,-0.3698354959487915,0.2724018096923828,-0.3303152024745941,0.08051246404647827
1749030791.2346559,0.70168137550354,0.2550923067280273,-1.3401176929473877,-2.574817796746725,-5.936893645917074,2.3214073181152344,0.00020087635493837297,7.560866533944281e-24,-0.00013740354916080832,0.0009452938102185726,0.001420826418325305,0.0003856734838336706,0.3524753153324127,-1.3108716011047363,-0.3758269250392914,0.28288865089416504,-0.32376712560653687,0.08824634552001953
1749030791.2347224,0.7016932964324951,0.25509945928540034,-1.3401141166687012,-2.5748025379576625,-5.936881426964895,2.3214430809020996,0.00019398443691898137,-0.0008065153378993273,-0.00012749321467708796,0.0008109756163321435,0.0024747918359935284,0.00036340428050607443,0.33847546577453613,-1.3309686183929443,-0.36651504039764404,0.2932918071746826,-0.3133608102798462,0.07915836572647095
1749030791.2347894,0.7017039656639099,0.255126877421997,-1.3401367664337158,-2.5748216114439906,-5.936905805264608,2.3214240074157715,0.00021533315884880722,-0.0008449589950032532,-6.368447066051885e-05,0.0007056834292598069,0.0024093904066830873,0.000343564577633515,0.3228701949119568,-1.3367961645126343,-0.35837963223457336,0.2875094413757324,-0.3167036473751068,0.08270710706710815
1749030791.2348561,0.7017003893852234,0.25510303556408687,-1.3401296138763428,-2.574799200097555,-5.936925087367193,2.3214311599731445,0.0002317201578989625,-0.0008537565590813756,-2.893656346714124e-05,0.0006238707574084401,0.0021888380870223045,0.0003257730568293482,0.34078526496887207,-1.3361045122146606,-0.37217146158218384,0.29343581199645996,-0.31241944432258606,0.08077186346054077
1749030791.2349231,0.7016897797584534,0.2551387983509521,-1.3401331901550293,-2.5748144588866175,-5.936897281800405,2.321415662765503,0.00023359654005616903,-0.0007383254123851657,-1.8893507558459532e-06,0.000558991392608732,0.0019035564037039876,0.0003097473818343133,0.350724995136261,-1.3448023796081543,-0.35321688652038574,0.2936471104621887,-0.28744667768478394,0.0616300106048584
1749030791.2349885,0.7016968727111816,0.2551113802143554,-1.3401057720184326,-2.5747834644713343,-5.936854843293325,2.321439504623413,0.0005163797759450972,-0.0006494781700894237,-1.2336110444266524e-07,0.000506360549479723,0.0018731745658442378,0.000295221630949527,0.33168116211891174,-1.3800435066223145,-0.3517826795578003,0.2924734950065613,-0.2735654413700104,0.07181134819984436
1749030791.2350545,0.7016968727111816,0.25511495649304194,-1.340102195739746,-2.5748144588866175,-5.93686950603594,2.321415662765503,0.0005720313056372106,-0.0006752792978659272,-8.054598765738774e-09,0.0004888389958068728,0.0022329504135996103,0.00014063838170841336,0.340482622385025,-1.3820936679840088,-0.348110169172287,0.2940875291824341,-0.2896241843700409,0.08321595191955566
1749030791.2351203,0.7016860842704773,0.2550596433826904,-1.340102195739746,-2.574799200097555,-5.936843011771337,2.321427583694458,0.0006068898364901543,-0.0006889118812978268,-5.259077617836283e-10,0.00048818730283528566,0.0021327482536435127,9.089625382330269e-05,0.3507685661315918,-1.3876912593841553,-0.3422931730747223,0.28332197666168213,-0.27021756768226624,0.07696324586868286
1749030791.2351863,0.7017015218734741,0.25509945928540034,-1.3401212692260742,-2.574799200097555,-5.936897281800405,2.3214311599731445,0.0013448599493131042,-0.0006361943669617176,-3.433801853969243e-11,0.00045917308307252824,0.0019734608940780163,7.928828563308343e-05,0.343214213848114,-1.3822135925292969,-0.34504303336143494,0.2844638228416443,-0.2736358344554901,0.07954087853431702
1749030791.2352533,0.7016742825508118,0.25508753835644526,-1.3400908708572388,-2.5747834644713343,-5.93686950603594,2.3214311599731445,0.0012746094726026058,-0.0005416767671704292,-2.2420273103340715e-12,0.00042902707355096936,0.001709071104414761,7.464869122486562e-05,0.30689841508865356,-1.366503357887268,-0.3490994870662689,0.29730457067489624,-0.2585148811340332,0.08296191692352295
1749030791.2353194,0.7017087340354919,0.25511495649304194,-1.3401212692260742,-2.5748025379576625,-5.936850313340322,2.321427583694458,0.0012113058473914862,-0.000575929821934551,-1.4638835391274363e-13,0.00040182750672101974,0.0015589382965117693,7.144576375139877e-05,0.3487914502620697,-1.3736083507537842,-0.3433416187763214,0.2803148031234741,-0.2557268738746643,0.08502954244613647
1749030791.2353845,0.7017330527305603,0.2550714451023559,-1.3401247262954712,-2.5748144588866175,-5.9368344883071344,2.3214621543884277,0.0011304955696687102,-0.0005821252125315368,-9.558113747362446e-15,0.00037773765507154167,0.0013401447795331478,6.867629417683929e-05,0.3305419683456421,-1.368064284324646,-0.3501470386981964,0.29233264923095703,-0.27525636553764343,0.08012890815734863
1749030791.235451,0.7017176151275635,0.25509945928540034,-1.3400943279266357,-2.5747953854002894,-5.936873201523916,2.321446657180786,0.0012571242405101657,-0.0005560526042245328,-6.240764054824314e-16,0.00035635093809105456,0.0012995328288525343,6.614314770558849e-05,0.346323698759079,-1.3757669925689697,-0.33616286516189575,0.2970261573791504,-0.2650129199028015,0.08753076195716858
1749030791.2355163,0.7017015218734741,0.25508753835644526,-1.3401247262954712,-2.57480587581777,-5.93685764471163,2.3214240074157715,0.0012300233356654644,-0.0005111694918014109,-4.0747727611362445e-17,0.0003372536739334464,0.001382298651151359,6.379721889970824e-05,0.35382744669914246,-1.3849965333938599,-0.3393583595752716,0.2891436815261841,-0.26178836822509766,0.09649139642715454
1749030791.235581,0.7017015814781189,0.25508396207775874,-1.3400908708572388,-2.5748144588866175,-5.936850313340322,2.321434736251831,0.0015111605171114206,-0.0005381247610785067,-2.6605354504094327e-18,0.00032010136055760086,0.001431119628250599,6.161244527902454e-05,0.3417883515357971,-1.3802461624145508,-0.3644132912158966,0.28470081090927124,-0.26012369990348816,0.08398526906967163
1749030791.2356472,0.7017176151275635,0.25508396207775874,-1.3401057720184326,-2.5748025379576625,-5.936830852423803,2.321415662765503,0.0015609401743859053,-0.0005025953869335353,-1.7371395154497096e-19,0.00030461064307019114,0.0013645868748426437,5.9571921156020835e-05,0.34316137433052063,-1.381382942199707,-0.3504297733306885,0.2921241521835327,-0.2566409111022949,0.08058959245681763
1749030791.2357123,0.7016860842704773,0.25508396207775874,-1.3400908708572388,-2.574817796746725,-5.936833504830496,2.321439504623413,0.0014580169226974249,-0.0005690964171662927,-1.1342280364487942e-20,0.0002905508445110172,0.001156201004050672,5.766335016232915e-05,0.3419894576072693,-1.340574026107788,-0.3422572612762451,0.27851754426956177,-0.27502721548080444,0.08186352252960205
1749030791.2357764,0.7016979455947876,0.2550949293323974,-1.3401057720184326,-2.574817796746725,-5.936826233063833,2.3214430809020996,0.00153809180483222,-0.0005152872181497514,-7.405698950728065e-22,0.000277732964605093,0.000981838209554553,5.587294072029181e-05,0.32608622312545776,-1.3775827884674072,-0.34868085384368896,0.2865118384361267,-0.26291897892951965,0.08135449886322021
1749030791.235939,0.7017414569854736,0.25508396207775874,-1.340102195739746,-2.5747834644713343,-5.936885033045904,2.3214383125305176,0.0018976693972945213,-0.0004624202847480774,-4.8353923383118513e-23,0.0002659986785147339,0.0009462046436965466,5.4189713409869e-05,0.34763097763061523,-1.37020742893219,-0.35741910338401794,0.2823053002357483,-0.25403735041618347,0.08321744203567505
1749030791.2371702,0.7016897201538086,0.255075140590332,-1.3400872945785522,-2.574817796746725,-5.936838094388143,2.3214502334594727,0.0020171694923192263,-0.0004193150671198964,-3.1571657042401447e-24,0.0002552163787186146,0.0008507197489961982,5.260613397695124e-05,0.3607252240180969,-1.3440378904342651,-0.35333898663520813,0.26248759031295776,-0.2575334906578064,0.07915914058685303
1749030791.2784977,0.7017402648925781,0.25508396207775874,-1.3401057720184326,-2.57480587581777,-5.936853919421331,2.3214240074157715,0.0025173381436616182,-0.0003835629322566092,-2.0614036160906855e-25,0.00024527517962269485,0.0007631371263414621,5.111207065056078e-05,0.36156851053237915,-1.352089762687683,-0.3574276864528656,0.2711077928543091,-0.2735612690448761,0.08038455247879028
1749030791.2785752,0.7017878890037537,0.25513402997937007,-1.3401246070861816,-2.5748025379576625,-5.936822537575857,2.321434736251831,0.0027365530841052532,-0.00035343042691238225,-1.3459492379586416e-26,0.0002360794460400939,0.0006902085151523352,4.96999200549908e-05,0.35422709584236145,-1.3418548107147217,-0.36210891604423523,0.26145756244659424,-0.2650807201862335,0.08418971300125122
1749030791.2786446,0.701715350151062,0.25510673105206294,-1.3401092290878296,-2.574799200097555,-5.936850313340322,2.321446657180786,0.0025664952117949724,-0.000327686604578048,-8.788087669716955e-28,0.00022754834208171815,0.0006297234212979674,4.836465450352989e-05,0.3397696614265442,-1.3615779876708984,-0.3616657853126526,0.27216678857803345,-0.27295610308647156,0.10383999347686768
1749030791.2787125,0.7017414569854736,0.25510303556408687,-1.3400908708572388,-2.5747834644713343,-5.936841789876119,2.3214240074157715,0.0025219644885510206,-0.00030544097535312176,-5.737993500126483e-29,0.00021961316815577447,0.0005789276910945773,4.7098899813136086e-05,0.34315061569213867,-1.3393739461898804,-0.3556753098964691,0.27613598108291626,-0.2767484188079834,0.09199494123458862
1749030791.2787774,0.7017772197723389,0.2550958830067138,-1.3400874137878418,-2.574817796746725,-5.93686488667597,2.321415662765503,0.002652114490047097,-0.00028602415113709867,-3.74649985991253e-30,0.00021221260249149054,0.0005357700865715742,4.589725358528085e-05,0.3777543902397156,-1.3164865970611572,-0.37346675992012024,0.2638665437698364,-0.27951425313949585,0.08689042925834656
1749030791.2788467,0.7017772197723389,0.2550803857990722,-1.3400943279266357,-2.5748025379576625,-5.93688872853388,2.321427583694458,0.0025845784693956375,-0.00026892698951996863,-2.4461966910950754e-31,0.00020529469475150108,0.0004985973355360329,4.4756201532436535e-05,0.35446497797966003,-1.3200013637542725,-0.3788693845272064,0.2665262222290039,-0.27844008803367615,0.10435009002685547
1749030791.278914,0.7017462849617004,0.25508753835644526,-1.3400980234146118,-2.5748301945128382,-5.936861280594961,2.3214311599731445,0.0030808430165052414,-0.00025376115809194744,-1.5971914881098626e-32,0.00019881365005858243,0.000466234894702211,5.6213728385046124e-05,0.35616549849510193,-1.2815561294555664,-0.3864805996417999,0.27757036685943604,-0.25458383560180664,0.10139089822769165
1749030791.2789803,0.7017772197723389,0.25509945928540034,-1.3400943279266357,-2.574799200097555,-5.936873201523916,2.3214430809020996,0.0037841435987502337,-0.00019266610615886748,-1.0428519356174852e-33,0.00019272977078799158,0.0004378851444926113,6.231099541764706e-05,0.3500969409942627,-1.2790569067001343,-0.41081586480140686,0.28199905157089233,-0.25645384192466736,0.10429179668426514
1749030791.2790477,0.7018207311630249,0.25512222825970454,-1.3401057720184326,-2.5748025379576625,-5.93689597049822,2.3214621543884277,0.0048925746232271194,-0.00014144960732664913,8.695152791915461e-05,0.000187007273780182,0.00032224980532191694,6.218320777406916e-05,0.33774757385253906,-1.260542392730713,-0.42352303862571716,0.29592621326446533,-0.2634786069393158,0.11021792888641357
1749030791.2791142,0.7018015384674072,0.25509945928540034,-1.3401092290878296,-2.574817796746725,-5.936822537575857,2.3214621543884277,0.004979926627129316,4.8200432502198964e-05,5.9771478845505044e-05,0.00018161475600209087,0.00031865728669799864,6.100913378759287e-05,0.34745651483535767,-1.2509050369262695,-0.42771098017692566,0.2903134822845459,-0.25082534551620483,0.10789856314659119
1749030791.2791808,0.7017927169799805,0.25511495649304194,-1.3400943279266357,-2.5748144588866175,-5.936841789876119,2.321458578109741,0.004607215523719788,0.00012249335122760385,3.903904143953696e-05,0.0001765247288858518,0.00033405047724954784,5.970041820546612e-05,0.3548165559768677,-1.2338205575942993,-0.4274260103702545,0.29798710346221924,-0.2516568601131439,0.1028715968132019
1749030791.279246,0.7018064856529236,0.2551113802143554,-1.3401092290878296,-2.5748025379576625,-5.936849061642782,2.321458578109741,0.004006390459835529,0.00011539835395524278,2.5489703148195986e-06,0.0001894172019092366,0.00034511202829889953,5.8416138926986605e-05,0.33771657943725586,-1.23069167137146,-0.45179006457328796,0.29407310485839844,-0.25001466274261475,0.09082365036010742
1749030791.2793093,0.7018473148345947,0.25509945928540034,-1.3401057720184326,-2.5748144588866175,-5.936841789876119,2.3214550018310547,0.003589235246181488,0.0001571553002577275,1.6642955813495064e-07,0.00018982852634508163,0.00037084188079461455,5.7180186558980495e-05,0.3246500492095947,-1.2159738540649414,-0.4374729096889496,0.31338363885879517,-0.2497391253709793,0.09526532888412476
1749030791.279377,0.7018333077430725,0.2551078039356689,-1.3401176929473877,-2.5747872791686,-5.936826233063833,2.321458578109741,0.003448355942964554,0.00015337900549639016,1.086666046035134e-08,0.00015151216939557344,0.0005960462149232626,5.599397991318256e-05,0.33094459772109985,-1.1998928785324097,-0.4429493248462677,0.30712080001831055,-0.23533569276332855,0.07742324471473694
1749030791.2794447,0.7018249034881592,0.2550958830067138,-1.3401057720184326,-2.5747906170287074,-5.936803374682562,2.3214240074157715,0.0030568477232009172,0.0001451810821890831,7.095152798619608e-10,0.0001736741396598518,0.0006541892071254551,5.485665678861551e-05,0.349234402179718,-1.2068448066711426,-0.45311984419822693,0.3217179775238037,-0.24795213341712952,0.06704586744308472
1749030791.27951,0.7018642425537109,0.25512222825970454,-1.3401331901550293,-2.5748216114439906,-5.936837200318472,2.321415662765503,0.002784137148410082,0.00016907931421883404,-0.0004899395862594247,0.0012788722524419427,0.0006594783044420183,5.38531930942554e-05,0.33798545598983765,-1.1977026462554932,-0.44959601759910583,0.33584028482437134,-0.2522812783718109,0.06170135736465454
1749030791.2795765,0.7018642425537109,0.25514952718701167,-1.340102195739746,-2.5747715435423792,-5.936833504830496,2.3214476108551025,0.0025072067510336637,0.0001746359484968707,-0.0015224312664940953,0.002689207438379526,0.0006244928226806223,-1.4636730156780686e-05,0.3368103802204132,-1.2081973552703857,-0.4528951346874237,0.3289388418197632,-0.2468879520893097,0.042102038860321045
1749030791.2796423,0.7018178105354309,0.2551113802143554,-1.3401485681533813,-2.574793954888815,-5.936849061642782,2.321458578109741,0.0022613792680203915,0.00016668323951307684,-0.0015396263916045427,0.0029883587267249823,0.0005978196859359741,-3.589106927393004e-05,0.3257710337638855,-1.2045201063156128,-0.4321344196796417,0.3288716673851013,-0.26270681619644165,0.008542925119400024
1749030791.2797081,0.7018451690673828,0.2551078039356689,-1.3401296138763428,-2.574775358239645,-5.936829868947164,2.3214550018310547,0.0021999136079102755,0.00015930859080981463,-0.0014327068347483873,0.0029095702338963747,0.0005879259551875293,-6.758388190064579e-05,0.31312620639801025,-1.2089474201202393,-0.43273797631263733,0.35771191120147705,-0.26445889472961426,0.0021961331367492676
1749030791.2797735,0.701829731464386,0.25511495649304194,-1.3401296138763428,-2.574766775170797,-5.936876807604925,2.3214502334594727,0.0021662528160959482,0.00015255709877237678,-0.0012396045494824648,0.002425384009256959,0.0005451588076539338,-0.0005106711760163307,0.31725937128067017,-1.2158236503601074,-0.4378992021083832,0.3779672384262085,-0.25837332010269165,0.004481315612792969
1749030791.2799323,0.7018653750419617,0.2550923067280273,-1.3401451110839844,-2.5747515163817347,-5.936794821416036,2.321396589279175,0.001839015749283135,0.00014635451952926815,-0.001081799971871078,0.0023751119151711464,0.0005029902094975114,-0.0034090832341462374,0.32900530099868774,-1.2085862159729004,-0.4373597800731659,0.3858683705329895,-0.2602059245109558,-0.021181389689445496
1749030791.2811615,0.7018808126449585,0.25509945928540034,-1.3401604890823364,-2.57476343731069,-5.936856363211767,2.3213953971862793,0.0015147934900596738,0.00014063704293221235,-0.0009056073031388223,0.0037496178410947323,0.0004659412079490721,-0.0069432188756763935,0.29767677187919617,-1.2349908351898193,-0.40982696413993835,0.39797139167785645,-0.25678932666778564,-0.04363822937011719
1749030791.3225102,0.7018641829490662,0.2550803857990722,-1.3401260375976562,-2.574735780755514,-5.936821643506185,2.321410894393921,0.0012516241986304522,0.00013534950267057866,-0.0007754464750178158,0.005404275376349688,0.00043385353637859225,-0.009473881684243679,0.2951010763645172,-1.2233572006225586,-0.41766831278800964,0.40493878722190857,-0.26264169812202454,-0.03064635396003723
1749030791.3225863,0.7018571496009827,0.2550512987324218,-1.3401379585266113,-2.574742933312887,-5.936822537575857,2.3213517665863037,0.0010660808766260743,0.00012528826482594013,-0.0006778507377021015,0.006657173857092857,0.0004528944846242666,-0.01082572340965271,0.3025156557559967,-1.2173380851745605,-0.4152810275554657,0.41056081652641296,-0.272348016500473,-0.05103105306625366
1749030791.3226545,0.7018880248069763,0.2551259237476806,-1.3401379585266113,-2.5747157535948695,-5.936845425759451,2.3213672637939453,0.0009284800617024302,0.00011705981887644157,-0.0006021008011884987,0.008320352993905544,0.00043380167335271835,-0.012577241286635399,0.29643353819847107,-1.2440983057022095,-0.40808549523353577,0.416655570268631,-0.27459049224853516,-0.05799168348312378
1749030791.3227248,0.7018725872039795,0.25513045370068355,-1.3401260375976562,-2.574707170526022,-5.93684903184046,2.3213353157043457,0.0008223605691455305,0.00010991020826622844,-0.0005416094791144133,0.009796109981834888,0.00041050059371627867,-0.01453039888292551,0.27685463428497314,-1.2624280452728271,-0.40364736318588257,0.42380470037460327,-0.27366873621940613,-0.04282796382904053
1749030791.3227916,0.7019195556640625,0.2551113802143554,-1.3401451110839844,-2.5746952495970667,-5.936802063380377,2.321326971054077,0.0007380246534012258,0.0001035839959513396,-0.0004921784275211394,0.010869613848626614,0.0003885793557856232,-0.015440416522324085,0.2491440623998642,-1.2549235820770264,-0.40136048197746277,0.4391385316848755,-0.28286606073379517,-0.03705689311027527
1749030791.3228605,0.7018725872039795,0.2550958830067138,-1.3401296138763428,-2.574637075463766,-5.936845425759451,2.32126784324646,0.0006693791947327554,9.79470569291152e-05,-0.00045102479634806514,0.012041524983942509,0.0003686937561724335,-0.015231041237711906,0.25727587938308716,-1.2754008769989014,-0.3883747458457947,0.4292677044868469,-0.28122952580451965,-0.06626583635807037
1749030791.3229277,0.7019123435020447,0.25510303556408687,-1.3401296138763428,-2.5746165714659632,-5.936829868947164,2.3212287425994873,0.0006124250940047204,6.1230814026203e-05,-0.00035176347591914237,0.013012838549911976,0.0003507359360810369,-0.0154125289991498,0.22062677145004272,-1.292011022567749,-0.38072559237480164,0.42753949761390686,-0.2889596223831177,-0.06153927743434906
1749030791.322995,0.7019123435020447,0.25510303556408687,-1.3401296138763428,-2.5746165714659632,-5.936829868947164,2.3212287425994873,0.0006124250940047204,6.1230814026203e-05,-0.00035176347591914237,0.013012838549911976,0.0003507359360810369,-0.0154125289991498,0.22062677145004272,-1.292011022567749,-0.38072559237480164,0.42753949761390686,-0.2889596223831177,-0.06153927743434906
1749030791.3230608,0.7018880844116211,0.2550958830067138,-1.3401260375976562,-2.5745727024474085,-5.936852727328436,2.3211493492126465,0.0005233680712990463,4.2101775761693716e-05,-0.0002485915319994092,0.013116850517690182,0.0003195705357939005,-0.01802361197769642,0.17660707235336304,-1.3031911849975586,-0.3516328036785126,0.4248168468475342,-0.29113417863845825,-0.08938445150852203
1749030791.3231275,0.7019022107124329,0.25511495649304194,-1.3401212692260742,-2.574576040307516,-5.936833504830496,2.32114839553833,0.00042754720197990537,4.1077046830650943e-07,-0.00018440160783939064,0.013714607805013657,0.00030598739976994693,-0.017978448420763016,0.17664730548858643,-1.3639743328094482,-0.3444516956806183,0.44296795129776,-0.2902049124240875,-0.10468482971191406
1749030791.3231936,0.701829731464386,0.25508396207775874,-1.3401141166687012,-2.5745555363097132,-5.936845425759451,2.3211090564727783,0.00039981750887818635,4.007725706856036e-09,7.858860772103071e-05,0.013756499625742435,0.0002935076190624386,-0.019585102796554565,0.15738588571548462,-1.3563132286071777,-0.3294468820095062,0.4348491430282593,-0.28774067759513855,-0.13425001502037048
1749030791.3232589,0.7019041180610657,0.25511495649304194,-1.3401367664337158,-2.574488779107565,-5.936876807604925,2.3210608959198,0.00037595038884319365,3.910179818822357e-11,0.00024607960949651897,0.013776365667581558,0.0002819984219968319,-0.021811574697494507,0.1261804848909378,-1.351346492767334,-0.3249083459377289,0.4608522653579712,-0.2897220849990845,-0.1228099912405014
1749030791.3233247,0.701879620552063,0.25512222825970454,-1.3401141166687012,-2.5744806728758753,-5.936805788670675,2.3210561275482178,0.00035477682831697166,3.8150090183285135e-13,0.0020067745354026556,0.01381432544440031,0.0002596490376163274,-0.022618591785430908,0.10941164195537567,-1.3572533130645752,-0.32945361733436584,0.4681156277656555,-0.2985035479068756,-0.14534354209899902
1749030791.3233912,0.7018262147903442,0.2550958830067138,-1.3401176929473877,-2.574437280694479,-5.936833504830496,2.3209850788116455,0.000129409963847138,3.722154149569251e-15,0.002806059317663312,0.015177691355347633,0.00023274456907529384,-0.02539183758199215,0.09239207208156586,-1.374997854232788,-0.33482059836387634,0.465309202671051,-0.2935876250267029,-0.1336737424135208
1749030791.323456,0.7018987536430359,0.2550714451023559,-1.340102195739746,-2.5743895969786585,-5.936833475028173,2.3209376335144043,5.182702079764567e-05,3.6315594627629817e-17,0.002719496376812458,0.015784891322255135,0.00022149187861941755,-0.026812726631760597,0.09001579135656357,-1.3594757318496704,-0.3234894871711731,0.47261863946914673,-0.3129531443119049,-0.14191237092018127
1749030791.3235228,0.7018916010856628,0.25508396207775874,-1.3400872945785522,-2.5743776760497035,-5.936826233063833,2.3208892345428467,1.5096957213245332e-05,3.5431697342401325e-19,0.0022705101873725653,0.0159470047801733,0.0002134418609784916,-0.028980392962694168,0.0829189270734787,-1.3850202560424805,-0.31509143114089966,0.4715983271598816,-0.31262290477752686,-0.17589107155799866
1749030791.323589,0.7018796801567078,0.2550803857990722,-1.3401092290878296,-2.5743233166136683,-5.936845425759451,2.3208835124969482,1.472950685865726e-07,3.456931163217236e-21,0.002117842435836792,0.016602903604507446,0.00020635190594475716,-0.03127434849739075,0.05202709138393402,-1.3918778896331787,-0.28750959038734436,0.4955325126647949,-0.3021048605442047,-0.18507713079452515
1749030791.3236551,0.7018332481384277,0.25509945928540034,-1.3401092290878296,-2.5743028126158656,-5.936861280594961,2.3207318782806396,1.4370999945612084e-09,3.3727915241236267e-23,0.002385658212006092,0.018608031794428825,0.00019978471391368657,-0.03543774038553238,0.02626825124025345,-1.400404453277588,-0.275199830532074,0.5043677091598511,-0.2972903847694397,-0.19278472661972046
1749030791.3237202,0.7018832564353943,0.2551113802143554,-1.3401092290878296,-2.574301382104391,-5.936810706053869,2.320659875869751,-0.00242184242233634,3.2907002325790446e-25,0.00366923026740551,0.019695620983839035,0.0001936425978783518,-0.03833466395735741,0.027219027280807495,-1.406363606452942,-0.2714712619781494,0.5104571580886841,-0.31252893805503845,-0.2015335112810135
1749030791.323785,0.7018332481384277,0.25509945928540034,-1.3400782346725464,-2.5742269955077113,-5.936861280594961,2.320610523223877,-0.003172543365508318,-0.0008984061423689127,0.004744640085846186,0.01980055868625641,0.00018786644795909524,-0.04034627601504326,0.01840353012084961,-1.4220473766326904,-0.2832680940628052,0.5180556178092957,-0.3057524859905243,-0.19729243218898773
1749030791.323937,0.7018713355064392,0.2550559478947143,-1.3400819301605225,-2.574226518670553,-5.936826233063833,2.320549249649048,-0.0027728178538382053,-0.0010912074940279126,0.005111460108309984,0.021145358681678772,0.00018242151418235153,-0.04323871433734894,0.0011958181858062744,-1.4179387092590332,-0.2679883539676666,0.5390521287918091,-0.32774868607521057,-0.21013109385967255
1749030791.3256364,0.7018451690673828,0.25506429254498286,-1.3400664329528809,-2.574162622491354,-5.936834458504812,2.320439100265503,-0.0020981086418032646,-0.0018848368199542165,0.0049158562906086445,0.022498156875371933,0.0001772894465830177,-0.0466885082423687,-0.01080852746963501,-1.409132957458496,-0.25718361139297485,0.5561428070068359,-0.3116748631000519,-0.20274865627288818
1749030791.3662817,0.7018487453460693,0.255075140590332,-1.3400627374649048,-2.5741149387755335,-5.9368262628661554,2.3203623294830322,-0.002133274218067527,-0.0019275820814073086,0.0053509254939854145,0.024741725996136665,0.0001724363974062726,-0.050781212747097015,-0.04657328128814697,-1.4013841152191162,-0.24931728839874268,0.5320883989334106,-0.32439738512039185,-0.21145179867744446
1749030791.3663268,0.7018487453460693,0.25509850561108394,-1.340073585510254,-2.574071069756979,-5.936821643506185,2.32023549079895,-0.00305047444999218,-0.0016787166241556406,0.0055153523571789265,0.027148351073265076,0.00016783838509581983,-0.05311083421111107,-0.07352817058563232,-1.4238390922546387,-0.23742073774337769,0.5505115985870361,-0.34268221259117126,-0.20496857166290283
1749030791.3663666,0.7018368244171143,0.255075140590332,-1.3400545120239258,-2.574007650414938,-5.936841789876119,2.3201351165771484,-0.0046298024244606495,-0.0015037275152280927,0.006437916774302721,0.028448279947042465,0.000163484422955662,-0.054363079369068146,-0.051554083824157715,-1.444274663925171,-0.23390153050422668,0.5442442297935486,-0.3282737731933594,-0.21260365843772888
1749030791.3664045,0.7018487453460693,0.25509850561108394,-1.3400497436523438,-2.573963781396383,-5.936817948018209,2.3200273513793945,-0.006267919205129147,-0.0015077270800247788,0.007438519038259983,0.030765116214752197,9.81886187219061e-05,-0.05598972365260124,-0.06314584612846375,-1.457074522972107,-0.24024426937103271,0.558502197265625,-0.35312074422836304,-0.21967169642448425
1749030791.3664422,0.7018065452575684,0.2550596433826904,-1.3400342464447021,-2.5739108524718226,-5.936829868947164,2.3198649883270264,-0.007000924553722143,-0.0015591045375913382,0.008378760889172554,0.03304017335176468,5.931664418312721e-05,-0.05951738357543945,-0.03228336572647095,-1.4510562419891357,-0.23975738883018494,0.5608280301094055,-0.3434101641178131,-0.2262926697731018
1749030791.3664799,0.7018368244171143,0.2550404506870727,-1.340022325515747,-2.5738283596434535,-5.936861280594961,2.3197672367095947,-0.007090382743626833,-0.001671673497185111,0.00909343920648098,0.033870358020067215,3.6984754842706025e-05,-0.06297428905963898,-0.05164685100317001,-1.4418587684631348,-0.21896259486675262,0.5520268082618713,-0.35185104608535767,-0.1981772780418396
1749030791.3665178,0.7018318772315979,0.2550512987324218,-1.339978814125061,-2.57372583965444,-5.9368262628661554,2.3196122646331787,-0.00771299097687006,-0.002506071701645851,0.009067756123840809,0.03568606078624725,2.639372723933775e-05,-0.06444941461086273,-0.07983071357011795,-1.4653664827346802,-0.2306814044713974,0.5603414177894592,-0.3682594299316406,-0.18179671466350555
1749030791.3665571,0.7017979621887207,0.2550167280384521,-1.339970588684082,-2.573665281335348,-5.936841789876119,2.3194615840911865,-0.008182778023183346,-0.002753071254119277,0.008944462984800339,0.03676024451851845,1.0440681762702297e-05,-0.06557092815637589,-0.0921291783452034,-1.4690483808517456,-0.20719580352306366,0.5685330629348755,-0.3813260793685913,-0.20123589038848877
1749030791.3665953,0.701789140701294,0.2550131517597656,-1.3399622440338135,-2.573583265344137,-5.936845395957128,2.319326400756836,-0.009610508568584919,-0.00252999528311193,0.00909530557692051,0.03943353891372681,1.8449779872753425e-06,-0.06579389423131943,-0.11912909895181656,-1.4839969873428345,-0.20731006562709808,0.5564682483673096,-0.3674461543560028,-0.19636648893356323
1749030791.3666327,0.7017998099327087,0.25505487501110835,-1.3399503231048584,-2.5734716854491175,-5.936861250792639,2.3192174434661865,-0.00964331068098545,-0.0024283630773425102,0.01027004886418581,0.040900446474552155,3.260269352267642e-07,-0.06690112501382828,-0.10794929414987564,-1.4951261281967163,-0.20637376606464386,0.5364614725112915,-0.36199456453323364,-0.18345116078853607
1749030791.36667,0.7017414569854736,0.2550584512897949,-1.3399384021759033,-2.5734344921507777,-5.936857674513952,2.319093704223633,-0.009947956539690495,-0.0027490565553307533,0.010797912254929543,0.04059772565960884,5.761237886758863e-08,-0.06780737638473511,-0.11981480568647385,-1.485317349433899,-0.2021915465593338,0.5499294996261597,-0.3795521855354309,-0.20111393928527832
1749030791.366707,0.7017176151275635,0.2550358015247802,-1.3398793935775757,-2.573320528069967,-5.936822537575857,2.3189656734466553,-0.011226149275898933,-0.003598298178985715,0.010884277522563934,0.04123174026608467,1.0180712273211157e-08,-0.06944609433412552,-0.0997714251279831,-1.4896495342254639,-0.2117682844400406,0.5388315320014954,-0.3883584141731262,-0.2131134271621704
1749030791.3667448,0.7016944289207458,0.25503937780346675,-1.3398866653442383,-2.573228498498434,-5.93685764471163,2.318821668624878,-0.01152645330876112,-0.004000847693532705,0.011597062461078167,0.04154041409492493,1.7990388068156449e-09,-0.07081326097249985,-0.14907129108905792,-1.5168739557266235,-0.209065780043602,0.5395434498786926,-0.39197587966918945,-0.23016315698623657
1749030791.3667822,0.7016932964324951,0.2550310331531982,-1.3398628234863281,-2.57314457515859,-5.936837170516149,2.3186662197113037,-0.013025231659412384,-0.004877316765487194,0.011559323407709599,0.04208039864897728,-0.0006069305818527937,-0.07196246832609177,-0.1351868063211441,-1.5204747915267944,-0.19851772487163544,0.5700304508209229,-0.40058547258377075,-0.23035190999507904
1749030791.3668196,0.7016539573669434,0.2550155359455566,-1.3398425579071045,-2.5730420551695765,-5.936853949223654,2.3185341358184814,-0.013245376758277416,-0.0055029913783073425,0.012179301120340824,0.043622687458992004,-0.0011954460060223937,-0.0726955458521843,-0.12927401065826416,-1.4963940382003784,-0.18676963448524475,0.5579990744590759,-0.39780744910240173,-0.242698073387146
1749030791.3668573,0.7016181945800781,0.25498442232098384,-1.3398306369781494,-2.572977682153219,-5.936861250792639,2.318347215652466,-0.013599865138530731,-0.005968706216663122,0.012267655692994595,0.04529811814427376,-0.0011948461178690195,-0.07504434138536453,-0.1360291838645935,-1.4942545890808105,-0.2214784324169159,0.5587332248687744,-0.4045961797237396,-0.24893803894519806
1749030791.3668957,0.7015901803970337,0.2549845415302734,-1.339806318283081,-2.5728665790953578,-5.936838094388143,2.3181910514831543,-0.013173774816095829,-0.005519302096217871,0.011625591665506363,0.04606229066848755,-0.0011557318503037095,-0.07831434905529022,-0.15420958399772644,-1.4905762672424316,-0.19369253516197205,0.5611958503723145,-0.41983264684677124,-0.23830734193325043
1749030791.3669333,0.7015736103057861,0.2549845415302734,-1.3397514820098877,-2.572783132592672,-5.93688872853388,2.317992687225342,-0.013246937654912472,-0.0054376390762627125,0.012113937176764011,0.04693959653377533,-0.0010871781269088387,-0.07992696017026901,-0.138078510761261,-1.5127791166305542,-0.19010168313980103,0.5669034719467163,-0.4135187268257141,-0.2531745731830597
1749030791.366997,0.7015650868415833,0.2549564081379394,-1.3397586345672607,-2.572672029534811,-5.936861250792639,2.3178646564483643,-0.012674177065491676,-0.005114864557981491,0.011333933100104332,0.04790613055229187,-0.0011396268382668495,-0.07906980812549591,-0.14018899202346802,-1.522101879119873,-0.19003340601921082,0.5616406202316284,-0.4178193509578705,-0.2612077593803406
1749030791.3670692,0.7015348076820374,0.25497810422863765,-1.3397347927093506,-2.572576185266012,-5.936815295611517,2.317715883255005,-0.012730579823255539,-0.0058752866461873055,0.011825721710920334,0.049359023571014404,-0.0013599905651062727,-0.08115151524543762,-0.141738161444664,-1.5314985513687134,-0.2146441638469696,0.5609837770462036,-0.4262118339538574,-0.26161807775497437
1749030791.3672817,0.7014877200126648,0.2549399572559814,-1.3397104740142822,-2.5724808178343714,-5.936862234269277,2.317551851272583,-0.013484818860888481,-0.005662246607244015,0.011794674210250378,0.04974164068698883,-0.0018845241283997893,-0.08414667099714279,-0.16161875426769257,-1.5243626832962036,-0.20858168601989746,0.5647745132446289,-0.43710607290267944,-0.2609959840774536
1749030791.3691397,0.7014592289924622,0.254955454463623,-1.3396681547164917,-2.5724078617491664,-5.936897251998083,2.317368507385254,-0.013498981483280659,-0.005926735699176788,0.01176051702350378,0.05107982084155083,-0.0029087744187563658,-0.08968853950500488,-0.1571073681116104,-1.5615102052688599,-0.18534383177757263,0.5489988327026367,-0.43140292167663574,-0.26338860392570496
1749030791.4104593,0.701469898223877,0.25494710981335444,-1.339644193649292,-2.572254320184225,-5.936893645917074,2.317185163497925,-0.014149139635264874,-0.0062371473759412766,0.012239668518304825,0.052203282713890076,-0.0024970639497041702,-0.0936150774359703,-0.15165762603282928,-1.563088059425354,-0.1938004195690155,0.5792912244796753,-0.43673771619796753,-0.2338372766971588
1749030791.4105237,0.7013798952102661,0.2549435335346679,-1.3396477699279785,-2.5721551380553187,-5.9369046727763575,2.3170089721679688,-0.013838083483278751,-0.0057295337319374084,0.01213990617543459,0.0532677061855793,-0.0020336860325187445,-0.09356929361820221,-0.17035537958145142,-1.575101375579834,-0.1822355091571808,0.5537796020507812,-0.43279874324798584,-0.2518238425254822
1749030791.4105864,0.7014108896255493,0.25492314874615474,-1.3396306037902832,-2.572066923181051,-5.936889950429098,2.316758632659912,-0.01329136174172163,-0.006577929016202688,0.01311891246587038,0.054594170302152634,-0.0018026692559942603,-0.09736118465662003,-0.18172582983970642,-1.560365080833435,-0.18053920567035675,0.5697667002677917,-0.44248709082603455,-0.23231881856918335
1749030791.4106483,0.7013871669769287,0.2549047905155639,-1.3395721912384033,-2.5719315014281214,-5.936874095593588,2.3166022300720215,-0.013179721310734749,-0.006807876285165548,0.012701813131570816,0.05602797865867615,-0.0015222947113215923,-0.10039947181940079,-0.1773194670677185,-1.5657598972320557,-0.18668876588344574,0.5601012110710144,-0.47073909640312195,-0.22166290879249573
1749030791.4107146,0.7013353705406189,0.25487320005383296,-1.3395793437957764,-2.5718399486937464,-5.936854843293325,2.3163633346557617,-0.013757705688476562,-0.007392695639282465,0.012459712103009224,0.05658278614282608,-0.0015365276485681534,-0.10403794795274734,-0.1790824830532074,-1.5903232097625732,-0.17029163241386414,0.5731050968170166,-0.4613041877746582,-0.19759772717952728
1749030791.4107773,0.7013424634933472,0.25488750516857905,-1.3395358324050903,-2.5717016659178675,-5.936862234269277,2.316167116165161,-0.01387840323150158,-0.006693844683468342,0.012695861048996449,0.05731286108493805,-0.0024706427939236164,-0.10614742338657379,-0.1976374089717865,-1.6016287803649902,-0.16491788625717163,0.5717713832855225,-0.46301963925361633,-0.20037241280078888
1749030791.4108438,0.7012997269630432,0.25488392888989253,-1.3395276069641113,-2.5715700588622035,-5.936889950429098,2.31597900390625,-0.01443482469767332,-0.006524059921503067,0.013048878870904446,0.05700197443366051,-0.0030276079196482897,-0.10636415332555771,-0.2132279872894287,-1.5957366228103638,-0.158727765083313,0.5824612975120544,-0.4824064373970032,-0.18057912588119507
1749030791.4109056,0.7013413310050964,0.2548326688953857,-1.3395192623138428,-2.571466108361715,-5.9369176665889185,2.3157753944396973,-0.01459731999784708,-0.007245843764394522,0.013688170351088047,0.058336809277534485,-0.0034560614731162786,-0.10632095485925674,-0.1963561773300171,-1.6034908294677734,-0.17587336897850037,0.5904417037963867,-0.46754518151283264,-0.2009599208831787
1749030791.4109669,0.7012631893157959,0.2548636633106689,-1.339479923248291,-2.5713864765562953,-5.936898473893301,2.315580129623413,-0.015492942184209824,-0.007760003209114075,0.013404753990471363,0.06139642745256424,-0.003305837046355009,-0.10694276541471481,-0.20181670784950256,-1.5906109809875488,-0.13696938753128052,0.6021904349327087,-0.47079622745513916,-0.2003987729549408
1749030791.4110286,0.7012388706207275,0.2548326688953857,-1.339468002319336,-2.5712391338744105,-5.9369176665889185,2.31534481048584,-0.01474220585078001,-0.007745455950498581,0.014503495767712593,0.06369306892156601,-0.0034891818650066853,-0.10818833857774734,-0.2040879875421524,-1.5758334398269653,-0.15826408565044403,0.5770544409751892,-0.4805142283439636,-0.21727301180362701
1749030791.4110904,0.7012161612510681,0.254805250758789,-1.33942449092865,-2.571135183373922,-5.936957363282339,2.3151371479034424,-0.015342126600444317,-0.008363342843949795,0.014041515998542309,0.06243050843477249,-0.004491456784307957,-0.1088273674249649,-0.21255531907081604,-1.616292953491211,-0.140300914645195,0.5698432922363281,-0.4951024651527405,-0.21912458539009094
1749030791.4111514,0.7011721134185791,0.2547890382954101,-1.3394008874893188,-2.57096590618276,-5.936925951634542,2.3149454593658447,-0.01471030805259943,-0.00883955042809248,0.014852946624159813,0.06332991272211075,-0.004905239213258028,-0.10954108834266663,-0.2284930944442749,-1.6321260929107666,-0.13598167896270752,0.6014935374259949,-0.48003286123275757,-0.22365662455558777
1749030791.4112132,0.7011394500732422,0.2547570902058105,-1.3393840789794922,-2.57085718731069,-5.936910424624578,2.314671039581299,-0.015483517199754715,-0.008548315614461899,0.01346223521977663,0.0659046620130539,-0.00525556830689311,-0.10930737107992172,-0.21321922540664673,-1.6035600900650024,-0.13797405362129211,0.5832332968711853,-0.49463367462158203,-0.22763389348983765
1749030791.411274,0.7011120915412903,0.25475232183422847,-1.3393757343292236,-2.570691247979635,-5.9369655589209955,2.3144893646240234,-0.015730295330286026,-0.008624614216387272,0.015186794102191925,0.06717430055141449,-0.005702114198356867,-0.11127481609582901,-0.23025177419185638,-1.619612216949463,-0.13125751912593842,0.5975404977798462,-0.5120202302932739,-0.25974833965301514
1749030791.4113262,0.701067328453064,0.2547713953205566,-1.3393549919128418,-2.57059445003652,-5.936961952839987,2.31428599357605,-0.01645047403872013,-0.00885819736868143,0.01571439765393734,0.07064509391784668,-0.005813281051814556,-0.11550432443618774,-0.21417474746704102,-1.6307463645935059,-0.12830741703510284,0.5779310464859009,-0.4986957907676697,-0.2508320212364197
1749030791.4113832,0.7010447382926941,0.25471238672222896,-1.3393120765686035,-2.5704552135863246,-5.936981175337927,2.3140432834625244,-0.016414489597082138,-0.009454584680497646,0.015818867832422256,0.07283976674079895,-0.005860712379217148,-0.11370588839054108,-0.23504838347434998,-1.6162358522415161,-0.15265819430351257,0.5685513019561768,-0.5039979219436646,-0.2688261866569519
1749030791.411444,0.7010049223899841,0.2547284799763183,-1.339263916015625,-2.5702854595580042,-5.937005285416738,2.313843250274658,-0.017042944207787514,-0.00934082642197609,0.015860797837376595,0.07187804579734802,-0.006392242852598429,-0.1158766970038414,-0.23168033361434937,-1.632158875465393,-0.1269804984331131,0.5692282915115356,-0.4941140413284302,-0.28400659561157227
1749030791.4115105,0.7009963989257812,0.2547077375599365,-1.3392491340637207,-2.5701524219908656,-5.937052253876821,2.313525676727295,-0.017735294997692108,-0.008890307508409023,0.016395606100559235,0.07072759419679642,-0.0067987903021276,-0.12339895218610764,-0.2327512800693512,-1.6440552473068237,-0.11472726613283157,0.5975263118743896,-0.48932182788848877,-0.2734539806842804
1749030791.4115758,0.7009827494621277,0.2547185856052856,-1.3392012119293213,-2.5699902973570765,-5.937001649533407,2.3133082389831543,-0.017412440851330757,-0.0093453424051404,0.01687409169971943,0.07329852879047394,-0.007449520286172628,-0.1251537799835205,-0.22571122646331787,-1.6344385147094727,-0.11383577436208725,0.5964135527610779,-0.48747169971466064,-0.25674307346343994
1749030791.4116387,0.7009125351905823,0.25466005384411616,-1.3391964435577393,-2.5698663196959437,-5.937026713286535,2.31302547454834,-0.017919428646564484,-0.010279599577188492,0.016918553039431572,0.0753612220287323,-0.007787160575389862,-0.1282625049352646,-0.23089081048965454,-1.6203482151031494,-0.11898336559534073,0.5565952658653259,-0.4744287133216858,-0.27661439776420593
1749030791.4118154,0.7008880376815796,0.25466005384411616,-1.3391566276550293,-2.569695611993307,-5.937042240296499,2.3127779960632324,-0.018027525395154953,-0.009317255578935146,0.017418717965483665,0.076117143034935,-0.007969817146658897,-0.13294097781181335,-0.23076561093330383,-1.6266463994979858,-0.11271685361862183,0.5710429549217224,-0.4925158619880676,-0.2658511996269226
1749030791.4131205,0.7008404731750488,0.2546083170124511,-1.339120864868164,-2.569533487359518,-5.937026713286535,2.312495231628418,-0.018363509327173233,-0.0100282933562994,0.017798161134123802,0.07656314224004745,-0.00757959857583046,-0.13600467145442963,-0.2500726580619812,-1.6557543277740479,-0.10398560762405396,0.5770244598388672,-0.5004634261131287,-0.23659485578536987
1749030791.4542835,0.7008011937141418,0.2546083170124511,-1.3390964269638062,-2.5694004497923792,-5.937101129685537,2.312246322631836,-0.018891070038080215,-0.010379255749285221,0.01865125447511673,0.07700998336076736,-0.007728492841124535,-0.1370925009250641,-0.23871088027954102,-1.6593633890151978,-0.11323872953653336,0.5631618499755859,-0.4799882769584656,-0.22125884890556335
1749030791.4543302,0.7007536292076111,0.25453846036877437,-1.3390452861785889,-2.569226404229635,-5.93709379831423,2.3119707107543945,-0.018657471984624863,-0.010614692233502865,0.019385650753974915,0.07805757224559784,-0.008046877570450306,-0.1378488689661026,-0.2527841031551361,-1.6286197900772095,-0.13262173533439636,0.5715137124061584,-0.4837573766708374,-0.21592822670936584
1749030791.454371,0.7007191181182861,0.25456778585400386,-1.3390095233917236,-2.5690752468504847,-5.93712488213648,2.311647891998291,-0.01915905810892582,-0.01125703938305378,0.018089402467012405,0.07865282893180847,-0.007054508198052645,-0.13823793828487396,-0.2467561662197113,-1.6202744245529175,-0.10393094271421432,0.5680504441261292,-0.47608792781829834,-0.21359127759933472
1749030791.45441,0.7007087469100952,0.25454215585675044,-1.3390042781829834,-2.5688888035216273,-5.937121276055471,2.3113996982574463,-0.0194028839468956,-0.010352172888815403,0.01827765256166458,0.07887522876262665,-0.006063655950129032,-0.13573341071605682,-0.23482003808021545,-1.6503866910934448,-0.0921638235449791,0.5904693603515625,-0.48392564058303833,-0.24021287262439728
1749030791.4544475,0.7007040977478027,0.2545284467884521,-1.3389804363250732,-2.5687676868834437,-5.93713349500765,2.3110899925231934,-0.019177641719579697,-0.010465510189533234,0.019572338089346886,0.08069981634616852,-0.005932910833507776,-0.138174369931221,-0.2636776864528656,-1.634789228439331,-0.0846695676445961,0.5645815134048462,-0.4984440803527832,-0.23948471248149872
1749030791.4544861,0.7006718516349792,0.2544938760944824,-1.338901162147522,-2.5686127148070277,-5.937129799519674,2.3108367919921875,-0.019580213353037834,-0.010625570081174374,0.02001034840941429,0.07986121624708176,-0.005567334592342377,-0.1354818195104599,-0.2815593481063843,-1.6471604108810425,-0.10204977542161942,0.5654599070549011,-0.4865272641181946,-0.2555251121520996
1749030791.4545238,0.7005891799926758,0.25447718679394526,-1.338881015777588,-2.568423410455221,-5.937173132096426,2.31054949760437,-0.0204917062073946,-0.01030723750591278,0.02035260945558548,0.07969541847705841,-0.005952214356511831,-0.13517040014266968,-0.2468705177307129,-1.642919659614563,-0.09898974001407623,0.5963045358657837,-0.47890573740005493,-0.2716488242149353
1749030791.4545615,0.7005254030227661,0.25442997991528316,-1.3388416767120361,-2.5682836971678675,-5.937165830527441,2.3103013038635254,-0.02034056931734085,-0.010527589358389378,0.02088531106710434,0.08016546815633774,-0.005587397143244743,-0.14069080352783203,-0.2637580633163452,-1.6691454648971558,-0.09799626469612122,0.6040474772453308,-0.5027819871902466,-0.26766955852508545
1749030791.454599,0.7004862427711487,0.25442175447430415,-1.3388094902038574,-2.568104406396383,-5.937165770922796,2.310025691986084,-0.020209623500704765,-0.010999993421137333,0.02115526981651783,0.08136135339736938,-0.004990774672478437,-0.14272348582744598,-0.26104962825775146,-1.6559250354766846,-0.0881049856543541,0.5971957445144653,-0.497964084148407,-0.2559170126914978
1749030791.4546366,0.7005003094673157,0.2544216352650146,-1.3387737274169922,-2.567918439904684,-5.937158469353811,2.309699296951294,-0.02041911520063877,-0.010584318079054356,0.02124936692416668,0.0830039232969284,-0.004870051983743906,-0.1467425525188446,-0.2611425220966339,-1.693636417388916,-0.08847973495721817,0.6085230112075806,-0.48733705282211304,-0.2579790949821472
1749030791.4546738,0.7003991007804871,0.2543160158344726,-1.338737964630127,-2.5677854023375453,-5.937205437813894,2.3094193935394287,-0.02069736272096634,-0.011212182231247425,0.021825341507792473,0.08445114642381668,-0.005060994997620583,-0.1523062139749527,-0.2716236710548401,-1.669213056564331,-0.08818028122186661,0.6027569770812988,-0.49821656942367554,-0.26985234022140503
1749030791.454711,0.7003860473632812,0.25435392438854976,-1.338693380355835,-2.5676218471922816,-5.937170718108312,2.309129476547241,-0.02079242840409279,-0.010752406902611256,0.02253827452659607,0.08525341004133224,-0.005837779026478529,-0.1577719748020172,-0.26155292987823486,-1.6804630756378174,-0.08773969113826752,0.6114063262939453,-0.5019175410270691,-0.22070017457008362
1749030791.4547482,0.7003622055053711,0.2543296056934814,-1.3386343717575073,-2.5674272976317347,-5.937182579432623,2.308828830718994,-0.020967869088053703,-0.010224681347608566,0.023260558024048805,0.08730733394622803,-0.006237735040485859,-0.159461110830307,-0.2844015955924988,-1.6717182397842407,-0.08726906776428223,0.6211897134780884,-0.49533337354660034,-0.2362276017665863
1749030791.4547856,0.7003569602966309,0.25430576383557124,-1.3385869264602661,-2.5672341785826625,-5.937209997569219,2.3084819316864014,-0.021020853891968727,-0.010559472255408764,0.02294243685901165,0.09289080649614334,-0.005838078912347555,-0.16126708686351776,-0.3153499364852905,-1.6733192205429077,-0.09170924127101898,0.5868567228317261,-0.5058326721191406,-0.21242260932922363
1749030791.4548233,0.7002521753311157,0.25430576383557124,-1.338542103767395,-2.567069192925924,-5.93717530766596,2.3081696033477783,-0.022180655971169472,-0.010691848583519459,0.023040195927023888,0.0908668041229248,-0.005438714288175106,-0.16034941375255585,-0.302416056394577,-1.677290439605713,-0.07020305097103119,0.6051192283630371,-0.489294171333313,-0.22538477182388306
1749030791.4548607,0.7002383470535278,0.254234715098999,-1.3385100364685059,-2.566886087457174,-5.937277440224783,2.307833194732666,-0.022589994594454765,-0.010504311881959438,0.023776814341545105,0.09193762391805649,-0.005618739873170853,-0.15896648168563843,-0.2908005118370056,-1.6689114570617676,-0.09570911526679993,0.6124415993690491,-0.5044496059417725,-0.23123811185359955
1749030791.4548984,0.7001913189888,0.25426117956127925,-1.3384308815002441,-2.5667110882201136,-5.937222246323721,2.307512044906616,-0.02293650433421135,-0.011847570538520813,0.024269141256809235,0.09422336518764496,-0.006894618738442659,-0.1616607904434204,-0.28279003500938416,-1.6813139915466309,-0.08985230326652527,0.6057831048965454,-0.48810330033302307,-0.22009968757629395
1749030791.4549365,0.7000930309295654,0.25421826421704097,-1.3384027481079102,-2.5665165386595667,-5.937242392693655,2.3072621822357178,-0.02301110327243805,-0.010488327592611313,0.024468280375003815,0.09854507446289062,-0.007980168797075748,-0.15848039090633392,-0.31662657856941223,-1.6975334882736206,-0.09102468937635422,0.5721832513809204,-0.48009932041168213,-0.2621900141239166
1749030791.454974,0.7000799775123596,0.25419072687115474,-1.338347315788269,-2.5662976704039515,-5.937292997037069,2.306891441345215,-0.023157181218266487,-0.01212472002953291,0.024622680619359016,0.10155002027750015,-0.007707079406827688,-0.15806077420711517,-0.32365578413009644,-1.7023282051086426,-0.086090087890625,0.5809705257415771,-0.4876871109008789,-0.2930300533771515
1749030791.4550118,0.700028121471405,0.25417475282635493,-1.3383152484893799,-2.5661188564696253,-5.937309805546896,2.3065903186798096,-0.023150503635406494,-0.011491497047245502,0.025164151564240456,0.09849388897418976,-0.006925763562321663,-0.16331660747528076,-0.30447325110435486,-1.6823755502700806,-0.08198034018278122,0.5861093997955322,-0.49027395248413086,-0.254636287689209
1749030791.4551287,0.6999680399894714,0.25418607770886226,-1.3382551670074463,-2.565934797326559,-5.93733731309046,2.3062474727630615,-0.023166436702013016,-0.010841850191354752,0.025279872119426727,0.09972909092903137,-0.00703725591301918,-0.16613833606243134,-0.3107573091983795,-1.6870418787002563,-0.09587694704532623,0.5854660272598267,-0.4975851774215698,-0.29522985219955444
1749030791.4571073,0.6999435424804688,0.2541658121296386,-1.338175892829895,-2.565721651116842,-5.937349234019415,2.305938243865967,-0.024066034704446793,-0.011669274419546127,0.025464851409196854,0.10157514363527298,-0.007108121644705534,-0.1723354309797287,-0.2951339781284332,-1.6857746839523315,-0.08116701245307922,0.5829888582229614,-0.4835747480392456,-0.27743223309516907
1749030791.4983113,0.6999316215515137,0.25412647306408687,-1.3381556272506714,-2.5655065975584925,-5.937333677207128,2.305558681488037,-0.02405012957751751,-0.011608187109231949,0.025165708735585213,0.1034325435757637,-0.006646900437772274,-0.1754022091627121,-0.29243263602256775,-1.6668777465820312,-0.09673849493265152,0.5668036341667175,-0.4898102283477783,-0.2398015707731247
1749030791.498358,0.699859619140625,0.2541026312061767,-1.3381152153015137,-2.565291544000143,-5.93736502925028,2.3052172660827637,-0.023576010018587112,-0.01164349913597107,0.025211745873093605,0.10268836468458176,-0.006703302264213562,-0.17691810429096222,-0.311754047870636,-1.6962556838989258,-0.07620519399642944,0.5554625988006592,-0.4881048798561096,-0.22394414246082306
1749030791.4984026,0.6997923254966736,0.2540435033985595,-1.3380361795425415,-2.565104146996969,-5.937388811503546,2.3049075603485107,-0.02484840154647827,-0.012378109619021416,0.02560216188430786,0.1026645302772522,-0.006720800418406725,-0.1775074005126953,-0.3323325216770172,-1.6764272451400757,-0.0906153991818428,0.5527103543281555,-0.49721759557724,-0.21914130449295044
1749030791.4984438,0.6997483372688293,0.2540580469318847,-1.3379919528961182,-2.5649129352965296,-5.937377903853552,2.304480791091919,-0.025644849985837936,-0.011861857958137989,0.02596917562186718,0.10215621441602707,-0.007489129900932312,-0.1746872365474701,-0.2984885573387146,-1.6966145038604736,-0.09375665336847305,0.5629885196685791,-0.48173755407333374,-0.2508887052536011
1749030791.498483,0.6997072696685791,0.25402693330731196,-1.33790922164917,-2.564709802667135,-5.937412981187002,2.304176092147827,-0.024953611195087433,-0.012414630502462387,0.02644377574324608,0.10265792906284332,-0.008046943694353104,-0.17719869315624237,-0.32240980863571167,-1.6861008405685425,-0.07563519477844238,0.585479199886322,-0.47895878553390503,-0.2445252388715744
1749030791.4985213,0.6996839046478271,0.2539912897297363,-1.3378962278366089,-2.5644880733885707,-5.937405649815695,2.3037753105163574,-0.024187972769141197,-0.011601102538406849,0.02703136019408703,0.10557582229375839,-0.0075716362334787846,-0.1743043214082718,-0.319248229265213,-1.6744122505187988,-0.10292978584766388,0.5623504519462585,-0.4740264415740967,-0.2766243815422058
1749030791.4985635,0.6995820999145508,0.2539822298237304,-1.3378275632858276,-2.564273019830221,-5.937433455382482,2.3034512996673584,-0.02418125979602337,-0.011608411557972431,0.0265663992613554,0.10284117609262466,-0.006536382716149092,-0.17861086130142212,-0.3265824019908905,-1.7010685205459595,-0.10159994661808014,0.5868638753890991,-0.46862107515335083,-0.2845326364040375
1749030791.4986029,0.6995726227760315,0.25393108903851314,-1.3377764225006104,-2.5640579662718714,-5.937421176825659,2.3031063079833984,-0.024886848405003548,-0.011928890831768513,0.02561243437230587,0.10339263081550598,-0.006510745268315077,-0.17844942212104797,-0.3050973415374756,-1.7016847133636475,-0.06457594782114029,0.5839284658432007,-0.47765183448791504,-0.2900070548057556
1749030791.4986405,0.6995726227760315,0.25393108903851314,-1.3377764225006104,-2.5640579662718714,-5.937421176825659,2.3031063079833984,-0.024886848405003548,-0.011928890831768513,0.02561243437230587,0.10339263081550598,-0.006510745268315077,-0.17844942212104797,-0.3050973415374756,-1.7016847133636475,-0.06457594782114029,0.5839284658432007,-0.47765183448791504,-0.2900070548057556
1749030791.4986777,0.6995171904563904,0.2539502817341308,-1.3377281427383423,-2.563850542108053,-5.9374574462520044,2.3026986122131348,-0.025791097432374954,-0.011226730421185493,0.027264457195997238,0.1036052256822586,-0.006752401124686003,-0.18224605917930603,-0.30455920100212097,-1.7111729383468628,-0.09271681308746338,0.5870453119277954,-0.4931924641132355,-0.2721715569496155
1749030791.498719,0.6994326114654541,0.25387100755657954,-1.3376085758209229,-2.563432832757467,-5.937450174485342,2.301976442337036,-0.025928989052772522,-0.011814556084573269,0.025944657623767853,0.10542935878038406,-0.00594353536143899,-0.1870618760585785,-0.3303912878036499,-1.7153708934783936,-0.09621179103851318,0.5560828447341919,-0.4982374310493469,-0.22349798679351807
1749030791.4987576,0.6993694305419922,0.25383178770031734,-1.337545394897461,-2.5632101498045863,-5.937473956738607,2.3015897274017334,-0.025956524536013603,-0.012118651531636715,0.02721247263252735,0.10499151796102524,-0.0054214270785450935,-0.18794582784175873,-0.32891204953193665,-1.6942906379699707,-0.09035635739564896,0.5856814384460449,-0.5074602365493774,-0.21642878651618958
1749030791.4987948,0.699291467666626,0.2538352447697143,-1.3375287055969238,-2.563014646569723,-5.9374898115741175,2.301243543624878,-0.025856394320726395,-0.012304496951401234,0.027486508712172508,0.10661163926124573,-0.006236124783754349,-0.18642990291118622,-0.3279322683811188,-1.7076630592346191,-0.11204443126916885,0.5716934204101562,-0.499963641166687,-0.2267875224351883
1749030791.4988322,0.6992700695991516,0.2538084226795654,-1.3374494314193726,-2.5627995930113734,-5.937501732503073,2.3008556365966797,-0.026553938165307045,-0.012578969821333885,0.02713199146091938,0.10688573867082596,-0.006835559848695993,-0.18272875249385834,-0.3408767879009247,-1.6745553016662598,-0.10051269829273224,0.5729537010192871,-0.49766528606414795,-0.24287596344947815
1749030791.4988728,0.6992528438568115,0.2538103300281982,-1.3374173641204834,-2.5625506840147914,-5.937513653432028,2.3005189895629883,-0.026398735120892525,-0.012646155431866646,0.026506073772907257,0.10613381862640381,-0.006886616814881563,-0.18622447550296783,-0.34812843799591064,-1.687915563583374,-0.09463147819042206,0.6011469960212708,-0.49261194467544556,-0.22386138141155243
1749030791.4989107,0.6992016434669495,0.2537638384052734,-1.3373726606369019,-2.5623542271056117,-5.937529180441992,2.300100088119507,-0.027064040303230286,-0.012738093733787537,0.026468021795153618,0.10656892508268356,-0.0065546827390789986,-0.1826249361038208,-0.34689658880233765,-1.7166310548782349,-0.08204235881567001,0.5881475210189819,-0.4908107817173004,-0.25769343972206116
1749030791.4989486,0.6990485191345215,0.2537316518970947,-1.337294101715088,-2.562127729455465,-5.937572513018743,2.299767255783081,-0.027656376361846924,-0.013032685033977032,0.027807140722870827,0.10660234093666077,-0.005890374071896076,-0.1873009204864502,-0.3388621211051941,-1.6883323192596436,-0.09259332716464996,0.6039464473724365,-0.4944005310535431,-0.2844799757003784
1749030791.4989874,0.6990271210670471,0.2537073332020263,-1.3372340202331543,-2.561955591241354,-5.937534097825186,2.2994141578674316,-0.0279888566583395,-0.012725802138447762,0.02825048565864563,0.10821603238582611,-0.006384613923728466,-0.18777690827846527,-0.3221030533313751,-1.6946702003479004,-0.08963948488235474,0.6038058400154114,-0.49230778217315674,-0.2659871578216553
1749030791.4990282,0.6990103721618652,0.25371448575939937,-1.3371893167495728,-2.561697622338766,-5.93756884733309,2.29902982711792,-0.027494922280311584,-0.01308790035545826,0.027851492166519165,0.10934155434370041,-0.006643064320087433,-0.1913633495569229,-0.3203008472919464,-1.6923877000808716,-0.0902579203248024,0.599673867225647,-0.5013024806976318,-0.28672707080841064
1749030791.499077,0.6989312767982483,0.2536943393894653,-1.3371338844299316,-2.5614944897093714,-5.937557939683096,2.2985873222351074,-0.027422884479165077,-0.013262690044939518,0.028137898072600365,0.1095215231180191,-0.006869070697575808,-0.19582471251487732,-0.3188580274581909,-1.7037498950958252,-0.0802646055817604,0.6035544276237488,-0.501862645149231,-0.2611249089241028
1749030791.4992123,0.6988680958747864,0.2536321121403198,-1.3370821475982666,-2.5612832508482875,-5.937566165124075,2.298194646835327,-0.0282532200217247,-0.013773325830698013,0.028813952580094337,0.11117974668741226,-0.006268846336752176,-0.19699473679065704,-0.33107298612594604,-1.7009389400482178,-0.09209976345300674,0.6104496121406555,-0.4893428385257721,-0.23539310693740845
1749030791.5011182,0.6988430023193359,0.25360767423596187,-1.3370064496994019,-2.5610343418517054,-5.937621657048361,2.2978367805480957,-0.028574129566550255,-0.013725788332521915,0.028475118800997734,0.11201820522546768,-0.005965677089989185,-0.19642460346221924,-0.3056764304637909,-1.7256300449371338,-0.0795050859451294,0.6164628863334656,-0.5046600103378296,-0.267138808965683
1749030791.542284,0.6987758874893188,0.2535528379627685,-1.3369779586791992,-2.560817857781881,-5.937620435153143,2.2973897457122803,-0.0286786537617445,-0.014027574099600315,0.027656203135848045,0.1138504147529602,-0.006879422813653946,-0.1988043338060379,-0.3285578191280365,-1.699236273765564,-0.07662482559680939,0.5958335399627686,-0.4975319504737854,-0.24586962163448334
1749030791.54233,0.6987227201461792,0.2535356718250732,-1.336898684501648,-2.5605718098082484,-5.93760580221285,2.2970125675201416,-0.029253775253891945,-0.013631444424390793,0.027753930538892746,0.11436747759580612,-0.007921703159809113,-0.19559353590011597,-0.3296698331832886,-1.6910308599472046,-0.06888411939144135,0.6058300137519836,-0.5066216588020325,-0.27473098039627075
1749030791.5423713,0.6986751556396484,0.2535783487507324,-1.3368546962738037,-2.5603257618346156,-5.937668297682897,2.296623468399048,-0.029107170179486275,-0.013535714708268642,0.0288994237780571,0.1179894283413887,-0.00824542623013258,-0.19940342009067535,-0.3166888654232025,-1.7054024934768677,-0.0757327750325203,0.617412269115448,-0.5011684894561768,-0.2774467170238495
1749030791.5424101,0.6985690593719482,0.25347618638958735,-1.3368028402328491,-2.5601102314391078,-5.937685135995046,2.2962467670440674,-0.029007913544774055,-0.01350298523902893,0.02925214357674122,0.12012457102537155,-0.008177394978702068,-0.19796542823314667,-0.33469462394714355,-1.7119572162628174,-0.07514746487140656,0.5842196941375732,-0.4948042035102844,-0.2971852421760559
1749030791.5424497,0.6985363364219666,0.25346796094860835,-1.3367308378219604,-2.559882780114645,-5.937676910554067,2.295881509780884,-0.028811104595661163,-0.013587160967290401,0.02918207086622715,0.1187998503446579,-0.007802982814610004,-0.20223280787467957,-0.33339008688926697,-1.716030478477478,-0.08236593008041382,0.6010209918022156,-0.4967043399810791,-0.3158411979675293
1749030791.542488,0.6984559297561646,0.2534404236027221,-1.3366683721542358,-2.5596286259093226,-5.9376970569240015,2.2954230308532715,-0.028988149017095566,-0.01410802360624075,0.02923714369535446,0.11925891786813736,-0.007847658358514309,-0.2058841735124588,-0.3343578577041626,-1.707755446434021,-0.08176884800195694,0.6011989116668701,-0.4988929331302643,-0.31090086698532104
1749030791.5425267,0.6984792947769165,0.2534046608158569,-1.3366272449493408,-2.5593587360777796,-5.937728796397344,2.2950220108032227,-0.029295947402715683,-0.01400851458311081,0.029273347929120064,0.1235242411494255,-0.0073426347225904465,-0.20802460610866547,-0.3246300518512726,-1.7177413702011108,-0.05937831103801727,0.5892435312271118,-0.5023258924484253,-0.2820645868778229
1749030791.5425646,0.6984035968780518,0.25338081895794673,-1.3365634679794312,-2.559127470056051,-5.937726024781362,2.2945780754089355,-0.031117986887693405,-0.013774477876722813,0.02996489778161049,0.12234480679035187,-0.007030037231743336,-0.21114058792591095,-0.3183239698410034,-1.7023859024047852,-0.07677482068538666,0.5762549042701721,-0.5101739764213562,-0.2797972559928894
1749030791.5426028,0.6982666254043579,0.25334827482189937,-1.3364920616149902,-2.558892389337057,-5.937757138405935,2.2941577434539795,-0.029288867488503456,-0.013201015070080757,0.03005228564143181,0.12041134387254715,-0.0073746126145124435,-0.21101130545139313,-0.3287075459957123,-1.742539882659912,-0.07266039401292801,0.60414719581604,-0.5138240456581116,-0.2587931752204895
1749030791.5426407,0.6982337832450867,0.2533518511005859,-1.3364320993423462,-2.5586258373656214,-5.937764410172598,2.2937169075012207,-0.029202954843640327,-0.014247299171984196,0.029997311532497406,0.1213192418217659,-0.007966761477291584,-0.21067073941230774,-0.3356298506259918,-1.704000473022461,-0.062202565371990204,0.5856772661209106,-0.5110931396484375,-0.2740154266357422
1749030791.5426784,0.6981761455535889,0.2533196645924072,-1.3363717794418335,-2.5583912334837855,-5.937843684350149,2.2933433055877686,-0.029027849435806274,-0.01415927428752184,0.030317604541778564,0.11969418823719025,-0.008133536204695702,-0.21119442582130432,-0.3393760919570923,-1.708492636680603,-0.06713380664587021,0.6109294891357422,-0.4946143329143524,-0.264168381690979
1749030791.542715,0.698114275932312,0.2532849746891479,-1.3363122940063477,-2.5581709347166957,-5.937773946915762,2.2928638458251953,-0.02945203147828579,-0.01491440087556839,0.03057904727756977,0.11978591233491898,-0.007730219047516584,-0.21175900101661682,-0.3356510102748871,-1.7222875356674194,-0.06770960986614227,0.6034412384033203,-0.49681323766708374,-0.3077832758426666
1749030791.5427606,0.6981087923049927,0.2532922464558105,-1.3362408876419067,-2.5578977070250453,-5.937828127537863,2.2924396991729736,-0.030035845935344696,-0.013843830674886703,0.03030313365161419,0.11856983602046967,-0.007565683219581842,-0.21273654699325562,-0.330167293548584,-1.7357209920883179,-0.07600878179073334,0.6358468532562256,-0.5044542551040649,-0.2901786267757416
1749030791.5428247,0.6979979872703552,0.25326327859844966,-1.3361889123916626,-2.5576349697508753,-5.937801424657003,2.292023181915283,-0.02998485416173935,-0.014750954695045948,0.030772095546126366,0.12333053350448608,-0.00877175573259592,-0.21637186408042908,-0.3679910898208618,-1.7278882265090942,-0.06329542398452759,0.6076741218566895,-0.4825872480869293,-0.278609037399292
1749030791.5428932,0.6979159116744995,0.25318018972363276,-1.3361246585845947,-2.5573960743346156,-5.93785331050028,2.2916054725646973,-0.030526213347911835,-0.014488657005131245,0.030898073688149452,0.12242081016302109,-0.008997672237455845,-0.21792194247245789,-0.36075225472450256,-1.7245899438858032,-0.07035525888204575,0.635124683380127,-0.4862528443336487,-0.28437572717666626
1749030791.5429678,0.6979045867919922,0.2532002168842773,-1.3360836505889893,-2.557174345056051,-5.937806342040197,2.291153907775879,-0.031272102147340775,-0.014782681129872799,0.03136963024735451,0.12277674674987793,-0.008741147816181183,-0.22057867050170898,-0.3339638113975525,-1.7403144836425781,-0.05756406486034393,0.6298871636390686,-0.5010316967964172,-0.30037492513656616
1749030791.5430357,0.6978349685668945,0.25311438619580073,-1.336016297340393,-2.5569077930846156,-5.937873427067892,2.29067325592041,-0.031341973692178726,-0.014577079564332962,0.03183002397418022,0.12587778270244598,-0.008347918279469013,-0.22361479699611664,-0.35123133659362793,-1.7350064516067505,-0.0658462718129158,0.6405202746391296,-0.4913930892944336,-0.29298707842826843
1749030791.5431037,0.6977747082710266,0.2530969816395263,-1.3359497785568237,-2.5566607914366664,-5.937866065894262,2.290247917175293,-0.03208523616194725,-0.014142485335469246,0.03180132433772087,0.12926538288593292,-0.007980681024491787,-0.2203093022108078,-0.34052738547325134,-1.7412254810333252,-0.0741497054696083,0.6172687411308289,-0.49028122425079346,-0.30087602138519287
1749030791.5431728,0.6976990103721619,0.25307313978161616,-1.3358783721923828,-2.556375642816061,-5.937916759644644,2.289834499359131,-0.03148317337036133,-0.014070593751966953,0.03163132816553116,0.1278587430715561,-0.0075263953767716885,-0.22566421329975128,-0.3616870045661926,-1.7618861198425293,-0.04959658533334732,0.6570273041725159,-0.4990001320838928,-0.307395875453949
1749030791.5432422,0.6976389288902283,0.2530612188526611,-1.3358370065689087,-2.556119581262106,-5.937916759644644,2.2893788814544678,-0.03160656616091728,-0.014489028602838516,0.03181073069572449,0.13088475167751312,-0.0071189249865710735,-0.2267109453678131,-0.36150991916656494,-1.7440552711486816,-0.04201515018939972,0.6496362686157227,-0.5070657730102539,-0.30328041315078735
1749030791.543638,0.6975492238998413,0.2530062633701782,-1.335789442062378,-2.555819650689596,-5.937909428273336,2.288907051086426,-0.03318114951252937,-0.014595414511859417,0.0333264134824276,0.13237379491329193,-0.00795664917677641,-0.23089195787906647,-0.33219343423843384,-1.762682557106018,-0.06146663427352905,0.635233998298645,-0.5116564035415649,-0.3015121817588806
1749030791.5451066,0.6974924802780151,0.25304822504010005,-1.3356947898864746,-2.5555907688536585,-5.937909428273336,2.2883989810943604,-0.03223767504096031,-0.015080282464623451,0.03326718136668205,0.13442330062389374,-0.007893002592027187,-0.23410063982009888,-0.3469710648059845,-1.7623701095581055,-0.06124124675989151,0.6351569890975952,-0.5063410401344299,-0.2911316752433777
1749030791.5862868,0.6974512934684753,0.25297729551281734,-1.335622787475586,-2.5553251705565394,-5.937925908957617,2.287947177886963,-0.030703453347086906,-0.015521097928285599,0.0331425815820694,0.13381782174110413,-0.007616732269525528,-0.2362702637910843,-0.3765812814235687,-1.7431775331497192,-0.039894409477710724,0.6436600685119629,-0.5132110714912415,-0.2829718589782715
1749030791.586333,0.6973482966423035,0.25292591630902095,-1.3356013298034668,-2.5550691090025843,-5.937953744326727,2.287461519241333,-0.030880441889166832,-0.015614311210811138,0.03321124613285065,0.13374195992946625,-0.007718605455011129,-0.2368299961090088,-0.392634779214859,-1.767653465270996,-0.05520827695727348,0.6376171112060547,-0.5300022959709167,-0.2757398188114166
1749030791.5863733,0.6973543167114258,0.25288955747570796,-1.3355293273925781,-2.5547825298705042,-5.938032064829962,2.2869999408721924,-0.032562341541051865,-0.015952086076140404,0.03337142989039421,0.13422507047653198,-0.008406872861087322,-0.23559395968914032,-0.3602658212184906,-1.7422388792037964,-0.051503852009773254,0.6533060669898987,-0.5176677107810974,-0.2957240343093872
1749030791.5864117,0.6972637176513672,0.2529042202183227,-1.3354424238204956,-2.5545011959471644,-5.938048903142111,2.2865352630615234,-0.032035645097494125,-0.015502777881920338,0.03460998460650444,0.13389909267425537,-0.009257880970835686,-0.23662205040454865,-0.3967874348163605,-1.7697750329971313,-0.04715054854750633,0.6807141304016113,-0.4943980276584625,-0.28320345282554626
1749030791.5864494,0.6971844434738159,0.2528456884571533,-1.3353548049926758,-2.55426087001943,-5.9380210677730005,2.286043882369995,-0.033462509512901306,-0.01653933711349964,0.035948995500802994,0.13566796481609344,-0.009240944869816303,-0.233906552195549,-0.3723665773868561,-1.7548301219940186,-0.06861045956611633,0.6830419301986694,-0.4931444227695465,-0.29547443985939026
1749030791.5864875,0.6971785426139832,0.2527819114872436,-1.335310697555542,-2.5539585552611292,-5.938057068978445,2.2855350971221924,-0.03430764377117157,-0.016233934089541435,0.035927921533584595,0.1369275450706482,-0.009520439431071281,-0.2387864589691162,-0.35747507214546204,-1.7718784809112549,-0.06741626560688019,0.7007553577423096,-0.4981748163700104,-0.32636457681655884
1749030791.5865257,0.6970839500427246,0.2527699905582885,-1.3352352380752563,-2.5536772213377894,-5.938077513371603,2.2850706577301025,-0.033836670219898224,-0.017320772632956505,0.03436453640460968,0.14071565866470337,-0.009496609680354595,-0.2397891879081726,-0.35393112897872925,-1.7501755952835083,-0.06368827819824219,0.6895576119422913,-0.4953794777393341,-0.3250414729118347
1749030791.5865633,0.6969850659370422,0.2527569967457275,-1.335147738456726,-2.5533482036986292,-5.938049797211782,2.2845892906188965,-0.03295532241463661,-0.016206253319978714,0.03498764708638191,0.14285163581371307,-0.009123600088059902,-0.24548962712287903,-0.40070903301239014,-1.761054277420044,-0.03667505457997322,0.687985897064209,-0.5077890753746033,-0.32204920053482056
1749030791.5866015,0.6969373822212219,0.252686544055603,-1.3350756168365479,-2.553098817864889,-5.93805438676943,2.2841174602508545,-0.03396184369921684,-0.016808731481432915,0.03600667789578438,0.14955377578735352,-0.009180013090372086,-0.2479047179222107,-0.372220903635025,-1.7480475902557373,-0.058875493705272675,0.6454029083251953,-0.5049245357513428,-0.3215361535549164
1749030791.5866394,0.6968464255332947,0.25265078126873775,-1.3350006341934204,-2.552781721154684,-5.938094023858206,2.2836287021636963,-0.03529689460992813,-0.016335710883140564,0.03609896078705788,0.14920364320278168,-0.009556367993354797,-0.25057074427604675,-0.371492475271225,-1.7858365774154663,-0.04796506464481354,0.6520329713821411,-0.5131865739822388,-0.2865593731403351
1749030791.5866773,0.6967825889587402,0.25263528406109614,-1.3349446058273315,-2.5524713001646937,-5.93811816373934,2.283099889755249,-0.03595992177724838,-0.016252564266324043,0.037300851196050644,0.14798367023468018,-0.009515884332358837,-0.2554882764816284,-0.360682874917984,-1.7929133176803589,-0.07724010944366455,0.6294353008270264,-0.4957132935523987,-0.2933892607688904
1749030791.5867145,0.696706235408783,0.2526015478321533,-1.334883213043213,-2.552157064477438,-5.938187901173727,2.2826080322265625,-0.03525596484541893,-0.017535289749503136,0.037286240607500076,0.15357603132724762,-0.008597888983786106,-0.2555680572986603,-0.37603601813316345,-1.7518036365509033,-0.08309289067983627,0.6174933314323425,-0.5077513456344604,-0.2972172796726227
1749030791.586752,0.6966776847839355,0.2525232273289184,-1.3348041772842407,-2.5518623791136683,-5.938172076140539,2.282072067260742,-0.034987229853868484,-0.01716114766895771,0.03456530347466469,0.1486196666955948,-0.008410048671066761,-0.25886452198028564,-0.353534072637558,-1.7708715200424194,-0.04804645851254463,0.6474097371101379,-0.5129571557044983,-0.2848815321922302
1749030791.5867896,0.6965522766113281,0.2525269228168945,-1.334731936454773,-2.5515366993346156,-5.938209418450491,2.2815277576446533,-0.03540840372443199,-0.01732252910733223,0.03534003347158432,0.14777205884456635,-0.008232466876506805,-0.26107192039489746,-0.3668394982814789,-1.7720979452133179,-0.03309692442417145,0.6358087658882141,-0.5034136176109314,-0.28845882415771484
1749030791.5868266,0.6965080499649048,0.25247566282238765,-1.3346325159072876,-2.551283975640768,-5.938209358845846,2.2810263633728027,-0.03632606565952301,-0.016758417710661888,0.037469275295734406,0.14737249910831451,-0.008458760567009449,-0.26142555475234985,-0.3538376986980438,-1.8060239553451538,-0.06508650630712509,0.6351868510246277,-0.49989375472068787,-0.30075132846832275
1749030791.586863,0.6964622139930725,0.252514048213623,-1.3345575332641602,-2.5509516201415003,-5.938232217227117,2.280461549758911,-0.036723654717206955,-0.017161713913083076,0.03820488601922989,0.14567606151103973,-0.010224864818155766,-0.26063472032546997,-0.3723154366016388,-1.7698283195495605,-0.0745914876461029,0.653841495513916,-0.5095248818397522,-0.28604188561439514
1749030791.5869005,0.6963520646095276,0.25242285310711665,-1.3345171213150024,-2.5506493053831996,-5.93825272122492,2.279937982559204,-0.037125591188669205,-0.017953934147953987,0.03786299005150795,0.14943233132362366,-0.011321453377604485,-0.26011642813682556,-0.3688591420650482,-1.7780745029449463,-0.059602219611406326,0.6863902807235718,-0.496369332075119,-0.28871214389801025
1749030791.5869372,0.6962906122207642,0.2523870903202514,-1.3344212770462036,-2.5503698788084925,-5.938222173844473,2.27945613861084,-0.036922696977853775,-0.017595574259757996,0.038387469947338104,0.14842458069324493,-0.010855779983103275,-0.2630349397659302,-0.3796825110912323,-1.7876622676849365,-0.06832701712846756,0.6694464087486267,-0.486187219619751,-0.3234257698059082
1749030791.5869744,0.6962506771087646,0.2523788648792724,-1.334349274635315,-2.550056119958395,-5.938304130231039,2.2788920402526855,-0.038380980491638184,-0.01696920394897461,0.03889404982328415,0.15004095435142517,-0.011120772920548916,-0.2624821364879608,-0.38199716806411743,-1.7814881801605225,-0.07306063920259476,0.6876439452171326,-0.47323691844940186,-0.29778701066970825
1749030791.587011,0.6960899829864502,0.2523466783710937,-1.3342771530151367,-2.5497523746886195,-5.938277725373403,2.2783944606781006,-0.03898198902606964,-0.018435366451740265,0.038696419447660446,0.1570616066455841,-0.012147050350904465,-0.2665127217769623,-0.3463420867919922,-1.811002254486084,-0.07028623670339584,0.6481138467788696,-0.4747309684753418,-0.30251991748809814
1749030791.587137,0.6960530877113342,0.25229541837658687,-1.3341938257217407,-2.5494076214232386,-5.938355777655737,2.2778432369232178,-0.038206931203603745,-0.018925102427601814,0.03875363990664482,0.15772713720798492,-0.01165428850799799,-0.2700137495994568,-0.3531985282897949,-1.798162817955017,-0.06198287382721901,0.6625627875328064,-0.4838104844093323,-0.29454052448272705
1749030791.589098,0.696007251739502,0.25227467596020503,-1.3341251611709595,-2.549112459222311,-5.938337508832113,2.27729868888855,-0.03648040443658829,-0.01843169890344143,0.03888605907559395,0.1608411818742752,-0.010091020725667477,-0.27255985140800476,-0.3747403025627136,-1.803733468055725,-0.0673697218298912,0.6266703009605408,-0.48979490995407104,-0.2882160246372223
1749030791.6302958,0.6959010362625122,0.2522316414066772,-1.3340692520141602,-2.548774858514303,-5.938384477292196,2.276726722717285,-0.03828393295407295,-0.018338801339268684,0.03920483961701393,0.16188578307628632,-0.008615812286734581,-0.2751122713088989,-0.3656659722328186,-1.809785008430481,-0.06498411297798157,0.625639021396637,-0.49330079555511475,-0.27183061838150024
1749030791.6303444,0.6958256959915161,0.2521633344837646,-1.333978295326233,-2.5484796963133753,-5.9383772055255335,2.2761662006378174,-0.037726107984781265,-0.018295755609869957,0.03946336731314659,0.1623203605413437,-0.007801265921443701,-0.27713659405708313,-0.36291348934173584,-1.7926230430603027,-0.07318274676799774,0.5961189866065979,-0.496542364358902,-0.266521155834198
1749030791.6303852,0.6957613229751587,0.2521669107624511,-1.3338788747787476,-2.548126359979147,-5.938424144183294,2.2756402492523193,-0.03876368701457977,-0.018640361726284027,0.03973100334405899,0.16015730798244476,-0.008089646697044373,-0.27581068873405457,-0.35933011770248413,-1.8309006690979004,-0.07226981222629547,0.6388331055641174,-0.514136791229248,-0.3014466166496277
1749030791.630424,0.6957158446311951,0.2520802456089477,-1.333825945854187,-2.5478230915465296,-5.938385728989736,2.275080442428589,-0.03887144476175308,-0.018723636865615845,0.04041443392634392,0.15997087955474854,-0.009376655332744122,-0.27846699953079224,-0.33813875913619995,-1.8057024478912354,-0.08643045276403427,0.6554921269416809,-0.5001670122146606,-0.2823699712753296
1749030791.6304631,0.6955950856208801,0.2520720201679687,-1.3337270021438599,-2.5474888286986292,-5.938437287007467,2.27451753616333,-0.036409713327884674,-0.018740547820925713,0.04126398265361786,0.15996016561985016,-0.010834879241883755,-0.2824428081512451,-0.36036691069602966,-1.8184953927993774,-0.08275825530290604,0.6451025009155273,-0.4875117242336273,-0.28678300976753235
1749030791.6305013,0.6955373883247375,0.2520161110111694,-1.333635687828064,-2.547190328637594,-5.93844193616976,2.2739715576171875,-0.03597090393304825,-0.020140429958701134,0.04093289002776146,0.16030056774616241,-0.011196086183190346,-0.28483811020851135,-0.39119017124176025,-1.796388030052185,-0.08302873373031616,0.6547871828079224,-0.4816857576370239,-0.2590070366859436
1749030791.630539,0.6954771876335144,0.25197307645764155,-1.3335590362548828,-2.546833654443258,-5.938469354306356,2.2734107971191406,-0.03781365603208542,-0.02000284194946289,0.04050751402974129,0.16326820850372314,-0.011000996455550194,-0.28620612621307373,-0.38004058599472046,-1.81492018699646,-0.07449940592050552,0.6747801899909973,-0.46121227741241455,-0.27603644132614136
1749030791.6305773,0.6953782439231873,0.25197569906201167,-1.3334524631500244,-2.546511312524313,-5.938528541718618,2.272840738296509,-0.03854082152247429,-0.019742127507925034,0.04258138686418533,0.16633522510528564,-0.010633531957864761,-0.2844677269458771,-0.3867936432361603,-1.8144867420196533,-0.08779066056013107,0.6717336177825928,-0.4679315686225891,-0.27602624893188477
1749030791.6306148,0.6952943801879883,0.25192074357952876,-1.3333876132965088,-2.546187540093893,-5.93854079047312,2.272231340408325,-0.03934304788708687,-0.020689696073532104,0.041962992399930954,0.17272819578647614,-0.010746939107775688,-0.2855866551399231,-0.36433693766593933,-1.7973624467849731,-0.11933844536542892,0.6175775527954102,-0.4928339123725891,-0.2513497471809387
1749030791.6306524,0.695214569568634,0.25187258302655025,-1.333316683769226,-2.5458528004088343,-5.938557211552755,2.271618366241455,-0.03887314349412918,-0.02073041722178459,0.038716647773981094,0.17213444411754608,-0.01089346781373024,-0.28775665163993835,-0.3427876830101013,-1.815228819847107,-0.07399183511734009,0.6309009194374084,-0.4689705967903137,-0.29341086745262146
1749030791.6306899,0.6951430439949036,0.25182072698559566,-1.333251714706421,-2.5454756222166957,-5.938605163489477,2.271069288253784,-0.038539767265319824,-0.020920125767588615,0.03983006626367569,0.174098402261734,-0.010486412793397903,-0.2860713303089142,-0.34360039234161377,-1.7943203449249268,-0.05939570814371109,0.6269494295120239,-0.4744362235069275,-0.2915703058242798
1749030791.6307268,0.6950745582580566,0.25180427610363765,-1.3331643342971802,-2.545145174066061,-5.9386246542083185,2.2704455852508545,-0.039872415363788605,-0.02120143361389637,0.040744390338659286,0.17399726808071136,-0.01014569029211998,-0.28900811076164246,-0.3621509373188019,-1.7982044219970703,-0.06811141967773438,0.6003624200820923,-0.45001286268234253,-0.3041609525680542
1749030791.6307638,0.6949906349182129,0.25176016866650386,-1.3330614566802979,-2.544814249078268,-5.938652102147238,2.269888401031494,-0.039728231728076935,-0.021673360839486122,0.041793305426836014,0.1730448454618454,-0.009270801208913326,-0.2939940392971039,-0.33358287811279297,-1.8179471492767334,-0.06151691824197769,0.606634259223938,-0.46825385093688965,-0.28332018852233887
1749030791.630801,0.6948882341384888,0.25171200811352534,-1.3329845666885376,-2.5444799862303675,-5.93866399327387,2.2693121433258057,-0.03995690494775772,-0.0214934553951025,0.0431203655898571,0.17078948020935059,-0.009424672462046146,-0.2924521863460541,-0.33838123083114624,-1.8121236562728882,-0.09653500467538834,0.6162960529327393,-0.47927403450012207,-0.3010560870170593
1749030791.6308382,0.6948232650756836,0.2516499000736694,-1.3329200744628906,-2.5441299877562464,-5.9386798481093805,2.268733501434326,-0.03977307304739952,-0.022297823801636696,0.04055387154221535,0.16923467814922333,-0.01009235717356205,-0.2953091263771057,-0.3516709506511688,-1.805142879486084,-0.08041966706514359,0.6519774794578552,-0.46572619676589966,-0.29416564106941223
1749030791.6308756,0.6947011947631836,0.2516130644031982,-1.3327945470809937,-2.5437923870482386,-5.938654337321417,2.268141746520996,-0.03937220945954323,-0.02208063192665577,0.04121755063533783,0.16870585083961487,-0.010661371052265167,-0.29996830224990845,-0.39549028873443604,-1.7882505655288696,-0.0583372563123703,0.6910296082496643,-0.463811993598938,-0.3093055486679077
1749030791.6309125,0.694683313369751,0.25157730161633296,-1.3327295780181885,-2.5434771976866664,-5.938693676386968,2.2675373554229736,-0.03984299302101135,-0.022452566772699356,0.04291684553027153,0.1737949103116989,-0.0106419762596488,-0.3055874705314636,-0.3612093925476074,-1.7839468717575073,-0.0709923654794693,0.6556384563446045,-0.45483988523483276,-0.28924864530563354
1749030791.63095,0.6945542693138123,0.2515372472950439,-1.3326493501663208,-2.5430852375426234,-5.938700977955953,2.266880989074707,-0.03957875818014145,-0.02261424995958805,0.04290295019745827,0.1733744740486145,-0.009917139075696468,-0.3093154728412628,-0.3745383620262146,-1.7641291618347168,-0.09364053606987,0.6687601804733276,-0.44740837812423706,-0.23447811603546143
1749030791.6309874,0.6945242881774902,0.25148503362622066,-1.3325806856155396,-2.542758127252096,-5.938740615044729,2.266303539276123,-0.03991127014160156,-0.021937407553195953,0.041804153472185135,0.18041391670703888,-0.008645043708384037,-0.3086899518966675,-0.3785116672515869,-1.7803192138671875,-0.06606069207191467,0.6644358038902283,-0.4593126177787781,-0.2575855851173401
1749030791.6310337,0.6944094300270081,0.25143782674755855,-1.332493782043457,-2.54240145305776,-5.938721392546789,2.2656280994415283,-0.04147954657673836,-0.022523870691657066,0.041879862546920776,0.18197377026081085,-0.008406318724155426,-0.30745571851730347,-0.36391353607177734,-1.7865194082260132,-0.07842815667390823,0.6358556747436523,-0.4626613259315491,-0.24908509850502014
1749030791.631168,0.6943379640579224,0.2514057594486694,-1.3324259519577026,-2.542009492913717,-5.938799504433767,2.264983654022217,-0.04160498082637787,-0.023702623322606087,0.04186582937836647,0.1853954941034317,-0.008850782178342342,-0.30112993717193604,-0.3390749394893646,-1.7782704830169678,-0.06078843027353287,0.6259958148002625,-0.4707256555557251,-0.28419139981269836
1749030791.6331553,0.6942659616470337,0.2513456779667358,-1.3323187828063965,-2.5416470966734828,-5.938815687094824,2.264418601989746,-0.04192827641963959,-0.023769885301589966,0.042628269642591476,0.1858876645565033,-0.009350724518299103,-0.30306974053382874,-0.3753446042537689,-1.774526834487915,-0.06535783410072327,0.5873127579689026,-0.46537262201309204,-0.3011852204799652
1749030791.6742818,0.6941818594932556,0.2512860733219604,-1.3322545289993286,-2.5413085422911585,-5.9387972990619105,2.2638559341430664,-0.041961416602134705,-0.02378554828464985,0.04279975965619087,0.18443123996257782,-0.009658544324338436,-0.3066595494747162,-0.37114694714546204,-1.7786527872085571,-0.04831467568874359,0.6167797446250916,-0.44733619689941406,-0.3249395787715912
1749030791.674328,0.6940984725952148,0.2512771326252441,-1.3321861028671265,-2.5409165821471156,-5.9388092199908655,2.2632157802581787,-0.04326656460762024,-0.02413034439086914,0.04279718175530434,0.18395057320594788,-0.009220856241881847,-0.30633291602134705,-0.3453238010406494,-1.7629491090774536,-0.05954977869987488,0.5954824090003967,-0.4761940538883209,-0.30868467688560486
1749030791.674369,0.6940145492553711,0.25120262681927485,-1.3320837020874023,-2.540550848046774,-5.938805584107534,2.2625367641448975,-0.04247305169701576,-0.024725336581468582,0.04371102899312973,0.18219877779483795,-0.008979099802672863,-0.30854150652885437,-0.36187708377838135,-1.7418603897094727,-0.058127909898757935,0.624424159526825,-0.48121973872184753,-0.3084258437156677
1749030791.674408,0.6939354538917542,0.25114624082531734,-1.3320032358169556,-2.5401698551573695,-5.938813809548513,2.261888265609741,-0.043189194053411484,-0.024165116250514984,0.043731700628995895,0.1819664090871811,-0.0091570895165205,-0.31181028485298157,-0.37690469622612,-1.7303470373153687,-0.062492989003658295,0.6294424533843994,-0.48616430163383484,-0.31742745637893677
1749030791.6744463,0.6938788294792175,0.2511104780384521,-1.3319073915481567,-2.5398198566832484,-5.938869092856542,2.261263132095337,-0.04275994375348091,-0.023406127467751503,0.04463193565607071,0.18260087072849274,-0.010402174666523933,-0.31070756912231445,-0.3682270646095276,-1.756640911102295,-0.07127507776021957,0.6507216095924377,-0.4911670982837677,-0.3406805992126465
1749030791.6744852,0.6937596797943115,0.25104300558056636,-1.3318045139312744,-2.5394584141173304,-5.938880983983175,2.2606732845306396,-0.04335274174809456,-0.023378819227218628,0.0450807623565197,0.18936051428318024,-0.012222357094287872,-0.31851714849472046,-0.36873528361320496,-1.7492281198501587,-0.07244075834751129,0.6324104070663452,-0.4605846107006073,-0.3310379981994629
1749030791.6745236,0.693679928779602,0.25101391851391597,-1.3317395448684692,-2.53903927425527,-5.9389133791076105,2.2600131034851074,-0.04354008659720421,-0.02416100539267063,0.04528353363275528,0.18996547162532806,-0.013095777481794357,-0.3251676559448242,-0.35481512546539307,-1.7629649639129639,-0.06707310676574707,0.6065099835395813,-0.46271827816963196,-0.28456243872642517
1749030791.6745617,0.693679928779602,0.25101391851391597,-1.3317395448684692,-2.53903927425527,-5.9389133791076105,2.2600131034851074,-0.04354008659720421,-0.02416100539267063,0.04528353363275528,0.18996547162532806,-0.013095777481794357,-0.3251676559448242,-0.35481512546539307,-1.7629649639129639,-0.06707310676574707,0.6065099835395813,-0.46271827816963196,-0.28456243872642517
1749030791.6745996,0.6935399174690247,0.2509109216877441,-1.3315602540969849,-2.538295885125631,-5.9389338235007685,2.2586724758148193,-0.043489668518304825,-0.02357839047908783,0.04552600905299187,0.191858172416687,-0.011683151125907898,-0.3262680470943451,-0.378764271736145,-1.7289530038833618,-0.05997980013489723,0.5902401208877563,-0.4647194743156433,-0.24064400792121887
1749030791.674637,0.6934630870819092,0.25087110578503413,-1.3314690589904785,-2.537914892236227,-5.938992623482839,2.2580344676971436,-0.04596685618162155,-0.023327430710196495,0.046267565339803696,0.19140934944152832,-0.011439269408583641,-0.3220255672931671,-0.37935250997543335,-1.7407466173171997,-0.060189176350831985,0.607484757900238,-0.4667983651161194,-0.3223365247249603
1749030791.6746743,0.6932794451713562,0.2508229452320556,-1.3313732147216797,-2.537530561486715,-5.9390395621406,2.2573938369750977,-0.04550662264227867,-0.02364920638501644,0.04539519175887108,0.1901017427444458,-0.011532774195075035,-0.32089319825172424,-0.35355615615844727,-1.747822642326355,-0.05955757200717926,0.6125889420509338,-0.47023969888687134,-0.3424912393093109
1749030791.6747122,0.6932564377784729,0.25077156602825923,-1.3312846422195435,-2.5371490917601527,-5.9390683511840265,2.2566936016082764,-0.04353226348757744,-0.02399594895541668,0.04592353478074074,0.18817059695720673,-0.011757612228393555,-0.3247324526309967,-0.3888263404369354,-1.7397968769073486,-0.049003966152668,0.6087696552276611,-0.4686562418937683,-0.3401476740837097
1749030791.6747494,0.6931310296058655,0.25071506082501216,-1.3311820030212402,-2.5367561779417933,-5.939130787049429,2.255988121032715,-0.04497160390019417,-0.022979557514190674,0.048044025897979736,0.18755243718624115,-0.011901764199137688,-0.32668131589889526,-0.4226224422454834,-1.7686278820037842,-0.06733737140893936,0.6609131693840027,-0.46516191959381104,-0.31873083114624023
1749030791.674786,0.693023145198822,0.2506440120884399,-1.3310863971710205,-2.5364109478392542,-5.939081434403555,2.255307674407959,-0.045316848903894424,-0.022643238306045532,0.04658789560198784,0.19021308422088623,-0.011288055218756199,-0.3275514245033264,-0.3746909499168396,-1.7665590047836304,-0.06686382740736008,0.6366111636161804,-0.4641687870025635,-0.2879961431026459
1749030791.674824,0.6930051445960999,0.2506393629261474,-1.3309868574142456,-2.5360056362547816,-5.939139340315954,2.254725933074951,-0.04753418639302254,-0.022158905863761902,0.045474279671907425,0.19201506674289703,-0.01133493147790432,-0.32830527424812317,-0.34398746490478516,-1.7611963748931885,-0.04394076392054558,0.6584241986274719,-0.45073699951171875,-0.2927064895629883
1749030791.6748614,0.6928503513336182,0.2505798774906616,-1.3309290409088135,-2.5355974636473597,-5.939148549233572,2.254045248031616,-0.04656514897942543,-0.022568633779883385,0.046520814299583435,0.20081400871276855,-0.01193680614233017,-0.32794272899627686,-0.3627053499221802,-1.7751901149749756,-0.0515066422522068,0.6127756834030151,-0.4445958137512207,-0.368665874004364
1749030791.6748981,0.6927704215049744,0.2505323129841308,-1.3308148384094238,-2.535222669641012,-5.939160470162527,2.25335693359375,-0.04536307603120804,-0.02234099805355072,0.04878528416156769,0.20201516151428223,-0.011790440417826176,-0.33637240529060364,-0.3869909644126892,-1.7735748291015625,-0.052540574222803116,0.6167669296264648,-0.4490756392478943,-0.32720693945884705
1749030791.674935,0.6926639676094055,0.2505120474049072,-1.330737829208374,-2.53481449703359,-5.939196471367971,2.252751350402832,-0.047527991235256195,-0.022388460114598274,0.05004468932747841,0.20412379503250122,-0.011675817891955376,-0.34321027994155884,-0.3589118719100952,-1.7935166358947754,-0.09080816060304642,0.5936490297317505,-0.4457619786262512,-0.3091905117034912
1749030791.6749718,0.6925836801528931,0.2504637676426391,-1.3306230306625366,-2.534443517724508,-5.939180914555685,2.2520580291748047,-0.04796002805233002,-0.022127071395516396,0.04687845706939697,0.20244449377059937,-0.011743069626390934,-0.3447451889514923,-0.34951716661453247,-1.7761056423187256,-0.04255618155002594,0.5836310386657715,-0.46591103076934814,-0.27825894951820374
1749030791.6750183,0.692488431930542,0.25041620313610835,-1.3305426836013794,-2.5340196094908656,-5.939228836690084,2.251338243484497,-0.04719385877251625,-0.02204611338675022,0.04777630791068077,0.19941431283950806,-0.011555619537830353,-0.3407959043979645,-0.3550238311290741,-1.777419924736023,-0.04628414660692215,0.5975571870803833,-0.45933234691619873,-0.30476871132850647
1749030791.675137,0.6923890709877014,0.25041524946179194,-1.3304194211959839,-2.53363098720693,-5.93926847377886,2.250650644302368,-0.04760609567165375,-0.02260664850473404,0.04929196834564209,0.19837671518325806,-0.011170444078743458,-0.34090787172317505,-0.3654666543006897,-1.784551739692688,-0.06564901024103165,0.6411941647529602,-0.4543023705482483,-0.3460237979888916
1749030791.677114,0.6923520565032959,0.2503586250492553,-1.330327033996582,-2.533241411248678,-5.939280394707815,2.2499806880950928,-0.04732595756649971,-0.02228674851357937,0.049752723425626755,0.1986621469259262,-0.011271915398538113,-0.3450127840042114,-0.3632352352142334,-1.8012460470199585,-0.05982743203639984,0.6527295112609863,-0.46835893392562866,-0.3524053692817688
1749030791.7183275,0.6922447681427002,0.25023357450451655,-1.3302192687988281,-2.5328246555724085,-5.939273152743475,2.2493042945861816,-0.047567348927259445,-0.02237478643655777,0.05149195343255997,0.20213155448436737,-0.011907449923455715,-0.3507225215435028,-0.3670385479927063,-1.7881628274917603,-0.08967842161655426,0.6598118543624878,-0.45272958278656006,-0.3138549029827118
1749030791.7183743,0.6921433806419373,0.25025920450176997,-1.3301080465316772,-2.5324069462218226,-5.939301762972967,2.2485790252685547,-0.04826197400689125,-0.022196874022483826,0.04932726174592972,0.20426850020885468,-0.012373345904052258,-0.3534635007381439,-0.3702331483364105,-1.7861108779907227,-0.07896382361650467,0.6523569226264954,-0.4454950988292694,-0.3063291907310486
1749030791.718416,0.6920187473297119,0.25020377218212886,-1.3300050497055054,-2.532005926171774,-5.939344201480047,2.2478580474853516,-0.049054764211177826,-0.022492535412311554,0.048978134989738464,0.20667201280593872,-0.012040487490594387,-0.3546173572540283,-0.3530212342739105,-1.804848074913025,-0.05843684822320938,0.6300474405288696,-0.45287665724754333,-0.3332499563694
1749030791.7184558,0.6919108033180237,0.25015656530346675,-1.3299287557601929,-2.531576772729391,-5.939368251954214,2.247180938720703,-0.04721023887395859,-0.022516295313835144,0.04941071569919586,0.2074316442012787,-0.012066012248396873,-0.35406339168548584,-0.37432020902633667,-1.8175626993179321,-0.0530693382024765,0.606025218963623,-0.43993183970451355,-0.34049350023269653
1749030791.718495,0.69183748960495,0.25009648382153316,-1.3297983407974243,-2.5311600170531214,-5.939443830643789,2.2464635372161865,-0.0485197938978672,-0.022182518616318703,0.04972325265407562,0.20656614005565643,-0.011705745942890644,-0.36026105284690857,-0.3538438081741333,-1.8320626020431519,-0.049005087465047836,0.6031920313835144,-0.44735410809516907,-0.33035361766815186
1749030791.718535,0.6917577385902405,0.25004152833905025,-1.3297216892242432,-2.53076233486318,-5.939416084681646,2.2457194328308105,-0.048279233276844025,-0.02204650081694126,0.04976867884397507,0.20618049800395966,-0.011039989069104195,-0.3645527958869934,-0.3660118877887726,-1.8319003582000732,-0.06749141961336136,0.6277685761451721,-0.4556007385253906,-0.3090828061103821
1749030791.718574,0.6916167140007019,0.250028057689331,-1.3296167850494385,-2.5303226910033167,-5.939408842717306,2.2450270652770996,-0.052140768617391586,-0.022261690348386765,0.050692010670900345,0.20510637760162354,-0.01171361468732357,-0.3660590946674347,-0.34168338775634766,-1.836916446685791,-0.05918703228235245,0.6232911348342896,-0.45613303780555725,-0.26909929513931274
1749030791.7186124,0.691508948802948,0.24995390951123042,-1.3295059204101562,-2.5299211941161097,-5.939491782580511,2.244325637817383,-0.04961301013827324,-0.023372244089841843,0.049519509077072144,0.20274481177330017,-0.012255361303687096,-0.3648175597190857,-0.3602678179740906,-1.8383793830871582,-0.053470779210329056,0.6648330688476562,-0.46890267729759216,-0.30338582396507263
1749030791.7186508,0.6914209127426147,0.24989370882000728,-1.329425573348999,-2.529527803460592,-5.939444873725073,2.2436094284057617,-0.04955214262008667,-0.02348780818283558,0.05232125520706177,0.20948649942874908,-0.013557681813836098,-0.3628320097923279,-0.36840325593948364,-1.8122730255126953,-0.08035629987716675,0.657643735408783,-0.4500249922275543,-0.3439662754535675
1749030791.7186892,0.6913368105888367,0.24985448896374507,-1.3293023109436035,-2.5290733776488246,-5.939536098633901,2.2428455352783203,-0.050791628658771515,-0.0232511255890131,0.051708221435546875,0.20872299373149872,-0.01445898599922657,-0.3658352196216583,-0.355722576379776,-1.8362363576889038,-0.07322515547275543,0.6573017239570618,-0.4472840130329132,-0.321699857711792
1749030791.718727,0.6912241578102112,0.24981789171185298,-1.3292064666748047,-2.5286671123900355,-5.939540688191549,2.242131233215332,-0.05075687915086746,-0.023536760360002518,0.05006714537739754,0.21645402908325195,-0.013542248867452145,-0.36788949370384216,-0.3421868085861206,-1.8328264951705933,-0.0453052781522274,0.6408771872520447,-0.47480425238609314,-0.32988932728767395
1749030791.718765,0.6911400556564331,0.24974362432446284,-1.3291149139404297,-2.5281950436034144,-5.9395684639560145,2.2414133548736572,-0.050521690398454666,-0.02419409155845642,0.05076779052615166,0.2152850478887558,-0.012755083851516247,-0.36715906858444214,-0.34303387999534607,-1.825913906097412,-0.05512457340955734,0.6183966398239136,-0.46052566170692444,-0.35874924063682556
1749030791.7188025,0.6910512447357178,0.24973003446545405,-1.3290226459503174,-2.5277816257872523,-5.939573053513662,2.2406716346740723,-0.05031275004148483,-0.02490660734474659,0.05228389427065849,0.2148561328649521,-0.01196892186999321,-0.3692671060562134,-0.36118242144584656,-1.8342229127883911,-0.04744349420070648,0.6388664245605469,-0.45489341020584106,-0.34591373801231384
1749030791.71884,0.6909251809120178,0.2496616083332519,-1.3289111852645874,-2.5273801289000453,-5.9396322707282465,2.2399067878723145,-0.050831329077482224,-0.02553662844002247,0.05291631072759628,0.21230871975421906,-0.012280555441975594,-0.37552037835121155,-0.3333801031112671,-1.8233078718185425,-0.0781002789735794,0.6443987488746643,-0.469181090593338,-0.33808571100234985
1749030791.7188768,0.6907935738563538,0.24962691842999263,-1.3288427591323853,-2.5269357166686,-5.939602021371023,2.2391304969787598,-0.05093977600336075,-0.025042418390512466,0.049931760877370834,0.21071481704711914,-0.012666954658925533,-0.38092562556266785,-0.35375839471817017,-1.8389573097229004,-0.041726160794496536,0.6745898127555847,-0.45634323358535767,-0.30542367696762085
1749030791.7189143,0.6906942129135132,0.24954299509014888,-1.3287076950073242,-2.526491781274313,-5.939706567917959,2.238408088684082,-0.05092991515994072,-0.025378184393048286,0.052059512585401535,0.21091201901435852,-0.012652257457375526,-0.3820931911468506,-0.36774930357933044,-1.8347100019454956,-0.02438170090317726,0.7012931108474731,-0.47079744935035706,-0.29261070489883423
1749030791.7189512,0.6906177401542664,0.2494836288639526,-1.3286151885986328,-2.52606262783193,-5.939727101718084,2.23759126663208,-0.051409561187028885,-0.02521861158311367,0.05385379120707512,0.212190642952919,-0.01333747897297144,-0.3802995979785919,-0.3455857038497925,-1.8141660690307617,-0.06258110702037811,0.7128876447677612,-0.4648442566394806,-0.2906033992767334
1749030791.7189887,0.6904596090316772,0.24946634351696773,-1.3284884691238403,-2.525637289086813,-5.939736221228735,2.2369000911712646,-0.050830282270908356,-0.025726456195116043,0.054131243377923965,0.21802648901939392,-0.013943598605692387,-0.37845826148986816,-0.34612804651260376,-1.8203774690628052,-0.08033554255962372,0.6764448285102844,-0.4460636377334595,-0.32348817586898804
1749030791.7190373,0.6903917789459229,0.24941925584759517,-1.328399896621704,-2.5251885853209437,-5.939732615147726,2.236128568649292,-0.049973491579294205,-0.026125803589820862,0.05424772575497627,0.21895632147789001,-0.01375986821949482,-0.38005945086479187,-0.3586100935935974,-1.803324818611145,-0.0811808854341507,0.6741091012954712,-0.4425220489501953,-0.3213576674461365
