nimar13/UR3e_dataset_trayectorias/trayectorias_ejecutadas/jtraj/trayectoria_021_result.csv
timestamp,q1,q2,q3,q4,q5,q6,qd1,qd2,qd3,qd4,qd5,qd6,tau1,tau2,tau3,tau4,tau5,tau6
1749025300.0342617,2.957289934158325,-0.2587655347636719,-1.5219614505767822,-0.12925787389788823,-5.322356347237722,3.6874492168426514,0.011834523640573025,0.003930076025426388,-0.0006642999360337853,0.0007963022217154503,-0.010347184725105762,0.013948784209787846,0.22578579187393188,-0.9109345078468323,-0.06810234487056732,-0.10701681673526764,0.02012018859386444,0.12396370619535446
1749025300.0343084,2.9573092460632324,-0.25878174722705083,-1.521949052810669,-0.129230336552002,-5.322392586861746,3.6874499320983887,0.010759535245597363,0.002184618264436722,-0.0006082704639993608,0.0008382617379538715,-0.008974573574960232,0.011990025639533997,0.18570387363433838,-0.9264394640922546,-0.06697417795658112,-0.11641468107700348,0.050230711698532104,0.11224308609962463
1749025300.0343485,2.957371711730957,-0.25881655633959966,-1.5219452381134033,-0.12921173990283208,-5.3223623077022,3.687485456466675,0.009143841452896595,0.0011669702362269163,-0.0005268891109153628,0.0009468053467571735,-0.0071485587395727634,0.010397974401712418,0.20858773589134216,-0.9090242981910706,-0.07204962521791458,-0.11977070569992065,0.07530687749385834,0.1157759428024292
1749025300.0343869,2.95735239982605,-0.25876934946093755,-1.5219335556030273,-0.12919612348590093,-5.3223817388163965,3.687486410140991,0.0073368726298213005,0.0008734032162465155,-0.0004575180646497756,0.0010041989153251052,-0.004342761822044849,0.009208965115249157,0.14838318526744843,-0.9671552777290344,-0.07179214805364609,-0.0943656861782074,0.06995010375976562,0.10097366571426392
1749025300.034425,2.9573535919189453,-0.25876934946093755,-1.5219407081604004,-0.12920279920611577,-5.322435800229208,3.6874828338623047,0.004147193394601345,0.0007024669321253896,-0.0004247031465638429,0.0011034698691219091,-0.002479495946317911,0.007231148891150951,0.14223724603652954,-0.9694192409515381,-0.060482271015644073,-0.1146165281534195,0.09809783101081848,0.06876231729984283
1749025300.0344708,2.9573259353637695,-0.25876934946093755,-1.5219252109527588,-0.12919099748645024,-5.3224127928363245,3.6874947547912598,0.0017738970927894115,0.0004424308135639876,-0.00039774589822627604,0.0013159706722944975,-0.0015534155536442995,0.004547732416540384,0.14976812899112701,-0.9844238758087158,-0.06353913247585297,-0.12775586545467377,0.11896979808807373,0.09107702970504761
1749025300.03452,2.957329511642456,-0.25878174722705083,-1.5219371318817139,-0.12919433534655766,-5.322419945393698,3.6875293254852295,-0.00048327603144571185,-0.000405946426326409,-0.0003740411775652319,0.0013466785894706845,-0.0011307165259495378,0.002194915432482958,0.14624974131584167,-0.9980891942977905,-0.061289362609386444,-0.11620509624481201,0.12484726309776306,0.06763117015361786
1749025300.034559,2.957376718521118,-0.25878174722705083,-1.5219444036483765,-0.1292218726924439,-5.322400871907369,3.687501907348633,-0.001375094405375421,-0.0005315814632922411,-0.0003531061520334333,0.001322521478869021,-0.0007735674735158682,3.385765012353659e-05,0.1536148637533188,-1.0338605642318726,-0.06896041333675385,-0.140767902135849,0.1461794376373291,0.06912198662757874
1749025300.034601,2.957369327545166,-0.25877447546038823,-1.5219563245773315,-0.12920279920611577,-5.32235020795931,3.6875293254852295,-0.0026691886596381664,-0.0012814188376069069,-0.0003344173892401159,0.0012737486977130175,-0.0005243655759841204,-0.0010961079970002174,0.11748512834310532,-1.029956579208374,-0.05421483516693115,-0.1324223428964615,0.17072206735610962,0.057047534734010696
1749025300.0346396,2.9573020935058594,-0.25878556192431645,-1.52194082736969,-0.1292129319957276,-5.322428647671835,3.6874899864196777,-0.002574977930635214,-0.0016044911462813616,-0.0003174595767632127,0.001082675182260573,1.4847374586679507e-05,-0.0024514449760317802,0.10458185523748398,-1.0510503053665161,-0.06691072136163712,-0.14059226214885712,0.17969179153442383,0.03761335089802742
1749025300.0346775,2.9573452472686768,-0.2587619584849854,-1.5219407081604004,-0.12919099748645024,-5.322416428719656,3.687467098236084,-0.002464832039549947,-0.0015066358027979732,-0.00030231018899939954,0.000909917987883091,0.00036591500975191593,-0.003284821519628167,0.08657289296388626,-1.0715620517730713,-0.06887263059616089,-0.12735137343406677,0.19639134407043457,0.024925652891397476
1749025300.0347152,2.957305669784546,-0.25878174722705083,-1.521949052810669,-0.12920959413562016,-5.322400871907369,3.687486410140991,-0.0030465133022516966,-0.0018534770933911204,-0.00028846951317973435,0.0008503473945893347,0.0009172933641821146,-0.0038271888624876738,0.05350721627473831,-1.0850356817245483,-0.06691514700651169,-0.1284489631652832,0.1948952078819275,0.03099457547068596
1749025300.0347528,2.9573211669921875,-0.2588091653636475,-1.5219652652740479,-0.12920625627551274,-5.322411779557363,3.687474489212036,-0.0047068423591554165,-0.0028714362997561693,-0.00027576173306442797,0.0007836516015231609,0.00162012770306319,-0.003998978529125452,0.052252545952796936,-1.0783385038375854,-0.0643993690609932,-0.1460106074810028,0.20490388572216034,0.02232791855931282
1749025300.0347893,2.9573440551757812,-0.258797363643982,-1.5219652652740479,-0.12920625627551274,-5.322369519864218,3.6874661445617676,-0.0054963636212050915,-0.00457371911033988,-0.0002642228500917554,0.0007028497639112175,0.0018963825423270464,-0.004326471593230963,0.06361058354377747,-1.093919277191162,-0.06581683456897736,-0.14196452498435974,0.21955044567584991,0.007342863827943802
1749025300.0348265,2.9573044776916504,-0.25882478178057866,-1.5219452381134033,-0.12920279920611577,-5.322365943585531,3.6874308586120605,-0.005384005140513182,-0.004796901252120733,-0.0002535868261475116,0.0006331814220175147,0.0021964353509247303,-0.005331001244485378,0.07615801692008972,-1.0974615812301636,-0.06578858196735382,-0.13157761096954346,0.21421559154987335,0.0002570822834968567
1749025300.0348628,2.9572501182556152,-0.2588331264308472,-1.521949052810669,-0.1292218726924439,-5.322345439587728,3.6874892711639404,-0.0048722559586167336,-0.004891139920800924,-0.00024377554655075073,0.000575363403186202,0.003532066009938717,-0.005000697914510965,0.05744723603129387,-1.1194456815719604,-0.05932655185461044,-0.14509649574756622,0.21438749134540558,0.005469299852848053
1749025300.0348997,2.9572970867156982,-0.2588486236384888,-1.5219652652740479,-0.12920279920611577,-5.322357300912039,3.6874537467956543,-0.0047275349497795105,-0.004871355835348368,-0.0002346978581044823,0.0005270927795208991,0.0037670424208045006,-0.004510158207267523,0.050264544785022736,-1.1071280241012573,-0.06077226623892784,-0.12217503786087036,0.23866386711597443,0.013651318848133087
1749025300.0349367,2.957273244857788,-0.258830265407898,-1.5219452381134033,-0.12921841562304692,-5.322337214146749,3.6874263286590576,-0.004338028375059366,-0.004447066690772772,-0.0002262608613818884,0.00048631909885443747,0.0033787002321332693,-0.004055363591760397,0.03681281954050064,-1.127186894416809,-0.06186295673251152,-0.1376798450946808,0.21715833246707916,0.0025340616703033447
1749025300.034973,2.9572925567626953,-0.2588651937297364,-1.5219652652740479,-0.1292218726924439,-5.322290305291311,3.6873958110809326,-0.004024384077638388,-0.004576242063194513,-0.00021839261171407998,0.00045139974099583924,0.0026068435981869698,-0.0039429860189557076,0.035934679210186005,-1.1338390111923218,-0.06356722116470337,-0.13430601358413696,0.24253441393375397,-0.00847046822309494
1749025300.0350094,2.957226276397705,-0.2588886779597779,-1.5219526290893555,-0.12923367441210942,-5.322298590336935,3.6874334812164307,-0.004310349468141794,-0.004107312764972448,-0.0002110940549755469,0.00042115661199204624,0.0021148277446627617,-0.003901630872860551,0.01404968649148941,-1.1209183931350708,-0.08223219960927963,-0.13037440180778503,0.22738029062747955,-0.0003909692168235779
1749025300.035117,2.9572646617889404,-0.2588496965220948,-1.5219335556030273,-0.12920279920611577,-5.322325293217794,3.6874489784240723,-0.004630722105503082,-0.0038123715203255415,-0.00020425068214535713,0.00039473423385061324,0.0018444705056026578,-0.00383104314096272,0.06277080625295639,-1.1112338304519653,-0.08444912731647491,-0.12947054207324982,0.24687306582927704,-0.012169793248176575
1749025300.0365689,2.957209587097168,-0.2588814061931153,-1.5219526290893555,-0.12921841562304692,-5.322285715733663,3.687387466430664,-0.004061245825141668,-0.002819204004481435,-0.00019781755690928549,0.0003714310296345502,0.001654321444220841,-0.0038778604939579964,0.043681152164936066,-1.1124595403671265,-0.0864705741405487,-0.12273617088794708,0.23626361787319183,-0.0060762278735637665
1749025300.0783033,2.9572060108184814,-0.25888951242480474,-1.5219652652740479,-0.1292150777629395,-5.322337214146749,3.6873910427093506,-0.0034274712670594454,-0.0025280462577939034,-0.00019181062816642225,0.000391447392757982,0.0015969040105119348,-0.004221148323267698,0.04793112725019455,-1.1295552253723145,-0.07937435060739517,-0.12714937329292297,0.24036504328250885,0.0010209232568740845
1749025300.078349,2.957244396209717,-0.2588849824718018,-1.5219652652740479,-0.12921841562304692,-5.322325293217794,3.6874101161956787,-0.0027702017687261105,-0.0017999393166974187,-0.00019919362966902554,0.00037801364669576287,0.0017796612810343504,-0.00370381074026227,0.016867585480213165,-1.1277432441711426,-0.08644218742847443,-0.12084648013114929,0.22541896998882294,0.013890780508518219
1749025300.078389,2.9571783542633057,-0.25886137903247075,-1.521949052810669,-0.12920279920611577,-5.322325293217794,3.687406539916992,-0.0024817741941660643,-0.001535004354082048,-0.00020572805078700185,0.00036034308141097426,0.0016500713536515832,-0.002974545583128929,0.04888540506362915,-1.1384795904159546,-0.07339700311422348,-0.12522034347057343,0.21742571890354156,0.008884862065315247
1749025300.078427,2.957209587097168,-0.2588849824718018,-1.521949052810669,-0.12921841562304692,-5.322340790425436,3.6873791217803955,-0.0020226999185979366,-0.00137364084366709,-0.00020080638932995498,0.0003433626261539757,0.0013689023908227682,-0.0024365978315472603,0.03001171350479126,-1.1269596815109253,-0.08814752101898193,-0.12062042951583862,0.23453335464000702,-0.005381569266319275
1749025300.0784771,2.9572372436523438,-0.2588969034007569,-1.5219577550888062,-0.12921841562304692,-5.32236355939974,3.6874101161956787,-0.00176224613096565,-0.0011420386144891381,-0.00019540940411388874,0.00032776378793641925,0.0011337174801155925,-0.0018481850856915116,0.038118794560432434,-1.1270216703414917,-0.0870237946510315,-0.12406489253044128,0.22869937121868134,-0.0044980719685554504
1749025300.078527,2.9572010040283203,-0.25889308870349126,-1.5219297409057617,-0.1292371314815064,-5.322278443967001,3.687394618988037,-0.0013493524165824056,-0.0009667327394708991,-0.00019023414643015712,0.00031349092023447156,0.0009611220448277891,-0.0015536282444372773,0.04179166257381439,-1.1288117170333862,-0.0901084616780281,-0.1347300112247467,0.22915516793727875,-0.003536216914653778
1749025300.0785675,2.957197427749634,-0.2588651937297364,-1.5219452381134033,-0.12920625627551274,-5.322301212941305,3.687394618988037,-0.0012383670546114445,-0.0008380272192880511,-0.00018536612333264202,0.0003004004538524896,0.000833106052596122,-0.0014436852652579546,0.03295741230249405,-1.136048436164856,-0.07940562069416046,-0.11598025262355804,0.22609131038188934,-0.009404584765434265
1749025300.0786057,2.957221508026123,-0.2588969034007569,-1.5219452381134033,-0.12920625627551274,-5.322348002587454,3.6873791217803955,-0.0010118475183844566,-0.0007395768188871443,-0.00018070032820105553,0.0002883662818931043,0.0007934136665426195,-0.0012700363295152783,0.03253001719713211,-1.1325689554214478,-0.09688711166381836,-0.11603045463562012,0.23091430962085724,-0.02148691564798355
1749025300.0786428,2.9572131633758545,-0.25887759149584966,-1.5219652652740479,-0.12920625627551274,-5.322316710148947,3.6873629093170166,-0.0008521463605575264,-0.0006618373445235193,-0.00017626237240619957,0.0002486651355866343,0.0007438008906319737,-0.0011650628875941038,0.030738912522792816,-1.1237813234329224,-0.10170483589172363,-0.1295301914215088,0.22297020256519318,0.01134517788887024
1749025300.0786853,2.957209587097168,-0.2588496965220948,-1.521949052810669,-0.12920625627551274,-5.322293941174642,3.687382698059082,-0.0007358980365097523,-0.0005988969933241606,-0.0001720614527584985,0.00019542612426448613,0.0006791651248931885,-0.001110907644033432,0.01332448422908783,-1.1493107080459595,-0.09942448139190674,-0.13021105527877808,0.2344031184911728,0.013039618730545044
1749025300.0787241,2.957197427749634,-0.2588532728007813,-1.5219688415527344,-0.12923367441210942,-5.322375361119406,3.687366485595703,-0.000647513719741255,-0.0005468929884955287,-0.00016805918130557984,0.00018006998288910836,0.0006214354652911425,-0.0010556353954598308,0.04089665412902832,-1.1297754049301147,-0.09094032645225525,-0.12941664457321167,0.23003025352954865,-0.00549287348985672
1749025300.0787609,2.9572060108184814,-0.2588496965220948,-1.521949052810669,-0.12919099748645024,-5.322293941174642,3.687366485595703,-0.0005782056832686067,-0.0005031914333812892,-0.00011556474055396393,0.00017185504839289933,0.0005721138441003859,-0.000963452854193747,0.050375066697597504,-1.125200867652893,-0.11360849440097809,-0.1324707269668579,0.23627372086048126,0.005797978490591049
1749025300.0788014,2.9572408199310303,-0.2588496965220948,-1.5219652652740479,-0.12922521055255132,-5.322313074265615,3.6874136924743652,-0.0005222573527134955,-0.0004659684491343796,-0.00010610447498038411,0.0001890872954390943,0.0005299059557728469,-0.0008570550126023591,0.050599925220012665,-1.1276003122329712,-0.09036113321781158,-0.13829189538955688,0.22330476343631744,0.0034327059984207153
1749025300.0788434,2.957228660583496,-0.2588341993144532,-1.5219614505767822,-0.12919099748645024,-5.322316710148947,3.6873791217803955,-0.0004761511809192598,-0.0004338718135841191,-0.00012249058636371046,0.00018964394985232502,0.000493541534524411,-0.0007668647449463606,0.012315154075622559,-1.1209567785263062,-0.10533596575260162,-0.13341516256332397,0.21878089010715485,0.011121615767478943
1749025300.078882,2.957228660583496,-0.2588651937297364,-1.5219614505767822,-0.12921841562304692,-5.322278443967001,3.687382698059082,-0.0004375881690066308,-0.00040590978460386395,-0.0001497140619903803,0.0001844387297751382,0.0004618357343133539,-0.0006930342060513794,0.03220415860414505,-1.1082344055175781,-0.10724659264087677,-0.14237350225448608,0.23179976642131805,0.020593814551830292
1749025300.0789227,2.957228660583496,-0.2588969034007569,-1.5219614505767822,-0.12920279920611577,-5.322301212941305,3.6873865127563477,-0.0004047798574902117,-0.0003813390212599188,-0.000528428761754185,0.0001785606291377917,0.0004339383449405432,-0.0006320346728898585,0.048254869878292084,-1.0947643518447876,-0.10274213552474976,-0.13995134830474854,0.21778811514377594,0.013449124991893768
1749025300.0789604,2.957216739654541,-0.25887759149584966,-1.5219614505767822,-0.1292218726924439,-5.322302285824911,3.6873629093170166,-0.00037652559694834054,-0.00035957121872343123,-0.0009741352405399084,0.00017288360686507076,0.0004092576855327934,-0.0005808884161524475,0.050575025379657745,-1.0776519775390625,-0.11198320984840393,-0.1256045252084732,0.22149153053760529,0.0008817464113235474
1749025300.0790193,2.9572324752807617,-0.2588814061931153,-1.5219578742980957,-0.12920625627551274,-5.322355274354116,3.687382698059082,-0.0003519988094922155,-0.0003401541034691036,-0.0010533742606639862,0.00016752598457969725,0.0003872258239425719,-0.0005374355241656303,0.034495510160923004,-1.0933674573898315,-0.11340374499559402,-0.13644030690193176,0.21559523046016693,0.010103993117809296
1749025300.0790868,2.9572250843048096,-0.25887759149584966,-1.5219769477844238,-0.12919433534655766,-5.322332564984457,3.687394618988037,-0.00033045545569621027,-0.0003227287670597434,-0.001631636987440288,0.0001624831056687981,0.00036742855445481837,-0.0005000362871214747,0.06148846447467804,-1.0766260623931885,-0.1079699918627739,-0.13492698967456818,0.20727749168872833,0.016033172607421875
1749025300.0791547,2.957221508026123,-0.25887759149584966,-1.5219769477844238,-0.12920959413562016,-5.322332505379812,3.6874020099639893,-0.0003113815328106284,-0.0001180993567686528,-0.0015395059017464519,0.00015773715858813375,0.0003495844139251858,-0.00046750239562243223,0.07073891162872314,-1.063794493675232,-0.10572732985019684,-0.1382918357849121,0.2137233167886734,0.007724840193986893
1749025300.0793564,2.957244634628296,-0.25888951242480474,-1.5219852924346924,-0.1292129319957276,-5.322325293217794,3.687382698059082,-0.0002944164734799415,-9.205505921272561e-05,-0.0014160964637994766,0.0001532594906166196,0.0003333868517074734,-0.000438963616034016,0.07013455033302307,-1.0660914182662964,-0.09663243591785431,-0.14410339295864105,0.2103179544210434,0.013149820268154144
1749025300.0805986,2.957193613052368,-0.25887401521716313,-1.5219733715057373,-0.1292218726924439,-5.322359863911764,3.6873791217803955,-0.0002474727516528219,-8.738996257307008e-05,-0.0011793426238000393,0.00014902728435117751,0.00031861101160757244,-0.0004137088544666767,0.064010851085186,-1.065438151359558,-0.10305744409561157,-0.13097485899925232,0.20984973013401031,0.03462192416191101
1749025300.122279,2.957209587097168,-0.25886137903247075,-1.521988868713379,-0.12920279920611577,-5.322320346032278,3.687394618988037,-0.00022135763720143586,-8.334130689036101e-05,-0.0012028058990836143,0.0001450254349038005,0.00030511015211232007,-0.0003911992534995079,0.07184892147779465,-1.0625189542770386,-0.1227480098605156,-0.1402527242898941,0.21568243205547333,0.016382187604904175
1749025300.1223242,2.957244634628296,-0.2588578027537842,-1.5219817161560059,-0.1292218726924439,-5.322379175816671,3.687366485595703,-0.0001820935431169346,-7.965335680637509e-05,-0.0012331419857218862,0.00014123183791525662,0.0002927008317783475,-0.00037102389615029097,0.09325675666332245,-1.0406039953231812,-0.1305619180202484,-0.12647885084152222,0.21134217083454132,0.012125581502914429
1749025300.1223762,2.957209587097168,-0.25887401521716313,-1.522000789642334,-0.12917907655749516,-5.322318140660421,3.687382698059082,-0.00012231359141878784,-3.936140637961216e-05,-0.001874515670351684,0.00013763010792899877,0.00028125138487666845,-0.00035282690078020096,0.11024941504001617,-1.0345513820648193,-0.13634750247001648,-0.15907138586044312,0.20380263030529022,0.01902037113904953
1749025300.122422,2.957216739654541,-0.2588814061931153,-1.5219972133636475,-0.12920279920611577,-5.322320286427633,3.6873791217803955,0.00019605080888140947,-3.660022048279643e-05,-0.0043296511285007,0.0001342099130852148,0.00027068005874753,-0.0003363276191521436,0.14530937373638153,-1.03719162940979,-0.12425002455711365,-0.15941527485847473,0.19540227949619293,-0.0038695819675922394
1749025300.1224735,2.9572250843048096,-0.25887759149584966,-1.5219972133636475,-0.1292150777629395,-5.322309438382284,3.6873791217803955,0.0034721328411251307,-1.1157146218465641e-05,-0.005535435397177935,0.00013095470785629004,0.000260869535850361,-0.0003213107993360609,0.09010504186153412,-1.0309007167816162,-0.10320061445236206,-0.16760215163230896,0.21812261641025543,0.016040168702602386
1749025300.1225147,2.957209587097168,-0.2588532728007813,-1.522012710571289,-0.12920625627551274,-5.322271231804983,3.6874020099639893,0.004001660738140345,-1.0885587897746518e-07,-0.005035185720771551,0.0001278525305679068,0.00025173675385303795,-0.0003085682983510196,0.15576697885990143,-1.0147987604141235,-0.09025116264820099,-0.15946997702121735,0.21096272766590118,-0.007120288908481598
1749025300.1225524,2.9572877883911133,-0.25887401521716313,-1.5220210552215576,-0.12922521055255132,-5.322320346032278,3.687417507171631,0.002551567042246461,-1.0620639923075714e-09,-0.0041742450557649136,0.0001248958142241463,0.0002432352484902367,-0.0002438712544972077,0.10709396749734879,-1.012560486793518,-0.10363556444644928,-0.18035458028316498,0.22587080299854279,-0.022366009652614594
1749025300.1225939,2.9572646617889404,-0.2589004796794434,-1.5220365524291992,-0.12920959413562016,-5.322309438382284,3.6873910427093506,0.002164263278245926,-1.0362141700248628e-11,-0.003544046077877283,0.0001220723643200472,0.0002352851297473535,-0.0002866526192519814,0.14885106682777405,-1.0092504024505615,-0.09935225546360016,-0.16997209191322327,0.22984667122364044,-0.014622796326875687
1749025300.1226308,2.957249164581299,-0.2588687700084229,-1.5220210552215576,-0.12920625627551274,-5.322305921708242,3.68735933303833,0.0018300677184015512,-1.0109933859048584e-13,-0.0034775002859532833,0.00011937238741666079,0.0002278308675158769,-0.0012288253055885434,0.14391930401325226,-1.0148584842681885,-0.11120031028985977,-0.1729280650615692,0.256150484085083,-0.010269679129123688
1749025300.1226776,2.9572346210479736,-0.2588532728007813,-1.5220290422439575,-0.1292218726924439,-5.322370711957113,3.6873865127563477,0.001373566803522408,-9.863864900992226e-16,-0.0032974283676594496,0.00011679105955408886,0.00017789688718039542,-0.0021976178977638483,0.16431638598442078,-1.022485375404358,-0.11152436584234238,-0.1943775713443756,0.2589198350906372,-0.03134794533252716
1749025300.1227186,2.957249164581299,-0.2588969034007569,-1.5220497846603394,-0.12920279920611577,-5.322316710148947,3.6874020099639893,0.0015215640887618065,-9.623784860272672e-18,-0.0035110965836793184,0.00011431833991082385,0.0001973018515855074,-0.0032192207872867584,0.1671619415283203,-1.022803783416748,-0.11362077295780182,-0.19089090824127197,0.2883144021034241,-0.036210402846336365
1749025300.1227713,2.957226276397705,-0.2588496965220948,-1.5220577716827393,-0.1292371314815064,-5.322358850632803,3.6873619556427,0.0027715410105884075,-9.389548791644187e-20,-0.0032943852711468935,0.0001119471198762767,0.0017628881614655256,-0.003960362635552883,0.21012650430202484,-1.0305284261703491,-0.09882675111293793,-0.20634451508522034,0.3025664687156677,-0.030628440901637077
1749025300.1228096,2.957242012023926,-0.2588849824718018,-1.5220613479614258,-0.12920279920611577,-5.322348062192098,3.6873738765716553,0.004014422185719013,-9.161013167121277e-22,-0.003014850663021207,0.00010967410344164819,0.004769086837768555,-0.0045930747874081135,0.15467864274978638,-1.0270516872406006,-0.10462921112775803,-0.21392065286636353,0.32121217250823975,-0.03406872600317001
1749025300.1228497,2.957273244857788,-0.2588532728007813,-1.5220577716827393,-0.12920959413562016,-5.3222737352000635,3.687330961227417,0.0041244784370064735,-8.938040180756493e-24,-0.00293164374306798,9.71822373685427e-05,0.006708275526762009,-0.004692846443504095,0.21267321705818176,-1.0273699760437012,-0.09414680302143097,-0.21284756064414978,0.3150818347930908,-0.0496809221804142
1749025300.1228924,2.9572887420654297,-0.2588578027537842,-1.522042155265808,-0.12924046934161382,-5.322242085133688,3.6873226165771484,0.00413860846310854,-8.720493075347203e-26,-0.0025812031235545874,8.917079685488716e-05,0.007968764752149582,-0.005534026306122541,0.19275912642478943,-1.0785773992538452,-0.1032685935497284,-0.22786453366279602,0.34606659412384033,-0.05405651032924652
1749025300.1229339,2.9572887420654297,-0.2588969034007569,-1.5220577716827393,-0.12920959413562016,-5.322245721017019,3.6873226165771484,0.004546300508081913,-8.508242345077712e-28,-0.0023314994759857655,7.646650919923559e-05,0.009817021898925304,-0.006434135604649782,0.21465495228767395,-1.0749603509902954,-0.10475067794322968,-0.2418321669101715,0.3728753626346588,-0.04897668957710266
1749025300.122971,2.9572935104370117,-0.2589124006083985,-1.5220541954040527,-0.1291756194880982,-5.322220627461569,3.6872916221618652,0.004848985932767391,-8.301156787992785e-30,-0.001869065803475678,5.9224508731858805e-05,0.013028043322265148,-0.007933435961604118,0.23386162519454956,-1.0815398693084717,-0.0839189887046814,-0.2611735463142395,0.3729659616947174,-0.06312315911054611
1749025300.123008,2.957305669784546,-0.2588568490794678,-1.5220577716827393,-0.1292218726924439,-5.322173778210775,3.687286853790283,0.005312785506248474,-8.099111996127405e-32,-0.0015802287962287664,-5.3385880164569244e-05,0.017440708354115486,-0.009437366388738155,0.21045303344726562,-1.0835107564926147,-0.09497449547052383,-0.26870471239089966,0.38579604029655457,-0.0529886931180954
1749025300.1230443,2.9572935104370117,-0.25890059888873296,-1.5220577716827393,-0.12924046934161382,-5.322179679070608,3.6872551441192627,0.005603025667369366,8.604203321738169e-05,-0.00124550296459347,-0.0009105787030421197,0.02044646628201008,-0.009674664586782455,0.2396933138370514,-1.1009963750839233,-0.09354241192340851,-0.2777426540851593,0.36951887607574463,-0.08327588438987732
1749025300.1230838,2.957336664199829,-0.25884588182482915,-1.522085189819336,-0.12919946134600835,-5.3220862189876,3.687262535095215,0.005319497548043728,-0.0001537287316750735,-0.0010118408827111125,-0.0022881152108311653,0.023420393466949463,-0.010369605384767056,0.2725852429866791,-1.123686671257019,-0.08633343130350113,-0.284498929977417,0.36792832612991333,-0.07793382555246353
1749025300.1231933,2.9573137760162354,-0.25887031972918706,-1.5220732688903809,-0.12924893320117192,-5.322100702916281,3.687235116958618,0.006558533757925034,-0.00021323694090824574,-0.0008519349503330886,-0.0026219026185572147,0.024148454889655113,-0.011116360314190388,0.27528268098831177,-1.1341673135757446,-0.09852373600006104,-0.3013255298137665,0.3509852886199951,-0.09384237229824066
1749025300.1245515,2.957371711730957,-0.25886137903247075,-1.5220541954040527,-0.12924893320117192,-5.322032038365499,3.687223196029663,0.0076823364943265915,-0.00019966029503848404,-0.0007355077541433275,-0.0024256312754005194,0.023001691326498985,-0.012336730025708675,0.2573567032814026,-1.1451938152313232,-0.08173856884241104,-0.30740371346473694,0.3458596467971802,-0.10470229387283325
1749025300.1662903,2.9573416709899902,-0.2588969034007569,-1.522085189819336,-0.1292455953410645,-5.321976963673727,3.6871910095214844,0.007862725295126438,-0.00024725584080442786,-0.0006469046929851174,-0.0025620670057833195,0.021886181086301804,-0.013578325510025024,0.30439138412475586,-1.1441868543624878,-0.0866255983710289,-0.32450351119041443,0.368133008480072,-0.11799919605255127
1749025300.166343,2.9573378562927246,-0.2588814061931153,-1.5220696926116943,-0.129230336552002,-5.321940724049703,3.6871635913848877,0.007894163019955158,-0.0002912257332354784,-0.0005777445039711893,-0.004235454834997654,0.019813578575849533,-0.01475589070469141,0.31622034311294556,-1.1732370853424072,-0.06886475533246994,-0.3297281861305237,0.3639991879463196,-0.09971624612808228
1749025300.1663868,2.957381248474121,-0.2588687700084229,-1.5220577716827393,-0.12926967561755376,-5.3218541781054896,3.6871049404144287,0.009691254235804081,-0.0010038402397185564,-0.0005218370351940393,-0.0057612392120063305,0.01909179985523224,-0.01631266437470913,0.2905089259147644,-1.1593228578567505,-0.060808215290308,-0.3532692790031433,0.3771199584007263,-0.100920170545578
1749025300.1664264,2.9574472904205322,-0.2588814061931153,-1.5220540761947632,-0.12928839147601323,-5.321856443081991,3.687100410461426,0.011838200502097607,-0.001769106020219624,-0.00047567550791427493,-0.007190487813204527,0.02024073712527752,-0.016717787832021713,0.30579978227615356,-1.1751247644424438,-0.07019508630037308,-0.3586030602455139,0.39549505710601807,-0.08130593597888947
1749025300.166465,2.9574124813079834,-0.2588932079127808,-1.5220541954040527,-0.12927825868640141,-5.321824137364523,3.6870291233062744,0.011611674912273884,-0.0022366235498338938,-0.0004372276598587632,-0.008011903613805771,0.020464057102799416,-0.016168229281902313,0.3004831075668335,-1.1853691339492798,-0.05484076961874962,-0.3534277081489563,0.39237213134765625,-0.10044403374195099
1749025300.166508,2.9574832916259766,-0.25887401521716313,-1.522076964378357,-0.12930949152026372,-5.321803871785299,3.6870474815368652,0.012535063549876213,-0.002331777010113001,-0.00040445817285217345,-0.0088857626542449,0.020901864394545555,-0.01497348677366972,0.3414359390735626,-1.2084027528762817,-0.056373231112957,-0.36971861124038696,0.40132254362106323,-0.10671111941337585
1749025300.1665475,2.957465171813965,-0.25887401521716313,-1.522076964378357,-0.12933309495959477,-5.32171351114382,3.6870152950286865,0.012392707169055939,-0.0022654375061392784,-0.0003220272483304143,-0.010781420394778252,0.022513024508953094,-0.014620691537857056,0.31710317730903625,-1.2047127485275269,-0.028735321015119553,-0.3865942060947418,0.3985075354576111,-0.11340411007404327
1749025300.16659,2.9574809074401855,-0.25886137903247075,-1.522021770477295,-0.12934167802844243,-5.321705285702841,3.686964988708496,0.012692779302597046,-0.002361210295930505,-0.00029366466333158314,-0.011264326982200146,0.0232431348413229,-0.014525257982313633,0.32193052768707275,-1.1985962390899658,-0.012734487652778625,-0.37919262051582336,0.4119671583175659,-0.11015510559082031
1749025300.166629,2.9575278759002686,-0.25886674345050054,-1.5220458507537842,-0.12936921537432866,-5.321657363568441,3.6869449615478516,0.013398857787251472,-0.0026581333950161934,-0.00022762753360439092,-0.012206558138132095,0.02509872429072857,-0.0141660301014781,0.3091679513454437,-1.2096176147460938,-0.014105599373579025,-0.3945772349834442,0.41717731952667236,-0.13387545943260193
1749025300.166667,2.9575252532958984,-0.2589014333537598,-1.5220540761947632,-0.12940855443988042,-5.321597341691152,3.6869330406188965,0.01354887243360281,-0.0026394836604595184,-0.00016969454009085894,-0.012511354871094227,0.024904513731598854,-0.013796369545161724,0.322590172290802,-1.2199125289916992,8.99285078048706e-05,-0.39459094405174255,0.4217101037502289,-0.11693534255027771
1749025300.1667082,2.95755672454834,-0.2589206260493775,-1.5220422744750977,-0.12941749513659673,-5.3215840498553675,3.6869356632232666,0.014897778630256653,-0.0032268494833260775,-2.2695949155604467e-05,-0.012643725611269474,0.025661855936050415,-0.014549074694514275,0.31863224506378174,-1.2251403331756592,-0.008364647626876831,-0.4016842544078827,0.43815261125564575,-0.1369449347257614
1749025300.1667466,2.9575576782226562,-0.25888951242480474,-1.5220458507537842,-0.12942250192675786,-5.3215394655810755,3.6868884563446045,0.014686089009046555,-0.0035617200192064047,0.00016595683700870723,-0.013024523854255676,0.027217430993914604,-0.015566179528832436,0.32506638765335083,-1.2327967882156372,0.00859571248292923,-0.4048495888710022,0.4523865580558777,-0.135446697473526
1749025300.166784,2.9576358795166016,-0.25890977800402837,-1.5220422744750977,-0.12946184099230962,-5.321440819893972,3.6868412494659424,0.015456554479897022,-0.0035913872998207808,0.0012534231645986438,-0.012804031372070312,0.028897888958454132,-0.015458312816917896,0.253617525100708,-1.2392959594726562,0.016472958028316498,-0.4252702295780182,0.45159614086151123,-0.13155171275138855
1749025300.166821,2.957648992538452,-0.25893254697833257,-1.5220366716384888,-0.12948937833819585,-5.32140022913088,3.686832904815674,0.014976492151618004,-0.003473954740911722,0.0021460233256220818,-0.012987181544303894,0.029957903549075127,-0.015609092079102993,0.267255038022995,-1.2540788650512695,0.027223050594329834,-0.41978856921195984,0.4564778804779053,-0.15239861607551575
1749025300.1668584,2.9576969146728516,-0.25894077241931157,-1.5220290422439575,-0.12949784219775395,-5.321332816277639,3.6867620944976807,0.014651655219495296,-0.0037617364432662725,0.002405366161838174,-0.012118679471313953,0.031372372061014175,-0.01748630590736866,0.2824702560901642,-1.2455875873565674,0.005451686680316925,-0.43001675605773926,0.46136632561683655,-0.14386750757694244
1749025300.1669018,2.9577367305755615,-0.2589288514903565,-1.5220290422439575,-0.12951512754473882,-5.321288530026571,3.6867220401763916,0.013823927380144596,-0.004161214921623468,0.001993044512346387,-0.011613060720264912,0.03226273134350777,-0.01861393079161644,0.29191529750823975,-1.249915599822998,0.022645369172096252,-0.4240826368331909,0.4670415222644806,-0.14361809194087982
1749025300.16694,2.9577293395996094,-0.25893719614062505,-1.5220329761505127,-0.12956138074908452,-5.321200791989462,3.6866705417633057,0.014670456759631634,-0.004954981151968241,0.001529355882667005,-0.011937480419874191,0.03360319137573242,-0.017734404653310776,0.24996569752693176,-1.2620532512664795,0.023346617817878723,-0.4292057156562805,0.4818366765975952,-0.15680888295173645
1749025300.1669772,2.9577689170837402,-0.2589453023723145,-1.5220210552215576,-0.12958546102557378,-5.32112837234606,3.6867008209228516,0.01388607732951641,-0.005323989782482386,0.0013789198128506541,-0.012607411481440067,0.03359338641166687,-0.018232110887765884,0.2623075842857361,-1.2444267272949219,0.030913524329662323,-0.43310976028442383,0.4938983917236328,-0.15474826097488403
1749025300.1670146,2.9578325748443604,-0.25896890581164556,-1.522017478942871,-0.12960930288348393,-5.321084145699636,3.6866655349731445,0.01438839454203844,-0.00564989959821105,0.0010007394012063742,-0.013656695373356342,0.03546012565493584,-0.01893121376633644,0.26743006706237793,-1.2748926877975464,0.023303590714931488,-0.43022996187210083,0.49389344453811646,-0.1734086573123932
1749025300.1670575,2.957853078842163,-0.2589814227870484,-1.5220290422439575,-0.12961466730151372,-5.320973459874288,3.6866257190704346,0.013271910138428211,-0.0063811116851866245,0.0010409787064418197,-0.012920976616442204,0.03689698502421379,-0.018868746235966682,0.25209400057792664,-1.2562763690948486,0.032104507088661194,-0.4439952075481415,0.5131797194480896,-0.18804152309894562
1749025300.167278,2.957857847213745,-0.2589894098094483,-1.5220329761505127,-0.1296265882304688,-5.320978764687673,3.6865744590759277,0.013672237284481525,-0.006545163691043854,0.0014370898716151714,-0.013149967417120934,0.03845880925655365,-0.02053467370569706,0.2799537479877472,-1.2367808818817139,0.05536549538373947,-0.4486072063446045,0.5083982348442078,-0.18734361231327057
1749025300.1685822,2.9579083919525146,-0.25898225725207524,-1.5220458507537842,-0.12968488157305913,-5.320864323769705,3.6865224838256836,0.012813149020075798,-0.006636435631662607,0.001981720793992281,-0.01426818035542965,0.042099159210920334,-0.021219097077846527,0.25433674454689026,-1.2668198347091675,0.05394316464662552,-0.45169147849082947,0.4804186224937439,-0.19533902406692505
1749025300.210279,2.9579129219055176,-0.25899775445971684,-1.5220533609390259,-0.12971420705828862,-5.320729855691091,3.686521530151367,0.013332291506230831,-0.007338919211179018,0.002539000241085887,-0.01552251074463129,0.04336938261985779,-0.021514765918254852,0.2826128602027893,-1.2650725841522217,0.051739953458309174,-0.44892406463623047,0.49943798780441284,-0.1946314573287964
1749025300.210325,2.957956314086914,-0.2590407890132447,-1.5220290422439575,-0.1297413867763062,-5.3206491510020655,3.6864547729492188,0.012725017964839935,-0.008194812573492527,0.002316857222467661,-0.015604628250002861,0.04340069741010666,-0.02338501811027527,0.2585563063621521,-1.258530855178833,0.06785877794027328,-0.44716328382492065,0.5177622437477112,-0.19556137919425964
1749025300.2103748,2.9579453468322754,-0.25904543817553716,-1.5220329761505127,-0.12976236761126714,-5.320580605660574,3.686434507369995,0.012954442761838436,-0.008871515281498432,0.002254325896501541,-0.01625087857246399,0.04346900433301926,-0.02472853660583496,0.23541417717933655,-1.2662866115570068,0.07244788855314255,-0.44440513849258423,0.5507634878158569,-0.19344931840896606
1749025300.2104154,2.9579620361328125,-0.25909264505419927,-1.522017478942871,-0.1297946733287354,-5.320513669644491,3.6863625049591064,0.012992721050977707,-0.008637182414531708,0.0020670678932219744,-0.016403650864958763,0.04566383361816406,-0.026543278247117996,0.2560666799545288,-1.2694844007492065,0.08422807604074478,-0.44343501329421997,0.5347390174865723,-0.19672951102256775
1749025300.210454,2.957993507385254,-0.25908084333453374,-1.522017478942871,-0.12981541574511724,-5.320435706769125,3.686288356781006,0.01350007951259613,-0.008606981486082077,0.0023022897075861692,-0.01609640009701252,0.049120642244815826,-0.028198756277561188,0.27346742153167725,-1.283488154411316,0.08044669777154922,-0.4540994465351105,0.533579409122467,-0.18636927008628845
1749025300.2105043,2.9580488204956055,-0.25910087049517827,-1.52200186252594,-0.12983067453417974,-5.320351545010702,3.6862633228302,0.013502830639481544,-0.00915722455829382,0.0031162663362920284,-0.015739168971776962,0.05174795538187027,-0.029959239065647125,0.24244743585586548,-1.2706822156906128,0.07554445415735245,-0.45774683356285095,0.5183150768280029,-0.1823354810476303
1749025300.2105443,2.958050012588501,-0.2591090959361573,-1.5220091342926025,-0.12989790857348638,-5.320157531891958,3.6861722469329834,0.013795495964586735,-0.009383682161569595,0.004081923048943281,-0.015607564710080624,0.052956316620111465,-0.030440665781497955,0.25637227296829224,-1.2858082056045532,0.0820249393582344,-0.4714725613594055,0.5430912375450134,-0.17132076621055603
1749025300.210582,2.958108901977539,-0.25914020956073003,-1.5219935178756714,-0.1299148362926026,-5.320162061844961,3.686100721359253,0.01401167456060648,-0.009646533988416195,0.004741441924124956,-0.016420748084783554,0.05547703057527542,-0.031459990888834,0.26582151651382446,-1.3092221021652222,0.07351096719503403,-0.47058194875717163,0.5316147804260254,-0.1763211041688919
1749025300.2106242,2.958101511001587,-0.25911744058642583,-1.521993637084961,-0.12993891656909184,-5.319983724747793,3.6860759258270264,0.014336992986500263,-0.010064028203487396,0.004651068244129419,-0.0168346855789423,0.05915866419672966,-0.03164859488606453,0.2744141221046448,-1.2912604808807373,0.07676801830530167,-0.4650244116783142,0.5061779022216797,-0.16898474097251892
1749025300.2106795,2.958153009414673,-0.25916560113940434,-1.5219972133636475,-0.129962758427002,-5.319848064576284,3.686035633087158,0.014508224092423916,-0.0104297436773777,0.004298424813896418,-0.01774745248258114,0.05953599140048027,-0.03333430364727974,0.26704514026641846,-1.2945111989974976,0.08671357482671738,-0.4845221936702728,0.5197538137435913,-0.19198420643806458
1749025300.2107182,2.9581265449523926,-0.25917382658038335,-1.522000789642334,-0.12998004377398686,-5.319727901612417,3.6859681606292725,0.015398308634757996,-0.009884698316454887,0.004573600832372904,-0.0187664981931448,0.058504369109869,-0.03432713821530342,0.2558521628379822,-1.3068490028381348,0.09358123689889908,-0.4778905510902405,0.5225909352302551,-0.1794428527355194
1749025300.2107563,2.958228826522827,-0.25922055662188725,-1.521988868713379,-0.13006563604388433,-5.319623474274771,3.6858463287353516,0.015732837840914726,-0.01090757641941309,0.0052099935710430145,-0.01815406233072281,0.05898365005850792,-0.03483230620622635,0.24393533170223236,-1.3160865306854248,0.09513343870639801,-0.5027109384536743,0.5352533459663391,-0.19258864223957062
1749025300.210794,2.9582455158233643,-0.25925226629290776,-1.5219697952270508,-0.1300862592509766,-5.319475595151083,3.6857898235321045,0.015874400734901428,-0.010805947706103325,0.005488285329192877,-0.019346335902810097,0.06152808293700218,-0.03533678129315376,0.27993690967559814,-1.2912318706512451,0.10551385581493378,-0.4832586646080017,0.5233669281005859,-0.19888333976268768
1749025300.2108312,2.9582576751708984,-0.2592531007579346,-1.5219577550888062,-0.13016004980120854,-5.319367531930105,3.685753107070923,0.01552137266844511,-0.010549833066761494,0.006073737982660532,-0.02038251794874668,0.06248322129249573,-0.03523149713873863,0.2480461150407791,-1.3268895149230957,0.10100744664669037,-0.49233853816986084,0.5217071175575256,-0.18949589133262634
1749025300.2108686,2.958285093307495,-0.2592650216868897,-1.5219416618347168,-0.13018234193835454,-5.319271210824148,3.6856586933135986,0.01631641387939453,-0.011836434714496136,0.007030033972114325,-0.020328346639871597,0.06282249093055725,-0.03642604500055313,0.2676171660423279,-1.3062410354614258,0.10574832558631897,-0.48280128836631775,0.5343645811080933,-0.1663176566362381
1749025300.2109056,2.9583680629730225,-0.2592504781535645,-1.5219335556030273,-0.13020987928424077,-5.319162372742788,3.685594081878662,0.016374263912439346,-0.01156285498291254,0.006701174192130566,-0.02032288908958435,0.06348930299282074,-0.037606656551361084,0.2714121341705322,-1.3245164155960083,0.08943291008472443,-0.49379995465278625,0.5387979745864868,-0.200215145945549
1749025300.2109485,2.9583451747894287,-0.2593253415874024,-1.521952748298645,-0.13027341783557134,-5.319019440804617,3.685506820678711,0.016948549076914787,-0.012032946571707726,0.006544109433889389,-0.02166268788278103,0.06292968988418579,-0.0389089472591877,0.26505815982818604,-1.3113205432891846,0.09754370898008347,-0.49170225858688354,0.5259918570518494,-0.18073014914989471
1749025300.210986,2.958408832550049,-0.2593681377223511,-1.5219216346740723,-0.13032205522570806,-5.318890873585836,3.6854312419891357,0.017001179978251457,-0.011490692384541035,0.0066503603011369705,-0.021853696554899216,0.0643809586763382,-0.04073716327548027,0.2873177230358124,-1.3024488687515259,0.10757706314325333,-0.5002428889274597,0.557694673538208,-0.15748381614685059
1749025300.211023,2.9584171772003174,-0.2593417924693604,-1.5219252109527588,-0.13033862531695561,-5.31874663034548,3.68534779548645,0.017893195152282715,-0.010898095555603504,0.0072690993547439575,-0.022262299433350563,0.06531277298927307,-0.04116898775100708,0.2916397452354431,-1.3336683511734009,0.11298712342977524,-0.4758908152580261,0.5407009720802307,-0.1725546419620514
1749025300.211061,2.9584689140319824,-0.2593500179103394,-1.5219097137451172,-0.13038702428851323,-5.318615440522329,3.685307502746582,0.018557000905275345,-0.012130952440202236,0.007762748282402754,-0.02184821106493473,0.06742832809686661,-0.040892455726861954,0.2853471338748932,-1.3185464143753052,0.11379747837781906,-0.4958459436893463,0.5538151860237122,-0.159492626786232
1749025300.2111745,2.9585049152374268,-0.25937755525622563,-1.5219013690948486,-0.13042278707537847,-5.318462971840994,3.685204267501831,0.018718795850872993,-0.0123916519805789,0.007208190392702818,-0.022560911253094673,0.06974811106920242,-0.04048332944512367,0.3064551055431366,-1.333509922027588,0.1089361384510994,-0.4915749430656433,0.5389776229858398,-0.16418200731277466
1749025300.212518,2.9585132598876953,-0.2594211858562012,-1.5218857526779175,-0.13049037874255376,-5.3183104435550135,3.6851401329040527,0.019279275089502335,-0.011990401893854141,0.007194581441581249,-0.02192324958741665,0.07171591371297836,-0.04155861958861351,0.24747732281684875,-1.307140827178955,0.13612744212150574,-0.5029395818710327,0.5436652898788452,-0.16529229283332825
1749025300.254296,2.9586007595062256,-0.25942571580920415,-1.5219049453735352,-0.13050694883380132,-5.318178419266836,3.6850178241729736,0.01936693862080574,-0.012301770970225334,0.007608303800225258,-0.021773330867290497,0.07194098830223083,-0.041752465069293976,0.26071247458457947,-1.3331410884857178,0.11320867389440536,-0.5105164051055908,0.543140172958374,-0.158540278673172
1749025300.254351,2.9586405754089355,-0.25947590292010503,-1.5218656063079834,-0.13056667268786626,-5.317995731030599,3.6849536895751953,0.01896037720143795,-0.011509425938129425,0.008210149593651295,-0.022602425888180733,0.07313202321529388,-0.04110698029398918,0.26986369490623474,-1.3243740797042847,0.12700828909873962,-0.5047670602798462,0.5267592072486877,-0.15291717648506165
1749025300.2543921,2.9586260318756104,-0.2595086854747315,-1.5218532085418701,-0.1306343835643311,-5.317890171204702,3.6849007606506348,0.018849652260541916,-0.011895432136952877,0.008009963668882847,-0.023527462035417557,0.07435581088066101,-0.04163364693522453,0.3044126033782959,-1.3307690620422363,0.122073695063591,-0.507723867893219,0.5352906584739685,-0.1521652340888977
1749025300.254431,2.958646535873413,-0.2595136922648926,-1.5218532085418701,-0.13065941751513677,-5.317730013524191,3.684828519821167,0.020449543371796608,-0.011395284906029701,0.007064242381602526,-0.023924164474010468,0.07501880079507828,-0.04109674319624901,0.25845974683761597,-1.3148192167282104,0.12808239459991455,-0.5028898119926453,0.5320643186569214,-0.14732961356639862
1749025300.254475,2.9587414264678955,-0.25957222402606206,-1.5218288898468018,-0.13069875658068852,-5.317574147378103,3.6847379207611084,0.02043263055384159,-0.011393754743039608,0.00732761574909091,-0.024746045470237732,0.07589023560285568,-0.0403565876185894,0.2727048099040985,-1.3099709749221802,0.13955536484718323,-0.5085721611976624,0.5307560563087463,-0.1665233075618744
1749025300.2545278,2.9587690830230713,-0.2595411104014893,-1.5218133926391602,-0.13074691713366704,-5.317426208649771,3.684638261795044,0.020050285384058952,-0.011359690688550472,0.00812654197216034,-0.02396269328892231,0.07733820378780365,-0.04116465151309967,0.27560585737228394,-1.3210991621017456,0.13796216249465942,-0.5231329798698425,0.508085310459137,-0.14753812551498413
1749025300.2545683,2.9588253498077393,-0.259601430302002,-1.521785855293274,-0.1308106941035767,-5.317250911389486,3.684574604034424,0.020775819197297096,-0.011499670334160328,0.00791490450501442,-0.024202631786465645,0.07625912874937057,-0.042530376464128494,0.2585740089416504,-1.3158185482025146,0.12985490262508392,-0.5069922208786011,0.5181164145469666,-0.15067993104457855
1749025300.254606,2.958853244781494,-0.2595903438380738,-1.521785855293274,-0.1308470529368897,-5.3170934359179896,3.6845219135284424,0.0207984521985054,-0.012071935459971428,0.007412683684378862,-0.02595645748078823,0.07575728744268417,-0.04253769293427467,0.29182371497154236,-1.3315503597259521,0.14084942638874054,-0.52644944190979,0.5242001414299011,-0.15326115489006042
1749025300.2546597,2.95890474319458,-0.25960596025500493,-1.5217812061309814,-0.13088758409533696,-5.316941265259878,3.6844074726104736,0.02038651332259178,-0.011420855298638344,0.007160551380366087,-0.024990679696202278,0.0761323943734169,-0.04222763329744339,0.2972983121871948,-1.329969882965088,0.1454492062330246,-0.5145090818405151,0.5273325443267822,-0.16018381714820862
1749025300.2546973,2.9589407444000244,-0.2596607965281983,-1.521753191947937,-0.13092692316088872,-5.316793266926901,3.684366464614868,0.02100912667810917,-0.011620881967246532,0.007500893902033567,-0.025332089513540268,0.07568635791540146,-0.042867764830589294,0.2817501127719879,-1.3278965950012207,0.14433173835277557,-0.5068830847740173,0.5571773648262024,-0.14532384276390076
1749025300.2547348,2.95896577835083,-0.25965722024951177,-1.5217413902282715,-0.1309754413417359,-5.316634718571798,3.6842329502105713,0.022220542654395103,-0.012127191759645939,0.00793933030217886,-0.02590344287455082,0.0776887983083725,-0.043963853269815445,0.27916279435157776,-1.3276276588439941,0.14228703081607819,-0.5263045430183411,0.5394784212112427,-0.15009915828704834
1749025300.2547715,2.9590330123901367,-0.25968976438555913,-1.5217138528823853,-0.13103516519580083,-5.316509787236349,3.6841917037963867,0.021976260468363762,-0.01223114412277937,0.008216390386223793,-0.027416788041591644,0.08178497850894928,-0.04390015825629234,0.2906949818134308,-1.3276073932647705,0.14062242209911346,-0.5247078537940979,0.5423556566238403,-0.1830148845911026
1749025300.2548077,2.9590413570404053,-0.2596934598735352,-1.5217174291610718,-0.1311144393733521,-5.316321138535635,3.684107780456543,0.02228607051074505,-0.011423521675169468,0.00823191273957491,-0.0279710590839386,0.08065075427293777,-0.04426538199186325,0.2963840663433075,-1.325311303138733,0.15090051293373108,-0.5230470895767212,0.5499488115310669,-0.1916150450706482
1749025300.2548451,2.959089517593384,-0.25973279893908696,-1.5216816663742065,-0.13119407117877202,-5.316188935433523,3.6840405464172363,0.022609269246459007,-0.01092725433409214,0.008542418479919434,-0.028896331787109375,0.0799434557557106,-0.04552890360355377,0.3025500774383545,-1.3469990491867065,0.14871029555797577,-0.5166792869567871,0.5633841753005981,-0.18987742066383362
1749025300.2548819,2.9591495990753174,-0.2597758334926148,-1.5216691493988037,-0.1312146943858643,-5.316028360520498,3.683905601501465,0.023435046896338463,-0.011109127663075924,0.008820155635476112,-0.028684044256806374,0.0813259482383728,-0.04679923877120018,0.31568318605422974,-1.3389235734939575,0.14102858304977417,-0.5219585299491882,0.5654376149177551,-0.19833685457706451
1749025300.2549183,2.9591662883758545,-0.25981231153521733,-1.5216574668884277,-0.1312588018229981,-5.315868262444631,3.683833122253418,0.023845810443162918,-0.010970684699714184,0.009159761480987072,-0.029920082539319992,0.08299772441387177,-0.04805682972073555,0.3173208236694336,-1.3448097705841064,0.14442941546440125,-0.537156879901886,0.5817528367042542,-0.20473578572273254
1749025300.254961,2.9591867923736572,-0.25978930414233403,-1.5216646194458008,-0.13132257879290776,-5.315707449113027,3.683717966079712,0.02471056953072548,-0.011073241010308266,0.009428025223314762,-0.0289359912276268,0.08895473927259445,-0.04852253198623657,0.3212103843688965,-1.3493266105651855,0.1469891369342804,-0.5542076826095581,0.5780836939811707,-0.19175061583518982
1749025300.254998,2.959290027618408,-0.25983603418383794,-1.5216491222381592,-0.1313750308803101,-5.3154969851123255,3.6836347579956055,0.025819825008511543,-0.011795167811214924,0.009194266982376575,-0.029953191056847572,0.08949548751115799,-0.049154676496982574,0.32502299547195435,-1.3608119487762451,0.139325350522995,-0.5368136763572693,0.5878884196281433,-0.1990927755832672
1749025300.255035,2.959376573562622,-0.25984425962481694,-1.5216248035430908,-0.13143916547808843,-5.315339926873342,3.683499336242676,0.026651788502931595,-0.01158752292394638,0.009571432135999203,-0.030809741467237473,0.08960816264152527,-0.049861710518598557,0.29279735684394836,-1.3612701892852783,0.15534457564353943,-0.5479812622070312,0.5740547180175781,-0.19391882419586182
1749025300.2550714,2.959420919418335,-0.25986512125048833,-1.5215847492218018,-0.1314951938441773,-5.315131906663076,3.6834425926208496,0.02618647739291191,-0.011954721994698048,0.009688088670372963,-0.031822800636291504,0.09429444372653961,-0.050145223736763,0.3030029833316803,-1.388526439666748,0.15312719345092773,-0.5308082103729248,0.5729572772979736,-0.18884912133216858
1749025300.2551806,2.9594531059265137,-0.25988061845812993,-1.5215885639190674,-0.13155897081408696,-5.31491327682604,3.6833348274230957,0.027172915637493134,-0.011894882656633854,0.009871353395283222,-0.03203727677464485,0.09635652601718903,-0.04960525780916214,0.3083134591579437,-1.363467812538147,0.15170630812644958,-0.5473461747169495,0.5635077357292175,-0.20424136519432068
1749025300.2565403,2.959501266479492,-0.2599209111979981,-1.5215730667114258,-0.13163454950366216,-5.314724628125326,3.6832165718078613,0.028227489441633224,-0.011723916977643967,0.010491005145013332,-0.03198370710015297,0.09844575077295303,-0.05083451792597771,0.28741443157196045,-1.3765658140182495,0.1479431837797165,-0.5348626375198364,0.5702583193778992,-0.20271962881088257
1749025300.298282,2.9595539569854736,-0.25988252580676274,-1.5215492248535156,-0.13168735921893315,-5.314535979424612,3.683131694793701,0.028074879199266434,-0.012011549435555935,0.01068486925214529,-0.03313794359564781,0.1004817858338356,-0.05305667966604233,0.3149241805076599,-1.3755666017532349,0.1499454826116562,-0.5404083728790283,0.565099835395813,-0.2077067792415619
1749025300.2983274,2.959644317626953,-0.2599291366389771,-1.521537184715271,-0.13175113618884282,-5.31432825723757,3.68300461769104,0.027017969638109207,-0.011703195981681347,0.010815661400556564,-0.03309408575296402,0.10131550580263138,-0.05441640689969063,0.3055175244808197,-1.3792767524719238,0.17054584622383118,-0.5311436653137207,0.5582755208015442,-0.19974875450134277
1749025300.2983718,2.959653615951538,-0.25996096551928716,-1.5215014219284058,-0.13182683408770757,-5.314190391694204,3.682913064956665,0.028063323348760605,-0.012352175079286098,0.011444918811321259,-0.034319836646318436,0.1039050742983818,-0.054198551923036575,0.30913296341896057,-1.3751140832901,0.1532256156206131,-0.5403276085853577,0.5774083733558655,-0.2196381539106369
1749025300.298412,2.9597415924072266,-0.2600167554667969,-1.5214927196502686,-0.1318710607341309,-5.313943628464834,3.682785987854004,0.029753558337688446,-0.011620577424764633,0.011504165828227997,-0.034714069217443466,0.10803423076868057,-0.05279861018061638,0.3033052384853363,-1.4140559434890747,0.1412191241979599,-0.5309777855873108,0.5344902276992798,-0.2093433439731598
1749025300.298459,2.959777593612671,-0.2600396436503907,-1.5214653015136719,-0.13194330156359868,-5.313711766396658,3.682678699493408,0.029308516532182693,-0.012632278725504875,0.011358948424458504,-0.035101376473903656,0.10580826550722122,-0.05323657765984535,0.31820347905158997,-1.4128566980361938,0.1557641327381134,-0.5366144180297852,0.5422804355621338,-0.24596665799617767
1749025300.2984977,2.9598217010498047,-0.260028676395752,-1.5214414596557617,-0.13204307973895268,-5.313513759766714,3.682547092437744,0.029770292341709137,-0.013828841038048267,0.011939228512346745,-0.035034529864788055,0.10592230409383774,-0.05582152307033539,0.32682138681411743,-1.379385232925415,0.13889670372009277,-0.5232081413269043,0.5563867688179016,-0.2332690805196762
1749025300.2985384,2.9598817825317383,-0.26008470476184087,-1.5214097499847412,-0.1320837301066895,-5.3132891098605555,3.6824474334716797,0.03179875761270523,-0.013564487919211388,0.011974689550697803,-0.03643382713198662,0.10640686005353928,-0.05747567489743233,0.3140898644924164,-1.4104939699172974,0.1595855951309204,-0.5465478897094727,0.5714066028594971,-0.229734867811203
1749025300.2985766,2.9599852561950684,-0.26010485113177495,-1.5213927030563354,-0.13216407716784673,-5.313050989304678,3.6823477745056152,0.03168889507651329,-0.014252549037337303,0.011810564436018467,-0.03720560297369957,0.10977742820978165,-0.059498999267816544,0.3091062009334564,-1.391950011253357,0.1652711182832718,-0.509742021560669,0.5494822859764099,-0.22704719007015228
1749025300.2986195,2.960057020187378,-0.2601676744273682,-1.5213963985443115,-0.1322431129268189,-5.312865440045492,3.6822118759155273,0.03140172362327576,-0.013327734544873238,0.01166555006057024,-0.03728394955396652,0.10685499757528305,-0.06355313956737518,0.31246474385261536,-1.4286235570907593,0.14824244379997253,-0.5143222808837891,0.5669211149215698,-0.2118525505065918
1749025300.2986689,2.960108757019043,-0.2601841253093262,-1.5213533639907837,-0.13232369840655522,-5.3126458565341395,3.6820733547210693,0.030679626390337944,-0.0141976373270154,0.011444759555161,-0.036924444139003754,0.10773365199565887,-0.06380296498537064,0.34303414821624756,-1.3991611003875732,0.15630751848220825,-0.5067578554153442,0.5771691799163818,-0.19146589934825897
1749025300.298709,2.9601376056671143,-0.26019592702899175,-1.5213367938995361,-0.13240333021197515,-5.31241220632662,3.681973695755005,0.03261543810367584,-0.013537362217903137,0.012308137491345406,-0.03701186925172806,0.10886279493570328,-0.06191576272249222,0.3132031261920929,-1.4364514350891113,0.15373729169368744,-0.5092344880104065,0.576549232006073,-0.2045600712299347
1749025300.2987611,2.9602372646331787,-0.2601969999125977,-1.5213212966918945,-0.13248713434252934,-5.312208120022909,3.681856870651245,0.033868174999952316,-0.01447839755564928,0.012075194157660007,-0.03625813499093056,0.10979583114385605,-0.06295785307884216,0.28446078300476074,-1.4164258241653442,0.1644199639558792,-0.5123657584190369,0.592711865901947,-0.2297424077987671
1749025300.298799,2.9603359699249268,-0.2602488559535523,-1.5213124752044678,-0.13253994405780034,-5.311961058770315,3.68174147605896,0.033444371074438095,-0.014591672457754612,0.01252391654998064,-0.03599872067570686,0.11172796040773392,-0.06550630182027817,0.292551189661026,-1.4045385122299194,0.16710402071475983,-0.5112196207046509,0.5959693789482117,-0.20297059416770935
1749025300.298854,2.9603259563446045,-0.260276274090149,-1.521285057067871,-0.13261230409655766,-5.311739746724264,3.681586980819702,0.03302868455648422,-0.014863437972962856,0.012133481912314892,-0.035282064229249954,0.11309916526079178,-0.06701569259166718,0.30218419432640076,-1.4101234674453735,0.16423648595809937,-0.5225943326950073,0.5937102437019348,-0.1933385133743286
1749025300.298894,2.9604053497314453,-0.26028926790271,-1.5212610960006714,-0.13266475618396,-5.3115132490741175,3.681443929672241,0.03300251439213753,-0.01479170098900795,0.011845980770885944,-0.03470796346664429,0.11457231640815735,-0.06790009886026382,0.3054291903972626,-1.4261548519134521,0.17934711277484894,-0.5275835990905762,0.5960237979888916,-0.18091538548469543
1749025300.2989314,2.9605014324188232,-0.260300950413086,-1.5212492942810059,-0.132756308918335,-5.3112457434283655,3.6812961101531982,0.0336526595056057,-0.015637453645467758,0.012009162455797195,-0.036145541816949844,0.11776924133300781,-0.06847691535949707,0.33052825927734375,-1.4168636798858643,0.17089812457561493,-0.5136894583702087,0.5862497687339783,-0.18065941333770752
1749025300.2989683,2.960545778274536,-0.260337309246399,-1.5212409496307373,-0.13283522546801763,-5.3110584060298365,3.681168556213379,0.03383461758494377,-0.015521087683737278,0.011275100521743298,-0.03733554854989052,0.11888538300991058,-0.06783171743154526,0.31874600052833557,-1.4252405166625977,0.1728602945804596,-0.5290020108222961,0.573340892791748,-0.1982853263616562
1749025300.2990096,2.9606335163116455,-0.26041515291247563,-1.5211968421936035,-0.1329471629909058,-5.310799304638998,3.681037187576294,0.03422900661826134,-0.015507751144468784,0.01148425042629242,-0.03734079748392105,0.12072470784187317,-0.06798575818538666,0.31424573063850403,-1.4326181411743164,0.17170113325119019,-0.49934279918670654,0.5783720016479492,-0.1768651008605957
1749025300.299054,2.9606895446777344,-0.26042409360919194,-1.5211576223373413,-0.13301916540179448,-5.310558740292684,3.680917501449585,0.035222455859184265,-0.01601693406701088,0.011454125866293907,-0.03827449679374695,0.12291321158409119,-0.06683119386434555,0.2983698546886444,-1.4545363187789917,0.1692667156457901,-0.5261871814727783,0.5724836587905884,-0.17678827047348022
1749025300.2990906,2.9607460498809814,-0.26044054449114995,-1.521164894104004,-0.1330682796290894,-5.310332481061117,3.680750846862793,0.03569207713007927,-0.01653182879090309,0.011195093393325806,-0.038004085421562195,0.12429120391607285,-0.0671309307217598,0.3064427971839905,-1.4442447423934937,0.17988552153110504,-0.5208401679992676,0.5517176985740662,-0.19848161935806274
1749025300.2991998,2.960845708847046,-0.2604763072780152,-1.5211529731750488,-0.13314886510882573,-5.310073379670278,3.680630683898926,0.03624735772609711,-0.017130021005868912,0.011200406588613987,-0.03817914426326752,0.12493286281824112,-0.06772595643997192,0.2797853946685791,-1.4342565536499023,0.1896495670080185,-0.509339451789856,0.5431637763977051,-0.17784951627254486
1749025300.3005233,2.960937261581421,-0.2605080169490357,-1.5211446285247803,-0.13320525110278325,-5.3097615281688135,3.680483818054199,0.036608900874853134,-0.01666775345802307,0.01102110743522644,-0.03844497725367546,0.12456323951482773,-0.06740238517522812,0.3162444233894348,-1.4348500967025757,0.19261585175991058,-0.5028294920921326,0.5562294721603394,-0.19337713718414307
1749025300.3463063,2.960993528366089,-0.2605518859675904,-1.521132230758667,-0.13331206262622075,-5.309541050587789,3.680351972579956,0.03637665510177612,-0.017291756346821785,0.011465564370155334,-0.03754764795303345,0.12624429166316986,-0.06710977852344513,0.30731022357940674,-1.464203953742981,0.1952880173921585,-0.5216341018676758,0.5335513353347778,-0.184746652841568
1749025300.3463633,2.9610776901245117,-0.26057572782550054,-1.5211083889007568,-0.13338787973437505,-5.30933660665621,3.6802432537078857,0.036874353885650635,-0.017411215230822563,0.011726154014468193,-0.03743969276547432,0.12473117560148239,-0.06635753810405731,0.30271586775779724,-1.4394822120666504,0.18379351496696472,-0.530582070350647,0.5616449117660522,-0.20845328271389008
1749025300.3464053,2.961153268814087,-0.2606089872172852,-1.5210809707641602,-0.13347549856219487,-5.309091452752249,3.6801013946533203,0.03733133524656296,-0.01761534810066223,0.011083285324275494,-0.0373961515724659,0.12399125844240189,-0.06525272130966187,0.26798883080482483,-1.4592278003692627,0.2008560299873352,-0.5395846366882324,0.5980349183082581,-0.23116298019886017
1749025300.3464446,2.961179494857788,-0.26066382349047856,-1.5210644006729126,-0.13354022920642095,-5.308816675339834,3.6799776554107666,0.03831056132912636,-0.0182182639837265,0.011537754908204079,-0.03803710639476776,0.1269495189189911,-0.06645418703556061,0.2872741222381592,-1.4490017890930176,0.18584486842155457,-0.5204023718833923,0.5942895412445068,-0.22349520027637482
1749025300.3464825,2.961305618286133,-0.26069267213854985,-1.5210239887237549,-0.1336243909648438,-5.3086228410350245,3.6798179149627686,0.038202740252017975,-0.01850895583629608,0.012097181752324104,-0.03880443796515465,0.13164809346199036,-0.06907899677753448,0.2748238742351532,-1.465157389640808,0.17872031033039093,-0.5539864301681519,0.5680098533630371,-0.22460989654064178
1749025300.3465295,2.96138596534729,-0.26073213041339116,-1.5209773778915405,-0.13369675100360112,-5.308324579392568,3.679666757583618,0.03675881400704384,-0.019404016435146332,0.011592482216656208,-0.04060964286327362,0.1298537701368332,-0.06952529400587082,0.3036261796951294,-1.4438225030899048,0.19260729849338531,-0.5252820253372192,0.6006327867507935,-0.21450507640838623
1749025300.3465693,2.961454391479492,-0.2607376140407105,-1.5209846496582031,-0.13380833089862065,-5.308060053979055,3.6795742511749268,0.03991275280714035,-0.019553493708372116,0.011781355366110802,-0.04050276428461075,0.13184092938899994,-0.06782394647598267,0.2693904638290405,-1.4559245109558105,0.17930249869823456,-0.5363163948059082,0.6077910661697388,-0.22847430408000946
1749025300.3466065,2.9615254402160645,-0.2608124774745484,-1.5209763050079346,-0.133852557545044,-5.307723466550009,3.6794300079345703,0.03906223550438881,-0.018964005634188652,0.011855944991111755,-0.04010139778256416,0.13423720002174377,-0.06944043934345245,0.2661094665527344,-1.444077491760254,0.1851755529642105,-0.5153586864471436,0.6027664542198181,-0.20856833457946777
1749025300.346644,2.9615743160247803,-0.26084359109912114,-1.520932674407959,-0.13393302381549077,-5.30751604238619,3.6792378425598145,0.037400808185338974,-0.019357794895768166,0.01251972559839487,-0.041031479835510254,0.1382860541343689,-0.07074195891618729,0.329272598028183,-1.4524097442626953,0.19582504034042358,-0.5540669560432434,0.5997486710548401,-0.22403191030025482
1749025300.3466823,2.961693525314331,-0.2608652871898194,-1.520928144454956,-0.1340206426433106,-5.3072121183024805,3.6791555881500244,0.038992736488580704,-0.01998617686331272,0.012501050718128681,-0.04068753123283386,0.14116139709949493,-0.07383857667446136,0.3267087936401367,-1.455725073814392,0.19073283672332764,-0.5541133880615234,0.5826377272605896,-0.23712937533855438
1749025300.346719,2.961777448654175,-0.26089270532641606,-1.520904302597046,-0.13409264505419927,-5.306939307843344,3.678968906402588,0.03965948149561882,-0.019779184833168983,0.012724576517939568,-0.04078423231840134,0.14580528438091278,-0.07890906929969788,0.30846983194351196,-1.4682379961013794,0.20143437385559082,-0.5670441389083862,0.5804298520088196,-0.20888029038906097
1749025300.3467557,2.9618375301361084,-0.2609839004329224,-1.5208576917648315,-0.13417680681262212,-5.306688729916708,3.6788032054901123,0.04172816500067711,-0.02000904642045498,0.012265165336430073,-0.04201965406537056,0.1445983499288559,-0.0789937973022461,0.280139297246933,-1.4525498151779175,0.2100643515586853,-0.5623229146003723,0.5749260783195496,-0.2179858386516571
1749025300.3467927,2.9619734287261963,-0.2610233587077637,-1.520833134651184,-0.1342802804759522,-5.306378487740652,3.6786623001098633,0.04259419068694115,-0.02068633772432804,0.012978103011846542,-0.043846383690834045,0.14857587218284607,-0.07951686531305313,0.2522660791873932,-1.4915637969970703,0.21074622869491577,-0.5801964998245239,0.5530006885528564,-0.21533185243606567
1749025300.3468304,2.9620258808135986,-0.2610597175410767,-1.520831823348999,-0.13436038911853032,-5.306059245263235,3.6785271167755127,0.04037735238671303,-0.02081276848912239,0.012964623980224133,-0.04543139040470123,0.14909055829048157,-0.08212162554264069,0.32084888219833374,-1.4751620292663574,0.1958218812942505,-0.5607187151908875,0.5290547609329224,-0.20277848839759827
1749025300.3468676,2.962160587310791,-0.2611183685115357,-1.5208044052124023,-0.1344565910151978,-5.305787984524862,3.67836332321167,0.04072369262576103,-0.020507656037807465,0.013055985793471336,-0.04701465740799904,0.1466389298439026,-0.08425061404705048,0.30517566204071045,-1.480699062347412,0.20276933908462524,-0.5685213804244995,0.5666545629501343,-0.20260711014270782
1749025300.3469045,2.96218204498291,-0.26113470018420415,-1.5207960605621338,-0.13453705728564458,-5.305461172257559,3.6781959533691406,0.042553920298814774,-0.02116081491112709,0.013734106905758381,-0.04666351154446602,0.14684578776359558,-0.08657687902450562,0.29629719257354736,-1.4918314218521118,0.1972661018371582,-0.5665252804756165,0.5748735666275024,-0.17435647547245026
1749025300.3469417,2.9622585773468018,-0.2611449521831055,-1.5207598209381104,-0.13465245187792974,-5.305169347916738,3.6779937744140625,0.04287725314497948,-0.022478727623820305,0.012822775170207024,-0.04777811840176582,0.14779597520828247,-0.08772514015436172,0.29199159145355225,-1.4977214336395264,0.19801664352416992,-0.5712484121322632,0.5949862003326416,-0.1975255012512207
1749025300.346979,2.962381362915039,-0.2611999076655884,-1.5207287073135376,-0.13473625600848393,-5.304872457181112,3.677779197692871,0.04307292401790619,-0.023291010409593582,0.013268140144646168,-0.049162402749061584,0.14909371733665466,-0.08787599205970764,0.28703346848487854,-1.469763994216919,0.2267560213804245,-0.564220666885376,0.6062564849853516,-0.16583387553691864
1749025300.3470156,2.962430715560913,-0.2612756055644532,-1.5207085609436035,-0.13483233869586186,-5.304564062749044,3.677631378173828,0.04270761460065842,-0.022816110402345657,0.013460085727274418,-0.05077674612402916,0.15048831701278687,-0.0871204063296318,0.29421648383140564,-1.4648935794830322,0.22252969443798065,-0.5626821517944336,0.598383367061615,-0.1527785360813141
1749025300.3470526,2.962553024291992,-0.26129575193438725,-1.520672082901001,-0.13493247449908452,-5.304247740899221,3.6774797439575195,0.04345729947090149,-0.022928381338715553,0.01460538525134325,-0.0519547313451767,0.1532328724861145,-0.08653203397989273,0.3022404909133911,-1.4916099309921265,0.21390090882778168,-0.546338677406311,0.6038709878921509,-0.16010397672653198
1749025300.3470905,2.962629795074463,-0.26134391248736577,-1.52064847946167,-0.1350293916514893,-5.303964320813314,3.6773040294647217,0.04310668259859085,-0.024219734594225883,0.014564955607056618,-0.05123521015048027,0.15531234443187714,-0.08694760501384735,0.3112240135669708,-1.469450831413269,0.21761806309223175,-0.5670499801635742,0.6243547797203064,-0.17521557211875916
1749025300.3471267,2.962710380554199,-0.261407808666565,-1.5206401348114014,-0.1351725620082398,-5.3036545554744166,3.677152156829834,0.043619733303785324,-0.024370212107896805,0.015093512833118439,-0.05082545801997185,0.15804696083068848,-0.08588959276676178,0.2968406677246094,-1.4670710563659668,0.22290487587451935,-0.5662288665771484,0.5845650434494019,-0.16825991868972778
1749025300.3472378,2.962766408920288,-0.26145537317309575,-1.520587682723999,-0.13525302827868657,-5.303381804619924,3.676964521408081,0.043924495577812195,-0.02359592355787754,0.014900016598403454,-0.05103158578276634,0.15897831320762634,-0.08484931290149689,0.31105393171310425,-1.479663610458374,0.23264887928962708,-0.5558240413665771,0.6100360751152039,-0.19220282137393951
1749025300.348599,2.962909698486328,-0.2615036529353638,-1.5205484628677368,-0.13538022459063725,-5.303003255520956,3.6767971515655518,0.04470224305987358,-0.023271700367331505,0.016071325168013573,-0.052160922437906265,0.15896724164485931,-0.08433570712804794,0.3182031810283661,-1.498986005783081,0.22468671202659607,-0.5483903884887695,0.5988565683364868,-0.19008195400238037
1749025300.39028,2.9629814624786377,-0.26152832925830083,-1.5205473899841309,-0.13544972360644536,-5.302651230488912,3.6766107082366943,0.04512908309698105,-0.023572906851768494,0.015413914807140827,-0.0531357116997242,0.16379696130752563,-0.08401411026716232,0.31603989005088806,-1.4680705070495605,0.23213502764701843,-0.5458987951278687,0.5971793532371521,-0.19246548414230347
1749025300.3903255,2.9630775451660156,-0.26159580171618657,-1.5205199718475342,-0.1355772775462647,-5.302368764077322,3.676419496536255,0.04455927759408951,-0.02234623022377491,0.015052450820803642,-0.05315514653921127,0.16122423112392426,-0.08313844352960587,0.31525400280952454,-1.5011396408081055,0.2240244746208191,-0.5350590944290161,0.5800577402114868,-0.2091054916381836
1749025300.3903656,2.963170051574707,-0.26164336622271733,-1.5204837322235107,-0.13566942632708745,-5.3020023743258875,3.676236391067505,0.04678437113761902,-0.025252440944314003,0.015398736111819744,-0.05362752079963684,0.1612301468849182,-0.08507608622312546,0.3012860417366028,-1.4867630004882812,0.22695106267929077,-0.5336697697639465,0.5982035398483276,-0.19718170166015625
1749025300.3904037,2.9632346630096436,-0.2616480153850098,-1.5204209089279175,-0.13576550901446538,-5.301708106194631,3.6760690212249756,0.04689422622323036,-0.02501841075718403,0.016413645818829536,-0.054166339337825775,0.16396981477737427,-0.08404720574617386,0.30765050649642944,-1.4771811962127686,0.21523380279541016,-0.5390549898147583,0.5927575826644897,-0.18668140470981598
1749025300.3904564,2.963322639465332,-0.26173146188769536,-1.5204200744628906,-0.1359129709056397,-5.3013333717929285,3.675940752029419,0.04687416926026344,-0.02486114762723446,0.0161241814494133,-0.054190777242183685,0.16391442716121674,-0.08266451209783554,0.31413766741752625,-1.4893757104873657,0.21577781438827515,-0.5435463786125183,0.6103789210319519,-0.2195209562778473
1749025300.390509,2.96340274810791,-0.2617916625789185,-1.5203717947006226,-0.13601763666186528,-5.3010438720332544,3.675769567489624,0.046541765332221985,-0.025636713951826096,0.01582326553761959,-0.0551343709230423,0.16683438420295715,-0.08412206172943115,0.31084486842155457,-1.4806208610534668,0.22696581482887268,-0.537544846534729,0.5987505316734314,-0.23515000939369202
1749025300.3905494,2.9635181427001953,-0.2618308824351807,-1.520348072052002,-0.1361137193492432,-5.3006771246539515,3.675567388534546,0.04754502698779106,-0.025752808898687363,0.016203729435801506,-0.05414814502000809,0.16847848892211914,-0.08460316807031631,0.30564624071121216,-1.4913409948349,0.2256537675857544,-0.5345335602760315,0.599856972694397,-0.24730627238750458
1749025300.3905869,2.9636106491088867,-0.26189930856738286,-1.5203241109848022,-0.13619072855029302,-5.300383273755209,3.6753692626953125,0.046661507338285446,-0.026656944304704666,0.01566500775516033,-0.05403490364551544,0.16928376257419586,-0.0903330147266388,0.34893184900283813,-1.4746054410934448,0.22049635648727417,-0.5379281640052795,0.6022889018058777,-0.22091753780841827
1749025300.3906245,2.963686227798462,-0.261931375866272,-1.5202723741531372,-0.1363338989070435,-5.299975816403524,3.675224542617798,0.049165915697813034,-0.027278942987322807,0.016179019585251808,-0.05276332423090935,0.17558346688747406,-0.0921088233590126,0.3278370499610901,-1.4545645713806152,0.22470605373382568,-0.5497769117355347,0.572454035282135,-0.23163998126983643
1749025300.390662,2.9638099670410156,-0.2619447273067017,-1.520248532295227,-0.1364380878261109,-5.299658958111898,3.675041675567627,0.04838341847062111,-0.027039848268032074,0.015452493913471699,-0.0530061312019825,0.17355883121490479,-0.09104163944721222,0.3167276978492737,-1.4639488458633423,0.22108124196529388,-0.5409291386604309,0.5664313435554504,-0.22703760862350464
1749025300.3906991,2.9638986587524414,-0.26204343259844975,-1.5202438831329346,-0.13654239595446782,-5.299263362084524,3.674865961074829,0.04810497537255287,-0.02715682052075863,0.015910105779767036,-0.05478072538971901,0.17434027791023254,-0.09549526125192642,0.36375606060028076,-1.468940258026123,0.2369726002216339,-0.5518523454666138,0.5853464007377625,-0.2204616367816925
1749025300.3907363,2.964022397994995,-0.26205988348040776,-1.5201760530471802,-0.136654333477356,-5.2989137212382715,3.6746666431427,0.049725450575351715,-0.027235979214310646,0.016276339069008827,-0.055063650012016296,0.1751975566148758,-0.09844092279672623,0.32770633697509766,-1.4716593027114868,0.2272610366344452,-0.5500234365463257,0.5443428754806519,-0.20542201399803162
1749025300.3907864,2.9641339778900146,-0.2621230644038697,-1.52015221118927,-0.13681288183245854,-5.298561875020162,3.674455404281616,0.05182667076587677,-0.027701720595359802,0.016471004113554955,-0.05457049980759621,0.17569194734096527,-0.09907961636781693,0.3260974586009979,-1.4514130353927612,0.23036342859268188,-0.5513924956321716,0.5533438920974731,-0.20452086627483368
1749025300.3908248,2.9641950130462646,-0.2621520322612305,-1.5201351642608643,-0.1368897718242188,-5.298221770917074,3.6742641925811768,0.052523769438266754,-0.027709918096661568,0.016036255285143852,-0.05286538600921631,0.17586003243923187,-0.09964309632778168,0.29058581590652466,-1.475215196609497,0.24023836851119995,-0.5551721453666687,0.5543482303619385,-0.189376100897789
1749025300.3908627,2.9643728733062744,-0.2622513335994263,-1.5200958251953125,-0.13699419916186528,-5.297849361096517,3.6740615367889404,0.04946320503950119,-0.0283201914280653,0.01566770300269127,-0.05252403765916824,0.17545990645885468,-0.10045117884874344,0.3519705533981323,-1.4823077917099,0.24465006589889526,-0.5660101175308228,0.5832059383392334,-0.19010953605175018
1749025300.390899,2.9644546508789062,-0.26230700433764653,-1.5200755596160889,-0.13707085073504643,-5.29750103155245,3.6738550662994385,0.05197462812066078,-0.028543252497911453,0.01632152870297432,-0.05368707701563835,0.17612500488758087,-0.09939786791801453,0.3406926393508911,-1.5022963285446167,0.24010300636291504,-0.5847707986831665,0.5876814126968384,-0.18913277983665466
1749025300.3909352,2.964585304260254,-0.26235516489062505,-1.5200512409210205,-0.13717503965411382,-5.297140542660848,3.673628330230713,0.05199481546878815,-0.02879404090344906,0.01615552417933941,-0.05505473539233208,0.17709694802761078,-0.0989738404750824,0.340768039226532,-1.4878700971603394,0.2246420979499817,-0.5801822543144226,0.602642297744751,-0.2148054987192154
1749025300.3909717,2.9646620750427246,-0.26242347181353765,-1.5199958086013794,-0.13731356084857183,-5.296756211911337,3.673475503921509,0.051897332072257996,-0.029018888249993324,0.016792377457022667,-0.05372379347681999,0.17802917957305908,-0.09940829128026962,0.33721670508384705,-1.482970118522644,0.2360205352306366,-0.6072431206703186,0.5978525876998901,-0.21045956015586853
1749025300.3910086,2.964761734008789,-0.2625149053386231,-1.5199682712554932,-0.13741083562884526,-5.296407882367269,3.6732640266418457,0.05269836634397507,-0.029526077210903168,0.016364743933081627,-0.05529008060693741,0.18066097795963287,-0.09750207513570786,0.32843977212905884,-1.4638831615447998,0.24339772760868073,-0.6004953384399414,0.5912561416625977,-0.21507830917835236
1749025300.39105,2.9648783206939697,-0.26253123701129155,-1.5199511051177979,-0.13751883924517827,-5.296086017285482,3.6730382442474365,0.05235368385910988,-0.028850730508565903,0.016785496845841408,-0.05740387737751007,0.18013393878936768,-0.09985585510730743,0.34550195932388306,-1.4519332647323608,0.24892838299274445,-0.5895892977714539,0.61705482006073,-0.23115754127502441
1749025300.3911672,2.964931011199951,-0.2625914377025147,-1.5199191570281982,-0.13765449941668706,-5.295638982449667,3.6728315353393555,0.05302472040057182,-0.02830687165260315,0.01711912825703621,-0.05789642035961151,0.18435145914554596,-0.10281392931938171,0.35439741611480713,-1.4736748933792114,0.2599559426307678,-0.5957672595977783,0.5944358706474304,-0.2025495320558548
1749025300.3925362,2.9650702476501465,-0.2626790565303345,-1.5198880434036255,-0.13776250303302007,-5.295255664979116,3.6726090908050537,0.054648980498313904,-0.02836816944181919,0.017558174207806587,-0.05698180943727493,0.18263399600982666,-0.09888337552547455,0.36158111691474915,-1.4866794347763062,0.25050872564315796,-0.5989619493484497,0.6328325271606445,-0.24588707089424133
1749025300.4342663,2.9651904106140137,-0.26271100461993413,-1.5198479890823364,-0.13788266599688725,-5.29488724866976,3.672471046447754,0.05548880249261856,-0.028120016679167747,0.0176693145185709,-0.0584319643676281,0.18777170777320862,-0.10058015584945679,0.3123054504394531,-1.495349645614624,0.25470030307769775,-0.600685715675354,0.6103595495223999,-0.2301858514547348
1749025300.4343114,2.9652910232543945,-0.26279111326251225,-1.5198228359222412,-0.1380184453776856,-5.294564966355459,3.672248363494873,0.05509777367115021,-0.02767331525683403,0.017455831170082092,-0.05960501357913017,0.18838706612586975,-0.1017545685172081,0.3479834198951721,-1.4947654008865356,0.26670339703559875,-0.6085080504417419,0.612732470035553,-0.25020721554756165
1749025300.4343522,2.965390920639038,-0.2628275913051148,-1.5197672843933105,-0.1381189388087769,-5.294160310422079,3.6720380783081055,0.05471446365118027,-0.027592187747359276,0.018287744373083115,-0.0606960766017437,0.1915959119796753,-0.1066908910870552,0.352445125579834,-1.5243301391601562,0.24741023778915405,-0.6340769529342651,0.6217035055160522,-0.21920743584632874
1749025300.4344003,2.965526580810547,-0.262894944553711,-1.51974356174469,-0.1382787984660645,-5.29375666776766,3.671807050704956,0.05789380148053169,-0.028908591717481613,0.017918836325407028,-0.0612507238984108,0.19629265367984772,-0.10661744326353073,0.3446725308895111,-1.5112807750701904,0.2504422962665558,-0.6224649548530579,0.603533148765564,-0.229031503200531
1749025300.4344387,2.965639114379883,-0.2629389327815552,-1.5197234153747559,-0.13842208803210454,-5.293399755154745,3.671604633331299,0.05971404165029526,-0.03105396404862404,0.017533792182803154,-0.062242843210697174,0.19926533102989197,-0.1074306070804596,0.25682124495506287,-1.467061996459961,0.2646808624267578,-0.6080743670463562,0.6044884324073792,-0.23425628244876862
1749025300.434477,2.9657509326934814,-0.26299066961322026,-1.5196995735168457,-0.13849981248889165,-5.292960349713461,3.671388864517212,0.05573274940252304,-0.029670018702745438,0.018435506150126457,-0.06288214027881622,0.20350879430770874,-0.11137952655553818,0.337930828332901,-1.5077208280563354,0.25365209579467773,-0.6030279397964478,0.591320276260376,-0.2216835767030716
1749025300.4345145,2.965874671936035,-0.26308293760333257,-1.5196322202682495,-0.13861961782489018,-5.292488757763998,3.6711463928222656,0.056726422160863876,-0.028793223202228546,0.01877194084227085,-0.06452947854995728,0.20191526412963867,-0.1136484444141388,0.36083340644836426,-1.5089385509490967,0.26301610469818115,-0.6107121706008911,0.5849181413650513,-0.20090651512145996
1749025300.4345512,2.965975284576416,-0.2631076139262696,-1.5196113586425781,-0.13877149045977788,-5.292111877595083,3.6709229946136475,0.06011239439249039,-0.02911461889743805,0.017200320959091187,-0.06561462581157684,0.2030869871377945,-0.11562374979257584,0.32916146516799927,-1.5028977394104004,0.2538522183895111,-0.6009216904640198,0.5830234289169312,-0.19885875284671783
1749025300.4345882,2.966118335723877,-0.26319439828906255,-1.5196106433868408,-0.1389274162105103,-5.291691605244772,3.6706995964050293,0.05929974839091301,-0.030154993757605553,0.018702257424592972,-0.06691893190145493,0.20347706973552704,-0.11648780852556229,0.31092506647109985,-1.5046268701553345,0.27694636583328247,-0.5863347053527832,0.5954786539077759,-0.19194395840168
1749025300.4346244,2.9662744998931885,-0.263238863354065,-1.5195550918579102,-0.13907869279895024,-5.291266266499655,3.670421600341797,0.05820687115192413,-0.028671732172369957,0.019850200042128563,-0.06822327524423599,0.20427604019641876,-0.11503835022449493,0.32923686504364014,-1.5228779315948486,0.2625417411327362,-0.5923538208007812,0.5826761722564697,-0.21364450454711914
1749025300.4346752,2.966351270675659,-0.26329489172015386,-1.5195037126541138,-0.13921530664477544,-5.290901068841116,3.670240640640259,0.060280974954366684,-0.027118301019072533,0.019844476133584976,-0.06873665004968643,0.20524808764457703,-0.11520487815141678,0.31454217433929443,-1.5422097444534302,0.2594946622848511,-0.5810153484344482,0.594431459903717,-0.18096867203712463
1749025300.4347138,2.9664831161499023,-0.2633590263179322,-1.5194555521011353,-0.13935454309497075,-5.290442232285635,3.669994592666626,0.060898035764694214,-0.03129882737994194,0.01980644091963768,-0.07094228267669678,0.20595727860927582,-0.11368902772665024,0.3039011061191559,-1.5084969997406006,0.254827618598938,-0.5668736100196838,0.6054194569587708,-0.19157031178474426
1749025300.4347506,2.9666035175323486,-0.26339538515124516,-1.5194191932678223,-0.13951118410144048,-5.290045682583944,3.669774293899536,0.06145117059350014,-0.03110550343990326,0.019750570878386497,-0.07308300584554672,0.20914849638938904,-0.11351063847541809,0.3102427124977112,-1.5065971612930298,0.2806043028831482,-0.5404692888259888,0.585874617099762,-0.20795267820358276
1749025300.4347868,2.966735363006592,-0.26348967969927983,-1.5193867683410645,-0.13964791715655522,-5.289577786122457,3.66951322555542,0.06030964478850365,-0.029575403779745102,0.020093601197004318,-0.07136672735214233,0.21322284638881683,-0.11065486073493958,0.3315460681915283,-1.561482310295105,0.2609133720397949,-0.5481137037277222,0.5935357809066772,-0.20421376824378967
1749025300.434824,2.966855525970459,-0.263499454861023,-1.5193473100662231,-0.13981087625537114,-5.289173070584432,3.6693010330200195,0.06071968004107475,-0.029864409938454628,0.019958265125751495,-0.06933090090751648,0.21489420533180237,-0.11338187009096146,0.35027986764907837,-1.5321322679519653,0.25907886028289795,-0.5604495406150818,0.5831496715545654,-0.22194156050682068
1749025300.4348605,2.966928482055664,-0.2636025708964844,-1.5193145275115967,-0.13992758214984136,-5.288803342972891,3.6690967082977295,0.06121547520160675,-0.03169192373752594,0.01982904225587845,-0.0688638910651207,0.2177646905183792,-0.11464324593544006,0.35328465700149536,-1.5204776525497437,0.2762928307056427,-0.5712124109268188,0.5654972195625305,-0.20216770470142365
1749025300.4348974,2.967095375061035,-0.2636745733073731,-1.5192598104476929,-0.1400488179973145,-5.288343195115225,3.6688621044158936,0.062181949615478516,-0.0324588306248188,0.01991366408765316,-0.06836637854576111,0.21538513898849487,-0.11145343631505966,0.35284024477005005,-1.5238492488861084,0.2792620360851288,-0.5829779505729675,0.609932541847229,-0.2413831651210785
1749025300.434934,2.9672274589538574,-0.263737754230835,-1.5192468166351318,-0.14018829286608891,-5.287891451512472,3.6686201095581055,0.06259782612323761,-0.03247396647930145,0.020014893263578415,-0.06790401041507721,0.21864885091781616,-0.11395435780286789,0.33877307176589966,-1.5257118940353394,0.2738211452960968,-0.5864385962486267,0.6034403443336487,-0.23424220085144043
1749025300.434976,2.967385768890381,-0.26378245771441655,-1.519187331199646,-0.14033611238513188,-5.2874422113048,3.6683738231658936,0.06337197124958038,-0.032717496156692505,0.020536059513688087,-0.07098278403282166,0.21935059130191803,-0.11961978673934937,0.32719796895980835,-1.5370008945465088,0.2845136821269989,-0.5496663451194763,0.6155855655670166,-0.23211994767189026
1749025300.4350126,2.967529773712158,-0.263843373661377,-1.5191396474838257,-0.14047987878833013,-5.2870057860957544,3.668149709701538,0.06398668140172958,-0.03290946036577225,0.021196523681282997,-0.07109571248292923,0.222987562417984,-0.12147224694490433,0.33979034423828125,-1.5263636112213135,0.2776777744293213,-0.5598665475845337,0.649661660194397,-0.22887133061885834
1749025300.4351194,2.9676027297973633,-0.2639351648143311,-1.519079566001892,-0.14062388361010747,-5.286577228699819,3.667884111404419,0.06445025652647018,-0.03311685472726822,0.021397875621914864,-0.06747200340032578,0.22714105248451233,-0.12207059562206268,0.3466625213623047,-1.5488271713256836,0.27306434512138367,-0.5799273252487183,0.6199964284896851,-0.24460747838020325
1749025300.436558,2.9677622318267822,-0.2639790338328858,-1.5190186500549316,-0.14075227201495366,-5.28613251844515,3.6676361560821533,0.0651874914765358,-0.03345087170600891,0.021695703268051147,-0.06718550622463226,0.23049715161323547,-0.12580473721027374,0.3557594120502472,-1.559077501296997,0.26214757561683655,-0.608863353729248,0.6382825374603271,-0.23751193284988403
1749025300.4782736,2.967897653579712,-0.2640703481486817,-1.5189987421035767,-0.1408570569804688,-5.285667542611257,3.6673507690429688,0.0653616264462471,-0.034101761877536774,0.022086577489972115,-0.06878189742565155,0.23537452518939972,-0.12803912162780762,0.32086825370788574,-1.550391435623169,0.2769467234611511,-0.6005098223686218,0.5875271558761597,-0.2110903412103653
1749025300.4783196,2.968029737472534,-0.26414604604754643,-1.5189785957336426,-0.14104826868090825,-5.285155657921926,3.6671066284179688,0.06821040064096451,-0.03484044224023819,0.022097108885645866,-0.06977090984582901,0.23466543853282928,-0.12833842635154724,0.3123677372932434,-1.5388882160186768,0.2833400070667267,-0.5929930806159973,0.5805277228355408,-0.21657350659370422
1749025300.478368,2.968204975128174,-0.2642180484584351,-1.5189112424850464,-0.14115734518084722,-5.284679834042684,3.666855573654175,0.06498020142316818,-0.035095520317554474,0.02208223193883896,-0.06898068636655807,0.23536695539951324,-0.12836019694805145,0.3562237620353699,-1.5395382642745972,0.28339600563049316,-0.6161541938781738,0.5860128402709961,-0.21437430381774902
1749025300.4784088,2.968270778656006,-0.264289454822876,-1.5188628435134888,-0.14132078111682134,-5.284211937581198,3.6666200160980225,0.06578430533409119,-0.034735072404146194,0.022921202704310417,-0.06874468177556992,0.23622633516788483,-0.12685313820838928,0.34577637910842896,-1.5382198095321655,0.26647186279296875,-0.6323816180229187,0.6052610874176025,-0.20671653747558594
1749025300.4784474,2.968461275100708,-0.26431937635455327,-1.5188465118408203,-0.1414681237987061,-5.283758644257681,3.66640043258667,0.06916795670986176,-0.03561319410800934,0.023736553266644478,-0.06919603049755096,0.23994052410125732,-0.12537603080272675,0.32859930396080017,-1.5260401964187622,0.253384530544281,-0.639129638671875,0.5852364301681519,-0.24235394597053528
1749025300.4784853,2.96854305267334,-0.2644496721080323,-1.5187864303588867,-0.14163656652484136,-5.283290151749746,3.6660947799682617,0.06835682690143585,-0.03610817342996597,0.02375655621290207,-0.07125775516033173,0.2423788458108902,-0.12844933569431305,0.3294576108455658,-1.498681902885437,0.25124162435531616,-0.6381484866142273,0.5988849997520447,-0.25690698623657227
1749025300.4785287,2.9686903953552246,-0.26450248182330327,-1.5187345743179321,-0.14177711427722173,-5.282750670109884,3.6658670902252197,0.06914728879928589,-0.036620497703552246,0.023184148594737053,-0.07374310493469238,0.24540820717811584,-0.12837085127830505,0.34144285321235657,-1.5182924270629883,0.26716935634613037,-0.6341549754142761,0.5929720997810364,-0.26167112588882446
1749025300.4785674,2.9688570499420166,-0.26456721246752934,-1.5187060832977295,-0.14189358175311284,-5.282289210950033,3.6655852794647217,0.06945659220218658,-0.03752840682864189,0.023129481822252274,-0.0761624425649643,0.24788495898246765,-0.12858989834785461,0.3427385985851288,-1.515958547592163,0.25950777530670166,-0.6215469241142273,0.5945519208908081,-0.2601584792137146
1749025300.478605,2.969012975692749,-0.2646421951106568,-1.5186543464660645,-0.14208109796557622,-5.281836573277609,3.6653411388397217,0.07008926570415497,-0.037878938019275665,0.02344018779695034,-0.07649265229701996,0.24675843119621277,-0.13420112431049347,0.3278961777687073,-1.5163118839263916,0.2662036418914795,-0.6333698034286499,0.5941002368927002,-0.26081445813179016
1749025300.4786563,2.969106674194336,-0.2647417348674317,-1.518606185913086,-0.14223702371630864,-5.281340305005209,3.6650474071502686,0.06981009989976883,-0.03810817375779152,0.02377587929368019,-0.07748586684465408,0.24993184208869934,-0.13539639115333557,0.3508499562740326,-1.4834091663360596,0.260428249835968,-0.6263525485992432,0.5918333530426025,-0.24260489642620087
1749025300.4786959,2.9692542552948,-0.264770583515503,-1.5185388326644897,-0.14240868509326177,-5.280860010777609,3.664792060852051,0.07023584842681885,-0.037729665637016296,0.024006236344575882,-0.07917144149541855,0.24618744850158691,-0.13526664674282074,0.34224918484687805,-1.4719264507293701,0.2769482731819153,-0.6167342662811279,0.6289417147636414,-0.2649767994880676
1749025300.478733,2.969444990158081,-0.2648664277843018,-1.518478512763977,-0.14257677019152837,-5.280346933995382,3.664501190185547,0.07010579109191895,-0.03746055066585541,0.02401839569211006,-0.08081421256065369,0.2491200566291809,-0.13731814920902252,0.32676801085472107,-1.496238350868225,0.2702833414077759,-0.6212418675422668,0.6305738091468811,-0.2516685128211975
1749025300.478772,2.969552755355835,-0.26494284093890386,-1.5184310674667358,-0.14272578180346684,-5.279798809682028,3.664214611053467,0.07003441452980042,-0.0375777892768383,0.024794824421405792,-0.08310800790786743,0.25124236941337585,-0.1380961388349533,0.35685527324676514,-1.5066684484481812,0.27332356572151184,-0.5893442034721375,0.6230053901672363,-0.23858067393302917
1749025300.4788086,2.9697134494781494,-0.26503034055743413,-1.51838219165802,-0.14290602624926763,-5.27932578722109,3.6639246940612793,0.07140358537435532,-0.03635123372077942,0.025085411965847015,-0.08467525243759155,0.2523796558380127,-0.1397753655910492,0.33880314230918884,-1.5125267505645752,0.24588754773139954,-0.5721640586853027,0.6211437582969666,-0.23690301179885864
1749025300.4788451,2.969895839691162,-0.2651178401759644,-1.5183310508728027,-0.14308972776446538,-5.278786245976583,3.663668632507324,0.07219461351633072,-0.038093775510787964,0.025311559438705444,-0.08537384122610092,0.2596423327922821,-0.13928785920143127,0.29350948333740234,-1.5025323629379272,0.2421107143163681,-0.5498096346855164,0.5817203521728516,-0.24331852793693542
1749025300.4788883,2.9699857234954834,-0.26523299634967046,-1.5183138847351074,-0.14324553430590825,-5.2782772223102015,3.663374423980713,0.07094329595565796,-0.038112133741378784,0.024567849934101105,-0.08382218331098557,0.2573297321796417,-0.13946105539798737,0.33754462003707886,-1.4958535432815552,0.2313077449798584,-0.5596233606338501,0.5927486419677734,-0.24589680135250092
1749025300.4789279,2.970160722732544,-0.2652767461589356,-1.51823890209198,-0.14338608205828862,-5.277736727391378,3.663102865219116,0.0731523185968399,-0.03733167052268982,0.02369188517332077,-0.08368780463933945,0.2596706449985504,-0.13939858973026276,0.35625529289245605,-1.519016146659851,0.2573305070400238,-0.5804494023323059,0.5662886500358582,-0.233552947640419
1749025300.4789712,2.9703240394592285,-0.265314058666565,-1.5182174444198608,-0.1435660880855103,-5.277244154606954,3.6628599166870117,0.07365100085735321,-0.03568034619092941,0.023077640682458878,-0.08724924921989441,0.25896862149238586,-0.1382276564836502,0.32516729831695557,-1.5251202583312988,0.26250776648521423,-0.5432769060134888,0.5855259895324707,-0.25067874789237976
1749025300.4790082,2.970452308654785,-0.2654448312572022,-1.5182011127471924,-0.14379318178210454,-5.27671987215151,3.6625494956970215,0.07265633344650269,-0.038488756865262985,0.023346399888396263,-0.08674829453229904,0.26124364137649536,-0.1391259729862213,0.34456053376197815,-1.5006179809570312,0.28282272815704346,-0.5462395548820496,0.5760312080383301,-0.2531270980834961
1749025300.479045,2.9705770015716553,-0.26550181329760747,-1.5181372165679932,-0.14390631139788823,-5.276196424161093,3.6622354984283447,0.07343003153800964,-0.03791831433773041,0.024488043040037155,-0.08117519319057465,0.2603701949119568,-0.14145076274871826,0.35194137692451477,-1.5060445070266724,0.25776222348213196,-0.5443951487541199,0.5940800905227661,-0.24555721879005432
1749025300.47915,2.9707400798797607,-0.26555390775714116,-1.5180705785751343,-0.14408619821582036,-5.27570623556246,3.661980152130127,0.07375101745128632,-0.038682159036397934,0.024606380611658096,-0.08084684610366821,0.2597830891609192,-0.14125727117061615,0.3581946790218353,-1.4979609251022339,0.24737635254859924,-0.5705862641334534,0.6215060949325562,-0.24674606323242188
1749025300.4805698,2.970871925354004,-0.2656533283046265,-1.5180377960205078,-0.14425452173266606,-5.275166455899374,3.6617000102996826,0.07434409856796265,-0.03856457397341728,0.024043621495366096,-0.07978673279285431,0.262656569480896,-0.14010554552078247,0.36810028553009033,-1.5057306289672852,0.2627761960029602,-0.5742716789245605,0.6091631650924683,-0.2683764696121216
1749025300.522272,2.971008777618408,-0.2657326024821778,-1.5180089473724365,-0.14439495027575688,-5.2746819893466395,3.661393880844116,0.07474818825721741,-0.036482762545347214,0.02470606192946434,-0.08194365352392197,0.2637709379196167,-0.1429435759782791,0.35844582319259644,-1.5222828388214111,0.2688691318035126,-0.563054621219635,0.6004859805107117,-0.2663038372993469
1749025300.5223176,2.9711837768554688,-0.26584406316790776,-1.5179258584976196,-0.14459808290515141,-5.2741339842425745,3.6610727310180664,0.07394134253263474,-0.03659091144800186,0.02568744495511055,-0.08145095407962799,0.26462918519973755,-0.14347045123577118,0.34674644470214844,-1.5249066352844238,0.2492513358592987,-0.5630884170532227,0.6281353235244751,-0.24372370541095734
1749025300.5223577,2.9713516235351562,-0.2658894819072266,-1.517881989479065,-0.1447501939586182,-5.273624960576193,3.6608355045318604,0.07583324611186981,-0.03789496049284935,0.024630222469568253,-0.07745082676410675,0.2665483057498932,-0.14427702128887177,0.35133856534957886,-1.5212500095367432,0.25962790846824646,-0.603874921798706,0.639978289604187,-0.25361937284469604
1749025300.5224063,2.9714956283569336,-0.26596517980609136,-1.5178613662719727,-0.14487142980609136,-5.273064915333883,3.6605384349823,0.07586326450109482,-0.03798127546906471,0.0239389818161726,-0.07801109552383423,0.26876217126846313,-0.14551302790641785,0.3673166036605835,-1.530617356300354,0.27729636430740356,-0.6261706352233887,0.6202401518821716,-0.2759990692138672
1749025300.5224595,2.971644401550293,-0.2660535138896485,-1.517801284790039,-0.1450553697398682,-5.27256411710848,3.6602516174316406,0.07649017125368118,-0.037727970629930496,0.024010946974158287,-0.07985799014568329,0.27046313881874084,-0.14639988541603088,0.33720681071281433,-1.5085941553115845,0.29250073432922363,-0.5909929275512695,0.6314497590065002,-0.2642480134963989
1749025300.5225267,2.9717917442321777,-0.2661253970912476,-1.5177494287490845,-0.1452307266047974,-5.271987263356344,3.659968376159668,0.07670947909355164,-0.03698066249489784,0.02527354098856449,-0.08118519932031631,0.2751932740211487,-0.14662709832191467,0.37607914209365845,-1.5299162864685059,0.26089799404144287,-0.613953709602356,0.5980485677719116,-0.263511598110199
1749025300.5225778,2.9719598293304443,-0.2661895316890259,-1.5176819562911987,-0.14536722124133306,-5.271458689366476,3.6596453189849854,0.07688868045806885,-0.03732103109359741,0.02597152628004551,-0.08337171375751495,0.27575117349624634,-0.14757920801639557,0.3878098428249359,-1.5520089864730835,0.255422443151474,-0.6086246371269226,0.6090470552444458,-0.2597281336784363
1749025300.522618,2.972092866897583,-0.26626868665728765,-1.517638087272644,-0.14553947866473393,-5.270893994961874,3.659404993057251,0.0768512636423111,-0.038273561745882034,0.025281263515353203,-0.08565682917833328,0.27792778611183167,-0.15023645758628845,0.3573780059814453,-1.5540862083435059,0.24046781659126282,-0.6207764148712158,0.6093244552612305,-0.26317915320396423
1749025300.522656,2.97224497795105,-0.26633353651080327,-1.5176091194152832,-0.14571114004168706,-5.270333949719564,3.659060001373291,0.08101501315832138,-0.03852834925055504,0.024385541677474976,-0.08779165148735046,0.2788717746734619,-0.1485813409090042,0.3268892168998718,-1.5249545574188232,0.2803329825401306,-0.595914363861084,0.6010716557502747,-0.2434844821691513
1749025300.522725,2.972454071044922,-0.2664129298976441,-1.5175178050994873,-0.14589138448748784,-5.269758526478903,3.6587765216827393,0.07710706442594528,-0.03821234032511711,0.02470896579325199,-0.09056571125984192,0.27874812483787537,-0.14651623368263245,0.36339372396469116,-1.5469013452529907,0.26198577880859375,-0.589491605758667,0.602739155292511,-0.2906717360019684
1749025300.5227625,2.972583293914795,-0.26643045366320806,-1.5174697637557983,-0.14605553567919927,-5.26922041574587,3.6584744453430176,0.07720689475536346,-0.037851084023714066,0.025485994294285774,-0.09349463135004044,0.27874577045440674,-0.15154817700386047,0.36595943570137024,-1.5670894384384155,0.2625454068183899,-0.5610602498054504,0.5992010235786438,-0.26237404346466064
1749025300.5227997,2.9727165699005127,-0.2665850681117554,-1.5174256563186646,-0.14629824579272466,-5.268652145062582,3.658155918121338,0.08076222985982895,-0.03767502307891846,0.02585565857589245,-0.09388100355863571,0.27594152092933655,-0.1512938141822815,0.35388267040252686,-1.5843173265457153,0.2602812647819519,-0.5583617687225342,0.6376738548278809,-0.2687811255455017
1749025300.522837,2.9728915691375732,-0.26666052759204106,-1.5173770189285278,-0.14642436922106938,-5.26808733144869,3.657824993133545,0.07816736400127411,-0.03901524096727371,0.026231935247778893,-0.09463754296302795,0.2795495092868805,-0.15380387008190155,0.3719821274280548,-1.5613219738006592,0.23185425996780396,-0.5337470173835754,0.6059612035751343,-0.25208622217178345
1749025300.5228744,2.9730825424194336,-0.26668162763629155,-1.5173323154449463,-0.14666350305590825,-5.267547194157736,3.657538652420044,0.07975094020366669,-0.03901566192507744,0.025004442781209946,-0.09668014943599701,0.2807690501213074,-0.15596726536750793,0.3822607100009918,-1.5800292491912842,0.25003311038017273,-0.5482743382453918,0.6510874629020691,-0.24177028238773346
1749025300.5229113,2.973222494125366,-0.26679666460070806,-1.517281174659729,-0.14684005201373296,-5.266954843197958,3.657254934310913,0.08082491904497147,-0.040362320840358734,0.025056567043066025,-0.09417714178562164,0.2805808186531067,-0.15700116753578186,0.3753875494003296,-1.56184983253479,0.2554897964000702,-0.5361234545707703,0.6510717868804932,-0.23640289902687073
1749025300.5229475,2.9734063148498535,-0.26683397710833745,-1.517204761505127,-0.14701636255297856,-5.26638907590975,3.6569292545318604,0.08211500197649002,-0.04156109690666199,0.025413434952497482,-0.09316466748714447,0.2825888395309448,-0.15812833607196808,0.351223349571228,-1.5623269081115723,0.2491820752620697,-0.546787440776825,0.649399995803833,-0.26091641187667847
1749025300.5229907,2.9735584259033203,-0.2669251722148438,-1.5171610116958618,-0.14721591890368657,-5.265836302434103,3.6566338539123535,0.08209939301013947,-0.04120364040136337,0.025452982634305954,-0.09174858778715134,0.2852904498577118,-0.1586475521326065,0.36038291454315186,-1.5582138299942017,0.25717267394065857,-0.5506249666213989,0.6493954062461853,-0.25858837366104126
