nimar13/UR3e_dataset_trayectorias/trayectorias_ejecutadas/jtraj/trayectoria_067_result.csv
timestamp,q1,q2,q3,q4,q5,q6,qd1,qd2,qd3,qd4,qd5,qd6,tau1,tau2,tau3,tau4,tau5,tau6
1749027019.7422779,4.859439849853516,-2.7799984417357386,-0.399186909198761,1.7318190771290283,-0.021548096333638966,3.6394667625427246,-0.007688305340707302,0.002618218772113323,0.0006936629069969058,-0.0008067720336839557,0.0006703518447466195,-0.004180571995675564,0.038949862122535706,1.708903431892395,0.6709043383598328,-0.40850794315338135,0.34815967082977295,0.031155351549386978
1749027019.7423236,4.859330177307129,-2.7800141773619593,-0.3991677761077881,1.7317647176929931,-0.021536175404683888,3.639451265335083,-0.008117442950606346,0.0019453129498288035,0.0005816249176859856,-0.0006594161968678236,0.000536737556103617,-0.0031182600650936365,0.06826372444629669,1.7389507293701172,0.688472330570221,-0.4033084511756897,0.35050809383392334,0.01665658690035343
1749027019.7423644,4.859386444091797,-2.780022283593649,-0.39917969703674316,1.7317802149006347,-0.02156716981996709,3.639470338821411,-0.00714754406362772,0.0015047602355480194,0.0005380851216614246,-0.0006039562285877764,0.0004880576452706009,-0.002546225441619754,0.052771203219890594,1.722106695175171,0.68832927942276,-0.39471882581710815,0.3480469584465027,0.01517951674759388
1749027019.7424028,4.859289169311523,-2.780032297173971,-0.3991486430168152,1.7317837911793212,-0.021552864705220998,3.639458417892456,-0.006644417531788349,0.001385693671181798,0.0005006688297726214,-0.0005571057554334402,0.0004474645829759538,-0.002350249094888568,0.07439249753952026,1.731263279914856,0.6824459433555603,-0.4178617596626282,0.3631996214389801,0.0026952188927680254
1749027019.7424407,4.859324932098389,-2.7799836597838343,-0.39917969703674316,1.731757326717041,-0.021544758473531544,3.6394238471984863,-0.006444239988923073,0.0011632231762632728,0.00046809902414679527,-0.0005170130752958357,0.00041315899579785764,-0.002129561034962535,0.048471760004758835,1.7276101112365723,0.6978510022163391,-0.4005975127220154,0.35611987113952637,-0.0004863790236413479
1749027019.7424784,4.859270095825195,-2.780041357079977,-0.39919912815093994,1.7318119245716552,-0.021570984517232716,3.639458417892456,-0.0058042495511472225,0.0010012858547270298,0.0004394841380417347,-0.0004823138006031513,0.0003837395051959902,-0.0020474449265748262,0.061509378254413605,1.7558621168136597,0.675324559211731,-0.4083767533302307,0.3604125380516052,0.025941861793398857
1749027019.7425163,4.859308242797852,-2.7800141773619593,-0.39917969703674316,1.7318200308033447,-0.021567646657125294,3.6394309997558594,-0.00497614499181509,0.0008789643761701882,0.00041421083733439445,-0.00045198696898296475,0.0003582201898097992,-0.002255847444757819,0.06185175105929375,1.7388395071029663,0.6963087916374207,-0.401023268699646,0.34142929315567017,0.002915761899203062
1749027019.742554,4.859280586242676,-2.7799984417357386,-0.3991641700267792,1.7318083482929687,-0.02159148851503545,3.6394238471984863,-0.004520583897829056,0.0007832858245819807,0.0003916715504601598,-0.0004252543149050325,0.0003359129768796265,-0.002435247879475355,0.056176312267780304,1.746177315711975,0.6984719634056091,-0.4099511504173279,0.3442429006099701,-0.0004635518416762352
1749027019.7425919,4.859292507171631,-2.780057569543356,-0.39919185638427734,1.731757326717041,-0.02155191103090459,3.6394155025482178,-0.0038945639971643686,0.0007063981029205024,0.00037143848021514714,-0.00040151120629161596,0.000316216959618032,-0.002356876851990819,0.06472134590148926,1.725709319114685,0.6877644658088684,-0.3917806148529053,0.3435633182525635,0.016753248870372772
1749027019.7426286,4.859304428100586,-2.7800141773619593,-0.3991760313510895,1.731804533595703,-0.02156716981996709,3.639434576034546,-0.0033973054960370064,0.0006432674126699567,0.00035322635085321963,-0.00038028083508834243,0.0002986942999996245,-0.002006585942581296,0.0562247708439827,1.7165549993515015,0.7047011256217957,-0.40036797523498535,0.3638666868209839,0.023348316550254822
1749027019.7426662,4.859285354614258,-2.780010839501852,-0.39917969703674316,1.7317728239246826,-0.021570984517232716,3.639434576034546,-0.0027018145192414522,0.0005904930294491351,0.00033670460106804967,-0.00036118621937930584,0.00028303058934397995,-0.0014891766477376223,0.0765799731016159,1.7279963493347168,0.6923132538795471,-0.3980598449707031,0.35263437032699585,0.016544269397854805
1749027019.742704,4.859270095825195,-2.780034681359762,-0.39920735359191895,1.7317766386219482,-0.02156383195985967,3.639434576034546,-0.0023297425359487534,0.0005457228980958462,0.0003216444456484169,-0.0003439182764850557,0.0002689233224373311,-0.0012813619105145335,0.05236457288265228,1.7236932516098022,0.6882584691047668,-0.3842211365699768,0.3563763499259949,0.020581724122166634
1749027019.7427428,4.859331130981445,-2.7799679241576136,-0.3991486430168152,1.7317921358295898,-0.021544758473531544,3.639434576034546,-0.0017236093990504742,0.0005072696367278695,0.00030789917218498886,-0.00032822779030539095,0.0002561489527579397,-0.0010694287484511733,0.039655089378356934,1.7202683687210083,0.6983970403671265,-0.39420759677886963,0.3477326035499573,0.002724164631217718
1749027019.7427804,4.859320163726807,-2.779995103875631,-0.3992110788822174,1.7318119245716552,-0.021575752888814748,3.6394035816192627,-0.0009665086399763823,0.00044460786739364266,0.00028362468583509326,-0.0003007858176715672,0.00023394501477014273,-0.000885619898326695,0.05573728308081627,1.718194603919983,0.6877695918083191,-0.4061044454574585,0.338080495595932,0.025692060589790344
1749027019.742818,4.859320163726807,-2.779995103875631,-0.3992110788822174,1.7318119245716552,-0.021575752888814748,3.6394035816192627,-0.0009665086399763823,0.00044460786739364266,0.00028362468583509326,-0.0003007858176715672,0.00023394501477014273,-0.000885619898326695,0.05573728308081627,1.718194603919983,0.6877695918083191,-0.4061044454574585,0.338080495595932,0.025692060589790344
1749027019.7428563,4.859320163726807,-2.779995103875631,-0.3991833031177521,1.7318119245716552,-0.021571938191549123,3.639434576034546,-0.0006756862276233733,0.0003957308072131127,0.00026291757239960134,-0.0002775804023258388,0.00021527944772969931,-0.0007837226148694754,0.04120153188705444,1.7087773084640503,0.6981933116912842,-0.3888944983482361,0.3259584605693817,0.011671353131532669
1749027019.7428944,4.859320163726807,-2.779995103875631,-0.3991833031177521,1.7318119245716552,-0.021571938191549123,3.639434576034546,-0.0006756862276233733,0.0003957308072131127,0.00026291757239960134,-0.0002775804023258388,0.00021527944772969931,-0.0007837226148694754,0.04120153188705444,1.7087773084640503,0.6981933116912842,-0.3888944983482361,0.3259584605693817,0.011671353131532669
1749027019.7429452,4.859327793121338,-2.7799984417357386,-0.39917969703674316,1.7318083482929687,-0.02156383195985967,3.639400005340576,-0.0005874604103155434,0.00037511021946556866,0.0002536468382459134,-0.00026727153453975916,0.00020702257461380213,-0.0007151096942834556,0.04692736268043518,1.7050906419754028,0.6886720061302185,-0.3811829090118408,0.3332556486129761,0.037174105644226074
1749027019.7429855,4.859288692474365,-2.780001779595846,-0.3991677761077881,1.7317837911793212,-0.02151662508119756,3.6394035816192627,-0.0003725976566784084,0.0003397116670385003,0.0002369558351347223,-0.00024879263946786523,0.00019227289885748178,-0.0005978522822260857,0.047057654708623886,1.6608966588974,0.6859484314918518,-0.38024306297302246,0.3203352689743042,0.03526529669761658
1749027019.743023,4.859288692474365,-2.780001779595846,-0.3991677761077881,1.7317837911793212,-0.02151662508119756,3.6394035816192627,-0.0003725976566784084,0.0003397116670385003,0.0002369558351347223,-0.00024879263946786523,0.00019227289885748178,-0.0005978522822260857,0.047057654708623886,1.6608966588974,0.6859484314918518,-0.38024306297302246,0.3203352689743042,0.03526529669761658
1749027019.7437406,4.85926628112793,-2.779964109460348,-0.3991677761077881,1.7317837911793212,-0.021532837544576466,3.6394190788269043,-0.0003376563254278153,0.0003244032268412411,0.00022939806513022631,-0.0002404797705821693,0.00018566037761047482,-0.0005519574042409658,0.0821448341012001,1.6554549932479858,0.6874117255210876,-0.3823862075805664,0.31809157133102417,0.01993945613503456
1749027019.745732,4.859304428100586,-2.7800175152220667,-0.3991594612598419,1.7317682939716796,-0.021536175404683888,3.6394107341766357,-0.0002340803184779361,0.00031041709007695317,0.0002223204937763512,-0.00023270468227565289,0.00017948323511518538,-0.0005125863826833665,0.06550471484661102,1.6833175420761108,0.6932244896888733,-0.372167706489563,0.31081435084342957,0.02165486104786396
1749027019.7862673,4.859314918518066,-2.7800051174559535,-0.399186909198761,1.7317957121082763,-0.02156716981996709,3.6394190788269043,-0.0002135613904101774,0.00029758657910861075,0.00021566104260273278,-0.00022541674843523651,0.0001737103593768552,-0.0004784627235494554,0.07781863212585449,1.6788617372512817,0.68791663646698,-0.37655115127563477,0.3292003273963928,0.04503782093524933
1749027019.7863123,4.859292507171631,-2.7799745998778285,-0.399186909198761,1.7317485052296142,-0.021560494099752248,3.639422655105591,0.00015741423703730106,0.00028577379998750985,0.000209382880711928,-0.00021857158571947366,0.00016829543164931238,-0.00044860425987280905,0.0837649255990982,1.6570290327072144,0.6754561066627502,-0.3747027516365051,0.3293168544769287,0.024461137130856514
1749027019.7863522,4.859320640563965,-2.7799984417357386,-0.39912062883377075,1.7317766386219482,-0.021579567586080373,3.6394309997558594,0.00014793062291573733,0.0002748651895672083,0.00020347078680060804,-0.0002121300349244848,0.00016320441500283778,-0.00042225795914418995,0.07843836396932602,1.635225534439087,0.6707088947296143,-0.3841104507446289,0.3146299719810486,0.03993295505642891
1749027019.7863903,4.859285354614258,-2.779991766015524,-0.39918333292007446,1.7317992883869628,-0.02160197893251592,3.6394155025482178,0.00013671600027009845,0.00023499233066104352,0.00019787860219366848,-0.00020605749159585685,0.00015841753338463604,-0.0003988396201748401,0.08040870726108551,1.6479675769805908,0.6806251406669617,-0.3685064911842346,0.3269493579864502,0.02333465963602066
1749027019.7864277,4.859311580657959,-2.7800289593138636,-0.3991641700267792,1.7317802149006347,-0.02152902284731084,3.639422655105591,0.00012707158748526126,0.0002234776911791414,0.0001925801334436983,-0.00020032287284266204,0.00015390184125863016,-0.0003778846003115177,0.08343959599733353,1.6586993932724,0.6833404302597046,-0.37244343757629395,0.32808244228363037,0.040785450488328934
1749027019.7864656,4.859295845031738,-2.7800175152220667,-0.3991641700267792,1.7318083482929687,-0.02158672014345342,3.6394155025482178,0.00011869079753523692,0.00021579225722234696,0.00018756747886072844,-0.00017496156215202063,0.00014963364810682833,-0.0003590234846342355,0.08787260204553604,1.630828619003296,0.6904934048652649,-0.3680567741394043,0.31978827714920044,0.029717713594436646
1749027019.7865033,4.859299659729004,-2.7800141773619593,-0.3991677761077881,1.7318083482929687,-0.021571938191549123,3.639434576034546,0.0001572719047544524,0.00020213707466609776,0.00017827424744609743,-0.00016191457689274102,0.00014177695265971124,-0.00032644151360727847,0.10997585952281952,1.6453808546066284,0.6907000541687012,-0.3722897171974182,0.30475175380706787,0.023342832922935486
1749027019.78654,4.859323978424072,-2.780022283593649,-0.39917969703674316,1.7317837911793212,-0.021532837544576466,3.6394155025482178,0.00019766220066230744,6.028881034580991e-05,0.00017397062038071454,-0.00015774989151395857,0.00013014550495427102,-0.0003122738271486014,0.08275336027145386,1.6274060010910034,0.6697277426719666,-0.36902105808258057,0.3062117397785187,0.03634966164827347
1749027019.7865777,4.859323978424072,-2.780022283593649,-0.39917969703674316,1.7317837911793212,-0.021532837544576466,3.6394155025482178,0.00019766220066230744,6.028881034580991e-05,0.00017397062038071454,-0.00015774989151395857,0.00013014550495427102,-0.0003122738271486014,0.08275336027145386,1.6274060010910034,0.6697277426719666,-0.36902105808258057,0.3062117397785187,0.03634966164827347
1749027019.7866154,4.859308242797852,-2.780010839501852,-0.39919185638427734,1.731804533595703,-0.02154857317079717,3.639388084411621,0.00023326941300183535,5.7057197409449145e-05,0.00016986615082714707,-0.00015387676830869168,0.00011490643373690546,-0.000299285224173218,0.09476427733898163,1.6494592428207397,0.6799290776252747,-0.36825990676879883,0.3121541738510132,0.026078147813677788
1749027019.786653,4.859316825866699,-2.780025621453756,-0.39917969703674316,1.7317802149006347,-0.021587673817769826,3.6394155025482178,0.00022404550691135228,3.640057548182085e-05,0.0001659469708101824,-0.00015020401042420417,0.00010998873767675832,-0.00028733437648043036,0.12261579185724258,1.6125468015670776,0.6804383397102356,-0.3737815022468567,0.2985821068286896,0.047160554677248
1749027019.78669,4.859316825866699,-2.780004163781637,-0.3992147147655487,1.7317802149006347,-0.021594826375142873,3.6394190788269043,0.0004101883096154779,2.6907269784715027e-05,0.0001622116396902129,-0.00014670508971903473,9.471212251810357e-05,-0.00027630184195004404,0.09809435158967972,1.6158822774887085,0.6699343919754028,-0.3705720901489258,0.30059814453125,0.04396900534629822
1749027019.7867262,4.859285354614258,-2.7799836597838343,-0.39919552206993103,1.7317728239246826,-0.021598641072408498,3.639434576034546,0.0004507963021751493,2.6046502171084285e-05,0.00015863770386204123,-0.00014336597814690322,8.517023525200784e-05,-0.0002660861355252564,0.07804891467094421,1.6253983974456787,0.6779093742370605,-0.36475706100463867,0.3030650019645691,0.03758948668837547
1749027019.786763,4.859270095825195,-2.779980321923727,-0.39919185638427734,1.7317847448536376,-0.021560494099752248,3.639434576034546,0.0004182071425020695,2.53130365308607e-05,0.0001552144531160593,-0.00014017551438882947,8.193961548386142e-05,-0.0002565987524576485,0.10280737280845642,1.6087405681610107,0.6858016848564148,-0.36717432737350464,0.30778199434280396,0.03588669374585152
1749027019.7868001,4.859320163726807,-2.780025621453756,-0.3992074131965637,1.7317883211323242,-0.021544758473531544,3.639446496963501,0.00042244201176799834,7.600831253284923e-08,0.00014880167145747691,-4.849189645028673e-05,7.81179842306301e-05,-0.0002395127376075834,0.09692352265119553,1.5841925144195557,0.6770557761192322,-0.36329662799835205,0.2876940965652466,0.03780146688222885
1749027019.786837,4.859320163726807,-2.780025621453756,-0.3992074131965637,1.7317883211323242,-0.021544758473531544,3.639446496963501,0.00042244201176799834,7.600831253284923e-08,0.00014880167145747691,-4.849189645028673e-05,7.81179842306301e-05,-0.0002395127376075834,0.09692352265119553,1.5841925144195557,0.6770557761192322,-0.36329662799835205,0.2876940965652466,0.03780146688222885
1749027019.7868738,4.859338760375977,-2.780041833917135,-0.3991568982601166,1.7318155008503417,-0.021552864705220998,3.639422655105591,0.00045189785305410624,7.415831282386876e-10,0.00014578559785149992,-4.169665044173598e-05,6.0789923736592755e-05,-0.00023180448624771088,0.13829609751701355,1.5267266035079956,0.6856783628463745,-0.36729079484939575,0.2764662802219391,0.05054005980491638
1749027019.786924,4.859292507171631,-2.780022283593649,-0.3991832733154297,1.731757326717041,-0.021571938191549123,3.6394155025482178,0.0007491644937545061,7.23533429350387e-12,0.00014289507817011327,-3.9771486626705155e-05,5.678576053469442e-05,-0.00022457283921539783,0.15595820546150208,1.4823311567306519,0.6932322382926941,-0.329484224319458,0.2642378807067871,0.025481054559350014
1749027019.7869625,4.859309673309326,-2.780034681359762,-0.3991760015487671,1.731804533595703,-0.021537605916158498,3.6394035816192627,0.0009115841239690781,-0.003419664455577731,0.00014011435268912464,-2.4748689611442387e-05,-2.960880010505207e-05,-0.0002177783753722906,0.1520509123802185,1.4915627241134644,0.6986001133918762,-0.33571624755859375,0.2555062174797058,0.033129941672086716
1749027019.786999,4.859273433685303,-2.7800075016417445,-0.3991641700267792,1.731804533595703,-0.021552864705220998,3.6394190788269043,0.002452729269862175,-0.004217865876853466,0.0001374369312543422,-9.001468242786359e-06,-6.001681322231889e-05,-0.0002113827649736777,0.11805953830480576,1.5079599618911743,0.7067896127700806,-0.32440000772476196,0.25616803765296936,0.031431566923856735
1749027019.7877064,4.859316825866699,-2.7799874744811,-0.399186909198761,1.7317957121082763,-0.02154857317079717,3.639400005340576,0.0021022092550992966,-0.0031126372050493956,9.410883649252355e-05,-1.590653710081824e-06,-7.323686440940946e-05,-0.00020535223302431405,0.1322823464870453,1.47816002368927,0.710557222366333,-0.3215356469154358,0.23987577855587006,0.024427087977528572
1749027019.7897506,4.859304428100586,-2.7800075016417445,-0.3991713523864746,1.7318083482929687,-0.021560494099752248,3.6394035816192627,0.0014529824256896973,-0.0013721119612455368,9.945278725354001e-05,-2.8108522087677557e-07,-8.961191633716226e-05,-0.0001996561768464744,0.1242172122001648,1.4783507585525513,0.7272339463233948,-0.31647807359695435,0.22958390414714813,0.02674245834350586
1749027019.8343077,4.859328269958496,-2.780010839501852,-0.3991677761077881,1.7317802149006347,-0.02154857317079717,3.639407157897949,0.0010976645862683654,-0.000982219586148858,0.0001243249571416527,-4.967070665884421e-08,-0.0007561789825558662,-0.00019426821381784976,0.1339462697505951,1.4820631742477417,0.7314065098762512,-0.3358439803123474,0.21679489314556122,0.006937159691005945
1749027019.834354,4.859297275543213,-2.779987951318258,-0.3991522490978241,1.7318119245716552,-0.02161103883852178,3.6394309997558594,0.0005897372029721737,-0.000481791706988588,0.0015008836053311825,-1.5510470685597966e-09,-0.0010025050723925233,-0.00013976666377857327,0.13155138492584229,1.5805314779281616,0.7233781218528748,-0.3558306097984314,0.20637838542461395,0.019733864814043045
1749027019.8344,4.859297275543213,-2.779987951318258,-0.3991522490978241,1.7318119245716552,-0.02161103883852178,3.6394309997558594,0.0005897372029721737,-0.000481791706988588,0.0015008836053311825,-1.5510470685597966e-09,-0.0010025050723925233,-0.00013976666377857327,0.13155138492584229,1.5805314779281616,0.7233781218528748,-0.3558306097984314,0.20637838542461395,0.019733864814043045
1749027019.8344405,4.859304428100586,-2.779987951318258,-0.3991367220878601,1.7317728239246826,-0.021584335957662404,3.6394381523132324,0.0005066974554210901,0.00048397871432825923,0.0024773376062512398,-2.740863092043355e-10,-0.0010906722163781524,-0.00015562013140879571,0.10480751097202301,1.6435788869857788,0.7321559190750122,-0.3545109033584595,0.19996705651283264,0.004203809890896082
1749027019.8344884,4.859335422515869,-2.780022283593649,-0.3991522490978241,1.7317728239246826,-0.02154094377626592,3.6394035816192627,0.0004441354249138385,0.0018274585017934442,0.0018957057036459446,-4.8433927007929256e-11,-0.0012493343092501163,-0.0005353948217816651,0.10284002125263214,1.7215147018432617,0.7244987487792969,-0.3711244463920593,0.18977512419223785,0.006534652318805456
1749027019.8345299,4.8593316078186035,-2.7800141773619593,-0.399171382188797,1.731804533595703,-0.021584335957662404,3.6393916606903076,0.0003283863188698888,0.003836421063169837,0.0014620647998526692,-8.558783889944799e-12,-0.0017569754272699356,-0.001193256233818829,0.12988819181919098,1.7455440759658813,0.7247447371482849,-0.39610493183135986,0.1800789088010788,-0.01514134369790554
1749027019.8345683,4.859308242797852,-2.780003686944479,-0.3991486430168152,1.7317992883869628,-0.021611515675679982,3.639383316040039,-0.0001428644172847271,0.005170141346752644,0.000996868941001594,-2.6726169020940826e-13,-0.004451827611774206,-0.0018756864592432976,0.1099933460354805,1.7893251180648804,0.7277860045433044,-0.43065500259399414,0.16444426774978638,-0.0119393952190876
1749027019.8346066,4.859308242797852,-2.780003686944479,-0.3991486430168152,1.7317992883869628,-0.021611515675679982,3.639383316040039,-0.0001428644172847271,0.005170141346752644,0.000996868941001594,-2.6726169020940826e-13,-0.004451827611774206,-0.0018756864592432976,0.1099933460354805,1.7893251180648804,0.7277860045433044,-0.43065500259399414,0.16444426774978638,-0.0119393952190876
1749027019.8346443,4.859285354614258,-2.7799607716002406,-0.399171382188797,1.7317766386219482,-0.021603886281148732,3.6393728256225586,-0.00025163107784464955,0.005040326155722141,0.0008602605666965246,-4.7227948277422244e-14,-0.006527045741677284,-0.001990947173908353,0.08747223764657974,1.8287978172302246,0.7231941223144531,-0.4689965844154358,0.16454638540744781,-0.004359257873147726
1749027019.8346813,4.8593010902404785,-2.7799674473204554,-0.399186909198761,1.7317802149006347,-0.021639649068013966,3.639383316040039,-0.00035914755426347256,0.007442026399075985,0.0006753778434358537,-0.002976231975480914,-0.007191695738583803,-0.002966607455164194,0.08567310124635696,1.9156880378723145,0.7115538120269775,-0.5098574757575989,0.16185206174850464,-0.0405593104660511
1749027019.8347194,4.8593010902404785,-2.7799674473204554,-0.399186909198761,1.7317802149006347,-0.021639649068013966,3.639383316040039,-0.00035914755426347256,0.007442026399075985,0.0006753778434358537,-0.002976231975480914,-0.007191695738583803,-0.002966607455164194,0.08567310124635696,1.9156880378723145,0.7115538120269775,-0.5098574757575989,0.16185206174850464,-0.0405593104660511
1749027019.8347566,4.859292507171631,-2.7799626789488734,-0.3991677761077881,1.7317485052296142,-0.021687809620992482,3.6393868923187256,-0.0013331234222278,0.010089021176099777,0.0006098979501985013,-0.0054301065392792225,-0.008054804056882858,-0.004576655104756355,0.061339590698480606,1.9148520231246948,0.7234910130500793,-0.5367491841316223,0.15510831773281097,-0.036250706762075424
1749027019.8347938,4.859278202056885,-2.7799908123412074,-0.3991641700267792,1.7317249017902832,-0.021671597157613576,3.639348268508911,-0.0013032074784860015,0.011790444143116474,0.0005559565615840256,-0.007572129834443331,-0.00997960940003395,-0.005831319373100996,0.02461196854710579,1.9315407276153564,0.7195743918418884,-0.5558295845985413,0.16072091460227966,-0.03439567610621452
1749027019.834831,4.859328269958496,-2.7799436054625453,-0.399171382188797,1.7317284780689697,-0.02170449892152959,3.639343500137329,-0.0017402906669303775,0.014124971814453602,0.0005108678597025573,-0.010513187386095524,-0.011882904917001724,-0.006786854937672615,0.013055510818958282,1.9748222827911377,0.705306351184845,-0.572738766670227,0.16448086500167847,-0.039025820791721344
1749027019.8348682,4.859288692474365,-2.7798873386778773,-0.3992229402065277,1.7316719728657226,-0.02178651491274053,3.6393203735351562,-0.0021429257467389107,0.018062550574541092,0.000180285147507675,-0.01411683764308691,-0.015531511977314949,-0.007165090646594763,-0.010489694774150848,2.0238733291625977,0.7007495760917664,-0.5710982084274292,0.18690505623817444,-0.04085616022348404
1749027019.8349054,4.859288692474365,-2.7798873386778773,-0.3992229402065277,1.7316719728657226,-0.02178651491274053,3.6393203735351562,-0.0021429257467389107,0.018062550574541092,0.000180285147507675,-0.01411683764308691,-0.015531511977314949,-0.007165090646594763,-0.010489694774150848,2.0238733291625977,0.7007495760917664,-0.5710982084274292,0.18690505623817444,-0.04085616022348404
1749027019.8349457,4.859285354614258,-2.779863496819967,-0.3992037773132324,1.731644554729126,-0.021838967000142873,3.6393539905548096,-0.0030571953393518925,0.018829723820090294,0.00013185663556214422,-0.014209617860615253,-0.016304634511470795,-0.008151632733643055,-0.033390939235687256,1.998004674911499,0.6945859789848328,-0.5727404952049255,0.1822565197944641,-0.0481313094496727
1749027019.834985,4.859292507171631,-2.7797681293883265,-0.3991723954677582,1.7315684992023925,-0.021910015736715138,3.63930344581604,-0.004184299148619175,0.01917119137942791,5.85054986004252e-05,-0.01447887159883976,-0.018243679776787758,-0.010465508326888084,-0.052050597965717316,2.033897638320923,0.6828932166099548,-0.6130634546279907,0.16264018416404724,-0.052149660885334015
1749027019.835023,4.859292507171631,-2.7797681293883265,-0.3991723954677582,1.7315684992023925,-0.021910015736715138,3.63930344581604,-0.004184299148619175,0.01917119137942791,5.85054986004252e-05,-0.01447887159883976,-0.018243679776787758,-0.010465508326888084,-0.052050597965717316,2.033897638320923,0.6828932166099548,-0.6130634546279907,0.16264018416404724,-0.052149660885334015
1749027019.8350592,4.859272480010986,-2.779691835443014,-0.39918825030326843,1.7315208154865722,-0.021955792103902638,3.639270782470703,-0.005866553634405136,0.02052687108516693,4.775234856424504e-07,-0.015525445342063904,-0.01886436901986599,-0.011882893741130829,-0.08525094389915466,2.05128812789917,0.6559976935386658,-0.6478370428085327,0.18066227436065674,-0.04583248868584633
1749027019.8350954,4.859272480010986,-2.779691835443014,-0.39918825030326843,1.7315208154865722,-0.021955792103902638,3.639270782470703,-0.005866553634405136,0.02052687108516693,4.775234856424504e-07,-0.015525445342063904,-0.01886436901986599,-0.011882893741130829,-0.08525094389915466,2.05128812789917,0.6559976935386658,-0.6478370428085327,0.18066227436065674,-0.04583248868584633
1749027019.8351326,4.85930061340332,-2.7796675167479457,-0.39920374751091003,1.731515570277832,-0.021996323262349904,3.6392314434051514,-0.007234967779368162,0.02207462675869465,3.117887459325175e-08,-0.01743173412978649,-0.019729863852262497,-0.012053457088768482,-0.1037575900554657,2.0494887828826904,0.6372840404510498,-0.6395806074142456,0.19249559938907623,-0.075542151927948
1749027019.8357265,4.859218597412109,-2.7795473537840785,-0.39919185638427734,1.7314156728931884,-0.02209502855409795,3.6391677856445312,-0.008640608750283718,0.024143751710653305,1.329204246669491e-10,-0.02203458361327648,-0.016365790739655495,-0.012831849977374077,-0.0890178382396698,2.0681166648864746,0.6159983277320862,-0.6629677414894104,0.2161959707736969,-0.07561425864696503
1749027019.8377366,4.859218597412109,-2.7795473537840785,-0.39919185638427734,1.7314156728931884,-0.02209502855409795,3.6391677856445312,-0.008640608750283718,0.024143751710653305,1.329204246669491e-10,-0.02203458361327648,-0.016365790739655495,-0.012831849977374077,-0.0890178382396698,2.0681166648864746,0.6159983277320862,-0.6629677414894104,0.2161959707736969,-0.07561425864696503
1749027019.8823068,4.859237194061279,-2.779530187646383,-0.39917242527008057,1.7313636976429443,-0.02211457887758428,3.6391220092773438,-0.009351562708616257,0.026142805814743042,-0.0015548603842034936,-0.025292929261922836,-0.014508639462292194,-0.013789026066660881,-0.11867284774780273,2.0288455486297607,0.6236249208450317,-0.6626675128936768,0.19964522123336792,-0.08048656582832336
1749027019.8823524,4.859225749969482,-2.779466768304342,-0.3992229104042053,1.7313155370899658,-0.02213460603822881,3.6391170024871826,-0.011320643126964569,0.027630498632788658,-0.0016293891239911318,-0.02698921412229538,-0.013150911778211594,-0.014059019275009632,-0.12858881056308746,2.0205650329589844,0.5927040576934814,-0.6668081283569336,0.19877827167510986,-0.06900860369205475
1749027019.8823948,4.859198570251465,-2.7793876133360804,-0.399211049079895,1.7312399584003906,-0.022174660359517873,3.6390926837921143,-0.011462971568107605,0.028212005272507668,-0.0018279189243912697,-0.029702361673116684,-0.011924901977181435,-0.014553388580679893,-0.12110728025436401,2.0523674488067627,0.5859671831130981,-0.686421275138855,0.18162304162979126,-0.07059387862682343
1749027019.8824337,4.859188079833984,-2.7793551884093226,-0.3992037773132324,1.7311956125446777,-0.022159878407613576,3.639049768447876,-0.011861996725201607,0.02932819351553917,-0.0018499974394217134,-0.0327109694480896,-0.009813446551561356,-0.014807251282036304,-0.13429494202136993,2.040097713470459,0.5804560780525208,-0.6899768114089966,0.2092866599559784,-0.06921259313821793
1749027019.8824716,4.859084129333496,-2.7792827091612757,-0.3992037773132324,1.731123610133789,-0.022182766591207326,3.639045000076294,-0.013590440154075623,0.030793946236371994,-0.002046606270596385,-0.03599917143583298,-0.009348890744149685,-0.0131763257086277,-0.13763245940208435,2.0662455558776855,0.5573111772537231,-0.6930389404296875,0.1759878396987915,-0.07474550604820251
1749027019.8825111,4.85912561416626,-2.7791954479613246,-0.3992037773132324,1.731031818980835,-0.02222758928407842,3.6390247344970703,-0.013284051790833473,0.03157629817724228,-0.0030711255967617035,-0.038606710731983185,-0.009725196287035942,-0.011810151860117912,-0.14800861477851868,2.079834461212158,0.5529080033302307,-0.6972905993461609,0.1570122241973877,-0.09845416247844696
1749027019.8825488,4.859085559844971,-2.779079099694723,-0.3992120325565338,1.7308515745350341,-0.022250954304830373,3.6389236450195312,-0.015631375834345818,0.033703554421663284,-0.005745381582528353,-0.04554717242717743,-0.010854191146790981,-0.011812226846814156,-0.1487192064523697,2.113994836807251,0.5484151840209961,-0.7013124227523804,0.15517735481262207,-0.0963520035147667
1749027019.8825872,4.859085559844971,-2.779079099694723,-0.3992120325565338,1.7308515745350341,-0.022250954304830373,3.6389236450195312,-0.015631375834345818,0.033703554421663284,-0.005745381582528353,-0.04554717242717743,-0.010854191146790981,-0.011812226846814156,-0.1487192064523697,2.113994836807251,0.5484151840209961,-0.7013124227523804,0.15517735481262207,-0.0963520035147667
1749027019.8826268,4.859005928039551,-2.7789188824095667,-0.39925920963287354,1.7306672769733886,-0.02226907411684209,3.638932466506958,-0.017163829877972603,0.03674113750457764,-0.006159248296171427,-0.04960794746875763,-0.012787389568984509,-0.013313345611095428,-0.134260356426239,2.0917584896087646,0.5407674312591553,-0.6902568936347961,0.15320608019828796,-0.10617545992136002
1749027019.8826656,4.859005928039551,-2.7789188824095667,-0.39925920963287354,1.7306672769733886,-0.02226907411684209,3.638932466506958,-0.017163829877972603,0.03674113750457764,-0.006159248296171427,-0.04960794746875763,-0.012787389568984509,-0.013313345611095428,-0.134260356426239,2.0917584896087646,0.5407674312591553,-0.6902568936347961,0.15320608019828796,-0.10617545992136002
1749027019.8827033,4.8589582443237305,-2.778855939904684,-0.3992674648761749,1.730562611217163,-0.0223315397845667,3.6388895511627197,-0.016856443136930466,0.03683023154735565,-0.007232030853629112,-0.05152299627661705,-0.01329136360436678,-0.013231709599494934,-0.1288280487060547,2.0952024459838867,0.5291931629180908,-0.6853055357933044,0.1295918971300125,-0.11797474324703217
1749027019.8827412,4.858942031860352,-2.7787748775877894,-0.3992757797241211,1.7304314809986572,-0.022362534199849904,3.6388967037200928,-0.01680484227836132,0.03705184906721115,-0.008529686369001865,-0.053195737302303314,-0.01547096949070692,-0.014209414832293987,-0.1280820220708847,2.1174073219299316,0.5388929843902588,-0.7014757990837097,0.12880489230155945,-0.13770921528339386
1749027019.8827786,4.858882904052734,-2.7787028751769007,-0.3992757797241211,1.7303504186817626,-0.02239877382387334,3.6388418674468994,-0.016516026109457016,0.03903049975633621,-0.009897859767079353,-0.05568234622478485,-0.017930004745721817,-0.01600770279765129,-0.1334623098373413,2.1388022899627686,0.5546970367431641,-0.701047956943512,0.16266605257987976,-0.1322803944349289
1749027019.8828158,4.858901023864746,-2.7786385021605433,-0.399335116147995,1.7302068906971435,-0.022446457539693654,3.6388092041015625,-0.01726587861776352,0.042135823518037796,-0.01032328698784113,-0.05695866048336029,-0.019740071147680283,-0.016607031226158142,-0.12264632433652878,2.106611967086792,0.5365380048751831,-0.6715853810310364,0.14839358627796173,-0.12976515293121338
1749027019.8828533,4.858833312988281,-2.778562685052389,-0.3993360698223114,1.7300986486622314,-0.02252084413637334,3.638801336288452,-0.017072534188628197,0.04164057597517967,-0.010078850202262402,-0.05841444432735443,-0.02192489244043827,-0.016630174592137337,-0.12735137343406677,2.1461076736450195,0.5391600728034973,-0.7037819027900696,0.14240100979804993,-0.13323339819908142
1749027019.8828907,4.858778953552246,-2.7784859142699183,-0.39936354756355286,1.7299668031879882,-0.022561375294820607,3.638758420944214,-0.017366349697113037,0.0414511039853096,-0.011013318784534931,-0.05988355353474617,-0.022727474570274353,-0.018732300028204918,-0.14334726333618164,2.1785073280334473,0.5621682405471802,-0.6913350820541382,0.13572627305984497,-0.1328411102294922
1749027019.8829277,4.858679294586182,-2.778287550012106,-0.3993961811065674,1.7297412592121582,-0.022619072590963185,3.6386971473693848,-0.01811632700264454,0.04692501202225685,-0.01090625487267971,-0.06658052653074265,-0.02520829439163208,-0.020280078053474426,-0.14043287932872772,2.225207805633545,0.5472344160079956,-0.697422206401825,0.17574520409107208,-0.14793723821640015
1749027019.8829648,4.858679294586182,-2.778287550012106,-0.3993961811065674,1.7297412592121582,-0.022619072590963185,3.6386971473693848,-0.01811632700264454,0.04692501202225685,-0.01090625487267971,-0.06658052653074265,-0.02520829439163208,-0.020280078053474426,-0.14043287932872772,2.225207805633545,0.5472344160079956,-0.697422206401825,0.17574520409107208,-0.14793723821640015
1749027019.883002,4.858654022216797,-2.778206010858053,-0.3994239270687103,1.7295777040668945,-0.022686306630269826,3.6386311054229736,-0.018778081983327866,0.04886694625020027,-0.010904690250754356,-0.06755012273788452,-0.025292178615927696,-0.02143773064017296,-0.1312418431043625,2.2002036571502686,0.549405038356781,-0.6994971036911011,0.17454124987125397,-0.1374744027853012
1749027019.8830388,4.858630657196045,-2.778079172173971,-0.3994632065296173,1.7294301229664306,-0.02276164690126592,3.6385838985443115,-0.01866215467453003,0.04866570234298706,-0.011320321820676327,-0.06674201786518097,-0.026608537882566452,-0.022060850635170937,-0.11742356419563293,2.2677955627441406,0.5406324863433838,-0.6963956952095032,0.1554436832666397,-0.14794185757637024
1749027019.8830755,4.858574867248535,-2.7779599628844203,-0.39948394894599915,1.7293292719074707,-0.02279073396791631,3.638547658920288,-0.018237493932247162,0.05077328905463219,-0.0124945854768157,-0.06578756868839264,-0.027138512581586838,-0.023840313777327538,-0.11961051821708679,2.2768847942352295,0.5513248443603516,-0.7187139987945557,0.14934180676937103,-0.14665065705776215
1749027019.8831136,4.858546733856201,-2.7777630291380824,-0.39953187108039856,1.729048414821289,-0.02291757265199834,3.638467311859131,-0.018355363979935646,0.05293190851807594,-0.01343865692615509,-0.06844403594732285,-0.029520289972424507,-0.023305390030145645,-0.09974975883960724,2.2698800563812256,0.5560186505317688,-0.7512279152870178,0.1603824347257614,-0.1760271191596985
1749027019.883708,4.858546733856201,-2.7777630291380824,-0.39953187108039856,1.729048414821289,-0.02291757265199834,3.638467311859131,-0.018355363979935646,0.05293190851807594,-0.01343865692615509,-0.06844403594732285,-0.029520289972424507,-0.023305390030145645,-0.09974975883960724,2.2698800563812256,0.5560186505317688,-0.7512279152870178,0.1603824347257614,-0.1760271191596985
1749027019.885702,4.858497142791748,-2.7776509724059046,-0.39955633878707886,1.7289079862781982,-0.023000065480367482,3.6384286880493164,-0.018067900091409683,0.053362224251031876,-0.013364865444600582,-0.07050783932209015,-0.03085826337337494,-0.024852052330970764,-0.10740678012371063,2.320185899734497,0.5570976138114929,-0.7630919814109802,0.15932495892047882,-0.1643448770046234
1749027019.9262993,4.858450889587402,-2.777574201623434,-0.3995608985424042,1.7287916380115966,-0.023046318684713185,3.6383564472198486,-0.01827557198703289,0.05648443102836609,-0.013180213049054146,-0.07397530972957611,-0.03090415522456169,-0.025915222242474556,-0.139644593000412,2.3179032802581787,0.5724843144416809,-0.7683899998664856,0.15708650648593903,-0.17151546478271484
1749027019.9263463,4.858415603637695,-2.777431150475973,-0.3996005058288574,1.7286433416553955,-0.023117844258443654,3.638331413269043,-0.018225863575935364,0.05774180591106415,-0.012375649064779282,-0.0747317522764206,-0.03160944953560829,-0.027513615787029266,-0.14425627887248993,2.320650100708008,0.5665755867958069,-0.7814821004867554,0.16110414266586304,-0.18729642033576965
1749027019.9263897,4.858346462249756,-2.7772227726378382,-0.39967969059944153,1.7283143240162353,-0.023299996052877248,3.6381962299346924,-0.018219584599137306,0.06165662780404091,-0.01268850453197956,-0.07901906222105026,-0.030878711491823196,-0.029891273006796837,-0.15024156868457794,2.3209431171417236,0.5636028051376343,-0.7969413995742798,0.15753601491451263,-0.16824820637702942
1749027019.9264283,4.858346462249756,-2.7772227726378382,-0.39967969059944153,1.7283143240162353,-0.023299996052877248,3.6381962299346924,-0.018219584599137306,0.06165662780404091,-0.01268850453197956,-0.07901906222105026,-0.030878711491823196,-0.029891273006796837,-0.15024156868457794,2.3209431171417236,0.5636028051376343,-0.7969413995742798,0.15753601491451263,-0.16824820637702942
1749027019.9264665,4.8582963943481445,-2.7770940266051234,-0.39971938729286194,1.7281815248676757,-0.023329083119527638,3.638148546218872,-0.01776307262480259,0.06353698670864105,-0.012176770716905594,-0.08333326876163483,-0.031075360253453255,-0.029622606933116913,-0.1515200436115265,2.36602520942688,0.555374264717102,-0.7929840683937073,0.13489174842834473,-0.1740267276763916
1749027019.9265068,4.858262538909912,-2.7768103084959925,-0.39975568652153015,1.7277940946766357,-0.023473087941304982,3.6380293369293213,-0.018014132976531982,0.07119397073984146,-0.012141307815909386,-0.09014273434877396,-0.03328055143356323,-0.031705331057310104,-0.15733298659324646,2.289865732192993,0.5564786791801453,-0.7846179008483887,0.1509312391281128,-0.16959285736083984
1749027019.926546,4.858262538909912,-2.7768103084959925,-0.39975568652153015,1.7277940946766357,-0.023473087941304982,3.6380293369293213,-0.018014132976531982,0.07119397073984146,-0.012141307815909386,-0.09014273434877396,-0.03328055143356323,-0.031705331057310104,-0.15733298659324646,2.289865732192993,0.5564786791801453,-0.7846179008483887,0.1509312391281128,-0.16959285736083984
1749027019.926584,4.8582000732421875,-2.77665438274526,-0.39974114298820496,1.7276176649281005,-0.023513619099752248,3.637953758239746,-0.018205616623163223,0.0702643021941185,-0.012361817061901093,-0.0935337170958519,-0.0335647314786911,-0.03215482458472252,-0.1584983617067337,2.3585920333862305,0.5744776725769043,-0.7825466990470886,0.15723997354507446,-0.1742558479309082
1749027019.926622,4.858214378356934,-2.7765695057311,-0.39981937408447266,1.7274247842976074,-0.023590866719381154,3.6378870010375977,-0.019309572875499725,0.07463499158620834,-0.012439385056495667,-0.09669306874275208,-0.035341475158929825,-0.032370638102293015,-0.16837988793849945,2.340291738510132,0.5702461004257202,-0.7780576944351196,0.1282704919576645,-0.1738864928483963
1749027019.9266598,4.858156204223633,-2.7763554058470667,-0.39980483055114746,1.727200670833252,-0.023684326802388966,3.6377792358398438,-0.019433915615081787,0.07681815326213837,-0.011881452053785324,-0.09891653805971146,-0.03597978875041008,-0.0332588292658329,-0.1879635900259018,2.32002592086792,0.5726461410522461,-0.7604548931121826,0.12903474271297455,-0.1786802113056183
1749027019.9266977,4.85808801651001,-2.7760311565794886,-0.3998880088329315,1.7267638879963378,-0.023876015339986623,3.6376755237579346,-0.020083513110876083,0.08006995916366577,-0.012466378509998322,-0.10753603279590607,-0.03798188269138336,-0.03349774330854416,-0.18960267305374146,2.331448554992676,0.5759299993515015,-0.7191658616065979,0.147471621632576,-0.16775353252887726
1749027019.926734,4.85808801651001,-2.7760311565794886,-0.3998880088329315,1.7267638879963378,-0.023876015339986623,3.6376755237579346,-0.020083513110876083,0.08006995916366577,-0.012466378509998322,-0.10753603279590607,-0.03798188269138336,-0.03349774330854416,-0.18960267305374146,2.331448554992676,0.5759299993515015,-0.7191658616065979,0.147471621632576,-0.16775353252887726
1749027019.9267716,4.858051776885986,-2.775862833062643,-0.3999118506908417,1.7265631395527343,-0.023905102406637013,3.6376118659973145,-0.020192785188555717,0.08200925588607788,-0.01280542928725481,-0.1048818901181221,-0.03931892290711403,-0.03351256996393204,-0.20245066285133362,2.330374240875244,0.5674245357513428,-0.7232716679573059,0.14613890647888184,-0.19012956321239471
1749027019.926809,4.858066082000732,-2.775710722009176,-0.39991673827171326,1.7263435560413818,-0.02396566072572881,3.637540340423584,-0.0202975831925869,0.08192344009876251,-0.01227983646094799,-0.10509675741195679,-0.03882359340786934,-0.034750040620565414,-0.21516898274421692,2.3594326972961426,0.5759462118148804,-0.7046684622764587,0.1504606455564499,-0.17385216057300568
1749027019.9268465,4.8579840660095215,-2.775558134118551,-0.3999524414539337,1.7261385160633544,-0.02404958406557256,3.6374599933624268,-0.02111273631453514,0.08386429399251938,-0.012267266400158405,-0.10632295161485672,-0.039706889539957047,-0.036382898688316345,-0.218952015042305,2.362959384918213,0.5713339447975159,-0.7305392622947693,0.1525479555130005,-0.15801739692687988
1749027019.9268842,4.857920169830322,-2.7753707371153773,-0.3999612331390381,1.7259298998066406,-0.024160210286275685,3.637392044067383,-0.02164740115404129,0.08521630614995956,-0.012934677302837372,-0.11004144698381424,-0.04005507379770279,-0.037976667284965515,-0.22626656293869019,2.368006706237793,0.5720062851905823,-0.7028098106384277,0.13580897450447083,-0.1501118391752243
1749027019.9269204,4.8579421043396,-2.775221963922018,-0.39998868107795715,1.7257250982471923,-0.024240795766012013,3.6372926235198975,-0.02181612141430378,0.08736047893762589,-0.012718509882688522,-0.10405080765485764,-0.04104844480752945,-0.03730134293437004,-0.2262549102306366,2.3758649826049805,0.5823938250541687,-0.7190840244293213,0.15184813737869263,-0.14957091212272644
1749027019.9269571,4.857860088348389,-2.775052686730856,-0.39999333024024963,1.7255169588276367,-0.024289909993306935,3.6372289657592773,-0.02251671999692917,0.08864494413137436,-0.012782745994627476,-0.1028679758310318,-0.04220516234636307,-0.03813888877630234,-0.2485545426607132,2.388066053390503,0.5653231143951416,-0.7619521021842957,0.14417049288749695,-0.15315690636634827
1749027019.9269948,4.857754230499268,-2.774630209008688,-0.4000765085220337,1.7250923353382568,-0.024433437977926076,3.6370656490325928,-0.024283815175294876,0.09380030632019043,-0.012665408663451672,-0.10550940781831741,-0.04377865418791771,-0.0379452258348465,-0.26073938608169556,2.371619939804077,0.5568240880966187,-0.7959150671958923,0.15111392736434937,-0.1505567729473114
1749027019.9270313,4.857754230499268,-2.774630209008688,-0.4000765085220337,1.7250923353382568,-0.024433437977926076,3.6370656490325928,-0.024283815175294876,0.09380030632019043,-0.012665408663451672,-0.10550940781831741,-0.04377865418791771,-0.0379452258348465,-0.26073938608169556,2.371619939804077,0.5568240880966187,-0.7959150671958923,0.15111392736434937,-0.1505567729473114
1749027019.9276557,4.8577680587768555,-2.7744533024229945,-0.4000847637653351,1.7248920637318115,-0.024564568196431935,3.636975049972534,-0.024973813444375992,0.09935488551855087,-0.01226851250976324,-0.10746820271015167,-0.04465741291642189,-0.038899876177310944,-0.25877314805984497,2.31311297416687,0.5466199517250061,-0.8036182522773743,0.12795481085777283,-0.16588391363620758
1749027019.9297173,4.857680797576904,-2.7742301426329554,-0.40010884404182434,1.7246593671986084,-0.024609867726461232,3.6369102001190186,-0.025427578017115593,0.09804774075746536,-0.013305156491696835,-0.11081574857234955,-0.04552319645881653,-0.03912948817014694,-0.2626303434371948,2.321445941925049,0.543967604637146,-0.8196576237678528,0.12051108479499817,-0.1330965906381607
1749027019.9702833,4.857590675354004,-2.7739907703795375,-0.40015241503715515,1.7244219022938232,-0.024764362965719044,3.6368582248687744,-0.025263899937272072,0.10517223924398422,-0.013611085712909698,-0.11446935683488846,-0.04752953723073006,-0.040055904537439346,-0.2724458873271942,2.3052470684051514,0.5445682406425476,-0.8206467628479004,0.13249047100543976,-0.15744785964488983
1749027019.9703295,4.857517242431641,-2.7736054859557093,-0.40020519495010376,1.7239526945301513,-0.024951759968892873,3.63667893409729,-0.025842195376753807,0.1068163514137268,-0.014789307489991188,-0.1216641217470169,-0.049013759940862656,-0.040933623909950256,-0.272644966840744,2.277277708053589,0.5297991037368774,-0.8077981472015381,0.12715916335582733,-0.1294330209493637
1749027019.9703703,4.857517242431641,-2.7736054859557093,-0.40020519495010376,1.7239526945301513,-0.024951759968892873,3.63667893409729,-0.025842195376753807,0.1068163514137268,-0.014789307489991188,-0.1216641217470169,-0.049013759940862656,-0.040933623909950256,-0.272644966840744,2.277277708053589,0.5297991037368774,-0.8077981472015381,0.12715916335582733,-0.1294330209493637
1749027019.9704092,4.857457637786865,-2.7733613453307093,-0.4002484381198883,1.7236897188374023,-0.02509481111635381,3.636556386947632,-0.02611706592142582,0.10858482867479324,-0.016035839915275574,-0.1268957406282425,-0.050103891640901566,-0.040905315428972244,-0.2835922837257385,2.2515199184417725,0.558159589767456,-0.7729936242103577,0.13685306906700134,-0.14123521745204926
1749027019.970448,4.857417106628418,-2.7731534443297328,-0.4002375602722168,1.7234374719807128,-0.025205914174215138,3.636504650115967,-0.026382630690932274,0.10863347351551056,-0.016109036281704903,-0.13169530034065247,-0.051910221576690674,-0.04125647619366646,-0.30335673689842224,2.293325185775757,0.5587961673736572,-0.7658994793891907,0.1312759816646576,-0.13715732097625732
1749027019.970486,4.857365608215332,-2.7729293308653773,-0.4003085792064667,1.7231530386158447,-0.02522927919496709,3.636401653289795,-0.02862447313964367,0.11216403543949127,-0.01572662778198719,-0.1340857297182083,-0.05262955650687218,-0.04163597151637077,-0.2801811099052429,2.239009380340576,0.5371363759040833,-0.7399175763130188,0.14405864477157593,-0.13416066765785217
1749027019.9705243,4.857328414916992,-2.772705217401022,-0.40033724904060364,1.7229077058979492,-0.02534038225282842,3.636333703994751,-0.029614552855491638,0.10951635986566544,-0.015444088727235794,-0.13854213058948517,-0.05307137593626976,-0.04183786362409592,-0.2668014168739319,2.276759386062622,0.5348098874092102,-0.7198679447174072,0.1402830183506012,-0.15332147479057312
1749027019.9705617,4.8572540283203125,-2.7724815807738246,-0.4003610908985138,1.722653790111206,-0.025444809590474904,3.636249542236328,-0.02966795116662979,0.11259348690509796,-0.016414035111665726,-0.13881568610668182,-0.05285932123661041,-0.04281715676188469,-0.29705810546875,2.265260934829712,0.54608154296875,-0.681138277053833,0.11617669463157654,-0.16245603561401367
1749027019.970599,4.857208251953125,-2.7722917995848597,-0.4003891348838806,1.7223858076282959,-0.025541130696431935,3.6361424922943115,-0.029226891696453094,0.11215566098690033,-0.01662072353065014,-0.13553158938884735,-0.055064283311367035,-0.04417218640446663,-0.31264960765838623,2.301992177963257,0.5428385734558105,-0.73131263256073,0.12355941534042358,-0.1357003152370453
1749027019.9706366,4.8571367263793945,-2.772025247613424,-0.4004092812538147,1.7220782476612548,-0.025699440632955373,3.6360857486724854,-0.030255865305662155,0.11391996592283249,-0.01661352626979351,-0.1348574012517929,-0.05710205063223839,-0.043860238045454025,-0.30780646204948425,2.2968366146087646,0.5340713262557983,-0.7419955134391785,0.1684623658657074,-0.14272771775722504
1749027019.970673,4.8570475578308105,-2.771804472009176,-0.40044525265693665,1.7218169408985595,-0.02576905885805303,3.6359715461730957,-0.03170457109808922,0.11670670658349991,-0.01672370359301567,-0.13472159206867218,-0.057314030826091766,-0.044305648654699326,-0.30732324719429016,2.2557613849639893,0.529091477394104,-0.7322036623954773,0.16147568821907043,-0.16757747530937195
1749027019.9707098,4.856952667236328,-2.7715536556639613,-0.40048882365226746,1.721564455623291,-0.025864426289693654,3.6359100341796875,-0.032849811017513275,0.11948263645172119,-0.016534358263015747,-0.13167919218540192,-0.055926911532878876,-0.045131225138902664,-0.3196060061454773,2.323681354522705,0.5262366533279419,-0.7734200954437256,0.142350971698761,-0.15223026275634766
1749027019.97075,4.856934070587158,-2.7713290653624476,-0.4005330204963684,1.721268578166626,-0.02598458925356084,3.635814905166626,-0.03472314774990082,0.1249089390039444,-0.016858045011758804,-0.13355393707752228,-0.05499783530831337,-0.046215809881687164,-0.2837146818637848,2.2086474895477295,0.5218006372451782,-0.7725537419319153,0.12375114113092422,-0.15896537899971008
1749027019.970788,4.8568243980407715,-2.7710758648314417,-0.40054523944854736,1.7210230070301513,-0.02610665956606084,3.635711908340454,-0.03625330701470375,0.1270039826631546,-0.015906773507595062,-0.13586844503879547,-0.05678865686058998,-0.046784915030002594,-0.2705058753490448,2.197075843811035,0.4812012314796448,-0.8076034784317017,0.12269361317157745,-0.16164493560791016
1749027019.9708252,4.8567962646484375,-2.7705918751158656,-0.4006412625312805,1.7204384046741943,-0.0263446013080042,3.635528802871704,-0.034365296363830566,0.12745893001556396,-0.019879326224327087,-0.14400936663150787,-0.0596344918012619,-0.04885535687208176,-0.2834871709346771,2.170626401901245,0.5287278890609741,-0.7794280052185059,0.14124172925949097,-0.1448259949684143
1749027019.970862,4.8567962646484375,-2.7705918751158656,-0.4006412625312805,1.7204384046741943,-0.0263446013080042,3.635528802871704,-0.034365296363830566,0.12745893001556396,-0.019879326224327087,-0.14400936663150787,-0.0596344918012619,-0.04885535687208176,-0.2834871709346771,2.170626401901245,0.5287278890609741,-0.7794280052185059,0.14124172925949097,-0.1448259949684143
1749027019.9708986,4.856644630432129,-2.7702647648253382,-0.40065813064575195,1.7201620775410156,-0.026511494313375294,3.6354644298553467,-0.03614744916558266,0.12954071164131165,-0.019242780283093452,-0.1480613350868225,-0.061545230448246,-0.048720162361860275,-0.27715936303138733,2.1548824310302734,0.5105920433998108,-0.7627812027931213,0.135005384683609,-0.1546127200126648
1749027019.970935,4.856522560119629,-2.7697845898070277,-0.4007532000541687,1.7195400434681396,-0.026759926472799123,3.6352734565734863,-0.03729815036058426,0.12700676918029785,-0.019969038665294647,-0.15673790872097015,-0.06238421052694321,-0.05033028498291969,-0.2916267216205597,2.207127571105957,0.5095633268356323,-0.7208837866783142,0.16382905840873718,-0.19091801345348358
1749027019.970971,4.856522560119629,-2.7697845898070277,-0.4007532000541687,1.7195400434681396,-0.026759926472799123,3.6352734565734863,-0.03729815036058426,0.12700676918029785,-0.019969038665294647,-0.15673790872097015,-0.06238421052694321,-0.05033028498291969,-0.2916267216205597,2.207127571105957,0.5095633268356323,-0.7208837866783142,0.16382905840873718,-0.19091801345348358
1749027019.9710076,4.856341361999512,-2.7692600689330042,-0.40083011984825134,1.7189106184193115,-0.027024094258443654,3.63505482673645,-0.037858154624700546,0.12807323038578033,-0.02063242718577385,-0.15954230725765228,-0.06127399206161499,-0.05178552493453026,-0.29637381434440613,2.232156991958618,0.5099558234214783,-0.7125973105430603,0.15556499361991882,-0.17196853458881378
1749027019.971685,4.856341361999512,-2.7692600689330042,-0.40083011984825134,1.7189106184193115,-0.027024094258443654,3.63505482673645,-0.037858154624700546,0.12807323038578033,-0.02063242718577385,-0.15954230725765228,-0.06127399206161499,-0.05178552493453026,-0.29637381434440613,2.232156991958618,0.5099558234214783,-0.7125973105430603,0.15556499361991882,-0.17196853458881378
1749027019.9736655,4.856251239776611,-2.7690307102599085,-0.40087375044822693,1.7185858923145751,-0.027166668568746388,3.6349434852600098,-0.037832874804735184,0.12841075658798218,-0.02078348584473133,-0.15359939634799957,-0.06214242801070213,-0.05322844535112381,-0.2891389727592468,2.2457098960876465,0.5074599981307983,-0.7395443916320801,0.14559859037399292,-0.1706121563911438
1749027020.0142825,4.856090068817139,-2.7684322796263636,-0.40095388889312744,1.7179600435444335,-0.027363125477926076,3.6347711086273193,-0.0402037538588047,0.13377106189727783,-0.020923497155308723,-0.15270917117595673,-0.06146775558590889,-0.052382100373506546,-0.2877112030982971,2.23724102973938,0.4939267337322235,-0.7769710421562195,0.12804098427295685,-0.20333987474441528
1749027020.0143285,4.856090068817139,-2.7684322796263636,-0.40095388889312744,1.7179600435444335,-0.027363125477926076,3.6347711086273193,-0.0402037538588047,0.13377106189727783,-0.020923497155308723,-0.15270917117595673,-0.06146775558590889,-0.052382100373506546,-0.2877112030982971,2.23724102973938,0.4939267337322235,-0.7769710421562195,0.12804098427295685,-0.20333987474441528
1749027020.0143702,4.85606050491333,-2.7681719265379847,-0.40099814534187317,1.7176436620899658,-0.02750569978822881,3.6346514225006104,-0.03897584229707718,0.13621780276298523,-0.021785924211144447,-0.15451326966285706,-0.060009490698575974,-0.053197313100099564,-0.28431519865989685,2.1962268352508545,0.5127176642417908,-0.781015932559967,0.09126926958560944,-0.1902552992105484
1749027020.0144098,4.855956077575684,-2.7679463825621546,-0.40106579661369324,1.7173072534748535,-0.027610127125875294,3.6345372200012207,-0.03899131342768669,0.1391739845275879,-0.022560056298971176,-0.15780794620513916,-0.060063011944293976,-0.05540814623236656,-0.33303210139274597,2.238269567489624,0.5253061652183533,-0.7924277782440186,0.081878662109375,-0.21174335479736328
1749027020.0144477,4.8558878898620605,-2.767627855340475,-0.40111044049263,1.7170256811329345,-0.027710739766256154,3.6344399452209473,-0.039887722581624985,0.14156852662563324,-0.02282780222594738,-0.16280271112918854,-0.062065813690423965,-0.05689682438969612,-0.33524999022483826,2.2058494091033936,0.5470821857452393,-0.7949532270431519,0.07586455345153809,-0.18593235313892365
1749027020.0144856,4.855827808380127,-2.7673469982542933,-0.40114638209342957,1.7166661459156494,-0.027877632771627248,3.6342856884002686,-0.04104454815387726,0.14153067767620087,-0.022104045376181602,-0.1695355772972107,-0.06489735096693039,-0.05713384598493576,-0.2903946042060852,2.180757999420166,0.5236075520515442,-0.7524850964546204,0.06192062795162201,-0.19089838862419128
1749027020.014527,4.855719089508057,-2.767094751397604,-0.40121379494667053,1.716289921397827,-0.027974430714742482,3.634190320968628,-0.041041355580091476,0.13882766664028168,-0.02176942490041256,-0.17176513373851776,-0.06692518293857574,-0.05620938166975975,-0.3430188000202179,2.2733845710754395,0.5083960890769958,-0.7316907048225403,0.08356715738773346,-0.18175193667411804
1749027020.0145648,4.855607509613037,-2.766806264916891,-0.4012146294116974,1.7159284788319091,-0.028185192738668263,3.634059429168701,-0.04297535866498947,0.13918069005012512,-0.021659595891833305,-0.17807218432426453,-0.07170959562063217,-0.05564725026488304,-0.3077772259712219,2.2983615398406982,0.5183612108230591,-0.7242374420166016,0.10310578346252441,-0.20386706292629242
1749027020.0146027,4.855504512786865,-2.766226907769674,-0.4013107419013977,1.715207262630127,-0.02838021913637334,3.633788824081421,-0.041425809264183044,0.14636091887950897,-0.022132165729999542,-0.17199677228927612,-0.07666723430156708,-0.05868373438715935,-0.32092422246932983,2.216094970703125,0.4676915407180786,-0.7222520112991333,0.15405571460723877,-0.20171882212162018
1749027020.0146408,4.855504512786865,-2.766226907769674,-0.4013107419013977,1.715207262630127,-0.02838021913637334,3.633788824081421,-0.041425809264183044,0.14636091887950897,-0.022132165729999542,-0.17199677228927612,-0.07666723430156708,-0.05868373438715935,-0.32092422246932983,2.216094970703125,0.4676915407180786,-0.7222520112991333,0.15405571460723877,-0.20171882212162018
1749027020.0146785,4.855284214019775,-2.765654226342672,-0.40144187211990356,1.7145325380512695,-0.028699223195211232,3.6335887908935547,-0.04294125363230705,0.1499050259590149,-0.02355906553566456,-0.16654330492019653,-0.07235610485076904,-0.0631384551525116,-0.3332366943359375,2.252987861633301,0.5209996700286865,-0.7750942707061768,0.11349667608737946,-0.18634775280952454
1749027020.0147161,4.855284214019775,-2.765654226342672,-0.40144187211990356,1.7145325380512695,-0.028699223195211232,3.6335887908935547,-0.04294125363230705,0.1499050259590149,-0.02355906553566456,-0.16654330492019653,-0.07235610485076904,-0.0631384551525116,-0.3332366943359375,2.252987861633301,0.5209996700286865,-0.7750942707061768,0.11349667608737946,-0.18634775280952454
1749027020.0147533,4.855227947235107,-2.765334745446676,-0.4015056788921356,1.7142113882252197,-0.02885753313173467,3.633488655090332,-0.04360536113381386,0.1538926512002945,-0.023243268951773643,-0.1676296889781952,-0.07128477841615677,-0.0652136504650116,-0.33311182260513306,2.1963915824890137,0.4942653477191925,-0.7650187015533447,0.08079670369625092,-0.17876778542995453
1749027020.0147917,4.855032920837402,-2.7647768459715785,-0.4015824496746063,1.7134784895130615,-0.02916127840151006,3.6332027912139893,-0.04301553592085838,0.14832071959972382,-0.02670373022556305,-0.1736043393611908,-0.07485897094011307,-0.06186259537935257,-0.32957229018211365,2.2828214168548584,0.5182690024375916,-0.7862575650215149,0.08836513757705688,-0.2088456153869629
1749027020.0148292,4.855032920837402,-2.7647768459715785,-0.4015824496746063,1.7134784895130615,-0.02916127840151006,3.6332027912139893,-0.04301553592085838,0.14832071959972382,-0.02670373022556305,-0.1736043393611908,-0.07485897094011307,-0.06186259537935257,-0.32957229018211365,2.2828214168548584,0.5182690024375916,-0.7862575650215149,0.08836513757705688,-0.2088456153869629
1749027020.0148666,4.854994773864746,-2.7644340000548304,-0.401615172624588,1.7131139475056152,-0.02931672731508428,3.633063554763794,-0.0432155579328537,0.14707240462303162,-0.025745099410414696,-0.1793065220117569,-0.07498788088560104,-0.06358513981103897,-0.36084121465682983,2.326392650604248,0.5246446132659912,-0.7742061614990234,0.09863481670618057,-0.19647051393985748
1749027020.0149126,4.8548150062561035,-2.7638212643065394,-0.4016955494880676,1.7123564916798095,-0.029593769704000294,3.6328365802764893,-0.04504145309329033,0.15107344090938568,-0.023575952276587486,-0.1858995258808136,-0.07855155318975449,-0.06436443328857422,-0.3670172095298767,2.3591744899749756,0.4912512004375458,-0.7205144762992859,0.116364985704422,-0.1753297746181488
1749027020.0149517,4.8548150062561035,-2.7638212643065394,-0.4016955494880676,1.7123564916798095,-0.029593769704000294,3.6328365802764893,-0.04504145309329033,0.15107344090938568,-0.023575952276587486,-0.1858995258808136,-0.07855155318975449,-0.06436443328857422,-0.3670172095298767,2.3591744899749756,0.4912512004375458,-0.7205144762992859,0.116364985704422,-0.1753297746181488
1749027020.014989,4.8546857833862305,-2.7635160885252894,-0.4017626941204071,1.7119838434406738,-0.029784504567281544,3.6326770782470703,-0.04555599391460419,0.15564103424549103,-0.02488042414188385,-0.1870509833097458,-0.08235598355531693,-0.06429930776357651,-0.3646294176578522,2.2847514152526855,0.49932870268821716,-0.7432324886322021,0.11060512065887451,-0.18504615128040314
1749027020.0150254,4.854644298553467,-2.7631975613036097,-0.40180715918540955,1.7115949827381591,-0.029956642781392873,3.6325528621673584,-0.04650063067674637,0.1604282259941101,-0.025847425684332848,-0.1876550167798996,-0.08362920582294464,-0.06476324051618576,-0.36471298336982727,2.274254083633423,0.5190768837928772,-0.719817578792572,0.15297850966453552,-0.17584113776683807
1749027020.015712,4.854539394378662,-2.762865205804342,-0.4018639028072357,1.7112254339405517,-0.030119244252340138,3.6324143409729004,-0.047751784324645996,0.16379985213279724,-0.025609783828258514,-0.18485882878303528,-0.0850166454911232,-0.06316644698381424,-0.3482767641544342,2.2408785820007324,0.49814334511756897,-0.751626193523407,0.15009351074695587,-0.19110025465488434
1749027020.0177014,4.854326248168945,-2.7622443638243617,-0.4019756019115448,1.710479660625122,-0.030416313801900685,3.6321635246276855,-0.04946126043796539,0.1663309782743454,-0.026248889043927193,-0.18667122721672058,-0.08118833601474762,-0.06337858736515045,-0.3443531095981598,2.273293972015381,0.5044505000114441,-0.8017690181732178,0.11672893911600113,-0.18835049867630005
1749027020.058282,4.854326248168945,-2.7622443638243617,-0.4019756019115448,1.710479660625122,-0.030416313801900685,3.6321635246276855,-0.04946126043796539,0.1663309782743454,-0.026248889043927193,-0.18667122721672058,-0.08118833601474762,-0.06337858736515045,-0.3443531095981598,2.273293972015381,0.5044505000114441,-0.8017690181732178,0.11672893911600113,-0.18835049867630005
1749027020.0583284,4.854264259338379,-2.761895795861715,-0.40205880999565125,1.7100950914570312,-0.030604187642232716,3.6320269107818604,-0.04975435137748718,0.16241461038589478,-0.026656989008188248,-0.19079647958278656,-0.08080492168664932,-0.0631713941693306,-0.3533901572227478,2.322061061859131,0.5138981938362122,-0.8110377788543701,0.12725548446178436,-0.2215876430273056
1749027020.0583694,4.8540215492248535,-2.7612158260741175,-0.4021594226360321,1.7092820841022949,-0.030896488820211232,3.631791830062866,-0.05065831169486046,0.1676120162010193,-0.0264741163700819,-0.20309856534004211,-0.08448540419340134,-0.06331691145896912,-0.3481225371360779,2.291105270385742,0.5083959102630615,-0.76444011926651,0.10837725549936295,-0.2212744504213333
1749027020.058409,4.8540215492248535,-2.7612158260741175,-0.4021594226360321,1.7092820841022949,-0.030896488820211232,3.631791830062866,-0.05065831169486046,0.1676120162010193,-0.0264741163700819,-0.20309856534004211,-0.08448540419340134,-0.06331691145896912,-0.3481225371360779,2.291105270385742,0.5083959102630615,-0.76444011926651,0.10837725549936295,-0.2212744504213333
1749027020.0584476,4.853814601898193,-2.760543008843893,-0.40224820375442505,1.7084597784229736,-0.031287972127096,3.6315250396728516,-0.050051670521497726,0.17285121977329254,-0.027246195822954178,-0.20536713302135468,-0.08583463728427887,-0.06554286181926727,-0.3728664815425873,2.230177879333496,0.5086961984634399,-0.7449295520782471,0.13262894749641418,-0.22053022682666779
1749027020.0584865,4.853814601898193,-2.760543008843893,-0.40224820375442505,1.7084597784229736,-0.031287972127096,3.6315250396728516,-0.050051670521497726,0.17285121977329254,-0.027246195822954178,-0.20536713302135468,-0.08583463728427887,-0.06554286181926727,-0.3728664815425873,2.230177879333496,0.5086961984634399,-0.7449295520782471,0.13262894749641418,-0.22053022682666779
1749027020.0585248,4.853724956512451,-2.760191103021139,-0.40234336256980896,1.708084984416626,-0.031487290059224904,3.6313629150390625,-0.05118824169039726,0.17653854191303253,-0.027165915817022324,-0.20625917613506317,-0.08512429893016815,-0.06437691301107407,-0.3695797324180603,2.1937344074249268,0.5014991760253906,-0.7308614253997803,0.14539256691932678,-0.2303076982498169
1749027020.058563,4.8536057472229,-2.7598778210081996,-0.4023915231227875,1.707676811809204,-0.03160411516298467,3.6312663555145264,-0.0512988418340683,0.17818711698055267,-0.027468819171190262,-0.20289534330368042,-0.08346176147460938,-0.06450328230857849,-0.37405362725257874,2.189504623413086,0.5029261112213135,-0.7641317248344421,0.1446646898984909,-0.2505563497543335
1749027020.0586007,4.853506565093994,-2.7594829998412074,-0.40243247151374817,1.707291765803955,-0.031771485005513966,3.631134033203125,-0.051117755472660065,0.17643767595291138,-0.028270868584513664,-0.20255722105503082,-0.08285067975521088,-0.06699604541063309,-0.36848536133766174,2.2522716522216797,0.5053694844245911,-0.8151363134384155,0.0981389731168747,-0.25656792521476746
1749027020.058638,4.853302955627441,-2.7587744198241175,-0.4025092124938965,1.7064744669147949,-0.032099548970357716,3.6308131217956543,-0.05264991894364357,0.17536208033561707,-0.027791185304522514,-0.2107093781232834,-0.08388664573431015,-0.07222628593444824,-0.38323351740837097,2.3487627506256104,0.5192862749099731,-0.8327519297599792,0.09148146957159042,-0.23961378633975983
1749027020.0586753,4.853302955627441,-2.7587744198241175,-0.4025092124938965,1.7064744669147949,-0.032099548970357716,3.6308131217956543,-0.05264991894364357,0.17536208033561707,-0.027791185304522514,-0.2107093781232834,-0.08388664573431015,-0.07222628593444824,-0.38323351740837097,2.3487627506256104,0.5192862749099731,-0.8327519297599792,0.09148146957159042,-0.23961378633975983
1749027020.0587173,4.85316801071167,-2.75841822246694,-0.40258002281188965,1.7059940534779052,-0.03223735490907842,3.6306850910186768,-0.05560493469238281,0.1799974888563156,-0.027694717049598694,-0.21709133684635162,-0.08447416126728058,-0.07538813352584839,-0.3349606692790985,2.299436569213867,0.49725309014320374,-0.8220842480659485,0.09879899024963379,-0.22930537164211273
1749027020.0587552,4.852960586547852,-2.7576657734312953,-0.40268492698669434,1.7050675588795166,-0.03254443803896123,3.6303865909576416,-0.054085325449705124,0.18742915987968445,-0.029072176665067673,-0.2265050858259201,-0.09203144907951355,-0.0741920918226242,-0.36746200919151306,2.2556405067443848,0.4833773970603943,-0.7677650451660156,0.12428583204746246,-0.23562288284301758
1749027020.058792,4.852960586547852,-2.7576657734312953,-0.40268492698669434,1.7050675588795166,-0.03254443803896123,3.6303865909576416,-0.054085325449705124,0.18742915987968445,-0.029072176665067673,-0.2265050858259201,-0.09203144907951355,-0.0741920918226242,-0.36746200919151306,2.2556405067443848,0.4833773970603943,-0.7677650451660156,0.12428583204746246,-0.23562288284301758
1749027020.0588288,4.852819919586182,-2.757317682305807,-0.4027797281742096,1.704610748881958,-0.03277618089784795,3.6302340030670166,-0.05503707379102707,0.18609732389450073,-0.03067690320312977,-0.2258887141942978,-0.08933792263269424,-0.07596675306558609,-0.36156028509140015,2.2547619342803955,0.5137305855751038,-0.7257285118103027,0.10640022158622742,-0.20609283447265625
1749027020.058866,4.85273551940918,-2.7569486103453578,-0.4028206169605255,1.7041773039051513,-0.03296357790102178,3.630070209503174,-0.058037012815475464,0.18573470413684845,-0.03052191250026226,-0.22357015311717987,-0.0909685268998146,-0.0791197419166565,-0.3419746458530426,2.2587854862213135,0.5059356689453125,-0.7501022219657898,0.1027647852897644,-0.19930818676948547
1749027020.0589032,4.8525567054748535,-2.7566000423827113,-0.4028806984424591,1.7037450510212402,-0.03315192857851201,3.629880428314209,-0.05666467919945717,0.18526330590248108,-0.03045155294239521,-0.2215784788131714,-0.09245137870311737,-0.08007463812828064,-0.31181979179382324,2.315880298614502,0.509277880191803,-0.7830098271369934,0.11135648190975189,-0.19216713309288025
1749027020.05894,4.852359294891357,-2.7557884655394496,-0.402992308139801,1.7028390604206542,-0.03351146379579717,3.6295855045318604,-0.05683480575680733,0.19158032536506653,-0.031186869367957115,-0.22261692583560944,-0.09593077749013901,-0.08111283928155899,-0.33706235885620117,2.3470866680145264,0.5013899803161621,-0.8181263208389282,0.1343078464269638,-0.17029240727424622
1749027020.0589771,4.852359294891357,-2.7557884655394496,-0.402992308139801,1.7028390604206542,-0.03351146379579717,3.6295855045318604,-0.05683480575680733,0.19158032536506653,-0.031186869367957115,-0.22261692583560944,-0.09593077749013901,-0.08111283928155899,-0.33706235885620117,2.3470866680145264,0.5013899803161621,-0.8181263208389282,0.1343078464269638,-0.17029240727424622
1749027020.0590138,4.852273941040039,-2.755447050134176,-0.40308013558387756,1.7023975092121582,-0.03373080888857061,3.6294023990631104,-0.057674601674079895,0.1957089900970459,-0.03209789842367172,-0.22769120335578918,-0.09252435714006424,-0.08010716736316681,-0.3444191813468933,2.2405617237091064,0.5100610852241516,-0.8032668828964233,0.11458882689476013,-0.16527116298675537
1749027020.0597293,4.852000713348389,-2.754604478875631,-0.4031655490398407,1.7014834123798828,-0.03412181535829717,3.6291041374206543,-0.05770552158355713,0.19992409646511078,-0.03036249801516533,-0.23423025012016296,-0.0972236841917038,-0.07967642694711685,-0.3173907697200775,2.1966967582702637,0.4987353980541229,-0.7821269035339355,0.1207699179649353,-0.16400201618671417
1749027020.0616457,4.852000713348389,-2.754604478875631,-0.4031655490398407,1.7014834123798828,-0.03412181535829717,3.6291041374206543,-0.05770552158355713,0.19992409646511078,-0.03036249801516533,-0.23423025012016296,-0.0972236841917038,-0.07967642694711685,-0.3173907697200775,2.1966967582702637,0.4987353980541229,-0.7821269035339355,0.1207699179649353,-0.16400201618671417
1749027020.1025517,4.8517913818359375,-2.7538544140257777,-0.4032856822013855,1.7005411821552734,-0.034498039876119435,3.628812074661255,-0.0595887117087841,0.19148746132850647,-0.03333146870136261,-0.23189415037631989,-0.09859777987003326,-0.07976264506578445,-0.3207321763038635,2.303739309310913,0.511622428894043,-0.8149799108505249,0.1449013650417328,-0.19492188096046448
1749027020.1026337,4.8517913818359375,-2.7538544140257777,-0.4032856822013855,1.7005411821552734,-0.034498039876119435,3.628812074661255,-0.0595887117087841,0.19148746132850647,-0.03333146870136261,-0.23189415037631989,-0.09859777987003326,-0.07976264506578445,-0.3207321763038635,2.303739309310913,0.511622428894043,-0.8149799108505249,0.1449013650417328,-0.19492188096046448
1749027020.1027074,4.851650238037109,-2.7534386120238246,-0.4033927023410797,1.7001001077839355,-0.03472882906068975,3.628641366958618,-0.056956421583890915,0.19548659026622772,-0.03319515660405159,-0.23295797407627106,-0.09867611527442932,-0.07936364412307739,-0.3721058666706085,2.335509777069092,0.5013344883918762,-0.8440455198287964,0.12579967081546783,-0.19101479649543762
1749027020.1027787,4.8514556884765625,-2.7526456318297328,-0.4035250246524811,1.699115200633667,-0.03508121172060186,3.6283302307128906,-0.06194017454981804,0.20318131148815155,-0.03326479718089104,-0.2406492829322815,-0.09734400361776352,-0.07865027338266373,-0.3227982223033905,2.3088982105255127,0.5127031207084656,-0.8776980638504028,0.12484534084796906,-0.20874115824699402
1749027020.1028497,4.8514556884765625,-2.7526456318297328,-0.4035250246524811,1.699115200633667,-0.03508121172060186,3.6283302307128906,-0.06194017454981804,0.20318131148815155,-0.03326479718089104,-0.2406492829322815,-0.09734400361776352,-0.07865027338266373,-0.3227982223033905,2.3088982105255127,0.5127031207084656,-0.8776980638504028,0.12484534084796906,-0.20874115824699402
1749027020.1029203,4.8513054847717285,-2.7521754703917445,-0.40357789397239685,1.6986564832874755,-0.03523093858827764,3.628183126449585,-0.05986178666353226,0.20563474297523499,-0.03254137933254242,-0.24833759665489197,-0.09980233013629913,-0.0787336528301239,-0.315910667181015,2.2356951236724854,0.5061907172203064,-0.8284359574317932,0.12275298684835434,-0.22686582803726196
1749027020.1029806,4.851205825805664,-2.7518211803831996,-0.4036306142807007,1.6981636720844726,-0.03546125093568975,3.6280200481414795,-0.05936596170067787,0.20659178495407104,-0.03253446891903877,-0.25621160864830017,-0.09779911488294601,-0.07918480783700943,-0.3722333312034607,2.2728805541992188,0.499311625957489,-0.7945206165313721,0.11609352380037308,-0.23089398443698883
1749027020.103021,4.851078510284424,-2.75136198619985,-0.4036943018436432,1.697667046184204,-0.03564626375307256,3.627852439880371,-0.060203611850738525,0.20602662861347198,-0.0333852544426918,-0.25373801589012146,-0.09819690883159637,-0.07851624488830566,-0.3197266757488251,2.257735252380371,0.4960315227508545,-0.7724751830101013,0.103756383061409,-0.2270449846982956
1749027020.1030583,4.8508148193359375,-2.7505809269347132,-0.4038698971271515,1.6966287332722167,-0.03606111208070928,3.627495288848877,-0.059025928378105164,0.2031228095293045,-0.034466978162527084,-0.249052956700325,-0.10530441254377365,-0.08184386789798737,-0.36303797364234924,2.3341469764709473,0.5176421999931335,-0.8043280243873596,0.12809161841869354,-0.20114722847938538
1749027020.1030967,4.8508148193359375,-2.7505809269347132,-0.4038698971271515,1.6966287332722167,-0.03606111208070928,3.627495288848877,-0.059025928378105164,0.2031228095293045,-0.034466978162527084,-0.249052956700325,-0.10530441254377365,-0.08184386789798737,-0.36303797364234924,2.3341469764709473,0.5176421999931335,-0.8043280243873596,0.12809161841869354,-0.20114722847938538
1749027020.1031342,4.850710868835449,-2.750144144097799,-0.40392276644706726,1.6961394983479003,-0.03623372713197881,3.6273539066314697,-0.05932719260454178,0.20835137367248535,-0.03474365174770355,-0.25054940581321716,-0.10436031967401505,-0.08071306347846985,-0.3497079312801361,2.328402280807495,0.5239878296852112,-0.8335159420967102,0.12306663393974304,-0.24571090936660767
1749027020.1031747,4.850575923919678,-2.7497288189330042,-0.4040142595767975,1.6956342893787841,-0.03651124635805303,3.6271915435791016,-0.06048499792814255,0.2137761414051056,-0.03482711315155029,-0.2547972798347473,-0.10286978632211685,-0.07924382388591766,-0.369340181350708,2.312462091445923,0.5362388491630554,-0.8456745743751526,0.09215322881937027,-0.28023359179496765
1749027020.1032119,4.850575923919678,-2.7497288189330042,-0.4040142595767975,1.6956342893787841,-0.03651124635805303,3.6271915435791016,-0.06048499792814255,0.2137761414051056,-0.03482711315155029,-0.2547972798347473,-0.10286978632211685,-0.07924382388591766,-0.369340181350708,2.312462091445923,0.5362388491630554,-0.8456745743751526,0.09215322881937027,-0.28023359179496765
1749027020.1032488,4.850173473358154,-2.748439451257223,-0.40416789054870605,1.6940550047108154,-0.037105862294332326,3.626677989959717,-0.06291615962982178,0.2128639966249466,-0.034805089235305786,-0.26125338673591614,-0.10814786702394485,-0.08873813599348068,-0.3381485342979431,2.3385183811187744,0.5181464552879333,-0.785508930683136,0.13763368129730225,-0.24549312889575958
1749027020.1032853,4.850173473358154,-2.748439451257223,-0.40416789054870605,1.6940550047108154,-0.037105862294332326,3.626677989959717,-0.06291615962982178,0.2128639966249466,-0.034805089235305786,-0.26125338673591614,-0.10814786702394485,-0.08873813599348068,-0.3381485342979431,2.3385183811187744,0.5181464552879333,-0.785508930683136,0.13763368129730225,-0.24549312889575958
1749027020.103322,4.8501081466674805,-2.7479878864684046,-0.40427497029304504,1.6935457426258544,-0.03734809557069951,3.6264870166778564,-0.062485817819833755,0.21208953857421875,-0.03484279662370682,-0.2573884129524231,-0.10933481156826019,-0.08903845399618149,-0.3423416018486023,2.3381240367889404,0.5284765958786011,-0.8173940777778625,0.14502032101154327,-0.22967877984046936
1749027020.1033592,4.849810600280762,-2.747110982934469,-0.4044155180454254,1.6925317484089355,-0.03776151338686162,3.6261556148529053,-0.06357243657112122,0.2198060154914856,-0.03545723855495453,-0.2596215605735779,-0.10928748548030853,-0.090305857360363,-0.38549917936325073,2.3540267944335938,0.5142923593521118,-0.892463743686676,0.14582699537277222,-0.24751469492912292
1749027020.1034038,4.849810600280762,-2.747110982934469,-0.4044155180454254,1.6925317484089355,-0.03776151338686162,3.6261556148529053,-0.06357243657112122,0.2198060154914856,-0.03545723855495453,-0.2596215605735779,-0.10928748548030853,-0.090305857360363,-0.38549917936325073,2.3540267944335938,0.5142923593521118,-0.892463743686676,0.14582699537277222,-0.24751469492912292
1749027020.1034422,4.849662780761719,-2.746701856652731,-0.4044875502586365,1.6919750410267334,-0.037992302571431935,3.625988006591797,-0.06385099142789841,0.2229580134153366,-0.03529886528849602,-0.26803746819496155,-0.10737768560647964,-0.0917796865105629,-0.3490331768989563,2.272909164428711,0.5368943810462952,-0.8408460021018982,0.13636662065982819,-0.22685949504375458
1749027020.1034791,4.849620342254639,-2.7462460003294886,-0.4045754373073578,1.691452904338501,-0.038204495106832326,3.6257660388946533,-0.06383991986513138,0.2210829257965088,-0.03609446436166763,-0.274820476770401,-0.10663444548845291,-0.09267581254243851,-0.367083340883255,2.3287482261657715,0.538791298866272,-0.806573748588562,0.1294831931591034,-0.23339474201202393
1749027020.1036973,4.849457740783691,-2.7457786999144496,-0.4046357572078705,1.6909236150928955,-0.03844815889467412,3.6255550384521484,-0.06389249861240387,0.21733735501766205,-0.03604373335838318,-0.2746773958206177,-0.10619399696588516,-0.09376335144042969,-0.37204673886299133,2.417219400405884,0.5203627943992615,-0.8048123121261597,0.12699630856513977,-0.21954302489757538
1749027020.1057384,4.84922456741333,-2.744890352288717,-0.4047870337963104,1.6898061472126464,-0.03880912462343389,3.6251964569091797,-0.06494702398777008,0.22694697976112366,-0.0353705957531929,-0.2715674340724945,-0.10687590390443802,-0.09276580065488815,-0.35240259766578674,2.297450542449951,0.5222901105880737,-0.8373491764068604,0.10198936611413956,-0.21771079301834106
1749027020.1462827,4.84922456741333,-2.744890352288717,-0.4047870337963104,1.6898061472126464,-0.03880912462343389,3.6251964569091797,-0.06494702398777008,0.22694697976112366,-0.0353705957531929,-0.2715674340724945,-0.10687590390443802,-0.09276580065488815,-0.35240259766578674,2.297450542449951,0.5222901105880737,-0.8373491764068604,0.10198936611413956,-0.21771079301834106
1749027020.1463287,4.849089622497559,-2.744397302667135,-0.4048675000667572,1.6892568308063964,-0.0390246550189417,3.6250052452087402,-0.06611310690641403,0.22931277751922607,-0.03597819805145264,-0.26966744661331177,-0.10575438290834427,-0.09132689237594604,-0.3819398283958435,2.2940404415130615,0.5135306119918823,-0.8580254316329956,0.0637073814868927,-0.24662178754806519
1749027020.146369,4.848787307739258,-2.7434774837889613,-0.4049925208091736,1.6881653505512695,-0.039458576832906544,3.6246538162231445,-0.06593013554811478,0.22902649641036987,-0.03784071281552315,-0.28048965334892273,-0.11077266186475754,-0.09018367528915405,-0.40312710404396057,2.326164484024048,0.5484330058097839,-0.8342117667198181,0.07215137034654617,-0.27074748277664185
1749027020.1464071,4.848787307739258,-2.7434774837889613,-0.4049925208091736,1.6881653505512695,-0.039458576832906544,3.6246538162231445,-0.06593013554811478,0.22902649641036987,-0.03784071281552315,-0.28048965334892273,-0.11077266186475754,-0.09018367528915405,-0.40312710404396057,2.326164484024048,0.5484330058097839,-0.8342117667198181,0.07215137034654617,-0.27074748277664185
1749027020.146445,4.848588943481445,-2.7430368862547816,-0.4050333499908447,1.6875931459614257,-0.03970653215517217,3.6244709491729736,-0.0676783099770546,0.22988426685333252,-0.03649836778640747,-0.28047671914100647,-0.11096690595149994,-0.09115991741418839,-0.37767162919044495,2.3402931690216064,0.5311205387115479,-0.8126384019851685,0.044424913823604584,-0.25287535786628723
1749027020.1464827,4.848538398742676,-2.7425791225829066,-0.4051087498664856,1.6870080667683105,-0.039892021809713185,3.6243197917938232,-0.06929100304841995,0.23320169746875763,-0.0363418310880661,-0.2830244302749634,-0.11353185027837753,-0.08865232020616531,-0.3308407664299011,2.335118293762207,0.5139901041984558,-0.7604607939720154,0.0746101588010788,-0.2858879566192627
1749027020.14652,4.848391532897949,-2.7421075306334437,-0.4052124321460724,1.6864401537128906,-0.04017001787294561,3.6241278648376465,-0.06614171713590622,0.2367894947528839,-0.03807554766535759,-0.2823466956615448,-0.12106785923242569,-0.08891011029481888,-0.4052223861217499,2.326277256011963,0.5245707631111145,-0.8032729625701904,0.11075392365455627,-0.3014717102050781
1749027020.1465569,4.848092079162598,-2.7411309681334437,-0.4053771197795868,1.6853052812763671,-0.04062253633608037,3.6237854957580566,-0.06827632337808609,0.23838002979755402,-0.03676232695579529,-0.2868666350841522,-0.12099683284759521,-0.0963909700512886,-0.41410118341445923,2.329115867614746,0.530226469039917,-0.8332645297050476,0.11730390787124634,-0.27779754996299744
1749027020.1465945,4.848092079162598,-2.7411309681334437,-0.4053771197795868,1.6853052812763671,-0.04062253633608037,3.6237854957580566,-0.06827632337808609,0.23838002979755402,-0.03676232695579529,-0.2868666350841522,-0.12099683284759521,-0.0963909700512886,-0.41410118341445923,2.329115867614746,0.530226469039917,-0.8332645297050476,0.11730390787124634,-0.27779754996299744
1749027020.146632,4.847925662994385,-2.740607877770895,-0.4054332375526428,1.6847137647816162,-0.040835205708638966,3.6235597133636475,-0.06980068236589432,0.24197830259799957,-0.03687574714422226,-0.2898963391780853,-0.12144643068313599,-0.09994242340326309,-0.36885079741477966,2.3383736610412598,0.5315168499946594,-0.8067955374717712,0.10980871319770813,-0.2323169708251953
1749027020.1466691,4.847602844238281,-2.739678045312399,-0.40558141469955444,1.6835087972828369,-0.041346375142232716,3.6231417655944824,-0.07129529118537903,0.24966458976268768,-0.03670896962285042,-0.28994297981262207,-0.12337137013673782,-0.10421042889356613,-0.3444846570491791,2.2244210243225098,0.5086109042167664,-0.7500530481338501,0.14093805849552155,-0.2321985363960266
1749027020.1467073,4.847602844238281,-2.739678045312399,-0.40558141469955444,1.6835087972828369,-0.041346375142232716,3.6231417655944824,-0.07129529118537903,0.24966458976268768,-0.03670896962285042,-0.28994297981262207,-0.12337137013673782,-0.10421042889356613,-0.3444846570491791,2.2244210243225098,0.5086109042167664,-0.7500530481338501,0.14093805849552155,-0.2321985363960266
1749027020.1467443,4.847346782684326,-2.738661905328268,-0.4057616591453552,1.6823317247578125,-0.041877094899312794,3.622710943222046,-0.06991314888000488,0.248585045337677,-0.0400768518447876,-0.28495797514915466,-0.12167417258024216,-0.10832605510950089,-0.3672516942024231,2.2226662635803223,0.523715615272522,-0.8305598497390747,0.14621031284332275,-0.174230694770813
1749027020.1467812,4.847346782684326,-2.738661905328268,-0.4057616591453552,1.6823317247578125,-0.041877094899312794,3.622710943222046,-0.06991314888000488,0.248585045337677,-0.0400768518447876,-0.28495797514915466,-0.12167417258024216,-0.10832605510950089,-0.3672516942024231,2.2226662635803223,0.523715615272522,-0.8305598497390747,0.14621031284332275,-0.174230694770813
1749027020.1468182,4.847253799438477,-2.738197465936178,-0.40582534670829773,1.681797905559204,-0.04209787050356084,3.6225194931030273,-0.07051665335893631,0.2476198673248291,-0.03743483126163483,-0.28691422939300537,-0.11947377026081085,-0.10831570625305176,-0.40668290853500366,2.319624662399292,0.5148512125015259,-0.8553692698478699,0.13469374179840088,-0.1717301309108734
1749027020.1468556,4.84696626663208,-2.7372080288329066,-0.4059814512729645,1.6805738645740966,-0.04256564775575811,3.6221325397491455,-0.07052290439605713,0.25295376777648926,-0.03924599662423134,-0.2926051914691925,-0.11504410207271576,-0.10558164864778519,-0.4199169874191284,2.304838180541992,0.525635302066803,-0.8262996077537537,0.07807929813861847,-0.17728164792060852
1749027020.1468918,4.84696626663208,-2.7372080288329066,-0.4059814512729645,1.6805738645740966,-0.04256564775575811,3.6221325397491455,-0.07052290439605713,0.25295376777648926,-0.03924599662423134,-0.2926051914691925,-0.11504410207271576,-0.10558164864778519,-0.4199169874191284,2.304838180541992,0.525635302066803,-0.8262996077537537,0.07807929813861847,-0.17728164792060852
1749027020.146928,4.846815586090088,-2.7366768322386683,-0.40606942772865295,1.6799496847340087,-0.0428088347064417,3.621898651123047,-0.07297757267951965,0.258608877658844,-0.03819112852215767,-0.29622459411621094,-0.11718615889549255,-0.1043158695101738,-0.3648596704006195,2.1723992824554443,0.4916185736656189,-0.7793548107147217,0.08354382961988449,-0.1895616054534912
1749027020.146964,4.846484661102295,-2.735636373559469,-0.4062221944332123,1.6788195806690673,-0.043250385914937794,3.6215384006500244,-0.07341516762971878,0.25326791405677795,-0.040177132934331894,-0.29280686378479004,-0.1230056881904602,-0.10198520123958588,-0.3740519881248474,2.2698137760162354,0.5089606046676636,-0.8500874638557434,0.10176678746938705,-0.18181012570858002
1749027020.1470003,4.846484661102295,-2.735636373559469,-0.4062221944332123,1.6788195806690673,-0.043250385914937794,3.6215384006500244,-0.07341516762971878,0.25326791405677795,-0.040177132934331894,-0.29280686378479004,-0.1230056881904602,-0.10198520123958588,-0.3740519881248474,2.2698137760162354,0.5089606046676636,-0.8500874638557434,0.10176678746938705,-0.18181012570858002
1749027020.147673,4.846348285675049,-2.7351399860777796,-0.40632185339927673,1.678180142039917,-0.043513123189107716,3.6213505268096924,-0.07355032116174698,0.25262734293937683,-0.04100215062499046,-0.2994915544986725,-0.12229230254888535,-0.10136402398347855,-0.3604564666748047,2.2673397064208984,0.5024651288986206,-0.821931779384613,0.08434337377548218,-0.1999291181564331
1749027020.1496456,4.846216201782227,-2.7346583805479945,-0.40638646483421326,1.6775917249866943,-0.04379636446108037,3.6211557388305664,-0.07410530000925064,0.25376632809638977,-0.041374076157808304,-0.3086778223514557,-0.12439628690481186,-0.09943710267543793,-0.34296950697898865,2.289445638656616,0.5251659154891968,-0.797527015209198,0.07284361869096756,-0.2354617416858673
1749027020.1902936,4.846076011657715,-2.734091898004049,-0.40648138523101807,1.676952524776123,-0.04399425188173467,3.6208877563476562,-0.0742812305688858,0.2587917447090149,-0.04078445956110954,-0.3095039427280426,-0.12641212344169617,-0.10062757879495621,-0.3567299246788025,2.2545406818389893,0.5225036144256592,-0.7734178900718689,0.09327557682991028,-0.25689780712127686
1749027020.19034,4.845908164978027,-2.7336064777769984,-0.4065500795841217,1.6763776975819091,-0.044318977986471,3.6207499504089355,-0.07469016313552856,0.26152893900871277,-0.040857087820768356,-0.3088960647583008,-0.12694893777370453,-0.10354062169790268,-0.3426370918750763,2.2457311153411865,0.5045371055603027,-0.7772566676139832,0.11347522586584091,-0.20715875923633575
1749027020.1903796,4.8457489013671875,-2.733039518395895,-0.4066302478313446,1.6758205133625488,-0.04455930391420537,3.620530843734741,-0.07504570484161377,0.25920072197914124,-0.04138099402189255,-0.30754581093788147,-0.12734906375408173,-0.1002606600522995,-0.37946194410324097,2.2788405418395996,0.5111523866653442,-0.8123013973236084,0.09964945912361145,-0.25203603506088257
1749027020.1904185,4.845582962036133,-2.732530733148092,-0.4067453444004059,1.6751763063618164,-0.044783894215719044,3.620293140411377,-0.07482665777206421,0.25933530926704407,-0.041415996849536896,-0.3073633015155792,-0.1279892921447754,-0.10036756843328476,-0.39811718463897705,2.36281418800354,0.5410735607147217,-0.8518857359886169,0.10437829047441483,-0.2764115333557129
1749027020.1904573,4.845458030700684,-2.7320333919920863,-0.4067859351634979,1.6745325761982421,-0.045052353535787404,3.620081663131714,-0.07622890174388885,0.2633189558982849,-0.039898455142974854,-0.3109729588031769,-0.12950149178504944,-0.10302666574716568,-0.38794413208961487,2.309027910232544,0.49996137619018555,-0.8555288910865784,0.10891330987215042,-0.26058024168014526
1749027020.190495,4.845302581787109,-2.731513639489645,-0.4068738520145416,1.6738928991505126,-0.045307461415426076,3.6198713779449463,-0.07674285024404526,0.26921266317367554,-0.04056208208203316,-0.31847041845321655,-0.13009050488471985,-0.1085377186536789,-0.3467242121696472,2.2243216037750244,0.4925600290298462,-0.7984182834625244,0.08837491273880005,-0.2350275069475174
1749027020.1905327,4.845029354095459,-2.730455537835592,-0.40706542134284973,1.6726597982593994,-0.04583961168398076,3.6194674968719482,-0.07619524747133255,0.2668713927268982,-0.043479498475790024,-0.31516900658607483,-0.1284712553024292,-0.10908249765634537,-0.3958028554916382,2.3154959678649902,0.5357357263565063,-0.8509761095046997,0.10920422524213791,-0.25945723056793213
1749027020.1905699,4.845029354095459,-2.730455537835592,-0.40706542134284973,1.6726597982593994,-0.04583961168398076,3.6194674968719482,-0.07619524747133255,0.2668713927268982,-0.043479498475790024,-0.31516900658607483,-0.1284712553024292,-0.10908249765634537,-0.3958028554916382,2.3154959678649902,0.5357357263565063,-0.8509761095046997,0.10920422524213791,-0.25945723056793213
1749027020.1906075,4.844823360443115,-2.7299162350096644,-0.4071493446826935,1.6720434862324218,-0.04609138170351201,3.6192328929901123,-0.08088016510009766,0.2676045298576355,-0.042489953339099884,-0.31518468260765076,-0.13025730848312378,-0.11206619441509247,-0.34561654925346375,2.3259801864624023,0.5162136554718018,-0.8691813945770264,0.10104351490736008,-0.2261476218700409
1749027020.1906447,4.844686508178711,-2.7293440304198207,-0.40722161531448364,1.6714033323475341,-0.04632741609682256,3.6190032958984375,-0.07697531580924988,0.2707749903202057,-0.0420144684612751,-0.32122525572776794,-0.1277238428592682,-0.11367134749889374,-0.35259881615638733,2.2115936279296875,0.48319345712661743,-0.871951699256897,0.07714742422103882,-0.218313530087471
1749027020.1906826,4.844516754150391,-2.7288700542845667,-0.4073329567909241,1.6707390981861572,-0.04659873643984014,3.6187875270843506,-0.07619349658489227,0.27226266264915466,-0.04523057863116264,-0.3258591592311859,-0.13101886212825775,-0.11386480182409286,-0.4002353549003601,2.287144184112549,0.5130506753921509,-0.8952019810676575,0.09073089063167572,-0.22033032774925232
1749027020.19072,4.844364643096924,-2.728285928765768,-0.4073941111564636,1.6700891691395263,-0.046854797993795216,3.6185760498046875,-0.07921311259269714,0.2773137390613556,-0.043426498770713806,-0.32923051714897156,-0.13939382135868073,-0.11273649334907532,-0.3459264636039734,2.2088708877563477,0.515832781791687,-0.8414196968078613,0.11876091361045837,-0.2293701022863388
1749027020.190757,4.844213008880615,-2.727734705010885,-0.40749391913414,1.6694564062305908,-0.047178093587056935,3.618333101272583,-0.07685311883687973,0.2724384367465973,-0.0432308167219162,-0.33083680272102356,-0.1403772383928299,-0.11278841644525528,-0.40569329261779785,2.2623307704925537,0.501923143863678,-0.8293259739875793,0.15638253092765808,-0.21494290232658386
1749027020.1907947,4.844052791595459,-2.727177759210104,-0.40758511424064636,1.6688195902058105,-0.04744273820985967,3.618134021759033,-0.07980724424123764,0.27001333236694336,-0.043695319443941116,-0.3283306658267975,-0.14033862948417664,-0.11222029477357864,-0.3813183903694153,2.2442495822906494,0.48995500802993774,-0.8550907969474792,0.12241099774837494,-0.2189624309539795
1749027020.1908314,4.843916893005371,-2.7266608677306117,-0.4076302647590637,1.6681195932575683,-0.047718350087301076,3.6179137229919434,-0.07973423600196838,0.2753944993019104,-0.043837085366249084,-0.32966095209121704,-0.13924670219421387,-0.1097516342997551,-0.3718578815460205,2.287595510482788,0.5058550834655762,-0.8834512233734131,0.1317652314901352,-0.24166494607925415
1749027020.1908684,4.843714714050293,-2.726104875604147,-0.40771418809890747,1.667442961330078,-0.04802257219423467,3.617643117904663,-0.08120691776275635,0.2781544029712677,-0.04507198929786682,-0.333404004573822,-0.13704806566238403,-0.1100844293832779,-0.39042890071868896,2.3248231410980225,0.5210718512535095,-0.901738166809082,0.15863776206970215,-0.25387758016586304
1749027020.1909056,4.843530654907227,-2.725518365899557,-0.40783312916755676,1.6668023306080322,-0.04833680788149053,3.6174588203430176,-0.08257582783699036,0.2803528606891632,-0.04240885749459267,-0.3373986482620239,-0.13485081493854523,-0.1106337383389473,-0.39812612533569336,2.3347153663635254,0.5082562565803528,-0.8600589632987976,0.13548046350479126,-0.22566410899162292
1749027020.190942,4.843441486358643,-2.7249957523741664,-0.4079289734363556,1.6661409574696044,-0.04861337343324834,3.61723256111145,-0.08423101902008057,0.2799276113510132,-0.04136093705892563,-0.3390338122844696,-0.13185907900333405,-0.10864346474409103,-0.3455008566379547,2.291999340057373,0.4526541233062744,-0.8330832123756409,0.1156429648399353,-0.255934476852417
1749027020.1909785,4.84328556060791,-2.7244273624815882,-0.4080129563808441,1.665496750468872,-0.04885417619814092,3.6170365810394287,-0.08113889396190643,0.2809126675128937,-0.044166721403598785,-0.33577561378479004,-0.13117696344852448,-0.10873271524906158,-0.36546456813812256,2.344296932220459,0.5115635395050049,-0.9042665958404541,0.1348298043012619,-0.2891257405281067
1749027020.1910152,4.843141078948975,-2.7238480053343714,-0.408081591129303,1.6648050981708984,-0.04906684557069951,3.6168017387390137,-0.08056973665952682,0.2865522503852844,-0.044420819729566574,-0.3365892469882965,-0.12934798002243042,-0.11339374631643295,-0.419848769903183,2.3026397228240967,0.49855464696884155,-0.9337449669837952,0.09565795212984085,-0.2473212331533432
1749027020.1917288,4.842958927154541,-2.723260065118307,-0.40817734599113464,1.6641284662434082,-0.049306694661275685,3.6165523529052734,-0.08634868264198303,0.2888197898864746,-0.04455634951591492,-0.3419601619243622,-0.1352260857820511,-0.11604664474725723,-0.3668369650840759,2.302912950515747,0.4861724376678467,-0.905940592288971,0.10351981222629547,-0.24250692129135132
1749027020.1936612,4.842780113220215,-2.722724576989645,-0.4082888066768646,1.6633919912525634,-0.04967719713319951,3.616356372833252,-0.08167120814323425,0.284513920545578,-0.0446833111345768,-0.34968551993370056,-0.13345815241336823,-0.11710644513368607,-0.37111896276474,2.2734639644622803,0.46424049139022827,-0.843833327293396,0.0932704359292984,-0.24952828884124756
1749027020.234278,4.842588424682617,-2.7221261463561,-0.4083690345287323,1.66270296155896,-0.04995614687074834,3.6161203384399414,-0.08167548477649689,0.2786514163017273,-0.04740138724446297,-0.3496845066547394,-0.1353168785572052,-0.11975494027137756,-0.41890010237693787,2.430074691772461,0.4890139698982239,-0.8433786034584045,0.07597430795431137,-0.2236870974302292
1749027020.2343233,4.842440128326416,-2.721595903436178,-0.4084760844707489,1.661996527309082,-0.05019694963564092,3.615835189819336,-0.08346487581729889,0.2854173481464386,-0.04733802378177643,-0.34980493783950806,-0.1417284607887268,-0.1233329325914383,-0.4045918583869934,2.452374219894409,0.4918502867221832,-0.8606529235839844,0.11168713867664337,-0.20361916720867157
1749027020.234363,4.842139720916748,-2.7204438648619593,-0.40866437554359436,1.6605836588093261,-0.05075294176210576,3.6153414249420166,-0.0851699709892273,0.28974002599716187,-0.0463654026389122,-0.355106383562088,-0.13919873535633087,-0.12317187339067459,-0.34578990936279297,2.336855888366699,0.4547636806964874,-0.8307555913925171,0.10720307379961014,-0.1907104104757309
1749027020.234402,4.842139720916748,-2.7204438648619593,-0.40866437554359436,1.6605836588093261,-0.05075294176210576,3.6153414249420166,-0.0851699709892273,0.28974002599716187,-0.0463654026389122,-0.355106383562088,-0.13919873535633087,-0.12317187339067459,-0.34578990936279297,2.336855888366699,0.4547636806964874,-0.8307555913925171,0.10720307379961014,-0.1907104104757309
1749027020.2344398,4.841965198516846,-2.719832559625143,-0.4087291359901428,1.6598715025135498,-0.0510638395892542,3.615123987197876,-0.08402907848358154,0.2866869568824768,-0.04856107756495476,-0.3568759560585022,-0.14173556864261627,-0.12302368134260178,-0.4085122346878052,2.4749088287353516,0.5068914890289307,-0.8395772576332092,0.09973029792308807,-0.20353379845619202
1749027020.2344778,4.841617107391357,-2.718630453149313,-0.40891703963279724,1.6584781843372802,-0.05161935487856084,3.614642381668091,-0.08570442348718643,0.295285165309906,-0.04666135832667351,-0.35436928272247314,-0.1452489048242569,-0.11854527145624161,-0.39987197518348694,2.345604658126831,0.4638584852218628,-0.8186900615692139,0.11349990963935852,-0.20385240018367767
1749027020.2345154,4.841617107391357,-2.718630453149313,-0.40891703963279724,1.6584781843372802,-0.05161935487856084,3.614642381668091,-0.08570442348718643,0.295285165309906,-0.04666135832667351,-0.35436928272247314,-0.1452489048242569,-0.11854527145624161,-0.39987197518348694,2.345604658126831,0.4638584852218628,-0.8186900615692139,0.11349990963935852,-0.20385240018367767
1749027020.2345526,4.841449737548828,-2.718027730981344,-0.4090171456336975,1.6577293115803222,-0.051938835774556935,3.6143994331359863,-0.08604647219181061,0.29465168714523315,-0.04746062308549881,-0.3494635224342346,-0.14492739737033844,-0.11638831347227097,-0.3726862072944641,2.333847761154175,0.4559863209724426,-0.8807939887046814,0.10842585563659668,-0.22324416041374207
1749027020.2345893,4.8412580490112305,-2.7174531422057093,-0.4091404378414154,1.6570371824451904,-0.05223209062685186,3.614145040512085,-0.08518339693546295,0.29470083117485046,-0.04924599826335907,-0.35389453172683716,-0.1446416676044464,-0.1162034198641777,-0.3918299973011017,2.4010257720947266,0.4945220649242401,-0.8850349187850952,0.1266860067844391,-0.23627698421478271
1749027020.2346268,4.841113090515137,-2.716879507104391,-0.4092243015766144,1.6562964159199218,-0.05253631273378545,3.6139514446258545,-0.08685271441936493,0.29544559121131897,-0.048299580812454224,-0.3600962460041046,-0.14525370299816132,-0.11644256114959717,-0.3802890479564667,2.370784044265747,0.47221606969833374,-0.8246508240699768,0.1411857306957245,-0.2394147515296936
1749027020.2346642,4.840754985809326,-2.7156716785826625,-0.40940800309181213,1.6548656660267334,-0.05316335359682256,3.6134934425354004,-0.08873861283063889,0.3029884994029999,-0.04832497239112854,-0.35653260350227356,-0.14615261554718018,-0.11418495327234268,-0.3282994031906128,2.3189313411712646,0.45885032415390015,-0.8541279435157776,0.15581214427947998,-0.25629904866218567
1749027020.234701,4.840754985809326,-2.7156716785826625,-0.40940800309181213,1.6548656660267334,-0.05316335359682256,3.6134934425354004,-0.08873861283063889,0.3029884994029999,-0.04832497239112854,-0.35653260350227356,-0.14615261554718018,-0.11418495327234268,-0.3282994031906128,2.3189313411712646,0.45885032415390015,-0.8541279435157776,0.15581214427947998,-0.25629904866218567
1749027020.2347376,4.840559482574463,-2.7150470219054164,-0.4095193147659302,1.6541570860096435,-0.05341226259340459,3.613239049911499,-0.08626677095890045,0.30001741647720337,-0.04779747873544693,-0.3600577116012573,-0.14132238924503326,-0.11771504580974579,-0.4338122606277466,2.363863945007324,0.48576098680496216,-0.8590856194496155,0.13177165389060974,-0.27855342626571655
1749027020.2347744,4.840174198150635,-2.7138568363585414,-0.4097042977809906,1.652620478267334,-0.053955856953756154,3.6127359867095947,-0.08894743770360947,0.3074983060359955,-0.04691871628165245,-0.3689050078392029,-0.14253506064414978,-0.12073060125112534,-0.4155651330947876,2.385868787765503,0.46514105796813965,-0.8036041259765625,0.11086131632328033,-0.2791648805141449
1749027020.2348106,4.840174198150635,-2.7138568363585414,-0.4097042977809906,1.652620478267334,-0.053955856953756154,3.6127359867095947,-0.08894743770360947,0.3074983060359955,-0.04691871628165245,-0.3689050078392029,-0.14253506064414978,-0.12073060125112534,-0.4155651330947876,2.385868787765503,0.46514105796813965,-0.8036041259765625,0.11086131632328033,-0.2791648805141449
1749027020.234847,4.8400726318359375,-2.713217397729391,-0.4097879230976105,1.6518596845814209,-0.05426007906068975,3.6125125885009766,-0.0904947966337204,0.3110637366771698,-0.048813991248607635,-0.3655320107936859,-0.14243432879447937,-0.1254957765340805,-0.3658680319786072,2.247176170349121,0.45159393548965454,-0.7912905216217041,0.1002817377448082,-0.2332180142402649
