nimar13/UR3e_dataset_trayectorias/trayectorias_ejecutadas/jtraj/trayectoria_035_result.csv
timestamp,q1,q2,q3,q4,q5,q6,qd1,qd2,qd3,qd4,qd5,qd6,tau1,tau2,tau3,tau4,tau5,tau6
1749026127.598271,0.432598739862442,-2.1470161877074183,1.1441500822650355,3.1012250620075683,3.2630410194396973,-1.2253931204425257,0.0013280711136758327,0.0014171479269862175,5.229187081567943e-05,-0.00020758526807185262,-0.0015803987625986338,-0.00019849857199005783,-0.0869026780128479,0.41147488355636597,-0.2949438989162445,0.22486738860607147,0.38059329986572266,-0.1403050422668457
1749026127.5983193,0.4326609671115875,-2.1469761333861292,1.144153896962301,3.1012160021015625,3.2630410194396973,-1.2253392378436487,0.001081591472029686,0.0011882787803187966,5.081440758658573e-05,-0.00020176684483885765,-0.0012458304408937693,-0.00019317322585266083,-0.05629505217075348,0.39384227991104126,-0.28111210465431213,0.2109687626361847,0.3959283232688904,-0.15247216820716858
1749026127.5983603,0.4326832592487335,-2.147020002404684,1.144153896962301,3.1012160021015625,3.263075828552246,-1.2253416220294397,0.0009010270587168634,0.0010198423406109214,4.942015220876783e-05,-0.00019626430002972484,-0.0010480404598638415,-0.00018812496273312718,-0.0675920844078064,0.397114098072052,-0.2865365445613861,0.21639251708984375,0.3921564221382141,-0.13880795240402222
1749026127.598404,0.43262532353401184,-2.1469723186888636,1.14417010942568,3.1012283998676757,3.2629973888397217,-1.2254088560687464,0.0007720556459389627,0.000893222342710942,4.809950041817501e-05,-0.00019132286251988262,-0.0009465537732467055,-0.00018333244952373207,-0.06263910233974457,0.3914133906364441,-0.28979167342185974,0.22309888899326324,0.38465416431427,-0.15603241324424744
1749026127.5984433,0.432633638381958,-2.1470004520811976,1.144153896962301,3.1012436586567382,3.2630410194396973,-1.2253344694720667,0.000675409275572747,0.0007945774123072624,4.684657687903382e-05,-0.00014585506869480014,-0.0008171341032721102,-0.00017878033395390958,-0.06251314282417297,0.40215879678726196,-0.28708013892173767,0.2194724828004837,0.3809754252433777,-0.1578466296195984
1749026127.5985105,0.43261128664016724,-2.1469880543150843,1.14417010942568,3.101247473354004,3.2630064487457275,-1.2253931204425257,0.0006969415699131787,0.0007155807688832283,4.565913695842028e-05,-0.00011290481052128598,-0.0007764291949570179,-0.00017444824334234,-0.05759701132774353,0.39053720235824585,-0.27663806080818176,0.2062264233827591,0.3863403797149658,-0.1575251668691635
1749026127.5985723,0.43264901638031006,-2.1469880543150843,1.14417010942568,3.101259871120117,3.263056516647339,-1.2253454367267054,0.0006302042165771127,0.0006508654332719743,4.452954817679711e-05,-0.00027676773606799543,-0.0007237213430926204,-0.00017031971947290003,-0.06877444684505463,0.40040022134780884,-0.2794858515262604,0.2269197702407837,0.38335031270980835,-0.15629509091377258
1749026127.5986154,0.4326232373714447,-2.1469532452025355,1.144153896962301,3.101212664241455,3.263075590133667,-1.2253931204425257,0.0005729018012061715,0.000596887432038784,4.34537032560911e-05,-0.0002393002505414188,-0.0006547793745994568,-0.00016638415399938822,-0.10072605311870575,0.38015660643577576,-0.2789430618286133,0.21355724334716797,0.38673001527786255,-0.15616673231124878
1749026127.598654,0.43264901638031006,-2.146957059899801,1.1441500822650355,3.101212664241455,3.2630364894866943,-1.2254088560687464,0.0005251325783319771,0.000551185046788305,4.243000512360595e-05,-0.00019363440515007824,-0.0006539170863106847,-0.00016262561257462949,-0.07277356088161469,0.4026105999946594,-0.2839612066745758,0.21848537027835846,0.3949054479598999,-0.14826072752475739
1749026127.598693,0.43264901638031006,-2.1470042667784632,1.144153896962301,3.1012088495441894,3.263017177581787,-1.2253573576556605,0.0004847183299716562,0.0005119823617860675,4.145291313761845e-05,-0.00015984836500138044,-0.0006159862386994064,-0.00015903185703791678,-0.07797671854496002,0.3877650499343872,-0.262263685464859,0.21849943697452545,0.39772653579711914,-0.16134637594223022
1749026127.598735,0.43263018131256104,-2.1469880543150843,1.1441381613360804,3.1012283998676757,3.2630364894866943,-1.225361172352926,0.00045008366578258574,0.00047797802835702896,4.051900396007113e-05,-0.0001356396678602323,-0.0005703102215193212,-0.0001555954513605684,-0.08830301463603973,0.38175374269485474,-0.2652483582496643,0.20969609916210175,0.38818228244781494,-0.16522693634033203
1749026127.5987747,0.43266090750694275,-2.1470004520811976,1.1441262404071253,3.101236029262207,3.2630410194396973,-1.225377384816305,0.0004200657131150365,0.0004482273943722248,3.962760456488468e-05,-0.00011774866288760677,-0.000528864620719105,-0.00015230392455123365,-0.06560352444648743,0.3679370880126953,-0.2817912995815277,0.21054811775684357,0.40004444122314453,-0.16963544487953186
1749026127.5988133,0.43264901638031006,-2.1469842396178187,1.1441500822650355,3.1012508112141113,3.263000965118408,-1.2254088560687464,0.00039380419184453785,0.0004219556285534054,3.877398921758868e-05,-0.00010404489876236767,-0.00049273029435426,-0.00011936132796108723,-0.07911592721939087,0.35728129744529724,-0.2733832895755768,0.21236750483512878,0.3925635814666748,-0.153196781873703
1749026127.5988514,0.4326232373714447,-2.14699186901235,1.144134823475973,3.101247473354004,3.2629902362823486,-1.2253344694720667,0.00020378411863930523,0.0003985917428508401,3.795574593823403e-05,-9.321180550614372e-05,-0.00046114219003356993,-9.908920037560165e-05,-0.11523018777370453,0.35186517238616943,-0.2708066999912262,0.20366398990154266,0.4085172414779663,-0.16089561581611633
1749026127.5988936,0.432637095451355,-2.1469809017577113,1.1441500822650355,3.101219816798828,3.263017177581787,-1.225377384816305,0.00011703986820066348,0.00037768151378259063,3.717244180734269e-05,-8.442862599622458e-05,-0.00037032997352071106,-9.389865590492263e-05,-0.10683359205722809,0.3906536102294922,-0.276502400636673,0.20844894647598267,0.40601229667663574,-0.17954596877098083
1749026127.598933,0.432633638381958,-2.1470233402647914,1.1441610495196741,3.101247473354004,3.263029098510742,-1.2254074255572718,0.00010921658395091072,0.00032826978713274,3.642030787887052e-05,-7.716625987086445e-05,-0.0003100501489825547,-0.0001046463949023746,-0.1052064597606659,0.37466543912887573,-0.2537209987640381,0.2156924456357956,0.3922181725502014,-0.16969670355319977
1749026127.5989718,0.43265748023986816,-2.1470004520811976,1.1441381613360804,3.1012160021015625,3.263000965118408,-1.2254040876971644,0.00010296141408616677,0.0002992292575072497,3.56974451278802e-05,-7.105693657649681e-05,-0.00028424436459317803,-0.00011276458099018782,-0.10844646394252777,0.37113550305366516,-0.2636185586452484,0.20677708089351654,0.4051859378814697,-0.16770300269126892
1749026127.5990095,0.4326455593109131,-2.1469842396178187,1.1441457907306116,3.101219816798828,3.2630481719970703,-1.2254193464862269,9.739016240928322e-05,0.00028553573065437376,3.5003726225113496e-05,-6.584535731235519e-05,-0.0002662855258677155,-0.00012064095062669367,-0.10714900493621826,0.34174609184265137,-0.2546699345111847,0.21450726687908173,0.4010998010635376,-0.16090355813503265
1749026127.5990508,0.4326832890510559,-2.1470195255675257,1.1441381613360804,3.1012283998676757,3.2630326747894287,-1.2254050413714808,9.239079372491688e-05,0.000273154117166996,3.4336058888584375e-05,-6.134899012977257e-05,-0.0002512162027414888,-0.00013422717165667564,-0.1280294805765152,0.34674662351608276,-0.2633483111858368,0.21089030802249908,0.4213166832923889,-0.16562959551811218
1749026127.5990896,0.43263018131256104,-2.146996637383932,1.1441500822650355,3.1012322145649414,3.2629892826080322,-1.2254193464862269,4.5355707698035985e-05,0.00026180208078585565,3.369287878740579e-05,-5.742789653595537e-05,-0.00023788846738170832,-0.0003996684681624174,-0.12014961242675781,0.3507372736930847,-0.26036450266838074,0.21601741015911102,0.39398884773254395,-0.18472018837928772
1749026127.599699,0.4326232075691223,-2.1469880543150843,1.1441500822650355,3.1012508112141113,3.263063669204712,-1.225370232258932,4.190814070170745e-05,0.0002513561921659857,3.30741677316837e-05,-5.39808243047446e-05,-0.0002259175234939903,-0.0005857517244294286,-0.1263408660888672,0.3574088513851166,-0.2623977065086365,0.20790311694145203,0.41512852907180786,-0.1628897488117218
1749026127.6017377,0.4326266944408417,-2.1469761333861292,1.1441381613360804,3.1012160021015625,3.263017177581787,-1.2254050413714808,1.2856954754170147e-06,0.0002417122886981815,3.247744825785048e-05,-5.092308492748998e-05,-0.00021511562226805836,-0.0006425261963158846,-0.13768810033798218,0.3328443765640259,-0.25968876481056213,0.21833764016628265,0.4122641086578369,-0.1811024397611618
1749026127.6422799,0.43267977237701416,-2.1469842396178187,1.1441734472857874,3.101236029262207,3.2630326747894287,-1.2254050413714808,1.2544023597627074e-08,7.763839676044881e-05,3.190140341757797e-05,-4.8195513954851776e-05,-0.00020529514586087316,-0.0006805619923397899,-0.1340990662574768,0.3417714536190033,-0.25507667660713196,0.23373638093471527,0.39305663108825684,-0.16760239005088806
1749026127.6423266,0.43267977237701416,-2.1469842396178187,1.1441734472857874,3.101236029262207,3.2630326747894287,-1.2254050413714808,1.2544023597627074e-08,7.763839676044881e-05,3.190140341757797e-05,-4.8195513954851776e-05,-0.00020529514586087316,-0.0006805619923397899,-0.1340990662574768,0.3417714536190033,-0.25507667660713196,0.23373638093471527,0.39305663108825684,-0.16760239005088806
1749026127.6423664,0.43263018131256104,-2.1469842396178187,1.1441381613360804,3.1012160021015625,3.2630555629730225,-1.2253859678851526,1.2238710045409107e-10,6.975057476665825e-05,3.1346207833848894e-05,-4.5739834604319185e-05,-0.00019632418116088957,-0.0009245038963854313,-0.13624270260334015,0.32668638229370117,-0.250194251537323,0.22482094168663025,0.4247246980667114,-0.1700204461812973
1749026127.6424053,0.43265050649642944,-2.1470004520811976,1.144153896962301,3.1012283998676757,3.263011932373047,-1.2254040876971644,1.1650195341588159e-14,6.46904154564254e-05,3.0290864742710255e-05,-4.1520346712786704e-05,-0.0001805667270673439,-0.000992072164081037,-0.14627386629581451,0.334317684173584,-0.24368499219417572,0.2111918330192566,0.4048119783401489,-0.1806313544511795
1749026127.6424518,0.4326420724391937,-2.1469880543150843,1.144141976033346,3.1012508112141113,3.263044595718384,-1.2254012266742151,1.1366638198181896e-16,6.244630640139803e-05,2.9789887776132673e-05,-3.9687314711045474e-05,-0.0001735911937430501,-0.0009221404907293618,-0.1504201740026474,0.32282009720802307,-0.24110934138298035,0.22029231488704681,0.40358150005340576,-0.18429221212863922
1749026127.642504,0.4326644241809845,-2.147031446496481,1.1441381613360804,3.1012283998676757,3.2630364894866943,-1.2254088560687464,1.1089981521177003e-18,6.0352482250891626e-05,2.9304908821359277e-05,-3.800783088081516e-05,-0.00016714523371774703,-0.0008723452338017523,-0.14913557469844818,0.34539246559143066,-0.23853261768817902,0.2092372328042984,0.4107922315597534,-0.19352498650550842
1749026127.6425452,0.432614803314209,-2.1470004520811976,1.1441457907306116,3.101254625911377,3.263044595718384,-1.2254355589496058,1.0820059594915621e-20,5.8394311054144055e-05,2.883508932427503e-05,-3.646647382993251e-05,-0.00016115742619149387,-0.0008010110468603671,-0.14075316488742828,0.3353409469127655,-0.24870245158672333,0.22161242365837097,0.42915505170822144,-0.1729360818862915
1749026127.6425834,0.43265607953071594,-2.1470195255675257,1.1441381613360804,3.101247473354004,3.2630136013031006,-1.2254136244403284,1.0556706396534384e-22,5.655959830619395e-05,2.83807694358984e-05,-3.5047509300056845e-05,-0.0001555786293465644,-0.0007773381075821817,-0.1677611917257309,0.31812822818756104,-0.23473632335662842,0.2115481048822403,0.41801518201828003,-0.18632106482982635
1749026127.6426215,0.432614803314209,-2.1470076046385707,1.144134823475973,3.1012632089802246,3.263000965118408,-1.2254012266742151,-0.0006804040749557316,5.483650238602422e-05,2.794024840113707e-05,-3.373267099959776e-05,-0.00015038135461509228,-0.0007601448451168835,-0.1470392793416977,0.33627116680145264,-0.23147957026958466,0.22695596516132355,0.4228008985519409,-0.18858355283737183
1749026127.6426594,0.43261823058128357,-2.1470004520811976,1.144141976033346,3.1012160021015625,3.2630209922790527,-1.225417439137594,-0.0007346394704654813,5.321517164702527e-05,3.772704803850502e-05,-3.251519228797406e-05,-0.0001455173478461802,-0.0007708867779001594,-0.14351974427700043,0.28949540853500366,-0.22774671018123627,0.20974594354629517,0.4107656478881836,-0.18186047673225403
1749026127.6426966,0.4326147735118866,-2.1470123730101527,1.144141976033346,3.1012160021015625,3.2629783153533936,-1.225382153187887,-0.000632871815469116,2.666341060830746e-05,4.0417151467408985e-05,-3.138029933325015e-05,-0.00014095338701736182,-0.000755585206206888,-0.15648798644542694,0.31430235505104065,-0.23140712082386017,0.22720779478549957,0.40711021423339844,-0.18523459136486053
1749026127.6427386,0.4326147735118866,-2.146996637383932,1.1441853682147425,3.1012322145649414,3.2630136013031006,-1.2254050413714808,-0.0006619613850489259,7.958139576658141e-06,4.0030485251918435e-05,-3.032342101505492e-05,-0.00013667449820786715,-0.0009222966618835926,-0.18337105214595795,0.2929654121398926,-0.21758517622947693,0.2164807766675949,0.39834338426589966,-0.18546870350837708
1749026127.64278,0.43263015151023865,-2.146996637383932,1.1441577116595667,3.101212664241455,3.2630326747894287,-1.22538930574526,-0.0007548852008767426,7.764443665791987e-08,3.945930802728981e-05,-2.9334198188735172e-05,-0.00013264517474453896,-0.0009662247612141073,-0.1995469182729721,0.2949044704437256,-0.20509661734104156,0.22184301912784576,0.4035606384277344,-0.17110222578048706
1749026127.6428182,0.4325987696647644,-2.1470161877074183,1.1441662947284144,3.101219816798828,3.263051986694336,-1.225382153187887,-0.0011172901140525937,7.575461924425042e-10,4.851913399761543e-05,-2.840628985723015e-05,-0.00012884294847026467,-0.0009664621902629733,-0.20273740589618683,0.2744240164756775,-0.20931623876094818,0.21487770974636078,0.39153361320495605,-0.1958106905221939
1749026127.6428556,0.4325939118862152,-2.1470161877074183,1.1441500822650355,3.1012632089802246,3.2630136013031006,-1.225428883229391,-0.0025676595978438854,7.391079935581413e-12,5.090164631837979e-05,-2.753735134319868e-05,-0.00013963021046947688,-0.00125226064119488,-0.20221416652202606,0.2837520241737366,-0.21488027274608612,0.2191571742296219,0.395338773727417,-0.16870754957199097
1749026127.6428947,0.43261826038360596,-2.1469809017577113,1.1441229025470179,3.1012160021015625,3.263021945953369,-1.2253978888141077,-0.003497133729979396,7.211185180889743e-14,5.038905510446057e-05,-2.672033224371262e-05,-0.00014435191405937076,-0.0012619530316442251,-0.20054911077022552,0.2675739526748657,-0.21579544246196747,0.2196345180273056,0.36211204528808594,-0.17921185493469238
1749026127.6429343,0.43257489800453186,-2.1470042667784632,1.1441500822650355,3.1012160021015625,3.263000965118408,-1.2254412809955042,-0.0030764041002839804,-0.0012919862056151032,3.351336999912746e-05,-2.5949659175239503e-05,-0.00015917733253445476,-0.0013422442134469748,-0.18620698153972626,0.2934064269065857,-0.20957714319229126,0.2183283567428589,0.356772243976593,-0.18724597990512848
1749026127.6429718,0.4325938820838928,-2.147031446496481,1.144153896962301,3.1012436586567382,3.263000965118408,-1.225410286580221,-0.00312285078689456,-0.0010287454351782799,3.07184127450455e-05,-2.5221317628165707e-05,-0.00017730827676132321,-0.0015259135980159044,-0.2015867531299591,0.2987450361251831,-0.2119000256061554,0.2340240776538849,0.3523956537246704,-0.1916951686143875
1749026127.6430123,0.432616263628006,-2.1470161877074183,1.1441853682147425,3.101247473354004,3.2629854679107666,-1.2254675070392054,-0.003029861720278859,-0.0008372440934181213,3.0059814889682457e-05,-2.453346678521484e-05,-0.0002454584464430809,-0.0022484688088297844,-0.19546347856521606,0.29212480783462524,-0.2306009829044342,0.2129524052143097,0.33001959323883057,-0.19852802157402039
1749026127.64305,0.43256309628486633,-2.1470004520811976,1.1441500822650355,3.1012160021015625,3.263040065765381,-1.2254460493670862,-0.003534613875672221,-0.0007057615439407527,2.955708077934105e-05,-6.6414604589226656e-06,-0.004400729667395353,-0.0033308491110801697,-0.22064760327339172,0.290658563375473,-0.22758741676807404,0.25136563181877136,0.33125627040863037,-0.18517345190048218
1749026127.6437058,0.4325854778289795,-2.1470161877074183,1.14417010942568,3.101247473354004,3.2629973888397217,-1.2254603544818323,-0.0043233903124928474,-0.0006099985330365598,2.907899397541769e-05,-1.1736158285202691e-06,-0.0056630331091582775,-0.0038861986249685287,-0.2195465862751007,0.30951571464538574,-0.2525647282600403,0.2328089028596878,0.3328131437301636,-0.19631485641002655
1749026127.645694,0.4326077997684479,-2.1470161877074183,1.14417010942568,3.1012322145649414,3.2629690170288086,-1.225457016621725,-0.004432640969753265,-0.0005371244042180479,2.861629218386952e-05,-2.0739021522331313e-07,-0.0056013260036706924,-0.003950528800487518,-0.22390976548194885,0.2810433506965637,-0.24932217597961426,0.2536323368549347,0.3038555979728699,-0.1883925497531891
1749026127.6862955,0.4325427711009979,-2.1470281086363734,1.144146744404928,3.1012322145649414,3.2629618644714355,-1.2254303137408655,-0.00494128093123436,-0.00047982364776544273,2.8168784410809167e-05,-3.6648025059093925e-08,-0.005811574403196573,-0.0035632129292935133,-0.26190802454948425,0.29507869482040405,-0.2891847491264343,0.26179128885269165,0.2747330665588379,-0.17798924446105957
1749026127.686346,0.4325735569000244,-2.146996637383932,1.1441624800311487,3.101247473354004,3.262934446334839,-1.2254460493670862,-0.005394931882619858,-0.0004335731209721416,1.5679439457016997e-05,-6.476090330664874e-09,-0.007214728742837906,-0.0031507168896496296,-0.2442016899585724,0.26303115487098694,-0.29825079441070557,0.2621740400791168,0.25660234689712524,-0.18873637914657593
1749026127.6863878,0.4325840473175049,-2.1470004520811976,1.1441500822650355,3.10126702367749,3.262948751449585,-1.225480858479635,-0.005476306192576885,-0.000395454466342926,3.6346800698083825e-06,-1.1443931358101622e-09,-0.010314314626157284,-0.003101120237261057,-0.242762953042984,0.3202316164970398,-0.3322935104370117,0.276269793510437,0.2569349408149719,-0.1987287402153015
1749026127.686427,0.43250295519828796,-2.146996637383932,1.14417010942568,3.1012322145649414,3.2629213333129883,-1.2254927794085901,-0.00622073607519269,-0.0002982855949085206,2.3731864473575115e-07,-2.02226277390416e-10,-0.01321473903954029,-0.003247202141210437,-0.24386894702911377,0.3458024859428406,-0.34443774819374084,0.29365482926368713,0.23394708335399628,-0.19947955012321472
1749026127.6864662,0.432553231716156,-2.1469809017577113,1.144146744404928,3.1012789446064453,3.2628660202026367,-1.2254851500140589,-0.006774876266717911,-0.0002691372064873576,-0.001618901384063065,-3.573550483304544e-11,-0.016115063801407814,-0.0037999628111720085,-0.25387004017829895,0.3608028292655945,-0.3852246105670929,0.3062385618686676,0.2257058471441269,-0.2094515860080719
1749026127.6865082,0.43248751759529114,-2.1470042667784632,1.144153896962301,3.101259871120117,3.2628302574157715,-1.2255237738238733,-0.007461282424628735,-0.0002503472787793726,-0.004655230324715376,3.601576099754311e-05,-0.01869768463075161,-0.005690983030945063,-0.271400511264801,0.3605816960334778,-0.3684467375278473,0.30936744809150696,0.22112275660037994,-0.1982308030128479
1749026127.6865482,0.43247556686401367,-2.146996637383932,1.1441577116595667,3.101259871120117,3.262794017791748,-1.2255008856402796,-0.008038253523409367,-0.00018152472330257297,-0.006269750185310841,0.0015465366886928678,-0.02179867960512638,-0.006901749409735203,-0.3217395842075348,0.37962961196899414,-0.37728753685951233,0.334362655878067,0.2310360074043274,-0.2024233341217041
1749026127.686592,0.4324673116207123,-2.1470161877074183,1.1441381613360804,3.1012751299091796,3.262758255004883,-1.2255404631244105,-0.010343873873353004,3.685581395984627e-05,-0.0065527805127203465,0.0028340911958366632,-0.02269379422068596,-0.007655640598386526,-0.2910749912261963,0.3935927152633667,-0.3911542594432831,0.3379550874233246,0.25019171833992004,-0.19363808631896973
1749026127.6866527,0.4324742257595062,-2.147039075891012,1.1441023985492151,3.101271792049072,3.2627182006835938,-1.2255595366107386,-0.010429277084767818,0.00017689078231342137,-0.008042330853641033,0.003580743446946144,-0.0223077405244112,-0.0078020403161644936,-0.2956702709197998,0.409309983253479,-0.43658190965652466,0.3714140057563782,0.24010346829891205,-0.20456159114837646
1749026127.686699,0.432457834482193,-2.14699186901235,1.1441410223590296,3.1012798982807617,3.2626466751098633,-1.225555721913473,-0.011938182637095451,0.00022784418251831084,-0.010089263319969177,0.003949455916881561,-0.022448139265179634,-0.0090339882299304,-0.29670894145965576,0.4135071039199829,-0.4357406198978424,0.35896363854408264,0.2518746852874756,-0.19220086932182312
1749026127.686756,0.4323921203613281,-2.1469880543150843,1.1440981070147913,3.101264162654541,3.2626452445983887,-1.2255414167987269,-0.012863926589488983,0.0012206541141495109,-0.012625154107809067,0.004808772820979357,-0.02053399570286274,-0.010530435480177402,-0.29426437616348267,0.4488694667816162,-0.44188961386680603,0.3768395781517029,0.248366579413414,-0.19587111473083496
1749026127.6868148,0.4324096739292145,-2.146957059899801,1.1440628210650843,3.101276083583496,3.2625784873962402,-1.225607697163717,-0.013613066636025906,0.0017015886260196567,-0.01438838429749012,0.005832046736031771,-0.02059086784720421,-0.010206841863691807,-0.27632635831832886,0.43974632024765015,-0.43202558159828186,0.39560195803642273,0.22808735072612762,-0.19069859385490417
1749026127.6868598,0.43240126967430115,-2.1469880543150843,1.1440461317645472,3.101276083583496,3.2625510692596436,-1.2256277243243616,-0.014996384270489216,0.002625503344461322,-0.016043584793806076,0.007310671266168356,-0.02086007036268711,-0.010640016756951809,-0.2773837149143219,0.4323886036872864,-0.41383349895477295,0.3890077769756317,0.2321191281080246,-0.20053566992282867
1749026127.6868992,0.4323236346244812,-2.1469842396178187,1.1440303961383265,3.101315661067627,3.2625136375427246,-1.2256482283221644,-0.014909674413502216,0.0028062621131539345,-0.015599383041262627,0.007675651926547289,-0.020160576328635216,-0.010987123474478722,-0.28946685791015625,0.44413214921951294,-0.42521315813064575,0.4226932227611542,0.22369447350502014,-0.19351314008235931
1749026127.6869373,0.4322654902935028,-2.1469723186888636,1.143975083027975,3.101327581996582,3.262505292892456,-1.2256491819964808,-0.016061443835496902,0.0032266827765852213,-0.015637774020433426,0.009233066812157631,-0.02068500779569149,-0.011320031248033047,-0.32280421257019043,0.4791582226753235,-0.42994022369384766,0.42961201071739197,0.20922419428825378,-0.19287019968032837
1749026127.6869824,0.43226420879364014,-2.14699186901235,1.1439436117755335,3.1013709741779785,3.262500762939453,-1.225687328969137,-0.016520502045750618,0.0041245692409574986,-0.015784528106451035,0.012052119709551334,-0.021132396534085274,-0.011993853375315666,-0.308065265417099,0.4833575487136841,-0.44537460803985596,0.4220609962940216,0.20113927125930786,-0.18032008409500122
1749026127.6870227,0.43223124742507935,-2.1469603977599085,1.1439107100116175,3.101379080409668,3.2624452114105225,-1.2257421652423304,-0.01754254847764969,0.005416656378656626,-0.017266981303691864,0.01309820543974638,-0.02146211639046669,-0.012318836525082588,-0.27423572540283203,0.47631096839904785,-0.438882052898407,0.4293350577354431,0.18679027259349823,-0.1865159273147583
1749026127.6870613,0.4322110116481781,-2.14693607906484,1.143895451222555,3.1014153200336914,3.2623820304870605,-1.22573167482485,-0.017967816442251205,0.006262491457164288,-0.01793064922094345,0.013823053799569607,-0.023465042933821678,-0.012142153456807137,-0.2502705156803131,0.5010705590248108,-0.44362330436706543,0.4361795485019684,0.18325506150722504,-0.20517075061798096
1749026127.687099,0.43217524886131287,-2.1469174824156703,1.1438506285296839,3.101435347194336,3.2623493671417236,-1.2257450262652796,-0.016692159697413445,0.006931384559720755,-0.01809585466980934,0.014184354804456234,-0.023931026458740234,-0.012595480307936668,-0.29442721605300903,0.5043616890907288,-0.4412749111652374,0.4227895736694336,0.16714251041412354,-0.20178252458572388
1749026127.6871364,0.4321592152118683,-2.14691223720693,1.1438196341144007,3.1014749246784667,3.2622547149658203,-1.2258036772357386,-0.016832534223794937,0.006630146875977516,-0.018978772684931755,0.014698967337608337,-0.026900112628936768,-0.013206361792981625,-0.27210864424705505,0.5215135216712952,-0.4483753740787506,0.442080557346344,0.16511903703212738,-0.21055641770362854
1749026127.687877,0.4321157932281494,-2.1469437084593714,1.143775765095846,3.1015025812336425,3.2622153759002686,-1.2258308569537562,-0.01630057953298092,0.007365246769040823,-0.019918138161301613,0.014062859117984772,-0.029471473768353462,-0.013531481847167015,-0.2699317932128906,0.5223016142845154,-0.43735915422439575,0.44129255414009094,0.1477653831243515,-0.17525449395179749
1749026127.6898372,0.4320952892303467,-2.1469160519041957,1.1437585989581507,3.1015264230915527,3.262209892272949,-1.2258198896991175,-0.016628926619887352,0.009065880440175533,-0.02029760368168354,0.013257201761007309,-0.033027611672878265,-0.013212083838880062,-0.2645847499370575,0.5288899540901184,-0.4540902376174927,0.4667038917541504,0.15604901313781738,-0.18662597239017487
1749026127.7302735,0.4320952892303467,-2.1469160519041957,1.1437585989581507,3.1015264230915527,3.262209892272949,-1.2258198896991175,-0.016628926619887352,0.009065880440175533,-0.02029760368168354,0.013257201761007309,-0.033027611672878265,-0.013212083838880062,-0.2645847499370575,0.5288899540901184,-0.4540902376174927,0.4667038917541504,0.15604901313781738,-0.18662597239017487
1749026127.7303205,0.4319694936275482,-2.1468922100462855,1.1436870733844202,3.101586027736328,3.2620112895965576,-1.2258833090411585,-0.01627192087471485,0.009908517822623253,-0.022325534373521805,0.014270161278545856,-0.03726063296198845,-0.012979651801288128,-0.28720396757125854,0.5534561276435852,-0.46446681022644043,0.4676421880722046,0.1429746448993683,-0.15043455362319946
1749026127.730362,0.4319694936275482,-2.1468922100462855,1.1436870733844202,3.101586027736328,3.2620112895965576,-1.2258833090411585,-0.01627192087471485,0.009908517822623253,-0.022325534373521805,0.014270161278545856,-0.03726063296198845,-0.012979651801288128,-0.28720396757125854,0.5534561276435852,-0.46446681022644043,0.4676421880722046,0.1429746448993683,-0.15043455362319946
1749026127.7304015,0.43196454644203186,-2.1468450031676234,1.1436436812030237,3.101606531734131,3.261927366256714,-1.2259071508990687,-0.016662651672959328,0.010371067561209202,-0.02281198464334011,0.014611434191465378,-0.0395301915705204,-0.011940325610339642,-0.24511006474494934,0.548200786113739,-0.49350249767303467,0.4680057764053345,0.12367722392082214,-0.1506935954093933
1749026127.7304416,0.4318617880344391,-2.146813531915182,1.143547836934225,3.1016546922871093,3.2617876529693604,-1.225973908101217,-0.01682274602353573,0.012189715169370174,-0.024632303044199944,0.015576433390378952,-0.043095748871564865,-0.00949195958673954,-0.27829617261886597,0.5764040350914001,-0.49886375665664673,0.4909166693687439,0.09085659682750702,-0.1616973876953125
1749026127.7304802,0.43184641003608704,-2.146820684472555,1.1435311476336878,3.1016709047504882,3.261718511581421,-1.2259553114520472,-0.016840824857354164,0.01213739812374115,-0.025962457060813904,0.016729312017560005,-0.04636324569582939,-0.008365300484001637,-0.2853296995162964,0.5650904178619385,-0.5112622380256653,0.49849337339401245,0.09775219857692719,-0.1800912469625473
1749026127.7305183,0.43180233240127563,-2.1467892132201136,1.1434524695025843,3.101729555720947,3.261596202850342,-1.2260173002826136,-0.017610900104045868,0.013456122949719429,-0.026897571980953217,0.0176832377910614,-0.04909447580575943,-0.008308101445436478,-0.2761271297931671,0.6000953912734985,-0.5258927345275879,0.495241641998291,0.09736715257167816,-0.1860608607530594
1749026127.7305582,0.4317658245563507,-2.146768709222311,1.1434076468097132,3.1017624574848632,3.261477470397949,-1.2259905974017542,-0.018233155831694603,0.014080455526709557,-0.027928069233894348,0.01870334893465042,-0.05192670226097107,-0.009409597143530846,-0.28069421648979187,0.5833134055137634,-0.5289045572280884,0.5055896043777466,0.09626137465238571,-0.1981840282678604
1749026127.7305965,0.43177279829978943,-2.146689554254049,1.143336598073141,3.1018172937580566,3.2614238262176514,-1.2260339895831507,-0.018613845109939575,0.01408946793526411,-0.029633574187755585,0.01935814879834652,-0.05581331253051758,-0.010235597379505634,-0.2811041474342346,0.5816500782966614,-0.5098506212234497,0.5049243569374084,0.09536522626876831,-0.19720229506492615
1749026127.7306342,0.43175509572029114,-2.146696706811422,1.1432769934283655,3.101842089290283,3.2613277435302734,-1.2260578314410608,-0.018921682611107826,0.013830495066940784,-0.03065529838204384,0.020245147868990898,-0.058089256286621094,-0.011400999501347542,-0.2606186270713806,0.5944528579711914,-0.5086506009101868,0.5231173634529114,0.10364683717489243,-0.190028578042984
1749026127.730672,0.4316811263561249,-2.1466571293272914,1.1432326475726526,3.1018659311481933,3.2611727714538574,-1.2260902563678187,-0.018161417916417122,0.013416859321296215,-0.03092374838888645,0.020803414285182953,-0.0577133484184742,-0.0113986162468791,-0.3102865219116211,0.5689226388931274,-0.5335589647293091,0.5152884721755981,0.10023342072963715,-0.1824612319469452
1749026127.7307098,0.43169501423835754,-2.146649023095602,1.1431573073016565,3.1019365030476074,3.2610645294189453,-1.2260783354388636,-0.018557803705334663,0.013306848704814911,-0.03052869625389576,0.021252447739243507,-0.05734558030962944,-0.012059729546308517,-0.27642393112182617,0.5856212377548218,-0.5573257803916931,0.5233805179595947,0.07775093615055084,-0.19815903902053833
1749026127.7307475,0.431667685508728,-2.146609445611471,1.1431320349322718,3.101984663600586,3.260960340499878,-1.226114575062887,-0.0196914691478014,0.013078521937131882,-0.03285587951540947,0.021946018561720848,-0.05940927192568779,-0.013191952370107174,-0.3212584853172302,0.5967504382133484,-0.5702190399169922,0.5220569372177124,0.03407666087150574,-0.2093895971775055
1749026127.7307851,0.4315818250179291,-2.1465732059874476,1.1430376211749476,3.1020638185688476,3.260828971862793,-1.2261846701251429,-0.02079167030751705,0.014778957702219486,-0.0363716259598732,0.023883795365691185,-0.06413385272026062,-0.014584152027964592,-0.3194833993911743,0.5529285669326782,-0.5592380166053772,0.5149343609809875,0.040035225450992584,-0.1824079155921936
1749026127.7308218,0.4315410852432251,-2.1465841732420863,1.1429780165301722,3.102057619685791,3.2607123851776123,-1.2261741797076624,-0.0220829788595438,0.01351831667125225,-0.03744455426931381,0.025169292464852333,-0.06809011101722717,-0.015130794607102871,-0.30571240186691284,0.604724645614624,-0.5778839588165283,0.5343804955482483,0.06707614660263062,-0.19610992074012756
1749026127.7308593,0.43149638175964355,-2.1465288601317347,1.142921272908346,3.102168245906494,3.2605772018432617,-1.2262371222125452,-0.022812046110630035,0.014360373839735985,-0.03922973945736885,0.025904258713126183,-0.07086660712957382,-0.016471227630972862,-0.31074902415275574,0.5731432437896729,-0.5703681111335754,0.5217610597610474,0.057569097727537155,-0.1907217651605606
1749026127.7308965,0.4314292371273041,-2.14650883297109,1.1428611914264124,3.1022159296223144,3.260413885116577,-1.2262609640704554,-0.02319464646279812,0.014300795271992683,-0.04170186445116997,0.027259264141321182,-0.07200779765844345,-0.017557453364133835,-0.32122308015823364,0.5778242945671082,-0.5649771094322205,0.5284991264343262,0.04844687134027481,-0.18072377145290375
1749026127.7309344,0.4313907027244568,-2.1464725933470667,1.142738167439596,3.102259798640869,3.2602698802948,-1.2263043562518519,-0.023490281775593758,0.015454680658876896,-0.04060201346874237,0.02825826220214367,-0.07335672527551651,-0.01814824901521206,-0.33487847447395325,0.5913605690002441,-0.5808539986610413,0.5225754976272583,0.04818806052207947,-0.17562848329544067
1749026127.7309713,0.4313492476940155,-2.1464363537230433,1.1426623503314417,3.1023236948200683,3.260133743286133,-1.226297680531637,-0.02432185783982277,0.015273518860340118,-0.04208513721823692,0.029239309951663017,-0.07548552006483078,-0.018059667199850082,-0.31177768111228943,0.5875400304794312,-0.5991050601005554,0.5318013429641724,0.045053426176309586,-0.1910175234079361
1749026127.7310085,0.43132054805755615,-2.1464249096312464,1.1426051298724573,3.1023565965839843,3.25998592376709,-1.2263687292682093,-0.024946410208940506,0.01575169526040554,-0.04456165060400963,0.02923114411532879,-0.07791975140571594,-0.01922265812754631,-0.3090483546257019,0.561099112033844,-0.5830341577529907,0.527962327003479,0.05624474212527275,-0.18202857673168182
1749026127.7318134,0.4312534034252167,-2.1463729343810023,1.1424949804889124,3.1024390894123535,3.259805679321289,-1.2263577620135706,-0.025729868561029434,0.015097728930413723,-0.04628876969218254,0.029201483353972435,-0.08109438419342041,-0.019655480980873108,-0.32217758893966675,0.6103088855743408,-0.5749208927154541,0.5307954549789429,0.061153192073106766,-0.18542686104774475
1749026127.7337494,0.43120238184928894,-2.1463633976378382,1.1424267927752894,3.1025072771259765,3.2596004009246826,-1.2264402548419397,-0.02680009976029396,0.015792204067111015,-0.046883899718523026,0.029834529384970665,-0.08304443210363388,-0.020259933546185493,-0.3102918565273285,0.5504569411277771,-0.5901930928230286,0.533866286277771,0.06259939074516296,-0.17788803577423096
1749026127.7783422,0.43113866448402405,-2.1462937794127406,1.1423032919513147,3.1025706964680175,3.259490728378296,-1.2264803091632288,-0.027847331017255783,0.0157831571996212,-0.04821174591779709,0.030176786705851555,-0.08418850600719452,-0.021708451211452484,-0.324459969997406,0.5871599912643433,-0.6054561138153076,0.5348942875862122,0.03581095486879349,-0.17345960438251495
1749026127.7783895,0.43109115958213806,-2.1462613544859828,1.142219368611471,3.1026345926472167,3.2592999935150146,-1.2265003363238733,-0.02880607172846794,0.015876756981015205,-0.049451593309640884,0.030379125848412514,-0.08500099182128906,-0.02222532406449318,-0.30403798818588257,0.5850825309753418,-0.5899277329444885,0.5560362935066223,0.03610941395163536,-0.19611872732639313
1749026127.7784305,0.4310196340084076,-2.1462375126280726,1.1421197096454065,3.1026946741291503,3.2591586112976074,-1.2265837828265589,-0.029368102550506592,0.016303449869155884,-0.05090479180216789,0.03112027235329151,-0.08696048706769943,-0.023279841989278793,-0.3058457374572754,0.6057466864585876,-0.5983577966690063,0.5528121590614319,0.03846218064427376,-0.17899556457996368
1749026127.7784688,0.4309748113155365,-2.1462208233275355,1.1420195738421839,3.1027695375629882,3.2589833736419678,-1.226635758076803,-0.029629740864038467,0.016275642439723015,-0.052611351013183594,0.0315762497484684,-0.08878275752067566,-0.023832716047763824,-0.3479200601577759,0.5930401682853699,-0.6028486490249634,0.5603020787239075,0.03642185032367706,-0.18762831389904022
1749026127.7785068,0.43090686202049255,-2.1461812458434046,1.1419041792498987,3.10280625402417,3.258791208267212,-1.2266672293292444,-0.030803147703409195,0.01660875976085663,-0.053868576884269714,0.032608143985271454,-0.09271493554115295,-0.02357788383960724,-0.31712883710861206,0.6309357285499573,-0.6013608574867249,0.55091792345047,0.05376747250556946,-0.17362675070762634
1749026127.7785442,0.43083980679512024,-2.146160741845602,1.1418002287494105,3.1028782564350585,3.2585842609405518,-1.2266963163958948,-0.03274393081665039,0.016402490437030792,-0.05524156615138054,0.0347115695476532,-0.09391020983457565,-0.024597205221652985,-0.32297971844673157,0.5837642550468445,-0.6213068962097168,0.5791561603546143,0.05357518792152405,-0.18624018132686615
1749026127.778582,0.43083980679512024,-2.146160741845602,1.1418002287494105,3.1028782564350585,3.2585842609405518,-1.2266963163958948,-0.03274393081665039,0.016402490437030792,-0.05524156615138054,0.0347115695476532,-0.09391020983457565,-0.024597205221652985,-0.32297971844673157,0.5837642550468445,-0.6213068962097168,0.5791561603546143,0.05357518792152405,-0.18624018132686615
1749026127.7786198,0.4307509660720825,-2.146069665948385,1.141576115285055,3.1030217844196777,3.258239984512329,-1.2268040815936487,-0.034050073474645615,0.01703616976737976,-0.057018544524908066,0.0357479564845562,-0.09797179698944092,-0.025326762348413467,-0.2852310240268707,0.6032693982124329,-0.6132717132568359,0.5761350989341736,0.04271960258483887,-0.1907896101474762
1749026127.778657,0.43064019083976746,-2.1460491619505824,1.1414755026446741,3.103093309993408,3.2579736709594727,-1.2268436590777796,-0.03398852422833443,0.017239216715097427,-0.06035624444484711,0.03553130477666855,-0.10068466514348984,-0.02570439875125885,-0.326398104429245,0.6137495636940002,-0.5879265666007996,0.5719125270843506,0.06285020709037781,-0.1946106255054474
1749026127.7786944,0.43061089515686035,-2.1459819279112757,1.1413400808917444,3.103172941798828,3.257805109024048,-1.2269271055804651,-0.03568021208047867,0.01784329116344452,-0.059009451419115067,0.036504872143268585,-0.10010725259780884,-0.026699921116232872,-0.32095593214035034,0.600229024887085,-0.592921257019043,0.5831428170204163,0.06613243371248245,-0.19424685835838318
1749026127.7787318,0.4305045008659363,-2.14593042949819,1.1411736647235315,3.103268786067627,3.2576165199279785,-1.2269628683673304,-0.03552142158150673,0.017948908731341362,-0.06069246307015419,0.03786258026957512,-0.10198221355676651,-0.027309030294418335,-0.3282065987586975,0.6200211048126221,-0.604767918586731,0.5923907160758972,0.05003044754266739,-0.1964655965566635
1749026127.7787693,0.430451363325119,-2.145957132379049,1.1410768667804163,3.1033364969440917,3.257390022277832,-1.2270382086383265,-0.037173107266426086,0.01833760365843773,-0.06414755433797836,0.040227219462394714,-0.10515375435352325,-0.028274886310100555,-0.31199467182159424,0.6119452714920044,-0.595464289188385,0.5921893119812012,0.05268540233373642,-0.20392630994319916
1749026127.7788057,0.43038344383239746,-2.1458550892271937,1.1409218947040003,3.103424234981201,3.2572402954101562,-1.2271087805377405,-0.039022136479616165,0.019163241609930992,-0.06385204941034317,0.04093276709318161,-0.11062190681695938,-0.02880629152059555,-0.2880367040634155,0.6239321827888489,-0.5788688063621521,0.5822450518608093,0.09163758158683777,-0.18651792407035828
1749026127.7788434,0.4302685856819153,-2.1458503208556117,1.1407869497882288,3.103480501765869,3.2569777965545654,-1.2271454969989222,-0.03717099502682686,0.01844901777803898,-0.06434042006731033,0.04107893258333206,-0.10854405909776688,-0.029004059731960297,-0.31682687997817993,0.6022732853889465,-0.6032676100730896,0.601464033126831,0.05304260179400444,-0.19371826946735382
1749026127.7788806,0.4302055835723877,-2.1458336315550746,1.140670124684469,3.1035758691975097,3.256793260574341,-1.227213207875387,-0.03681892529129982,0.01925358735024929,-0.06618785858154297,0.041082944720983505,-0.10939118266105652,-0.029144853353500366,-0.3447040021419525,0.6172537803649902,-0.5839213132858276,0.588707447052002,0.07026876509189606,-0.19654327630996704
1749026127.778917,0.4301028847694397,-2.145797391931051,1.1405461470233362,3.1036874490925292,3.2565810680389404,-1.2272847334491175,-0.038959894329309464,0.019852150231599808,-0.0668143481016159,0.04086610674858093,-0.11065109074115753,-0.02958102710545063,-0.3548576235771179,0.6456573009490967,-0.5847336053848267,0.613311767578125,0.052700430154800415,-0.21667981147766113
1749026127.7789538,0.43004974722862244,-2.1457578144469203,1.140406910573141,3.103755159968994,3.2563610076904297,-1.2273600737201136,-0.039742764085531235,0.019606584683060646,-0.06766781210899353,0.042286649346351624,-0.11289073526859283,-0.029869280755519867,-0.3389643430709839,0.6202725172042847,-0.5929793119430542,0.6122488975524902,0.04254990816116333,-0.20722141861915588
1749026127.7789905,0.4299732446670532,-2.1456943951048792,1.1402481237994593,3.1038428980061035,3.2561018466949463,-1.2273848692523401,-0.041744768619537354,0.020621933043003082,-0.06926435232162476,0.043501853942871094,-0.11521613597869873,-0.029854174703359604,-0.33711302280426025,0.6220488548278809,-0.5786998867988586,0.6096644401550293,0.06696462631225586,-0.22337228059768677
1749026127.7790277,0.4298906922340393,-2.145642419854635,1.140116039906637,3.103956385249756,3.2558202743530273,-1.2274206320392054,-0.04215950891375542,0.02134917490184307,-0.06935176998376846,0.04533300921320915,-0.11758647859096527,-0.03050883859395981,-0.3444124460220337,0.6341803669929504,-0.590627908706665,0.5960553884506226,0.07324303686618805,-0.20154693722724915
1749026127.7790656,0.4298017919063568,-2.1456057033934535,1.139991585408346,3.1040331560322265,3.2556231021881104,-1.227532211934225,-0.043733786791563034,0.021879319101572037,-0.07062429189682007,0.046028874814510345,-0.1167919784784317,-0.03198295459151268,-0.31424272060394287,0.6349918842315674,-0.5938124060630798,0.6012896299362183,0.08637416362762451,-0.22257177531719208
1749026127.7791028,0.4296955168247223,-2.145581384698385,1.139831844960348,3.1041013437458496,3.2553634643554688,-1.2275450865374964,-0.04378366470336914,0.021092811599373817,-0.07079820334911346,0.04756127670407295,-0.11473255604505539,-0.0319850854575634,-0.31306254863739014,0.6401088833808899,-0.593024730682373,0.5983251333236694,0.06514988839626312,-0.22086404263973236
1749026127.7791393,0.42962750792503357,-2.145537038842672,1.1397002379046839,3.104255362147949,3.255167245864868,-1.2276204268084925,-0.044795457273721695,0.021640706807374954,-0.07181601226329803,0.05005623400211334,-0.11837846040725708,-0.03388462960720062,-0.30540692806243896,0.6431220769882202,-0.5811792016029358,0.5948750376701355,0.04777029901742935,-0.21197670698165894
1749026127.7797525,0.4294889569282532,-2.145494123498434,1.1395204702960413,3.1043354707905273,3.2549190521240234,-1.2277305761920374,-0.04520498961210251,0.022352110594511032,-0.07304573059082031,0.05028974264860153,-0.11828348785638809,-0.03337214142084122,-0.3252210021018982,0.637336790561676,-0.5957409739494324,0.5812329053878784,0.03367327153682709,-0.22200866043567657
1749026127.7816696,0.4294581115245819,-2.145437856713766,1.1393769423114222,3.1044394212910156,3.2547190189361572,-1.2277639547931116,-0.046613659709692,0.02306952327489853,-0.07411229610443115,0.05009816586971283,-0.12034948915243149,-0.03426126018166542,-0.32658493518829346,0.6334165930747986,-0.6085441708564758,0.5831875205039978,0.030698515474796295,-0.22851599752902985
1749026127.8226976,0.42934688925743103,-2.145391126672262,1.1392210165606897,3.104531927699707,3.254462957382202,-1.2278898398028772,-0.0472855381667614,0.022985123097896576,-0.07409084588289261,0.04869694262742996,-0.12299083173274994,-0.034608058631420135,-0.3195357024669647,0.6590631604194641,-0.6006549596786499,0.5939819812774658,0.023439258337020874,-0.22633683681488037
1749026127.8227751,0.42922911047935486,-2.1453658543028773,1.1390774885760706,3.1046311098286132,3.2541956901550293,-1.2279074827777308,-0.0469495952129364,0.023556755855679512,-0.07741913199424744,0.049209047108888626,-0.12835241854190826,-0.03376049920916557,-0.2985615134239197,0.6565362215042114,-0.5911226272583008,0.607009768486023,0.05334607511758804,-0.22315257787704468
1749026127.8228185,0.4291641116142273,-2.145294805566305,1.1388943831073206,3.104738875026367,3.2539045810699463,-1.2280381361590784,-0.047342218458652496,0.023904865607619286,-0.07595027983188629,0.05036050081253052,-0.12698118388652802,-0.0348624661564827,-0.3383743464946747,0.6547656655311584,-0.5840706825256348,0.5939934253692627,0.022958748042583466,-0.22782129049301147
1749026127.8228598,0.42903056740760803,-2.1452542744078578,1.1387417952166956,3.1048309045979003,3.2536611557006836,-1.2281010786639612,-0.04736057296395302,0.024141566827893257,-0.07588385790586472,0.052313897758722305,-0.12984707951545715,-0.03493353724479675,-0.3289690911769867,0.67356938123703,-0.6207036972045898,0.5975844860076904,0.01996852457523346,-0.24414873123168945
1749026127.8229034,0.4289339482784271,-2.145202775994772,1.1385934988604944,3.1049796777912597,3.253350019454956,-1.228156868611471,-0.0482950396835804,0.0258225966244936,-0.08089520037174225,0.05330582708120346,-0.1327841579914093,-0.03660610318183899,-0.34546959400177,0.6841338872909546,-0.595872700214386,0.5742645263671875,0.049908459186553955,-0.22260284423828125
1749026127.822943,0.42884987592697144,-2.145177503625387,1.1384390036212366,3.105050249690674,3.2530901432037354,-1.2282136122332972,-0.048880595713853836,0.02607850357890129,-0.07960867136716843,0.05348479375243187,-0.13479693233966827,-0.03788293898105621,-0.34667134284973145,0.6666392683982849,-0.6005157828330994,0.5642250776290894,0.04954154044389725,-0.22216792404651642
1749026127.8229816,0.42876097559928894,-2.145106454888815,1.1382868925677698,3.10517327367749,3.2527832984924316,-1.228293244038717,-0.04894106835126877,0.026148106902837753,-0.0791408121585846,0.05266663432121277,-0.13650327920913696,-0.037467218935489655,-0.35372209548950195,0.680012583732605,-0.6197043657302856,0.5947040915489197,0.04023578763008118,-0.22384080290794373
1749026127.8230197,0.4286651313304901,-2.1450587711729945,1.1381071249591272,3.1052791315266113,3.252554416656494,-1.2283881346331995,-0.05031619593501091,0.026114333420991898,-0.0812881737947464,0.05226358398795128,-0.13772591948509216,-0.03834490105509758,-0.3251579999923706,0.682228684425354,-0.6096829175949097,0.5862902998924255,0.05364334583282471,-0.24455861747264862
1749026127.8230586,0.42853158712387085,-2.1450191936888636,1.1379511992083948,3.1053530412861328,3.252250909805298,-1.228464428578512,-0.05083276703953743,0.026387838646769524,-0.08269677311182022,0.05261120945215225,-0.1398957073688507,-0.04013857617974281,-0.3451905846595764,0.689164936542511,-0.5994479656219482,0.6052818298339844,0.05873318389058113,-0.21270540356636047
1749026127.8230972,0.42838943004608154,-2.1449667416014613,1.1377561728106897,3.105456514949463,3.2519946098327637,-1.2285435835467737,-0.051450252532958984,0.02703195996582508,-0.08332512527704239,0.053744781762361526,-0.14018192887306213,-0.04174850508570671,-0.3625670075416565,0.6767351031303406,-0.6050664186477661,0.5964959859848022,0.05474632605910301,-0.23242336511611938
1749026127.8231363,0.4283710718154907,-2.1448990307249964,1.1375730673419397,3.1055800157734375,3.251699924468994,-1.2286508719073694,-0.05285259336233139,0.027545437216758728,-0.08384722471237183,0.05562768504023552,-0.14187920093536377,-0.04204743355512619,-0.3329544961452484,0.6977980136871338,-0.6171603798866272,0.5903865694999695,0.050466038286685944,-0.21480678021907806
1749026127.823175,0.428266316652298,-2.144865652123922,1.1373932997332972,3.1056925493427734,3.2514278888702393,-1.2287386099444788,-0.052257779985666275,0.02780924178659916,-0.08478804677724838,0.05649718642234802,-0.14172884821891785,-0.042729657143354416,-0.3351558744907379,0.673614501953125,-0.6250307559967041,0.5948224067687988,0.054002679884433746,-0.21237492561340332
1749026127.8232124,0.428266316652298,-2.144865652123922,1.1373932997332972,3.1056925493427734,3.2514278888702393,-1.2287386099444788,-0.052257779985666275,0.02780924178659916,-0.08478804677724838,0.05649718642234802,-0.14172884821891785,-0.042729657143354416,-0.3351558744907379,0.673614501953125,-0.6250307559967041,0.5948224067687988,0.054002679884433746,-0.21237492561340332
1749026127.8232505,0.42813658714294434,-2.1447869739928187,1.1372292677508753,3.1058074670979003,3.251150608062744,-1.2287943998919886,-0.05462464317679405,0.02838738076388836,-0.08947090804576874,0.05746752768754959,-0.1434440016746521,-0.04276321828365326,-0.3684890866279602,0.6933280229568481,-0.5723168253898621,0.6002980470657349,0.03826206922531128,-0.21693971753120422
1749026127.8232875,0.42795050144195557,-2.1446992359557093,1.1368382612811487,3.1060349184223632,3.250548839569092,-1.2289546171771448,-0.0541694201529026,0.028989696875214577,-0.0903611108660698,0.05831316113471985,-0.14790837466716766,-0.044740188866853714,-0.34959277510643005,0.6971763372421265,-0.6003550887107849,0.5893058776855469,0.004447735846042633,-0.19565288722515106
1749026127.8233254,0.4278202950954437,-2.144630571404928,1.1366623083697718,3.106173201198242,3.2502284049987793,-1.2290728727923792,-0.05566578730940819,0.029180217534303665,-0.08876743912696838,0.05799754336476326,-0.15205925703048706,-0.04701700434088707,-0.3607889711856842,0.7121170163154602,-0.5905694365501404,0.6022980213165283,0.050973039120435715,-0.19661515951156616
1749026127.823363,0.4276749789714813,-2.144579072991842,1.1364949385272425,3.1062776285358886,3.2499284744262695,-1.2291300932513636,-0.05818040296435356,0.02954668551683426,-0.09027941524982452,0.05832792446017265,-0.15379758179187775,-0.047495029866695404,-0.35440146923065186,0.7026537656784058,-0.5896297693252563,0.5999102592468262,0.04693777859210968,-0.16648203134536743
1749026127.8233998,0.42758455872535706,-2.1445003948607386,1.1363113562213343,3.106393023128174,3.249643564224243,-1.2292798201190394,-0.058302879333496094,0.029378628358244896,-0.09173706918954849,0.05924763157963753,-0.15720006823539734,-0.04753299802541733,-0.3230944275856018,0.717587947845459,-0.5896115899085999,0.6183062195777893,0.06784318387508392,-0.18010470271110535
1749026127.8234415,0.42747727036476135,-2.144466539422506,1.1361354033099573,3.1065170007893066,3.249262571334839,-1.2293837706195276,-0.05647847801446915,0.03095371648669243,-0.09203706681728363,0.05872732028365135,-0.1590786725282669,-0.04692521318793297,-0.36742091178894043,0.6992979049682617,-0.6009024381637573,0.6081926226615906,0.08008065819740295,-0.18521344661712646
1749026127.8234804,0.427389919757843,-2.1443945370116175,1.1359317938434046,3.106639547938965,3.248903274536133,-1.2294328848468226,-0.0588715523481369,0.03071543201804161,-0.09251333773136139,0.059023745357990265,-0.15893298387527466,-0.04755707457661629,-0.3348507285118103,0.6951864361763,-0.571672797203064,0.6188244819641113,0.10096825659275055,-0.1576651930809021
1749026127.8237422,0.42722201347351074,-2.144327302972311,1.1357677618609827,3.106724901790283,3.248626947402954,-1.2295478026019495,-0.06026001274585724,0.03054351918399334,-0.09278760105371475,0.05943678691983223,-0.15648207068443298,-0.046703074127435684,-0.302975058555603,0.7242454290390015,-0.585773229598999,0.6282288432121277,0.08987174928188324,-0.15269215404987335
1749026127.8256881,0.42708343267440796,-2.144236227075094,1.1355412642108362,3.1068636614033203,3.248298168182373,-1.229636017476217,-0.059365659952163696,0.031195642426609993,-0.09321173280477524,0.06130044907331467,-0.15337102115154266,-0.04643450677394867,-0.3487681746482849,0.7280226945877075,-0.6050382852554321,0.6233389973640442,0.04518453776836395,-0.15486007928848267
1749026127.870341,0.4269447922706604,-2.1442071400084437,1.135352913533346,3.1069952684589843,3.2479679584503174,-1.2297199408160608,-0.060915738344192505,0.03170284256339073,-0.09580261260271072,0.061429787427186966,-0.15896613895893097,-0.04579390957951546,-0.35720768570899963,0.721622884273529,-0.5958706736564636,0.6393471956253052,0.04356028884649277,-0.16302339732646942
1749026127.8703887,0.42685452103614807,-2.144163270989889,1.1351850668536585,3.107130213374756,3.247624158859253,-1.2298033873187464,-0.06242123246192932,0.032208360731601715,-0.09763944894075394,0.06219176575541496,-0.15821999311447144,-0.04564375802874565,-0.3335363566875458,0.7384064793586731,-0.5885158777236938,0.6498208045959473,0.02510736882686615,-0.17172573506832123
1749026127.870445,0.4266936480998993,-2.1440755329527796,1.1349905172931116,3.1072346407124023,3.247307538986206,-1.229886833821432,-0.06200969219207764,0.032789673656225204,-0.09832875430583954,0.06454955786466599,-0.16045166552066803,-0.0463421456515789,-0.33913901448249817,0.7356741428375244,-0.5991288423538208,0.6534889936447144,0.0065174102783203125,-0.17003196477890015
1749026127.870489,0.42659977078437805,-2.1440001926817835,1.134794060383932,3.1073848444172363,3.24701189994812,-1.2299826780902308,-0.06422401964664459,0.033186450600624084,-0.1012071818113327,0.06622274965047836,-0.16696074604988098,-0.04694237560033798,-0.33799582719802856,0.7369637489318848,-0.600791335105896,0.639718770980835,0.05600564926862717,-0.1634722650051117
1749026127.8705285,0.4265073537826538,-2.1439625225462855,1.1345894972430628,3.107494040126465,3.246617555618286,-1.2300785223590296,-0.06357581168413162,0.03324921429157257,-0.10043447464704514,0.06778791546821594,-0.16602326929569244,-0.047841355204582214,-0.3277331292629242,0.7437137961387634,-0.5871415138244629,0.645954966545105,0.022845104336738586,-0.1574464738368988
1749026127.8705678,0.4263518750667572,-2.1438642940916957,1.134390656148092,3.1076294618793945,3.246352434158325,-1.2301738897906702,-0.06209172308444977,0.0339808352291584,-0.10268417000770569,0.06951364129781723,-0.16929541528224945,-0.04824485257267952,-0.37926095724105835,0.7559629678726196,-0.6180338263511658,0.638513445854187,0.03458048030734062,-0.17084473371505737
1749026127.870607,0.4261903166770935,-2.143811365167135,1.13417894044985,3.1077849107929687,3.24601674079895,-1.2302539984332483,-0.06321966648101807,0.0346103273332119,-0.10351453721523285,0.0720408633351326,-0.17222614586353302,-0.047969307750463486,-0.38369280099868774,0.7533947229385376,-0.5840000510215759,0.6274940967559814,0.018330760300159454,-0.18223059177398682
1749026127.870654,0.4260936379432678,-2.1437674961485804,1.1339476744281214,3.107928438777588,3.245640993118286,-1.2304118315326136,-0.06616725027561188,0.03629954531788826,-0.10485046356916428,0.07525598257780075,-0.17510536313056946,-0.047701988369226456,-0.3279556632041931,0.7377703785896301,-0.586047887802124,0.6057355999946594,0.03616351634263992,-0.17974740266799927
1749026127.8706934,0.4259314239025116,-2.1436993084349574,1.1337555090533655,3.108071966762207,3.2452733516693115,-1.230476204548971,-0.06284159421920776,0.035745177417993546,-0.10602786391973495,0.07560468465089798,-0.175723597407341,-0.047480300068855286,-0.3782470226287842,0.7406477928161621,-0.5857585072517395,0.5862424373626709,0.030947674065828323,-0.1627693921327591
1749026127.8707316,0.4258333742618561,-2.1435800991454066,1.1335399786578577,3.1082121568867187,3.2448673248291016,-1.2305763403521937,-0.0660296082496643,0.03667384013533592,-0.10766422003507614,0.07372133433818817,-0.1772325485944748,-0.047782402485609055,-0.364459753036499,0.7284073233604431,-0.5709751844406128,0.6023361682891846,0.03656775504350662,-0.1873709112405777
1749026127.8707688,0.42570579051971436,-2.1435357532896937,1.1333168188678187,3.108355684871338,3.2445380687713623,-1.2306912581073206,-0.06697415560483932,0.03816739097237587,-0.10812274366617203,0.0735136941075325,-0.17785339057445526,-0.04806732386350632,-0.32473254203796387,0.7375922799110413,-0.5809496641159058,0.6074473261833191,0.016631729900836945,-0.1808864176273346
1749026127.8708062,0.42555472254753113,-2.1434480152525843,1.1330774466144007,3.108499212855957,3.2441470623016357,-1.2307594458209437,-0.06737181544303894,0.036988794803619385,-0.11122503131628036,0.07365415245294571,-0.18106459081172943,-0.048275403678417206,-0.33062630891799927,0.7673706412315369,-0.5523450374603271,0.6081506013870239,0.04687754809856415,-0.17970623075962067
1749026127.8708436,0.4253770112991333,-2.143376489678854,1.1328495184527796,3.1086465555378417,3.2437984943389893,-1.2308672110186976,-0.06868281960487366,0.03923003375530243,-0.10758016258478165,0.07389023900032043,-0.17997919023036957,-0.047994405031204224,-0.3580175042152405,0.7311654686927795,-0.5875765681266785,0.6208294630050659,0.031808629631996155,-0.20380175113677979
1749026127.8708808,0.4253770112991333,-2.143376489678854,1.1328495184527796,3.1086465555378417,3.2437984943389893,-1.2308672110186976,-0.06868281960487366,0.03923003375530243,-0.10758016258478165,0.07389023900032043,-0.17997919023036957,-0.047994405031204224,-0.3580175042152405,0.7311654686927795,-0.5875765681266785,0.6208294630050659,0.031808629631996155,-0.20380175113677979
1749026127.8709176,0.42512914538383484,-2.1432401142516078,1.1324222723590296,3.1089421945759277,3.2430083751678467,-1.2310736815081995,-0.06919524818658829,0.037846457213163376,-0.1119951605796814,0.07639796286821365,-0.186364084482193,-0.04853176325559616,-0.3488531708717346,0.7675971984863281,-0.564070463180542,0.5802572965621948,0.03941790759563446,-0.2118917554616928
1749026127.870956,0.42496705055236816,-2.1431175671019496,1.1321595350848597,3.1090823847004394,3.242612600326538,-1.231166187916891,-0.0692932978272438,0.03908577561378479,-0.11216344684362411,0.07255170494318008,-0.18805254995822906,-0.04906685650348663,-0.36361461877822876,0.7496209144592285,-0.5853977203369141,0.6174522638320923,0.02686004340648651,-0.21499337255954742
1749026127.870993,0.4248714745044708,-2.1430684528746546,1.1319597403155726,3.109247847194336,3.2422289848327637,-1.2312963644610804,-0.07048515975475311,0.039992302656173706,-0.11239679902791977,0.07372785359621048,-0.1894809752702713,-0.04932466894388199,-0.36891719698905945,0.7507221698760986,-0.6047083139419556,0.6336230635643005,0.028644263744354248,-0.2201261669397354
1749026127.8710296,0.42469534277915955,-2.142973562280172,1.1317046324359339,3.1093661028095703,3.241849899291992,-1.2313693205462855,-0.07150578498840332,0.04200362041592598,-0.11431591212749481,0.0739796832203865,-0.1900000274181366,-0.05056684464216232,-0.3849993944168091,0.7497056722640991,-0.5909804701805115,0.618678629398346,0.010514378547668457,-0.24141915142536163
1749026127.871067,0.4245308041572571,-2.142888208428854,1.1314967314349573,3.109534903163574,3.2414939403533936,-1.2314732710467737,-0.07316607236862183,0.042042315006256104,-0.11557187885046005,0.07367710769176483,-0.1904994696378708,-0.05301864445209503,-0.3578515350818634,0.7387919425964355,-0.5744637250900269,0.64150071144104,0.015555739402770996,-0.23674613237380981
1749026127.8711045,0.42437544465065,-2.142820497552389,1.1312530676471155,3.1097065645405273,3.241102695465088,-1.2316001097308558,-0.07312902808189392,0.04024701192975044,-0.11631089448928833,0.0745198205113411,-0.19056348502635956,-0.05396503210067749,-0.3524538278579712,0.7499544024467468,-0.5749127864837646,0.6431429386138916,0.011702734977006912,-0.2203666716814041
1749026127.8711421,0.42422473430633545,-2.142763753930563,1.1310136953936976,3.109858198756836,3.2407188415527344,-1.2317150274859827,-0.07437130063772202,0.04098426178097725,-0.11639948189258575,0.07762748748064041,-0.19325551390647888,-0.053488608449697495,-0.34399476647377014,0.7713385820388794,-0.6106130480766296,0.6360452175140381,-0.0017390698194503784,-0.22615709900856018
1749026127.871179,0.4241184592247009,-2.1426602802672328,1.130782429371969,3.1099983888813476,3.240358591079712,-1.231830898915426,-0.07391171157360077,0.04330439120531082,-0.11817116290330887,0.07740886509418488,-0.19419336318969727,-0.05198594927787781,-0.3596382737159729,0.7444958686828613,-0.5927067399024963,0.645562469959259,-0.02966165542602539,-0.23081395030021667
1749026127.8717346,0.4239377975463867,-2.142552515069479,1.1305425802813929,3.1101571756550292,3.2399628162384033,-1.2319610754596155,-0.07712339609861374,0.04340837523341179,-0.12095789611339569,0.07732123136520386,-0.20047737658023834,-0.052149079740047455,-0.35567572712898254,0.7310360074043274,-0.5948907732963562,0.6648757457733154,-0.01520334929227829,-0.2684876322746277
1749026127.8737009,0.4238243103027344,-2.1424809894957484,1.130322281514303,3.1103245454975585,3.239567518234253,-1.2320459524737757,-0.0736977681517601,0.04370349645614624,-0.1202046200633049,0.08061466366052628,-0.20499181747436523,-0.05479701980948448,-0.3363261818885803,0.7286103367805481,-0.5847636461257935,0.659292459487915,-0.004357699304819107,-0.25807443261146545
1749026127.9183066,0.4236403703689575,-2.1423918209471644,1.1300633589373987,3.1104799944111328,3.2392022609710693,-1.2321656386004847,-0.07403156906366348,0.04396737739443779,-0.12357700616121292,0.08290479332208633,-0.20975705981254578,-0.05679884925484657,-0.3841795325279236,0.7330157160758972,-0.5929280519485474,0.6285330057144165,0.00457184761762619,-0.24859504401683807
1749026127.9183526,0.42344987392425537,-2.1422540150084437,1.1297805945025843,3.110651655788086,3.2387118339538574,-1.232276741658346,-0.07911279052495956,0.044616151601076126,-0.12326841056346893,0.08168460428714752,-0.2119309902191162,-0.05874684825539589,-0.3590928912162781,0.7127379775047302,-0.6006842851638794,0.6457295417785645,-0.012323368340730667,-0.2349293977022171
1749026127.9183939,0.42332956194877625,-2.142204900781149,1.1295884291278284,3.110799952144287,3.2383203506469727,-1.2323887983905237,-0.07511063665151596,0.044174764305353165,-0.1253592073917389,0.08336449414491653,-0.21365998685359955,-0.06253398954868317,-0.3705729842185974,0.714841365814209,-0.5801693797111511,0.6344919800758362,0.005681417882442474,-0.2193892002105713
1749026127.9184332,0.4231630563735962,-2.1420933208861292,1.1293438116656702,3.1109863954731445,3.2378451824188232,-1.232516113911764,-0.07745946943759918,0.04539166018366814,-0.12595926225185394,0.08591225743293762,-0.21448613703250885,-0.06375355273485184,-0.36663949489593506,0.7025537490844727,-0.564615786075592,0.6208041310310364,0.012027699500322342,-0.21924521028995514
1749026127.9184766,0.42298319935798645,-2.142012735406393,1.1290772596942347,3.111154242152832,3.2374532222747803,-1.2326391378985804,-0.0785098671913147,0.04489746689796448,-0.1267070770263672,0.0884954035282135,-0.21666072309017181,-0.06299096345901489,-0.3759153187274933,0.7307363748550415,-0.6106051206588745,0.6105555295944214,-0.013749733567237854,-0.222328782081604
1749026127.9185157,0.4228745698928833,-2.1419102154173792,1.1288145224200647,3.1113335329243164,3.2369534969329834,-1.2327874342547815,-0.07988714426755905,0.04590699076652527,-0.12523451447486877,0.08879697322845459,-0.21750831604003906,-0.06359270960092545,-0.3387180268764496,0.7086549997329712,-0.6097486019134521,0.6072533130645752,-0.017096057534217834,-0.2229849398136139
1749026127.9185538,0.4226716458797455,-2.1418334446349085,1.1285865942584437,3.11149708806958,3.2365384101867676,-1.2329137961017054,-0.08021987229585648,0.04550854489207268,-0.12966786324977875,0.08693938702344894,-0.2238805741071701,-0.0664280354976654,-0.35603490471839905,0.7113169431686401,-0.5893770456314087,0.618364155292511,0.011138014495372772,-0.19806817173957825
1749026127.9185922,0.4225357472896576,-2.141691823998922,1.128326718007223,3.111692114467285,3.236114025115967,-1.2330501715289515,-0.08080563694238663,0.0463089719414711,-0.12879909574985504,0.08800898492336273,-0.22315004467964172,-0.06726085394620895,-0.34870660305023193,0.7391049861907959,-0.6134037375450134,0.6153756976127625,0.02697976678609848,-0.1958848237991333
1749026127.9186296,0.42236781120300293,-2.1416379414000453,1.1280782858477991,3.1118718820759277,3.2356510162353516,-1.2331660429583948,-0.08097220212221146,0.04743938148021698,-0.1307772696018219,0.08892051875591278,-0.2227100133895874,-0.06717964261770248,-0.35922330617904663,0.7026113271713257,-0.6185274124145508,0.6324573755264282,-0.006077080965042114,-0.18049556016921997
1749026127.9186678,0.4221731126308441,-2.141569276849264,1.1278117338763636,3.112039251918457,3.235243797302246,-1.2332938353167933,-0.08247201144695282,0.04522883519530296,-0.13162212073802948,0.08900918066501617,-0.22438247501850128,-0.067351795732975,-0.32632339000701904,0.7279219627380371,-0.6130856275558472,0.6037704944610596,0.00933307409286499,-0.17096279561519623
1749026127.9187057,0.4221731126308441,-2.141569276849264,1.1278117338763636,3.112039251918457,3.235243797302246,-1.2332938353167933,-0.08247201144695282,0.04522883519530296,-0.13162212073802948,0.08900918066501617,-0.22438247501850128,-0.067351795732975,-0.32632339000701904,0.7279219627380371,-0.6130856275558472,0.6037704944610596,0.00933307409286499,-0.17096279561519623
1749026127.9187434,0.4217934310436249,-2.1413308582701625,1.1272805372821253,3.1123949724384765,3.2343335151672363,-1.2335918585406702,-0.08471120893955231,0.04757492244243622,-0.13397423923015594,0.08858120441436768,-0.2280368208885193,-0.06618188321590424,-0.3691573739051819,0.7308900952339172,-0.620386004447937,0.6031512022018433,-0.01342146098613739,-0.18431369960308075
1749026127.9187815,0.42171332240104675,-2.141257425347799,1.1270087401019495,3.1125895219990234,3.233858823776245,-1.2337196508990687,-0.08222237974405289,0.04947372153401375,-0.1348932981491089,0.0892510861158371,-0.22615814208984375,-0.06546475738286972,-0.35526543855667114,0.6838394403457642,-0.6171232461929321,0.6015949249267578,-0.027328960597515106,-0.17248578369617462
1749026127.918818,0.4215390980243683,-2.1411386928954066,1.126733128224508,3.112775965327881,3.2334296703338623,-1.233772102986471,-0.08448013663291931,0.04853256046772003,-0.1372682899236679,0.0892118290066719,-0.2306123524904251,-0.06425639986991882,-0.3652145266532898,0.7030846476554871,-0.5902994275093079,0.5921265482902527,-0.03681501746177673,-0.1998652219772339
1749026127.9188552,0.4213865101337433,-2.1410585842528285,1.1264498869525355,3.1129023271748046,3.2329554557800293,-1.2339585463153284,-0.08546434342861176,0.04750147834420204,-0.13826794922351837,0.08934448659420013,-0.23050694167613983,-0.06481485813856125,-0.36677494645118713,0.7130025625228882,-0.5764568448066711,0.5952920913696289,-0.04904519021511078,-0.20544561743736267
1749026127.9188921,0.421173095703125,-2.140958925286764,1.1261470953570765,3.1130854326435546,3.232435464859009,-1.2340853849994105,-0.08525123447179794,0.0491858646273613,-0.13852165639400482,0.0892055332660675,-0.23297934234142303,-0.06395132839679718,-0.36596810817718506,0.6958007216453552,-0.5611150860786438,0.6034083366394043,-0.03450470045208931,-0.19352659583091736
1749026127.9189305,0.4210001528263092,-2.140839239160055,1.1258638540851038,3.113252802486084,3.2320029735565186,-1.2342637220965784,-0.08502873033285141,0.049370307475328445,-0.1403493583202362,0.08937641233205795,-0.23681867122650146,-0.06441450864076614,-0.3946843147277832,0.7075527310371399,-0.6033858060836792,0.6224864721298218,-0.01728925108909607,-0.19425472617149353
1749026127.918968,0.42088189721107483,-2.1407624683775843,1.1255725065814417,3.1134440141865234,3.231511354446411,-1.2343443075763147,-0.08682862669229507,0.049679894000291824,-0.1390000730752945,0.08845522254705429,-0.23912173509597778,-0.06445471942424774,-0.3870807886123657,0.6963551044464111,-0.6173453330993652,0.6318482756614685,-0.026035983115434647,-0.2237875759601593
1749026127.9190073,0.4206615388393402,-2.140682359735006,1.1253045240985315,3.1136271196552734,3.231008291244507,-1.2344606558429163,-0.08783756196498871,0.049927812069654465,-0.14039888978004456,0.0885077714920044,-0.24167466163635254,-0.06410316377878189,-0.39260998368263245,0.7084993124008179,-0.6366583704948425,0.655250072479248,-0.0005117356777191162,-0.2207162231206894
1749026127.9190485,0.4204704761505127,-2.140586038629049,1.1250446478473108,3.1138011652180175,3.2305407524108887,-1.234584156666891,-0.08948317915201187,0.050126995891332626,-0.1424795538187027,0.08914860337972641,-0.24389591813087463,-0.06519871205091476,-0.34961625933647156,0.6930224299430847,-0.598519504070282,0.6704398393630981,0.005368620157241821,-0.2230084240436554
1749026127.9190862,0.42025965452194214,-2.1404782734312953,1.12476092973818,3.1140119272419433,3.230013608932495,-1.234692398701803,-0.08980944752693176,0.04980508238077164,-0.14261364936828613,0.09078171104192734,-0.24613533914089203,-0.06689445674419403,-0.36598727107048035,0.6914243698120117,-0.6047868728637695,0.6695611476898193,0.026710771024227142,-0.23413921892642975
1749026127.9191232,0.4201386272907257,-2.140398164788717,1.1244738737689417,3.114168806666992,3.2295968532562256,-1.2348931471454065,-0.09059471637010574,0.05103522539138794,-0.1448935866355896,0.09344595670700073,-0.24830728769302368,-0.06799320131540298,-0.3732110559940338,0.6995168328285217,-0.6039931774139404,0.6740729212760925,0.004487713798880577,-0.2208888828754425
1749026127.9196966,0.4199400246143341,-2.1403142414488734,1.1241782347308558,3.1143690782734375,3.229098081588745,-1.235002342854635,-0.08979291468858719,0.05114774405956268,-0.14421164989471436,0.09698769450187683,-0.2503381371498108,-0.06684030592441559,-0.3860572576522827,0.6938291192054749,-0.626655101776123,0.6634490489959717,0.0034090057015419006,-0.2281273901462555
1749026127.9218113,0.4197521209716797,-2.140194078485006,1.12390643755068,3.1145760256000976,3.2286226749420166,-1.2351530233966272,-0.093959279358387,0.05106744542717934,-0.14595909416675568,0.09928934276103973,-0.2511555254459381,-0.06714201718568802,-0.3688103258609772,0.7021052837371826,-0.6126495003700256,0.647381067276001,0.009649157524108887,-0.25561636686325073
1749026127.9662986,0.41957226395606995,-2.1400753460326136,1.1235793272601526,3.114760084743164,3.2281458377838135,-1.2352736631976526,-0.09016025811433792,0.051212649792432785,-0.1473708301782608,0.10438913106918335,-0.2504647970199585,-0.06935090571641922,-0.3831285536289215,0.696845293045044,-0.6283395290374756,0.626179039478302,-7.671117782592773e-05,-0.2240447700023651
1749026127.966345,0.4194035232067108,-2.139998575250143,1.123267952595846,3.1149789529987792,3.227557420730591,-1.2354448477374476,-0.09414392709732056,0.05114736780524254,-0.15006738901138306,0.10248848795890808,-0.2538169324398041,-0.07025541365146637,-0.41427376866340637,0.7017790079116821,-0.6264983415603638,0.6037451028823853,-0.005683101713657379,-0.2491491287946701
1749026127.9663858,0.41918236017227173,-2.139890810052389,1.1229766050921839,3.115182562465332,3.22702956199646,-1.23561937013735,-0.09249083697795868,0.051496222615242004,-0.1525338739156723,0.10224685072898865,-0.25229278206825256,-0.07274821400642395,-0.40142741799354553,0.7128458023071289,-0.5934428572654724,0.6172518730163574,-0.01696670800447464,-0.22966991364955902
1749026127.9664261,0.4190100431442261,-2.139803548852438,1.1226499716388147,3.1154047685810546,3.2265803813934326,-1.2357161680804651,-0.09477636963129044,0.05232710763812065,-0.15323059260845184,0.10115405172109604,-0.2584923803806305,-0.07548575103282928,-0.3895314335823059,0.7098543047904968,-0.5694197416305542,0.6254280209541321,0.014446541666984558,-0.21070219576358795
1749026127.9664652,0.41877517104148865,-2.1396643124022425,1.1223776976214808,3.11562363683667,3.226048469543457,-1.2358630339251917,-0.09620215743780136,0.05183997005224228,-0.15245185792446136,0.10468918085098267,-0.258215069770813,-0.07480445504188538,-0.3436664640903473,0.7152190208435059,-0.5959546566009521,0.5888957381248474,0.004132546484470367,-0.20370379090309143
1749026127.9665062,0.41864272952079773,-2.1395756206908167,1.1220701376544397,3.115837259883545,3.22552490234375,-1.236025635396139,-0.09514170140028,0.05177959054708481,-0.15489640831947327,0.10184168070554733,-0.2606145441532135,-0.07402744144201279,-0.3785723149776459,0.7098245024681091,-0.5793043375015259,0.6106328964233398,-0.011670254170894623,-0.20268315076828003
1749026127.9665444,0.4184265434741974,-2.139503618279928,1.121758762990133,3.116043730373047,3.2250256538391113,-1.2361810843097132,-0.09582183510065079,0.052582353353500366,-0.15466739237308502,0.09780668467283249,-0.2611270248889923,-0.07620086520910263,-0.3779374957084656,0.7251765131950378,-0.5939443111419678,0.6319814324378967,0.0008941665291786194,-0.19988781213760376
1749026127.9665833,0.4182354509830475,-2.1393991909422816,1.1214435736285608,3.116226835841797,3.224459409713745,-1.2363017241107386,-0.0951283797621727,0.05243128538131714,-0.15685930848121643,0.09896182268857956,-0.26158419251441956,-0.07762487232685089,-0.3784969747066498,0.735218346118927,-0.5692728757858276,0.6332281827926636,-0.00879055354744196,-0.18691526353359222
1749026127.9666326,0.41806039214134216,-2.1392651997008265,1.1211050192462366,3.1164237695881347,3.2239954471588135,-1.2365077177630823,-0.0977410227060318,0.05533968284726143,-0.15870940685272217,0.09817320853471756,-0.2632113993167877,-0.07930776476860046,-0.4027598202228546,0.7094535231590271,-0.5727093815803528,0.6446595191955566,-0.019519776105880737,-0.19711314141750336
1749026127.966678,0.4178488552570343,-2.1391521892943324,1.1208089033709925,3.1165787416645507,3.2234790325164795,-1.2366402784930628,-0.09670286625623703,0.05232098698616028,-0.16238313913345337,0.09826834499835968,-0.26638615131378174,-0.07976319640874863,-0.4190463721752167,0.7461214065551758,-0.5514535903930664,0.6425917744636536,-0.01689702272415161,-0.16474637389183044
1749026127.9667172,0.4176768362522125,-2.1390792332091273,1.1204832235919397,3.116804762477539,3.2228970527648926,-1.2368038336383265,-0.10040944069623947,0.05319834128022194,-0.16112156212329865,0.0994093269109726,-0.266684889793396,-0.07984153926372528,-0.3902667760848999,0.7447546124458313,-0.58056640625,0.6702648401260376,-0.03182096779346466,-0.16215567290782928
1749026127.9667552,0.4174934923648834,-2.138939519921774,1.1201561133014124,3.1169964510151367,3.2223262786865234,-1.2369702498065394,-0.0983717069029808,0.054042644798755646,-0.1615997850894928,0.1022295206785202,-0.27247631549835205,-0.07847979664802551,-0.4124688506126404,0.7386237382888794,-0.5610495209693909,0.6685327887535095,-0.0053477175533771515,-0.15222981572151184
1749026127.966793,0.4172690212726593,-2.138808866540426,1.1198638121234339,3.117208166713379,3.2218456268310547,-1.2370980421649378,-0.10053778439760208,0.056199319660663605,-0.16272954642772675,0.10317506641149521,-0.2719722390174866,-0.0776897668838501,-0.4023400545120239,0.7169323563575745,-0.5605412125587463,0.6446962952613831,-0.01492658257484436,-0.16765381395816803
1749026127.9668305,0.41711220145225525,-2.138763567010397,1.1195405165301722,3.1174303728291015,3.2213051319122314,-1.237253491078512,-0.10013741999864578,0.05351003631949425,-0.16336248815059662,0.10821440815925598,-0.2741144895553589,-0.07807496190071106,-0.3848467469215393,0.7458842992782593,-0.5524651408195496,0.6457006931304932,-0.03774102032184601,-0.17087224125862122
1749026127.9668677,0.4168241322040558,-2.1386004887022914,1.1192167440997522,3.1176301675983886,3.220702886581421,-1.2374089399920862,-0.10111194849014282,0.054768193513154984,-0.16354559361934662,0.10793346911668777,-0.277685284614563,-0.07689810544252396,-0.3999117910861969,0.7526975274085999,-0.5467431545257568,0.6468404531478882,-0.02924671769142151,-0.17625652253627777
1749026127.966905,0.4166237711906433,-2.1385275326170863,1.118890110646383,3.1178433138081054,3.2201080322265625,-1.2375415007220667,-0.10240232944488525,0.056019727140665054,-0.16351418197155,0.10727275907993317,-0.27738094329833984,-0.07685815542936325,-0.4000181555747986,0.7293597459793091,-0.5597310662269592,0.6541072130203247,0.015011511743068695,-0.17773988842964172
1749026127.9669425,0.4164155125617981,-2.1383968792357386,1.1185701529132288,3.118079825038574,3.2195792198181152,-1.2377432028399866,-0.10442578047513962,0.05585677921772003,-0.16348908841609955,0.10798045247793198,-0.280912309885025,-0.07564286142587662,-0.3839836120605469,0.74383145570755,-0.5767537951469421,0.6667461395263672,0.027039021253585815,-0.17563652992248535
1749026127.9669793,0.41622382402420044,-2.138284822503561,1.118227783833639,3.1183034616657714,3.2189762592315674,-1.237887207661764,-0.10452854633331299,0.056473128497600555,-0.1642678678035736,0.11325931549072266,-0.28301694989204407,-0.07592840492725372,-0.37251007556915283,0.7416531443595886,-0.5866851806640625,0.6313294172286987,0.03248041868209839,-0.19366507232189178
1749026127.9670162,0.4160083532333374,-2.1381808720030726,1.1179006735431116,3.118551416988037,3.218425989151001,-1.2380459944354456,-0.1037873849272728,0.05698265880346298,-0.16677561402320862,0.11293826997280121,-0.2834382951259613,-0.07596125453710556,-0.4021129906177521,0.7645348310470581,-0.5874069333076477,0.6186389327049255,0.022631194442510605,-0.19027158617973328
1749026127.9670653,0.4157937467098236,-2.1380726299681605,1.117584530507223,3.1187359529682617,3.2178430557250977,-1.2382171789752405,-0.10350678861141205,0.057469338178634644,-0.1670302152633667,0.11347582191228867,-0.2839759886264801,-0.07563385367393494,-0.3885473906993866,0.7410604357719421,-0.600240170955658,0.6194857358932495,0.04808760806918144,-0.2011515200138092
1749026127.9671063,0.41561251878738403,-2.1379534206786097,1.1172454992877405,3.1189614969440917,3.217273235321045,-1.2383340040790003,-0.10498502105474472,0.05756745487451553,-0.16670680046081543,0.11647972464561462,-0.28316977620124817,-0.07689839601516724,-0.3727070689201355,0.727347195148468,-0.6079040765762329,0.6031997799873352,0.053166668862104416,-0.1869286149740219
1749026127.9671438,0.41536441445350647,-2.137848039666647,1.1169169584857386,3.1192166048237304,3.216710090637207,-1.2384970823871058,-0.10279426723718643,0.05851949378848076,-0.16675478219985962,0.11741481721401215,-0.2810344099998474,-0.0777110680937767,-0.4432332217693329,0.7359066605567932,-0.6008895039558411,0.6073976159095764,0.022200584411621094,-0.21097880601882935
1749026127.9677386,0.41514328122138977,-2.137728830377096,1.116577450429098,3.119422598476074,3.2161567211151123,-1.2386248747455042,-0.10737317055463791,0.05898298695683479,-0.16928939521312714,0.11665432900190353,-0.2835257649421692,-0.07626615464687347,-0.3607655167579651,0.7230809926986694,-0.5989004969596863,0.5893816947937012,-0.009386241436004639,-0.23173734545707703
1749026127.9697385,0.4149395525455475,-2.137608667413229,1.116230312977926,3.1196486192890625,3.215559482574463,-1.2387717405902308,-0.10563861578702927,0.0590234100818634,-0.17257475852966309,0.11486251652240753,-0.28182873129844666,-0.07697692513465881,-0.43743014335632324,0.7452651262283325,-0.5568850040435791,0.6003886461257935,-0.040539391338825226,-0.24077017605304718
1749026128.0103142,0.4147924482822418,-2.137453695336813,1.1159032026873987,3.1199003893085937,3.215001344680786,-1.2389434019671839,-0.10902760177850723,0.062473345547914505,-0.17360593378543854,0.11489740014076233,-0.28444117307662964,-0.0789455845952034,-0.4030851721763611,0.7022786140441895,-0.5819658637046814,0.6139016151428223,-0.02963775396347046,-0.2379923313856125
1749026128.0103605,0.4144893288612366,-2.1373497448363246,1.1155241171466272,3.120100660915039,3.2144153118133545,-1.239098850880758,-0.10956781357526779,0.05824223905801773,-0.174422487616539,0.11508701741695404,-0.2864016592502594,-0.08132539689540863,-0.389614999294281,0.7509156465530396,-0.580203115940094,0.6076745390892029,-0.045674994587898254,-0.2354150414466858
1749026128.010402,0.4143386781215668,-2.137233396569723,1.115192715321676,3.120311422938965,3.213826894760132,-1.2393048445331019,-0.110008105635643,0.05935416743159294,-0.17601455748081207,0.11424538493156433,-0.2903895974159241,-0.0854199156165123,-0.4101890027523041,0.7512199878692627,-0.5658485889434814,0.61296147108078,-0.06311261653900146,-0.2055608630180359
1749026128.0104415,0.4141307473182678,-2.1371165714659632,1.1148527304278772,3.1205646234699707,3.2132670879364014,-1.2394335905658167,-0.11126790195703506,0.06170346587896347,-0.17560400068759918,0.11401218175888062,-0.28890448808670044,-0.08435497432947159,-0.3933086693286896,0.7294550538063049,-0.5799412131309509,0.6197672486305237,-0.04369539022445679,-0.2131243348121643
1749026128.0104804,0.4141307473182678,-2.1371165714659632,1.1148527304278772,3.1205646234699707,3.2132670879364014,-1.2394335905658167,-0.11126790195703506,0.06170346587896347,-0.17560400068759918,0.11401218175888062,-0.28890448808670044,-0.08435497432947159,-0.3933086693286896,0.7294550538063049,-0.5799412131309509,0.6197672486305237,-0.04369539022445679,-0.2131243348121643
1749026128.0105438,0.4136332869529724,-2.1368729076781214,1.1141307989703577,3.1210052210041503,3.2120208740234375,-1.2398150602923792,-0.10950841754674911,0.05902836099267006,-0.17608293890953064,0.11580760031938553,-0.29471921920776367,-0.08721209317445755,-0.36195647716522217,0.7474746108055115,-0.5473756194114685,0.6102180480957031,0.010198596864938736,-0.19620993733406067
1749026128.0106127,0.41340625286102295,-2.1367088756956996,1.1137712637530726,3.12124411642041,3.2114124298095703,-1.239974323903219,-0.11076980084180832,0.060420773923397064,-0.1753031313419342,0.11616886407136917,-0.2944629192352295,-0.08800267428159714,-0.40304073691368103,0.7317334413528442,-0.5637086629867554,0.6204769015312195,-0.005011066794395447,-0.1961691975593567
1749026128.010683,0.4132060706615448,-2.136608739892477,1.1134355703936976,3.121426745052002,3.2107667922973633,-1.2401536146747034,-0.10851132869720459,0.06019967794418335,-0.1765432506799698,0.11849431693553925,-0.29635724425315857,-0.08776821196079254,-0.42125681042671204,0.7330812811851501,-0.618396520614624,0.6140673160552979,0.008188605308532715,-0.19204780459403992
1749026128.0107553,0.4130004346370697,-2.136484762231344,1.1131075064288538,3.1217190462299804,3.2101640701293945,-1.2403329054461878,-0.11175686120986938,0.060045573860406876,-0.17873899638652802,0.11981994658708572,-0.2978198826313019,-0.08744189143180847,-0.42582887411117554,0.774888277053833,-0.615515947341919,0.6053760647773743,-0.008631091564893723,-0.2026723027229309
1749026128.0108254,0.4127848744392395,-2.1363803348936976,1.1127284208880823,3.121955080623291,3.2095947265625,-1.240493122731344,-0.11203691363334656,0.06079920381307602,-0.18135181069374084,0.11924197524785995,-0.3002053499221802,-0.08871684968471527,-0.44051986932754517,0.7469495534896851,-0.5980279445648193,0.6257964372634888,-0.011089563369750977,-0.21044066548347473
1749026128.0108936,0.41251909732818604,-2.1362668476500453,1.1123812834369105,3.1221834856220703,3.209041118621826,-1.240629021321432,-0.11519894003868103,0.0606774240732193,-0.18402636051177979,0.12047068029642105,-0.30352506041526794,-0.08937287330627441,-0.4012182354927063,0.7577016949653625,-0.5563130974769592,0.6250110864639282,-0.0026790574193000793,-0.1963089406490326
1749026128.0109594,0.4123189151287079,-2.1361080608763636,1.1120184103595179,3.1224281030842285,3.208440065383911,-1.24083120027651,-0.11612170934677124,0.061400607228279114,-0.18391388654708862,0.1256536990404129,-0.3070389926433563,-0.0876830667257309,-0.4003104567527771,0.7662438750267029,-0.5694834589958191,0.5827361345291138,-0.017840377986431122,-0.19224323332309723
1749026128.0110264,0.41209420561790466,-2.135967870751852,1.1116507689105433,3.1227056223103027,3.2078397274017334,-1.2409995237933558,-0.11606372892856598,0.06239623948931694,-0.18406641483306885,0.12081852555274963,-0.3054531514644623,-0.08765740692615509,-0.4136713743209839,0.756189227104187,-0.6172192692756653,0.608745276927948,-0.031002238392829895,-0.2114671766757965
1749026128.011094,0.4118824005126953,-2.1358639202513636,1.1112483183490198,3.122924967403076,3.20723557472229,-1.2412059942828577,-0.1160573661327362,0.0631769597530365,-0.18575310707092285,0.12171564996242523,-0.30634182691574097,-0.08712075650691986,-0.41718554496765137,0.736108660697937,-0.6068550944328308,0.6095029711723328,-0.03080807626247406,-0.20050622522830963
1749026128.0111606,0.41163170337677,-2.135723730126852,1.1108840147601526,3.123183413142822,3.2066118717193604,-1.2413542906390589,-0.11907599866390228,0.06412603706121445,-0.1870012879371643,0.12209488451480865,-0.31032827496528625,-0.08465808629989624,-0.46572601795196533,0.7435823678970337,-0.5991180539131165,0.6067672371864319,-0.037871815264225006,-0.2179775983095169
1749026128.0112286,0.4113999903202057,-2.1355954609312953,1.1105125586139124,3.123403235072754,3.2059578895568848,-1.2415249983416956,-0.11817190051078796,0.0649418905377388,-0.18880484998226166,0.12146620452404022,-0.31219905614852905,-0.08639246970415115,-0.41634950041770935,0.7117199301719666,-0.5863608717918396,0.6249309778213501,-0.06478182971477509,-0.2255052626132965
1749026128.0112965,0.41114842891693115,-2.1354671917357386,1.1101015249835413,3.1236888605305175,3.2053186893463135,-1.2417004744159144,-0.1231939047574997,0.06541846692562103,-0.18732811510562897,0.1202346608042717,-0.31353825330734253,-0.08909623324871063,-0.37356045842170715,0.7226834297180176,-0.6051788330078125,0.6207360625267029,-0.08529327064752579,-0.23190438747406006
1749026128.011367,0.4109322726726532,-2.135334631005758,1.1097028891192835,3.1239163118549804,3.2047054767608643,-1.2418955008136194,-0.1209234669804573,0.0651663988828659,-0.18998412787914276,0.11971879750490189,-0.31927651166915894,-0.08588967472314835,-0.3873153030872345,0.7317615151405334,-0.6095871925354004,0.6639454364776611,-0.059945061802864075,-0.24194659292697906
1749026128.0114324,0.41070830821990967,-2.135195394555563,1.1093505064593714,3.12415520727124,3.204094171524048,-1.2420247236834925,-0.12218750268220901,0.06737443804740906,-0.1924995630979538,0.12048140913248062,-0.3246184289455414,-0.08686258643865585,-0.41313594579696655,0.7228116989135742,-0.6062581539154053,0.663102924823761,-0.048029571771621704,-0.25962895154953003
1749026128.0114968,0.41045665740966797,-2.135085722009176,1.1089428106891077,3.1243902879902343,3.203457832336426,-1.2422388235675257,-0.12121238559484482,0.06610019505023956,-0.19369542598724365,0.12492198497056961,-0.32789865136146545,-0.08876938372850418,-0.37231433391571045,0.7110385298728943,-0.5790273547172546,0.6550050973892212,-0.02341349795460701,-0.2552188038825989
1749026128.011845,0.41045665740966797,-2.135085722009176,1.1089428106891077,3.1243902879902343,3.203457832336426,-1.2422388235675257,-0.12121238559484482,0.06610019505023956,-0.19369542598724365,0.12492198497056961,-0.32789865136146545,-0.08876938372850418,-0.37231433391571045,0.7110385298728943,-0.5790273547172546,0.6550050973892212,-0.02341349795460701,-0.2552188038825989
1749026128.0136826,0.40996357798576355,-2.134806295434469,1.1081450621234339,3.1249000269123535,3.2021071910858154,-1.2425902525531214,-0.12362319976091385,0.06497132778167725,-0.1935872882604599,0.12605853378772736,-0.3303379416465759,-0.0957222580909729,-0.4167569875717163,0.7410675287246704,-0.5800194144248962,0.6567867994308472,-0.030700549483299255,-0.22682836651802063
1749026128.0583122,0.40976837277412415,-2.1346737347044886,1.107781235371725,3.1251632410236816,3.2013888359069824,-1.2428043524371546,-0.12518586218357086,0.06763063371181488,-0.19553294777870178,0.1321565806865692,-0.33572185039520264,-0.09427750110626221,-0.4055774211883545,0.7139825224876404,-0.5877840518951416,0.6362125277519226,-0.03450758010149002,-0.2100788950920105
1749026128.0583591,0.40946659445762634,-2.1345139942564906,1.1073668638812464,3.1254536348530273,3.20074200630188,-1.2430112997638147,-0.12418492138385773,0.06507101655006409,-0.1971498280763626,0.13611888885498047,-0.33712872862815857,-0.09419094026088715,-0.4110095202922821,0.7311599254608154,-0.5560656785964966,0.5808097124099731,-0.009588256478309631,-0.24686777591705322
1749026128.0584023,0.4091927707195282,-2.1343966923155726,1.1069524923907679,3.1256977754780273,3.200080633163452,-1.2431986967669886,-0.128055140376091,0.06620080024003983,-0.1964045763015747,0.13441762328147888,-0.3362331688404083,-0.09745277464389801,-0.3625897169113159,0.742774248123169,-0.5691714882850647,0.5934991836547852,0.006349161267280579,-0.21625642478466034
1749026128.0584426,0.40899521112442017,-2.1342340908446253,1.1065800825702112,3.12595717489209,3.199369192123413,-1.243389908467428,-0.12543395161628723,0.06657157838344574,-0.19643254578113556,0.13542227447032928,-0.33547285199165344,-0.09859022498130798,-0.4141296446323395,0.7210949659347534,-0.6113741397857666,0.5881555676460266,-0.018337059766054153,-0.19682711362838745
1749026128.0584822,0.40871232748031616,-2.1341291866698207,1.1061847845660608,3.126220865840576,3.1986985206604004,-1.2435744444476526,-0.1272781491279602,0.06720220297574997,-0.19839583337306976,0.1332147866487503,-0.3377642035484314,-0.09841608256101608,-0.4034084677696228,0.7617335319519043,-0.6002407670021057,0.5917069911956787,-0.012297064065933228,-0.198377788066864
1749026128.0585227,0.4084089398384094,-2.13395418743276,1.1057618300067347,3.126471682185791,3.1980812549591064,-1.2437728087054651,-0.12850069999694824,0.0670098215341568,-0.19984421133995056,0.1300087869167328,-0.33855903148651123,-0.09893505275249481,-0.35932457447052,0.7405304908752441,-0.5693930387496948,0.6014617681503296,0.0029571503400802612,-0.18559587001800537
1749026128.0585654,0.4082311987876892,-2.1338445148863734,1.105366055165426,3.1267263132282714,3.1973233222961426,-1.2439869085894983,-0.12658794224262238,0.06704306602478027,-0.19850985705852509,0.127256840467453,-0.3402089774608612,-0.09862888604402542,-0.3947694003582001,0.7423673868179321,-0.6029647588729858,0.6342526078224182,-0.031905628740787506,-0.19050265848636627
1749026128.0586047,0.40790602564811707,-2.133724351922506,1.104943577443258,3.126974268550537,3.196713447570801,-1.2441523710833948,-0.12725549936294556,0.06783400475978851,-0.19978968799114227,0.1253976970911026,-0.34203022718429565,-0.09684674441814423,-0.3971313536167145,0.7408207654953003,-0.6092579960823059,0.6529675722122192,0.0003804289735853672,-0.20889995992183685
1749026128.0586581,0.4076709747314453,-2.1335908375182093,1.104527775441305,3.127242251033447,3.1960337162017822,-1.24438983598818,-0.12504364550113678,0.06770339608192444,-0.20319707691669464,0.12608204782009125,-0.34101709723472595,-0.09704558551311493,-0.4500056505203247,0.7377256751060486,-0.6081919074058533,0.683422863483429,-0.015997692942619324,-0.19738377630710602
1749026128.0586998,0.4074198305606842,-2.1334082088866175,1.1041205565081995,3.1275016504475097,3.195366621017456,-1.2445467154132288,-0.12710441648960114,0.06786022335290909,-0.20367643237113953,0.1289484202861786,-0.34214556217193604,-0.09608444571495056,-0.3877284526824951,0.7429632544517517,-0.583487868309021,0.6773803234100342,-0.02757113426923752,-0.191041499376297
1749026128.058738,0.40718331933021545,-2.1333114109435023,1.1036894957171839,3.1277806001850585,3.1946640014648438,-1.2447484175311487,-0.1287916898727417,0.06828262656927109,-0.20205818116664886,0.13066115975379944,-0.34537121653556824,-0.0954366996884346,-0.4250429570674896,0.7561906576156616,-0.6029280424118042,0.6630471348762512,-0.01964258775115013,-0.2120170295238495
1749026128.058776,0.4069386422634125,-2.1331402264037074,1.1032822767840784,3.1280624109455566,3.1939680576324463,-1.2449286619769495,-0.12737981975078583,0.07049340754747391,-0.20239873230457306,0.13371708989143372,-0.3464527726173401,-0.0957394614815712,-0.43941718339920044,0.6998311281204224,-0.6101282835006714,0.6758174896240234,-0.032295405864715576,-0.21351735293865204
1749026128.058813,0.4066489636898041,-2.13299622158193,1.1028826872455042,3.1283771234699707,3.1932530403137207,-1.2451241652118128,-0.13015629351139069,0.06737212091684341,-0.20368525385856628,0.14021055400371552,-0.3491874933242798,-0.09322155267000198,-0.4347293972969055,0.7745673060417175,-0.6006953716278076,0.6279932260513306,-0.0341462641954422,-0.2270531803369522
1749026128.0588505,0.40645161271095276,-2.1328870258727015,1.1024921576129358,3.1286489206501464,3.19260835647583,-1.2452963034259241,-0.1301126331090927,0.06888372451066971,-0.2047627866268158,0.13840214908123016,-0.34996330738067627,-0.09705737978219986,-0.4393172562122345,0.7713022828102112,-0.5960587859153748,0.6206256151199341,-0.03180341050028801,-0.20695191621780396
1749026128.0589087,0.40612903237342834,-2.132723470727438,1.1020758787738245,3.1289164262958984,3.1918931007385254,-1.2455185095416468,-0.1317930668592453,0.07239945232868195,-0.20690485835075378,0.13711316883563995,-0.351637065410614,-0.09784489870071411,-0.4522402584552765,0.7049680948257446,-0.6098347306251526,0.6245206594467163,-0.05501125752925873,-0.21549692749977112
1749026128.0589552,0.40589675307273865,-2.1325909099974574,1.101661507283346,3.1292034822651367,3.1911613941192627,-1.2457101980792444,-0.1327589452266693,0.06908843666315079,-0.20726393163204193,0.13955435156822205,-0.35313764214515686,-0.0947013646364212,-0.40585365891456604,0.7433704733848572,-0.5968105792999268,0.6125596165657043,-0.05032695084810257,-0.23360301554203033
1749026128.0589938,0.40559467673301697,-2.132463117639059,1.1012499968158167,3.129471464748047,3.1904468536376953,-1.2459009329425257,-0.13237477838993073,0.07156551629304886,-0.2076307237148285,0.13727307319641113,-0.35903477668762207,-0.09626471996307373,-0.4145467281341553,0.7360561490058899,-0.5668812990188599,0.602644681930542,-0.01643027737736702,-0.24129638075828552
1749026128.0590386,0.4053468406200409,-2.1323029003539027,1.1008613745318812,3.129781408900879,3.1897504329681396,-1.2460735479937952,-0.13186199963092804,0.0729341134428978,-0.20822381973266602,0.13553166389465332,-0.35961925983428955,-0.09941260516643524,-0.38901758193969727,0.7286650538444519,-0.5790101289749146,0.615775465965271,0.011911544017493725,-0.2372910976409912
1749026128.0590765,0.40511763095855713,-2.132186552087301,1.10040790239443,3.1300555902668457,3.1890220642089844,-1.24634296098818,-0.13490551710128784,0.07291293144226074,-0.2096104621887207,0.1348104625940323,-0.36069053411483765,-0.10270047187805176,-0.44715896248817444,0.7016942501068115,-0.6293694972991943,0.6461384296417236,-0.008341506123542786,-0.2163780927658081
1749026128.0591195,0.40483006834983826,-2.132007738152975,1.099969212208883,3.1303116518208007,3.188295602798462,-1.2465227285968226,-0.1334659457206726,0.07363683730363846,-0.21165692806243896,0.13483327627182007,-0.3593190610408783,-0.10044390708208084,-0.4569638669490814,0.7088335752487183,-0.6140874028205872,0.6339901089668274,-0.0403217077255249,-0.21668963134288788
1749026128.0591583,0.40454021096229553,-2.131886144677633,1.0995295683490198,3.130586786861084,3.1875715255737305,-1.2467215696917933,-0.13592000305652618,0.07314601540565491,-0.21332025527954102,0.13292643427848816,-0.36373403668403625,-0.10121195018291473,-0.41464322805404663,0.7134809494018555,-0.597000002861023,0.6679505705833435,-0.008015669882297516,-0.22891417145729065
1749026128.0591967,0.4042907655239105,-2.131725927392477,1.0990942160235804,3.1308695512958984,3.1868317127227783,-1.2469137350665491,-0.1353999376296997,0.07365133613348007,-0.21320369839668274,0.13456039130687714,-0.36664921045303345,-0.10350549966096878,-0.4070407748222351,0.7170158624649048,-0.5728069543838501,0.6557809114456177,0.018172919750213623,-0.21547193825244904
1749026128.0597436,0.40401169657707214,-2.1316057644286097,1.0986517111407679,3.1311327654072265,3.186084032058716,-1.247129265462057,-0.13630543649196625,0.07304219156503677,-0.21444827318191528,0.13427551090717316,-0.3638838827610016,-0.1036684662103653,-0.3992840647697449,0.7350804805755615,-0.5851081609725952,0.6542383432388306,0.03392191231250763,-0.2258325219154358
1749026128.0617247,0.4037451148033142,-2.131425519982809,1.0982635656939905,3.1313716608234863,3.18538236618042,-1.247336212788717,-0.13707542419433594,0.07326310873031616,-0.21536900103092194,0.13600870966911316,-0.3613711893558502,-0.10308438539505005,-0.4194907248020172,0.7296767830848694,-0.5958884954452515,0.7058741450309753,0.028318695724010468,-0.20987233519554138
1749026128.1023197,0.4034189283847809,-2.131286760369772,1.0978053251849573,3.1316777902790527,3.184589385986328,-1.2475274244891565,-0.13674311339855194,0.07230107486248016,-0.21665853261947632,0.13968701660633087,-0.36154213547706604,-0.10327564924955368,-0.39705604314804077,0.7669036388397217,-0.5809309482574463,0.6627597808837891,-0.028044074773788452,-0.20905062556266785
1749026128.1023655,0.40322795510292053,-2.1311451397337855,1.0973618666278284,3.1319491106220703,3.1838698387145996,-1.247758690510885,-0.13683177530765533,0.07142137736082077,-0.21813145279884338,0.13891839981079102,-0.36395829916000366,-0.10349471867084503,-0.3800443410873413,0.7706268429756165,-0.5757815837860107,0.6789312958717346,-0.026771701872348785,-0.2113686203956604
1749026128.102406,0.4029097557067871,-2.1309977970519007,1.0969575087176722,3.132232828731201,3.183077812194824,-1.247977081929342,-0.13996341824531555,0.07528477162122726,-0.2183714061975479,0.14398209750652313,-0.36570197343826294,-0.10226978361606598,-0.41989895701408386,0.7357054948806763,-0.5861018300056458,0.6796169877052307,0.007492877542972565,-0.23818111419677734
1749026128.102446,0.40266838669776917,-2.130888124505514,1.096511189137594,3.1325155931660156,3.182338237762451,-1.2481372992144983,-0.13706833124160767,0.07021834701299667,-0.21819785237312317,0.14720302820205688,-0.36474332213401794,-0.10137833654880524,-0.4095601737499237,0.8080894351005554,-0.5943232178688049,0.6461645364761353,-0.007630296051502228,-0.2442474365234375
1749026128.102484,0.40236708521842957,-2.1307245693602503,1.0960915724383753,3.1328188615986328,3.1816515922546387,-1.2483680883990687,-0.1399720013141632,0.07198736816644669,-0.2196827083826065,0.1471603959798813,-0.3656134605407715,-0.10356206446886063,-0.39399003982543945,0.8080558180809021,-0.5993034839630127,0.6632100939750671,-0.007811099290847778,-0.27381500601768494
1749026128.1025224,0.40211865305900574,-2.130568643609518,1.0956366697894495,3.1331369119831542,3.1808664798736572,-1.2485955397235315,-0.14080974459648132,0.0762559026479721,-0.2201855182647705,0.14551375806331635,-0.36915817856788635,-0.10403107851743698,-0.3882821798324585,0.7532047033309937,-0.6199962496757507,0.625397801399231,0.007145716808736324,-0.23414623737335205
1749026128.1025608,0.40187034010887146,-2.130428453485006,1.0951855818377894,3.1334168153950195,3.1800756454467773,-1.2487557570086878,-0.14101217687129974,0.07323573529720306,-0.22067664563655853,0.14496535062789917,-0.3697279989719391,-0.10223744064569473,-0.39903178811073303,0.7922621369361877,-0.6220115423202515,0.6609892249107361,-0.023734301328659058,-0.2530904710292816
1749026128.1025984,0.40155550837516785,-2.13026823619985,1.0947273413287562,3.133727713222168,3.1793391704559326,-1.2489822546588343,-0.14186051487922668,0.07534501701593399,-0.2222762107849121,0.14341561496257782,-0.3729444444179535,-0.10290329158306122,-0.4332737326622009,0.7600906491279602,-0.6110911965370178,0.6778013706207275,0.017420783638954163,-0.25225844979286194
1749026128.1026366,0.4012671709060669,-2.13012756923818,1.0943258444415491,3.134002371425293,3.1786234378814697,-1.2491892019854944,-0.14097166061401367,0.07680802047252655,-0.22374550998210907,0.1433958113193512,-0.37236106395721436,-0.10511121898889542,-0.4323652982711792,0.7595062255859375,-0.5984512567520142,0.68560791015625,-0.007956292480230331,-0.2598038613796234
1749026128.102674,0.40099582076072693,-2.129955907861227,1.0938518683062952,3.134293242091797,3.177858591079712,-1.249427620564596,-0.1446370929479599,0.07830934226512909,-0.22256354987621307,0.14248934388160706,-0.3701934516429901,-0.10931114852428436,-0.354438841342926,0.7552234530448914,-0.5973396301269531,0.6826925277709961,-0.02972237765789032,-0.24639931321144104
1749026128.102712,0.4007048010826111,-2.1298119030394496,1.0933416525470179,3.13459221898999,3.177131414413452,-1.2496078650103968,-0.14068548381328583,0.07797570526599884,-0.2256156951189041,0.14343783259391785,-0.37030214071273804,-0.10697385668754578,-0.4326670169830322,0.7427010536193848,-0.6179391145706177,0.70513916015625,-0.048580266535282135,-0.2544211149215698
