nimar13/UR3e_dataset_trayectorias/trayectorias_ejecutadas/jtraj/trayectoria_068_result.csv
timestamp,q1,q2,q3,q4,q5,q6,qd1,qd2,qd3,qd4,qd5,qd6,tau1,tau2,tau3,tau4,tau5,tau6
1749027056.2903721,0.09313174337148666,-1.8151260815062464,2.215277973805563,-3.678788801232809,4.478887557983398,5.3073039054870605,0.00019252640777267516,-0.0010048233671113849,0.00017121860582847148,0.0017214376712217927,-0.0006600813940167427,-0.0023647735361009836,0.26722395420074463,-0.7500553727149963,-0.8389907479286194,-0.3838925063610077,0.05185452848672867,-0.00985535979270935
1749027056.2904427,0.09314266592264175,-1.8151260815062464,2.2152980009662073,-3.6787854633727015,4.47886848449707,5.307272911071777,0.00017972684872802347,-0.0008795962203294039,0.0002059107064269483,0.001283705816604197,-0.0006158520700410008,-0.0016298284754157066,0.2865462601184845,-0.7663794755935669,-0.822456955909729,-0.3660964369773865,0.05586888641119003,-0.0198795348405838
1749027056.2905085,0.09314266592264175,-1.8151260815062464,2.2152980009662073,-3.6787854633727015,4.47886848449707,5.307272911071777,0.00017972684872802347,-0.0008795962203294039,0.0002059107064269483,0.001283705816604197,-0.0006158520700410008,-0.0016298284754157066,0.2865462601184845,-0.7663794755935669,-0.822456955909729,-0.3660964369773865,0.05586888641119003,-0.0198795348405838
1749027056.2905736,0.09314265102148056,-1.815110822717184,2.2152980009662073,-3.67879643062734,4.478875637054443,5.307272911071777,0.0002000002859858796,-0.0008242059266194701,0.00022905728837940842,0.001193846808746457,-0.0005889785825274885,-0.0015375781804323196,0.29375118017196655,-0.7779410481452942,-0.8422253131866455,-0.38821491599082947,0.05801115930080414,-0.014414191246032715
1749027056.2906454,0.09317373484373093,-1.8151451549925746,2.2152980009662073,-3.6788040600218714,4.478887557983398,5.307272911071777,0.0001965665287571028,-0.0008280627080239356,0.000237356944126077,0.0010257588000968099,-0.0005435307393781841,-0.0013898269971832633,0.2799471318721771,-0.7686454653739929,-0.8370213508605957,-0.3737061321735382,0.049723416566848755,-0.018952935934066772
1749027056.290717,0.09308838844299316,-1.8151418171324671,2.2153099218951624,-3.6788112125792445,4.478856563568115,5.307242393493652,0.00019064547086600214,-0.0009312312467955053,0.0006497130380012095,0.0008852613973431289,-0.0005011609173379838,-0.0012619628105312586,0.27003324031829834,-0.7712522149085999,-0.8312337398529053,-0.40101319551467896,0.051645323634147644,-0.02147112786769867
1749027056.290788,0.09313998371362686,-1.8151074848570765,2.2152941862689417,-3.6787997684874476,4.47886848449707,5.307250499725342,0.00017976542585529387,-0.001224838080815971,0.0006743904086761177,0.0007806731737218797,-0.0004324123729020357,-0.0011364389210939407,0.2881641387939453,-0.7635499835014343,-0.8359876871109009,-0.3941630423069,0.045889124274253845,-0.012800946831703186
1749027056.2908576,0.09313998371362686,-1.8151074848570765,2.2152941862689417,-3.6787997684874476,4.47886848449707,5.307250499725342,0.00017976542585529387,-0.001224838080815971,0.0006743904086761177,0.0007806731737218797,-0.0004324123729020357,-0.0011364389210939407,0.2881641387939453,-0.7635499835014343,-0.8359876871109009,-0.3941630423069,0.045889124274253845,-0.012800946831703186
1749027056.2909281,0.09316643327474594,-1.815103670159811,2.215306107197897,-3.6787573299803675,4.478887557983398,5.3072919845581055,0.00017477829533163458,-0.001169488881714642,0.0006147415842860937,0.000709563260897994,-0.00040460037416778505,-0.001064024050720036,0.25543779134750366,-0.762141764163971,-0.8270260691642761,-0.38457146286964417,0.06192775070667267,-0.013134196400642395
1749027056.2909932,0.09308114647865295,-1.8151575527586878,2.215306107197897,-3.6787454090514125,4.478872299194336,5.307257652282715,0.0001655906962696463,-0.0010448870016261935,0.0006642219377681613,0.000593450793530792,-0.00035849199048243463,-0.0007854084833525121,0.26932090520858765,-0.7756724953651428,-0.8353761434555054,-0.3899201452732086,0.07677653431892395,-0.021485716104507446
1749027056.2910533,0.09308114647865295,-1.8151575527586878,2.215306107197897,-3.6787454090514125,4.478872299194336,5.307257652282715,0.0001655906962696463,-0.0010448870016261935,0.0006642219377681613,0.000593450793530792,-0.00035849199048243463,-0.0007854084833525121,0.26932090520858765,-0.7756724953651428,-0.8353761434555054,-0.3899201452732086,0.07677653431892395,-0.021485716104507446
1749027056.2911265,0.09318225085735321,-1.8151384792723597,2.2153218428241175,-3.6788112125792445,4.478829383850098,5.307276725769043,0.00017976085655391216,-0.001006849342957139,0.000730783911421895,0.0005093289073556662,-0.00032182681025005877,-0.0007760882726870477,0.2745697498321533,-0.7820003032684326,-0.8241174221038818,-0.3847869336605072,0.07135559618473053,-0.00014491379261016846
1749027056.291198,0.09318225085735321,-1.8151384792723597,2.2153218428241175,-3.6788112125792445,4.478829383850098,5.307276725769043,0.00017976085655391216,-0.001006849342957139,0.000730783911421895,0.0005093289073556662,-0.00032182681025005877,-0.0007760882726870477,0.2745697498321533,-0.7820003032684326,-0.8241174221038818,-0.3847869336605072,0.07135559618473053,-0.00014491379261016846
1749027056.2912626,0.09313535690307617,-1.8151313267149867,2.215302292500631,-3.67881502727651,4.478870868682861,5.307249069213867,0.00017541411216370761,-0.001212252420373261,0.0007498144987039268,0.00047562559484504163,-0.0003061720635741949,-0.0008242975454777479,0.27491286396980286,-0.7591538429260254,-0.8236899375915527,-0.39253905415534973,0.07734739780426025,-0.003612905740737915
1749027056.2913067,0.09314366430044174,-1.8151470623412074,2.215318028126852,-3.6787802181639613,4.478887557983398,5.307276725769043,0.0001672544894972816,-0.0023510062601417303,0.0008536506211385131,0.0004200467374175787,-0.0002790304715745151,-0.0008984230807982385,0.2781185209751129,-0.7689543962478638,-0.8274141550064087,-0.4039323031902313,0.08031906187534332,-0.00568881630897522
1749027056.291346,0.09314366430044174,-1.8151470623412074,2.215318028126852,-3.6787802181639613,4.478887557983398,5.307276725769043,0.0001672544894972816,-0.0023510062601417303,0.0008536506211385131,0.0004200467374175787,-0.0002790304715745151,-0.0008984230807982385,0.2781185209751129,-0.7689543962478638,-0.8274141550064087,-0.4039323031902313,0.08031906187534332,-0.00568881630897522
1749027056.2913833,0.09317010641098022,-1.8151504002013148,2.2153409163104456,-3.6787644825377406,4.478875637054443,5.307254314422607,0.00016346677148249,-0.002249391283839941,0.0008673547417856753,0.0003968680102843791,-0.00026718812296167016,-0.0008957002428360283,0.24163010716438293,-0.7510585784912109,-0.8346467614173889,-0.39931920170783997,0.0805530995130539,0.0049489885568618774
1749027056.291421,0.09317010641098022,-1.8151656589903773,2.215302292500631,-3.67879643062734,4.478872299194336,5.307257652282715,0.00015983798948582262,-0.0017352827126160264,0.0008472058107145131,0.00037610839353874326,-0.0002563116722740233,-0.0008136702817864716,0.2708544433116913,-0.739542543888092,-0.8280672430992126,-0.391023725271225,0.07266926765441895,-0.005804657936096191
1749027056.2914584,0.09315921366214752,-1.8151618442931117,2.21533710161318,-3.6787730656065882,4.478938102722168,5.307249069213867,0.0001563579571666196,-0.0014239824377000332,0.000824571296107024,0.00035742446198128164,-0.0002462859556544572,-0.0007338829454965889,0.2772867679595947,-0.7470915913581848,-0.8344486951828003,-0.39245596528053284,0.07315945625305176,-0.010976821184158325
1749027056.2914963,0.09320148080587387,-1.8151585064330042,2.21533710161318,-3.6787730656065882,4.478837490081787,5.3072028160095215,0.00012281218369025737,-0.001122546847909689,0.0007501570507884026,0.000325115310261026,-0.00022841827012598515,-0.0006098200683481991,0.3031150698661804,-0.767737865447998,-0.8289498090744019,-0.3955920338630676,0.08481211960315704,-0.007486060261726379
1749027056.2917337,0.09320148080587387,-1.8151585064330042,2.21533710161318,-3.6787730656065882,4.478837490081787,5.3072028160095215,0.00012281218369025737,-0.001122546847909689,0.0007501570507884026,0.000325115310261026,-0.00022841827012598515,-0.0006098200683481991,0.3031150698661804,-0.767737865447998,-0.8289498090744019,-0.3955920338630676,0.08481211960315704,-0.007486060261726379
1749027056.2937403,0.09315818548202515,-1.8151470623412074,2.215349022542135,-3.6787644825377406,4.478887557983398,5.307264804840088,0.00011951683700317517,-0.0010885873343795538,0.0007214625948108733,0.00031106313690543175,-0.0002204229385824874,-0.0005634377594105899,0.2745535373687744,-0.7578883171081543,-0.8269983530044556,-0.39400333166122437,0.08319328725337982,-0.005445897579193115
1749027056.33833,0.09313535690307617,-1.8152018986144007,2.21533710161318,-3.6788112125792445,4.478859901428223,5.307242393493652,0.0001134955309680663,-0.00082528090570122,0.0006862801383249462,0.00028630680753849447,-0.0002060026308754459,-0.0004558629880193621,0.270925372838974,-0.7308696508407593,-0.8277606964111328,-0.39268916845321655,0.0892021507024765,0.0024905800819396973
1749027056.3383775,0.09313535690307617,-1.8152018986144007,2.21533710161318,-3.6788112125792445,4.478859901428223,5.307242393493652,0.0001134955309680663,-0.00082528090570122,0.0006862801383249462,0.00028630680753849447,-0.0002060026308754459,-0.0004558629880193621,0.270925372838974,-0.7308696508407593,-0.8277606964111328,-0.39268916845321655,0.0892021507024765,0.0024905800819396973
1749027056.3384185,0.09309675544500351,-1.8151709041991175,2.215306107197897,-3.6788112125792445,4.478861331939697,5.30726957321167,0.00010804559133248404,-0.0006322364788502455,0.0006427533808164299,0.00026520746177993715,-0.0001933535240823403,-0.0003790270711760968,0.28681010007858276,-0.7480263710021973,-0.8185351490974426,-0.3999854624271393,0.11019310355186462,0.006338045001029968
1749027056.3384573,0.09309675544500351,-1.8151709041991175,2.215306107197897,-3.6788112125792445,4.478861331939697,5.30726957321167,0.00010804559133248404,-0.0006322364788502455,0.0006427533808164299,0.00026520746177993715,-0.0001933535240823403,-0.0003790270711760968,0.28681010007858276,-0.7480263710021973,-0.8185351490974426,-0.3999854624271393,0.11019310355186462,0.006338045001029968
1749027056.338495,0.0931701585650444,-1.8151551685728968,2.2153337637530726,-3.6787764034666957,4.478859901428223,5.307237148284912,0.00010551209561526775,-0.0005659409216605127,0.0006074143457226455,0.00025577907217666507,-0.00018759431259240955,-0.0003495156124699861,0.2744131088256836,-0.730812668800354,-0.816541314125061,-0.4150802195072174,0.09860600531101227,-0.012060075998306274
1749027056.3385322,0.09314366430044174,-1.8151437244811,2.2153456846820276,-3.6787802181639613,4.478887557983398,5.307264804840088,0.00010078586637973785,-0.0004678389523178339,0.0006251016748137772,0.000238807886489667,-0.0001773292460711673,-0.0003024389734491706,0.23864370584487915,-0.7032952308654785,-0.8035572171211243,-0.39237889647483826,0.10624013841152191,0.013376832008361816
1749027056.3385694,0.09314366430044174,-1.8151437244811,2.2153456846820276,-3.6787802181639613,4.478887557983398,5.307264804840088,0.00010078586637973785,-0.0004678389523178339,0.0006251016748137772,0.000238807886489667,-0.0001773292460711673,-0.0003024389734491706,0.23864370584487915,-0.7032952308654785,-0.8035572171211243,-0.39237889647483826,0.10624013841152191,0.013376832008361816
1749027056.3386073,0.09316281974315643,-1.8151618442931117,2.2153142134295862,-3.67879643062734,4.478884220123291,5.307260990142822,9.857805707724765e-05,-0.000381777819711715,0.0007300015422515571,0.00023113646602723747,-7.865350198699161e-05,-0.0002833636535797268,0.21875715255737305,-0.6781821846961975,-0.8039078116416931,-0.3965682089328766,0.12758702039718628,0.006157904863357544
1749027056.3386455,0.09313638508319855,-1.8151437244811,2.2153614203082483,-3.6788040600218714,4.478890895843506,5.307223320007324,9.444043098483235e-05,-0.0002495668886695057,0.0015160078182816505,0.00021718985226470977,-5.503606371348724e-05,-0.0002516316017135978,0.2052345722913742,-0.6754019260406494,-0.828511118888855,-0.4009663164615631,0.1242535412311554,0.011324912309646606
1749027056.3386858,0.09313638508319855,-1.8151437244811,2.2153614203082483,-3.6788040600218714,4.478890895843506,5.307223320007324,9.444043098483235e-05,-0.0002495668886695057,0.0015160078182816505,0.00021718985226470977,-5.503606371348724e-05,-0.0002516316017135978,0.2052345722913742,-0.6754019260406494,-0.828511118888855,-0.4009663164615631,0.1242535412311554,0.011324912309646606
1749027056.338724,0.09314365684986115,-1.8151437244811,2.215358082448141,-3.6788112125792445,4.4788994789123535,5.307238578796387,9.063142351806164e-05,-0.00021760906383860856,0.0017690177774056792,0.0002048285532509908,-5.1307644753251225e-05,-0.00022629699378740042,0.22041553258895874,-0.6643949747085571,-0.8040382862091064,-0.4130997955799103,0.11229264736175537,-0.01132945716381073
1749027056.3387616,0.09314365684986115,-1.8151437244811,2.215358082448141,-3.6788112125792445,4.4788994789123535,5.307238578796387,9.063142351806164e-05,-0.00021760906383860856,0.0017690177774056792,0.0002048285532509908,-5.1307644753251225e-05,-0.00022629699378740042,0.22041553258895874,-0.6643949747085571,-0.8040382862091064,-0.4130997955799103,0.11229264736175537,-0.01132945716381073
1749027056.3387985,0.09313638508319855,-1.8151399097838343,2.215369526539938,-3.67879643062734,4.478865146636963,5.307195663452148,8.884678391041234e-05,-0.00020520365796983242,0.001594182918779552,0.0001991613971767947,-4.986978819943033e-05,-0.00021545279014389962,0.22870324552059174,-0.6376814246177673,-0.8160359859466553,-0.39274919033050537,0.12145926058292389,-0.00814974308013916
1749027056.3388357,0.0930967628955841,-1.815181394616598,2.215341869984762,-3.6787997684874476,4.478902816772461,5.307252883911133,8.546745084458962e-05,-0.00013862462947145104,0.0009723593248054385,0.00018871879728976637,-4.724789323518053e-05,-0.00025359116261824965,0.2378695011138916,-0.6548449397087097,-0.8374149799346924,-0.38443025946617126,0.115626260638237,-0.026363223791122437
1749027056.338876,0.0930967628955841,-1.815181394616598,2.215341869984762,-3.6787997684874476,4.478902816772461,5.307252883911133,8.546745084458962e-05,-0.00013862462947145104,0.0009723593248054385,0.00018871879728976637,-4.724789323518053e-05,-0.00025359116261824965,0.2378695011138916,-0.6548449397087097,-0.8374149799346924,-0.38443025946617126,0.115626260638237,-0.026363223791122437
1749027056.3389132,0.09314366430044174,-1.8151437244811,2.215358082448141,-3.6787802181639613,4.47886848449707,5.307252883911133,8.234367851400748e-05,-0.0001257484982488677,0.0008068301831372082,0.0001361007452942431,-4.489064303925261e-05,-0.000368909677490592,0.26662397384643555,-0.6286939382553101,-0.8290460705757141,-0.3710930645465851,0.10885131359100342,-0.05304829776287079
1749027056.3389504,0.09314366430044174,-1.8151437244811,2.215358082448141,-3.6787802181639613,4.47886848449707,5.307252883911133,8.234367851400748e-05,-0.0001257484982488677,0.0008068301831372082,0.0001361007452942431,-4.489064303925261e-05,-0.000368909677490592,0.26662397384643555,-0.6286939382553101,-0.8290460705757141,-0.3710930645465851,0.10885131359100342,-0.05304829776287079
1749027056.3389874,0.09314366430044174,-1.8151437244811,2.215358082448141,-3.6787802181639613,4.47886848449707,5.307252883911133,8.234367851400748e-05,-0.0001257484982488677,0.0008068301831372082,0.0001361007452942431,-4.489064303925261e-05,-0.000368909677490592,0.26662397384643555,-0.6286939382553101,-0.8290460705757141,-0.3710930645465851,0.10885131359100342,-0.05304829776287079
1749027056.3390255,0.0931231826543808,-1.815174242059225,2.215376679097311,-3.6787644825377406,4.478859901428223,5.307229042053223,0.00010619071690598503,0.0001419975742464885,0.0006239718059077859,0.0001478754566051066,-4.275759056326933e-05,-0.005052644293755293,0.31188106536865234,-0.646398663520813,-0.8486545085906982,-0.38002774119377136,0.08262281119823456,-0.0315578430891037
1749027056.339063,0.09317505359649658,-1.8151399097838343,2.215369526539938,-3.678761144677633,4.478917121887207,5.30722188949585,0.00012448642519302666,0.00013630285684484988,0.0005592908128164709,0.00016891011910047382,-4.176532820565626e-05,-0.005129832308739424,0.3311673402786255,-0.6318963766098022,-0.848497748374939,-0.36027583479881287,0.07688482105731964,-0.032383620738983154
1749027056.3390996,0.09315919876098633,-1.8151399097838343,2.2153618971454065,-3.6787644825377406,4.478890895843506,5.307206630706787,0.0002871788165066391,0.00012976578727830201,0.0005067336023785174,0.0008428883156739175,-5.556834366871044e-05,-0.005250312853604555,0.3484533429145813,-0.6362156867980957,-0.8708025217056274,-0.3684307038784027,0.053352050483226776,-0.07183395326137543
1749027056.3391368,0.09320241212844849,-1.8151585064330042,2.2153542677508753,-3.678756376306051,4.478851795196533,5.3071980476379395,0.0052688694559037685,0.00015780690591782331,0.0004265840689186007,0.001493191928602755,-7.250795169966295e-05,-0.007959731854498386,0.3547566831111908,-0.6398382782936096,-0.8745970726013184,-0.3306402266025543,0.018380478024482727,-0.06261982023715973
1749027056.3397083,0.09320241212844849,-1.8151585064330042,2.2153542677508753,-3.678756376306051,4.478851795196533,5.3071980476379395,0.0052688694559037685,0.00015780690591782331,0.0004265840689186007,0.001493191928602755,-7.250795169966295e-05,-0.007959731854498386,0.3547566831111908,-0.6398382782936096,-0.8745970726013184,-0.3306402266025543,0.018380478024482727,-0.06261982023715973
1749027056.3417044,0.09320243448019028,-1.815127512017721,2.2153504530536097,-3.6787525616087855,4.4789018630981445,5.307170867919922,0.0057680425234138966,0.0001451209100196138,0.0003683282993733883,0.0019073882140219212,-0.00020900156232528389,-0.010015669278800488,0.312791645526886,-0.613781213760376,-0.8900973200798035,-0.33919116854667664,0.0005645938217639923,-0.06484207510948181
1749027056.3822815,0.09320243448019028,-1.815127512017721,2.2153504530536097,-3.6787525616087855,4.4789018630981445,5.307170867919922,0.0057680425234138966,0.0001451209100196138,0.0003683282993733883,0.0019073882140219212,-0.00020900156232528389,-0.010015669278800488,0.312791645526886,-0.613781213760376,-0.8900973200798035,-0.33919116854667664,0.0005645938217639923,-0.06484207510948181
1749027056.3823276,0.09321437031030655,-1.8151504002013148,2.2153380552874964,-3.678756376306051,4.478851795196533,5.307165622711182,0.006135422270745039,0.00013949716230854392,0.00034480993053875864,0.002052547410130501,-0.0019689828623086214,-0.010825091041624546,0.3354395925998688,-0.6334318518638611,-0.8967584371566772,-0.3406819999217987,0.012810908257961273,-0.07004140317440033
1749027056.3823678,0.09325774013996124,-1.8151437244811,2.215334717427389,-3.6787601910033167,4.478848457336426,5.307155132293701,0.008915605023503304,0.0001342933828709647,0.0002978032862301916,0.002354841912165284,-0.003769185859709978,-0.01153002679347992,0.3840130567550659,-0.6322300434112549,-0.908004641532898,-0.3345389664173126,-0.016847871243953705,-0.073653444647789
1749027056.3824067,0.09319156408309937,-1.8151241741576136,2.2153542677508753,-3.678744455377096,4.478867053985596,5.3071417808532715,0.011343497782945633,0.00012946374772582203,0.0002565873437561095,0.002544734161347151,-0.005219124257564545,-0.013479256071150303,0.38053423166275024,-0.6273151636123657,-0.920789361000061,-0.3194059431552887,-0.008942175656557083,-0.10865786671638489
1749027056.3824446,0.09323957562446594,-1.815174242059225,2.215334717427389,-3.6787287197508753,4.47880744934082,5.3070902824401855,0.01615169271826744,0.00012077674182364717,0.00014974955411162227,0.0031916049774736166,-0.007886476814746857,-0.019447321072220802,0.3684840798377991,-0.6120401620864868,-0.9625420570373535,-0.2932582199573517,-0.06780064851045609,-0.09412069618701935
1749027056.3824828,0.09323957562446594,-1.815174242059225,2.215334717427389,-3.6787287197508753,4.47880744934082,5.3070902824401855,0.01615169271826744,0.00012077674182364717,0.00014974955411162227,0.0031916049774736166,-0.007886476814746857,-0.019447321072220802,0.3684840798377991,-0.6120401620864868,-0.9625420570373535,-0.2932582199573517,-0.06780064851045609,-0.09412069618701935
1749027056.3825254,0.09323225170373917,-1.8151585064330042,2.2153261343585413,-3.6787363491454066,4.478819847106934,5.3070783615112305,0.018488673493266106,0.00014514074428007007,-6.857609696453437e-05,0.0049349162727594376,-0.010772839188575745,-0.020868726074695587,0.3876790404319763,-0.6150607466697693,-0.9867924451828003,-0.2894235849380493,-0.05521240085363388,-0.09367585182189941
1749027056.3825636,0.09334728121757507,-1.815134664575094,2.2153542677508753,-3.6786962948241175,4.4786906242370605,5.307018756866455,0.022137630730867386,0.0002665467618498951,-0.0020576275419443846,0.00888842809945345,-0.015888875350356102,-0.021365366876125336,0.3423769474029541,-0.6206885576248169,-1.0049599409103394,-0.2763170599937439,-0.09123851358890533,-0.09211170673370361
1749027056.382601,0.09334728121757507,-1.815134664575094,2.2153542677508753,-3.6786962948241175,4.4786906242370605,5.307018756866455,0.022137630730867386,0.0002665467618498951,-0.0020576275419443846,0.00888842809945345,-0.015888875350356102,-0.021365366876125336,0.3423769474029541,-0.6206885576248169,-1.0049599409103394,-0.2763170599937439,-0.09123851358890533,-0.09211170673370361
1749027056.3826385,0.09342170506715775,-1.8151780567564906,2.215322796498434,-3.6786686382689417,4.478728771209717,5.306979656219482,0.022792764008045197,0.00030080019496381283,-0.002375019947066903,0.00999614130705595,-0.01622641272842884,-0.02007610909640789,0.3087671101093292,-0.6142261624336243,-1.0318681001663208,-0.27618327736854553,-0.07040637731552124,-0.11508068442344666
1749027056.382675,0.09352211654186249,-1.8151122532286585,2.215341869984762,-3.678624769250387,4.478656768798828,5.306915760040283,0.021635834127664566,0.00033022716525010765,-0.0020196980331093073,0.012216022238135338,-0.018462054431438446,-0.020463531836867332,0.34842661023139954,-0.6137738227844238,-1.069867491722107,-0.2660404145717621,-0.07222558557987213,-0.12446728348731995
1749027056.382711,0.09352211654186249,-1.8151122532286585,2.215341869984762,-3.678624769250387,4.478656768798828,5.306915760040283,0.021635834127664566,0.00033022716525010765,-0.0020196980331093073,0.012216022238135338,-0.018462054431438446,-0.020463531836867332,0.34842661023139954,-0.6137738227844238,-1.069867491722107,-0.2660404145717621,-0.07222558557987213,-0.12446728348731995
1749027056.3827472,0.09355912357568741,-1.8151656589903773,2.2153456846820276,-3.678560873071188,4.478569507598877,5.30687141418457,0.02134532667696476,0.00030014620278961957,-0.003217193763703108,0.013782848604023457,-0.01535738818347454,-0.022516906261444092,0.3054797649383545,-0.622902512550354,-1.0904606580734253,-0.26840323209762573,-0.09049029648303986,-0.13663329184055328
1749027056.382784,0.09355912357568741,-1.8151656589903773,2.2153456846820276,-3.678560873071188,4.478569507598877,5.30687141418457,0.02134532667696476,0.00030014620278961957,-0.003217193763703108,0.013782848604023457,-0.01535738818347454,-0.022516906261444092,0.3054797649383545,-0.622902512550354,-1.0904606580734253,-0.26840323209762573,-0.09049029648303986,-0.13663329184055328
1749027056.3828206,0.09366106986999512,-1.8151437244811,2.215295139943258,-3.6785336933531703,4.47855806350708,5.3068084716796875,0.020984739065170288,0.0003232841263525188,-0.004143953323364258,0.013838440179824829,-0.014754741452634335,-0.022823834791779518,0.34817683696746826,-0.5886065363883972,-1.104349970817566,-0.26687484979629517,-0.10098887979984283,-0.13714267313480377
1749027056.3828576,0.09369345009326935,-1.8151780567564906,2.215325180684225,-3.678488870660299,4.4785380363464355,5.3067216873168945,0.020156055688858032,0.00030012516072019935,-0.0048200092278420925,0.014780381694436073,-0.013741964474320412,-0.02322329394519329,0.33087652921676636,-0.5832521915435791,-1.1230132579803467,-0.26342642307281494,-0.12184634059667587,-0.1645578145980835
1749027056.382894,0.09369345009326935,-1.8151780567564906,2.215325180684225,-3.678488870660299,4.4785380363464355,5.3067216873168945,0.020156055688858032,0.00030012516072019935,-0.0048200092278420925,0.014780381694436073,-0.013741964474320412,-0.02322329394519329,0.33087652921676636,-0.5832521915435791,-1.1230132579803467,-0.26342642307281494,-0.12184634059667587,-0.1645578145980835
1749027056.3829305,0.09376902133226395,-1.8151241741576136,2.2152870337115687,-3.6784612141051234,4.478532791137695,5.306672096252441,0.02112008072435856,0.0002881153195630759,-0.006643200758844614,0.014660429209470749,-0.014708425849676132,-0.024315031245350838,0.3346046805381775,-0.567125678062439,-1.1387526988983154,-0.2819766402244568,-0.13412684202194214,-0.163277268409729
1749027056.3829665,0.0938011109828949,-1.8151384792723597,2.2152941862689417,-3.6784373722472132,4.478474140167236,5.306637763977051,0.02211650460958481,0.0002779266214929521,-0.007706152740865946,0.013868958689272404,-0.01574036106467247,-0.025673380121588707,0.33503293991088867,-0.5657210946083069,-1.14414644241333,-0.26337313652038574,-0.13805145025253296,-0.16321031749248505
1749027056.383003,0.09386851638555527,-1.815115591088766,2.2152469793902796,-3.6783820591368617,4.478453636169434,5.306581497192383,0.021966535598039627,0.000388411310268566,-0.008166128769516945,0.012934848666191101,-0.016462618485093117,-0.02677019126713276,0.324175626039505,-0.5784231424331665,-1.146331787109375,-0.2802688479423523,-0.1438128650188446,-0.16398784518241882
1749027056.3837156,0.09389464557170868,-1.815115591088766,2.215246025715963,-3.6783534489073695,4.478382587432861,5.306458473205566,0.02246852032840252,0.00039802948595024645,-0.010269186459481716,0.01178724505007267,-0.01840672641992569,-0.02934177778661251,0.33838459849357605,-0.5780558586120605,-1.169694423675537,-0.2631181478500366,-0.14541560411453247,-0.17235597968101501
1749027056.3856966,0.09389464557170868,-1.815115591088766,2.215246025715963,-3.6783534489073695,4.478382587432861,5.306458473205566,0.02246852032840252,0.00039802948595024645,-0.010269186459481716,0.01178724505007267,-0.01840672641992569,-0.02934177778661251,0.33838459849357605,-0.5780558586120605,-1.169694423675537,-0.2631181478500366,-0.14541560411453247,-0.17235597968101501
1749027056.42633,0.09398818761110306,-1.8151194057860316,2.2152302900897425,-3.6783296070494593,4.478358268737793,5.306393623352051,0.02274313010275364,0.00043116038432344794,-0.010519856587052345,0.01253635622560978,-0.01927122473716736,-0.031155964359641075,0.36381301283836365,-0.5601556897163391,-1.1703276634216309,-0.24673181772232056,-0.16505059599876404,-0.1683533936738968
1749027056.4263809,0.09406095743179321,-1.8151194057860316,2.215217415486471,-3.678293367425436,4.478282928466797,5.306263446807861,0.02479187399148941,0.0004350355011411011,-0.012351649813354015,0.012411762960255146,-0.023769935593008995,-0.03362904116511345,0.35724958777427673,-0.5790303945541382,-1.1678801774978638,-0.24370193481445312,-0.1521102339029312,-0.18423041701316833
1749027056.426422,0.09406095743179321,-1.8151194057860316,2.215217415486471,-3.678293367425436,4.478282928466797,5.306263446807861,0.02479187399148941,0.0004350355011411011,-0.012351649813354015,0.012411762960255146,-0.023769935593008995,-0.03362904116511345,0.35724958777427673,-0.5790303945541382,-1.1678801774978638,-0.24370193481445312,-0.1521102339029312,-0.18423041701316833
1749027056.4264612,0.09408970177173615,-1.8151542148985804,2.2151740233050745,-3.6782695255675257,4.478177070617676,5.306191921234131,0.02525079809129238,0.0005640455055981874,-0.01233919057995081,0.013318972662091255,-0.025657862424850464,-0.035174354910850525,0.35886064171791077,-0.5632381439208984,-1.1734936237335205,-0.23242121934890747,-0.17086736857891083,-0.1836346685886383
1749027056.4264998,0.09418460726737976,-1.8151380024352015,2.215158287678854,-3.678260942498678,4.478144645690918,5.3061203956604,0.026433538645505905,0.0006621116772294044,-0.012624295428395271,0.0141676040366292,-0.02829158864915371,-0.036732226610183716,0.3510487675666809,-0.5922663807868958,-1.1909270286560059,-0.22657305002212524,-0.166341632604599,-0.18762369453907013
1749027056.4265392,0.09422425925731659,-1.815115591088766,2.2150915304767054,-3.678237100640768,4.478119373321533,5.306033134460449,0.028358547016978264,0.0007661166600883007,-0.013295593671500683,0.015317405574023724,-0.028595641255378723,-0.03963066264986992,0.35943642258644104,-0.5491001009941101,-1.1709734201431274,-0.2319508045911789,-0.15456292033195496,-0.18665604293346405
1749027056.426577,0.09432927519083023,-1.8151380024352015,2.2150543371783655,-3.6781770191588343,4.477993965148926,5.3058881759643555,0.02933536097407341,0.0016685910522937775,-0.014255237765610218,0.015624301508069038,-0.03082111105322838,-0.04466825723648071,0.35960909724235535,-0.5577219128608704,-1.1895720958709717,-0.21070685982704163,-0.1846792846918106,-0.17284291982650757
1749027056.4266148,0.09432927519083023,-1.8151380024352015,2.2150543371783655,-3.6781770191588343,4.477993965148926,5.3058881759643555,0.02933536097407341,0.0016685910522937775,-0.014255237765610218,0.015624301508069038,-0.03082111105322838,-0.04466825723648071,0.35960909724235535,-0.5577219128608704,-1.1895720958709717,-0.21070685982704163,-0.1846792846918106,-0.17284291982650757
1749027056.4266527,0.09438423812389374,-1.8150917492308558,2.2150262037860315,-3.678141256371969,4.47793436050415,5.305770397186279,0.029983006417751312,0.0014032355975359678,-0.01483041699975729,0.01641443371772766,-0.03226304426789284,-0.04551482945680618,0.3935546278953552,-0.5718867182731628,-1.1746217012405396,-0.20984402298927307,-0.19025801122188568,-0.17534148693084717
1749027056.4266903,0.09452344477176666,-1.8151380024352015,2.214982334767477,-3.6780692539610804,4.477871894836426,5.305591106414795,0.035195834934711456,0.0009680589428171515,-0.015984272584319115,0.01907534711062908,-0.03486400097608566,-0.04747632518410683,0.38630980253219604,-0.533629834651947,-1.1822874546051025,-0.20620541274547577,-0.20459026098251343,-0.18172121047973633
1749027056.4267278,0.09452344477176666,-1.8151380024352015,2.214982334767477,-3.6780692539610804,4.477871894836426,5.305591106414795,0.035195834934711456,0.0009680589428171515,-0.015984272584319115,0.01907534711062908,-0.03486400097608566,-0.04747632518410683,0.38630980253219604,-0.533629834651947,-1.1822874546051025,-0.20620541274547577,-0.20459026098251343,-0.18172121047973633
1749027056.4267642,0.09456893056631088,-1.8151380024352015,2.214954678212301,-3.6780301533141078,4.4778313636779785,5.305474758148193,0.03665381669998169,0.0009503752808086574,-0.01619882322847843,0.019780205562710762,-0.03733611851930618,-0.04846011474728584,0.39639967679977417,-0.5268937945365906,-1.2044451236724854,-0.2017725259065628,-0.19973652064800262,-0.1891534924507141
1749027056.4268022,0.09465988725423813,-1.8151003322997035,2.2149065176593226,-3.6780010662474574,4.477647304534912,5.305429458618164,0.03744792565703392,0.0009426709730178118,-0.016152577474713326,0.02071041241288185,-0.039065878838300705,-0.05057742819190025,0.3634284436702728,-0.5192484259605408,-1.2013771533966064,-0.19645778834819794,-0.18372368812561035,-0.18198838829994202
1749027056.4268432,0.09475206583738327,-1.8151761494078578,2.214879337941305,-3.6779338322081507,4.477663993835449,5.305288791656494,0.03844849392771721,0.0010664713336154819,-0.01690617762506008,0.02209167182445526,-0.04100432246923447,-0.05231217294931412,0.3912873864173889,-0.5413916110992432,-1.1991645097732544,-0.17434625327587128,-0.19615565240383148,-0.20747524499893188
1749027056.4268816,0.09492329508066177,-1.8151260815062464,2.2148383299456995,-3.6778694591917933,4.477424144744873,5.305084228515625,0.04146668314933777,0.0012369443429633975,-0.017477571964263916,0.024639233946800232,-0.04354707896709442,-0.0558956116437912,0.38356131315231323,-0.5336849093437195,-1.2016921043395996,-0.1921142041683197,-0.20604796707630157,-0.1802920699119568
1749027056.4269218,0.09492329508066177,-1.8151260815062464,2.2148383299456995,-3.6778694591917933,4.477424144744873,5.305084228515625,0.04146668314933777,0.0012369443429633975,-0.017477571964263916,0.024639233946800232,-0.04354707896709442,-0.0558956116437912,0.38356131315231323,-0.5336849093437195,-1.2016921043395996,-0.1921142041683197,-0.20604796707630157,-0.1802920699119568
1749027056.4269602,0.0949990302324295,-1.815122743646139,2.2147954146014612,-3.677798410455221,4.477316379547119,5.304923057556152,0.04229230061173439,0.0018855663947761059,-0.017834004014730453,0.02538204938173294,-0.04388510808348656,-0.05689454823732376,0.39276742935180664,-0.5140531659126282,-1.2210094928741455,-0.17632150650024414,-0.19559775292873383,-0.19776460528373718
1749027056.4269972,0.09521321207284927,-1.8150989017882289,2.2147234121905726,-3.6777097187437953,4.477195739746094,5.304723739624023,0.044932685792446136,0.0019244542345404625,-0.019359078258275986,0.026954608038067818,-0.04557962715625763,-0.05900534242391586,0.40919029712677,-0.5261768102645874,-1.2324692010879517,-0.1682102531194687,-0.18894608318805695,-0.20800986886024475
1749027056.427035,0.09521321207284927,-1.8150989017882289,2.2147234121905726,-3.6777097187437953,4.477195739746094,5.304723739624023,0.044932685792446136,0.0019244542345404625,-0.019359078258275986,0.026954608038067818,-0.04557962715625763,-0.05900534242391586,0.40919029712677,-0.5261768102645874,-1.2324692010879517,-0.1682102531194687,-0.18894608318805695,-0.20800986886024475
1749027056.427072,0.09529728442430496,-1.815117975274557,2.2146876494037073,-3.6776424847044886,4.477061748504639,5.304595470428467,0.046508774161338806,0.001726868562400341,-0.020068341866135597,0.029259979724884033,-0.04525867477059364,-0.058971207588911057,0.362240195274353,-0.5070881843566895,-1.2214213609695435,-0.179531067609787,-0.21015317738056183,-0.2164686620235443
1749027056.4277327,0.09538569301366806,-1.8151074848570765,2.214651409779684,-3.6775828800597132,4.476963043212891,5.304449081420898,0.04700632765889168,0.0015782841946929693,-0.018673798069357872,0.02976171113550663,-0.0454464890062809,-0.060272231698036194,0.39638200402259827,-0.4810216724872589,-1.2321627140045166,-0.1798562854528427,-0.22513264417648315,-0.21133999526500702
1749027056.4297166,0.0954766646027565,-1.8150831661620082,2.214634720479147,-3.6775156460204066,4.476902008056641,5.304379463195801,0.04788359999656677,0.0017121396958827972,-0.02109561115503311,0.03039487451314926,-0.046276915818452835,-0.06269250065088272,0.4020509719848633,-0.5007662773132324,-1.223822832107544,-0.1904028058052063,-0.24201850593090057,-0.21551182866096497
1749027056.4702916,0.09568427503108978,-1.8150869808592738,2.21454364458193,-3.677406450311178,4.476715564727783,5.3041090965271,0.05062895640730858,0.0029531940817832947,-0.021821411326527596,0.03272434324026108,-0.048080768436193466,-0.06311898678541183,0.4033040404319763,-0.5057225823402405,-1.2401098012924194,-0.19956782460212708,-0.2587691843509674,-0.2322765737771988
1749027056.470337,0.09568427503108978,-1.8150869808592738,2.21454364458193,-3.677406450311178,4.476715564727783,5.3041090965271,0.05062895640730858,0.0029531940817832947,-0.021821411326527596,0.03272434324026108,-0.048080768436193466,-0.06311898678541183,0.4033040404319763,-0.5057225823402405,-1.2401098012924194,-0.19956782460212708,-0.2587691843509674,-0.2322765737771988
1749027056.4703777,0.0957992896437645,-1.815071245233053,2.214480225239889,-3.6773463688292445,4.476595878601074,5.303997039794922,0.0511581227183342,0.0028486265800893307,-0.021673213690519333,0.033455636352300644,-0.04863165691494942,-0.06309793889522552,0.3970257341861725,-0.5302541851997375,-1.2548290491104126,-0.19718290865421295,-0.2501201331615448,-0.25077736377716064
1749027056.4704168,0.09599199891090393,-1.8150702915587367,2.2144115606891077,-3.6771909199156703,4.476401329040527,5.303684234619141,0.05404992774128914,0.003680630587041378,-0.0238410122692585,0.03430423513054848,-0.051428474485874176,-0.06768080592155457,0.39630839228630066,-0.5206890106201172,-1.2493404150009155,-0.20850972831249237,-0.2753392159938812,-0.25269415974617004
1749027056.4704545,0.09599199891090393,-1.8150702915587367,2.2144115606891077,-3.6771909199156703,4.476401329040527,5.303684234619141,0.05404992774128914,0.003680630587041378,-0.0238410122692585,0.03430423513054848,-0.051428474485874176,-0.06768080592155457,0.39630839228630066,-0.5206890106201172,-1.2493404150009155,-0.20850972831249237,-0.2753392159938812,-0.25269415974617004
1749027056.4704921,0.09607690572738647,-1.8150268993773402,2.214367214833395,-3.6771379909911097,4.47628927230835,5.303575038909912,0.05540074408054352,0.0036231062840670347,-0.023839322850108147,0.033976998180150986,-0.053065989166498184,-0.07086697965860367,0.4020189344882965,-0.4974064230918884,-1.2570847272872925,-0.20262911915779114,-0.2552090287208557,-0.23048189282417297
1749027056.4705303,0.0961834043264389,-1.8150578937926234,2.2143309752093714,-3.6770740948119105,4.476231575012207,5.3034162521362305,0.05655277520418167,0.0030091912485659122,-0.02322665974497795,0.03471353277564049,-0.054393187165260315,-0.07551433891057968,0.41030585765838623,-0.5330896377563477,-1.2664417028427124,-0.2074398547410965,-0.2602234184741974,-0.23061375319957733
1749027056.4705684,0.09630433470010757,-1.815038343469137,2.214283291493551,-3.6769992313780726,4.476078987121582,5.3032450675964355,0.06020718812942505,0.0026485975831747055,-0.024141736328601837,0.035065069794654846,-0.055154211819171906,-0.07584570348262787,0.3835797607898712,-0.49408698081970215,-1.2555367946624756,-0.18606366217136383,-0.25721269845962524,-0.211955726146698
1749027056.4706056,0.09655915200710297,-1.815054555932516,2.214184109364645,-3.676835676232809,4.475863456726074,5.3028883934021,0.05970146507024765,0.0023869697470217943,-0.025513894855976105,0.03579416498541832,-0.05635470151901245,-0.07811779528856277,0.3980792164802551,-0.4952666163444519,-1.2642500400543213,-0.19246554374694824,-0.2558887302875519,-0.22960644960403442
1749027056.470643,0.09655915200710297,-1.815054555932516,2.214184109364645,-3.676835676232809,4.475863456726074,5.3028883934021,0.05970146507024765,0.0023869697470217943,-0.025513894855976105,0.03579416498541832,-0.05635470151901245,-0.07811779528856277,0.3980792164802551,-0.4952666163444519,-1.2642500400543213,-0.19246554374694824,-0.2558887302875519,-0.22960644960403442
1749027056.47068,0.09669370949268341,-1.8150302372374476,2.2141483465777796,-3.676767488519186,4.475775241851807,5.302791118621826,0.0612359382212162,0.0028821134474128485,-0.026430465281009674,0.038049764931201935,-0.05809938907623291,-0.08076000958681107,0.40454137325286865,-0.49575161933898926,-1.271106243133545,-0.2009512484073639,-0.25510352849960327,-0.21042214334011078
1749027056.470717,0.09678688645362854,-1.8150073490538539,2.2140916029559534,-3.676676412621969,4.4756364822387695,5.302584648132324,0.062322039157152176,0.0025058819446712732,-0.026766955852508545,0.03708299249410629,-0.05973595753312111,-0.0827142521739006,0.3838336169719696,-0.51265549659729,-1.273049235343933,-0.22434252500534058,-0.2656252980232239,-0.20024892687797546
1749027056.470754,0.09694989025592804,-1.8150302372374476,2.2140124479876917,-3.6766396961607875,4.475543022155762,5.302432537078857,0.06380495429039001,0.002300548367202282,-0.026168663054704666,0.037659816443920135,-0.059864845126867294,-0.08441229164600372,0.3924752175807953,-0.4851486086845398,-1.2731194496154785,-0.20704518258571625,-0.26888546347618103,-0.17464151978492737
1749027056.4707906,0.09722825884819031,-1.8150111637511195,2.2139204184161585,-3.676479478875631,4.475250244140625,5.302091598510742,0.0663895457983017,0.00219330214895308,-0.02787790633738041,0.0356539748609066,-0.06345026195049286,-0.08486068993806839,0.4175083339214325,-0.4969298243522644,-1.2841196060180664,-0.18656682968139648,-0.2652761936187744,-0.17742446064949036
1749027056.4708276,0.09722825884819031,-1.8150111637511195,2.2139204184161585,-3.676479478875631,4.475250244140625,5.302091598510742,0.0663895457983017,0.00219330214895308,-0.02787790633738041,0.0356539748609066,-0.06345026195049286,-0.08486068993806839,0.4175083339214325,-0.4969298243522644,-1.2841196060180664,-0.18656682968139648,-0.2652761936187744,-0.17742446064949036
1749027056.4708643,0.09750362485647202,-1.8150063953795375,2.213808838521139,-3.676328798333639,4.475010395050049,5.301748275756836,0.07004514336585999,0.0036034018266946077,-0.028765935450792313,0.03680659830570221,-0.06639663130044937,-0.0860908031463623,0.3800771236419678,-0.49382346868515015,-1.277963399887085,-0.17865340411663055,-0.21919339895248413,-0.18636861443519592
1749027056.4709008,0.09750362485647202,-1.8150063953795375,2.213808838521139,-3.676328798333639,4.475010395050049,5.301748275756836,0.07004514336585999,0.0036034018266946077,-0.028765935450792313,0.03680659830570221,-0.06639663130044937,-0.0860908031463623,0.3800771236419678,-0.49382346868515015,-1.277963399887085,-0.17865340411663055,-0.21919339895248413,-0.18636861443519592
1749027056.4709384,0.0976281613111496,-1.815040727654928,2.2137449423419397,-3.6762639484801234,4.474867343902588,5.3015618324279785,0.07020031660795212,0.0028337568510323763,-0.02914738468825817,0.03801702335476875,-0.06505522131919861,-0.08655904978513718,0.3928300142288208,-0.491884708404541,-1.2777855396270752,-0.16417010128498077,-0.2477147877216339,-0.17582303285598755
1749027056.470975,0.09788062423467636,-1.8149939976134242,2.213632408772604,-3.6761204204955042,4.47460412979126,5.301225662231445,0.07098253816366196,0.002361001679673791,-0.031139427796006203,0.03856004402041435,-0.06780239939689636,-0.08620604872703552,0.3946381211280823,-0.4955301880836487,-1.276401400566101,-0.1581411510705948,-0.24403145909309387,-0.19515392184257507
1749027056.4710119,0.09788062423467636,-1.8149939976134242,2.213632408772604,-3.6761204204955042,4.47460412979126,5.301225662231445,0.07098253816366196,0.002361001679673791,-0.031139427796006203,0.03856004402041435,-0.06780239939689636,-0.08620604872703552,0.3946381211280823,-0.4955301880836487,-1.276401400566101,-0.1581411510705948,-0.24403145909309387,-0.19515392184257507
1749027056.4716954,0.09817160665988922,-1.8149715862669886,2.2134812513934534,-3.67596497158193,4.474329471588135,5.30087947845459,0.07254046201705933,0.0023397274781018496,-0.031099814921617508,0.042809341102838516,-0.07246558368206024,-0.08703100681304932,0.435574471950531,-0.44040995836257935,-1.286206841468811,-0.17547279596328735,-0.2090059220790863,-0.23292036354541779
1749027056.4737167,0.09817160665988922,-1.8149715862669886,2.2134812513934534,-3.67596497158193,4.474329471588135,5.30087947845459,0.07254046201705933,0.0023397274781018496,-0.031099814921617508,0.042809341102838516,-0.07246558368206024,-0.08703100681304932,0.435574471950531,-0.44040995836257935,-1.286206841468811,-0.17547279596328735,-0.2090059220790863,-0.23292036354541779
1749027056.5143404,0.09831885993480682,-1.8149939976134242,2.213440720235006,-3.6758810482420863,4.474197864532471,5.300724506378174,0.07442046701908112,0.0023585138842463493,-0.03316526487469673,0.043650444597005844,-0.07153245806694031,-0.08585599064826965,0.440162718296051,-0.44256505370140076,-1.2832809686660767,-0.17578184604644775,-0.21453812718391418,-0.23358622193336487
1749027056.5143874,0.0984637588262558,-1.8149997196593226,2.2133811155902308,-3.6757971249022425,4.474062442779541,5.300541400909424,0.07840569317340851,0.002581044565886259,-0.033310871571302414,0.04340729862451553,-0.06921975314617157,-0.08967191725969315,0.3839162290096283,-0.4756733179092407,-1.2557638883590698,-0.1588122546672821,-0.22780025005340576,-0.26374033093452454
1749027056.5144281,0.09860748052597046,-1.8149668178954066,2.213309113179342,-3.6756936512389125,4.473906993865967,5.30039644241333,0.0778810977935791,0.0030286465771496296,-0.033539943397045135,0.04290269315242767,-0.07091968506574631,-0.09348409622907639,0.4060186743736267,-0.44492119550704956,-1.2669905424118042,-0.15150830149650574,-0.2496393471956253,-0.2371877133846283
1749027056.5144668,0.0987619012594223,-1.8149754009642542,2.2132371107684534,-3.675598283807272,4.473779678344727,5.300151824951172,0.08052621781826019,0.003129994496703148,-0.03384216129779816,0.04266329109668732,-0.07400576025247574,-0.09242875874042511,0.4176395833492279,-0.43197327852249146,-1.2887299060821533,-0.1283450722694397,-0.2330138087272644,-0.2676210403442383
1749027056.5145051,0.09894529730081558,-1.8149320087828578,2.213142220173971,-3.6755486927428187,4.473612308502197,5.2999796867370605,0.08191744983196259,0.0034723824355751276,-0.034854955971241,0.04549424350261688,-0.07446553558111191,-0.09429261088371277,0.4006812274456024,-0.44824865460395813,-1.289779543876648,-0.13096268475055695,-0.24822834134101868,-0.29079386591911316
1749027056.5145438,0.09915594756603241,-1.8149649105467738,2.213050667439596,-3.6754337749876917,4.473456859588623,5.2997541427612305,0.08286701142787933,0.004309320356696844,-0.03534950315952301,0.04701505973935127,-0.07593356817960739,-0.09746357798576355,0.40067756175994873,-0.4607197642326355,-1.2882975339889526,-0.15573391318321228,-0.23313185572624207,-0.2899491488933563
1749027056.514582,0.0994841530919075,-1.8149153194823207,2.2129457632647913,-3.675253530541891,4.47314977645874,5.299382209777832,0.08663966506719589,0.00398170854896307,-0.03667795658111572,0.049235329031944275,-0.0749111920595169,-0.10631974041461945,0.3844450116157532,-0.46459466218948364,-1.277847409248352,-0.16420704126358032,-0.24559447169303894,-0.24889153242111206
1749027056.5146194,0.0994841530919075,-1.8149153194823207,2.2129457632647913,-3.675253530541891,4.47314977645874,5.299382209777832,0.08663966506719589,0.00398170854896307,-0.03667795658111572,0.049235329031944275,-0.0749111920595169,-0.10631974041461945,0.3844450116157532,-0.46459466218948364,-1.277847409248352,-0.16420704126358032,-0.24559447169303894,-0.24889153242111206
1749027056.5146573,0.09961231052875519,-1.814918657342428,2.2128894964801233,-3.675133844415182,4.473002910614014,5.299136161804199,0.08700952678918839,0.0033061844296753407,-0.03754061460494995,0.04962768033146858,-0.07452178001403809,-0.10950340330600739,0.41963881254196167,-0.45192354917526245,-1.26832115650177,-0.14415991306304932,-0.2578989267349243,-0.2697325348854065
1749027056.5146947,0.09985064715147018,-1.814918657342428,2.212782684956686,-3.6750346622862757,4.472856044769287,5.298862934112549,0.08689411729574203,0.002663861494511366,-0.03756917268037796,0.05046897754073143,-0.07485100626945496,-0.11362087726593018,0.4041699469089508,-0.4407414197921753,-1.2769964933395386,-0.15411674976348877,-0.277400404214859,-0.2555374205112457
1749027056.514732,0.0999990776181221,-1.814911504785055,2.2127488295184534,-3.6749144993224085,4.472677707672119,5.298666954040527,0.09365151822566986,0.0026899748481810093,-0.037633735686540604,0.051107726991176605,-0.07670950889587402,-0.11666294187307358,0.37906214594841003,-0.4343496561050415,-1.2736907005310059,-0.13271935284137726,-0.259701669216156,-0.23145171999931335
1749027056.514769,0.1001395583152771,-1.8149496517577113,2.212653938923971,-3.6747876606383265,4.4725213050842285,5.298469543457031,0.09034273028373718,0.0030287106055766344,-0.03881634399294853,0.05219424143433571,-0.07631842792034149,-0.11812607944011688,0.43204596638679504,-0.42441606521606445,-1.2647932767868042,-0.1468859612941742,-0.29732054471969604,-0.20628772675991058
1749027056.514806,0.10039697587490082,-1.8149153194823207,2.2125700155841272,-3.6746989689269007,4.472346782684326,5.2981696128845215,0.09441104531288147,0.0036099518183618784,-0.038623835891485214,0.0525238923728466,-0.08090811222791672,-0.11732764542102814,0.40011119842529297,-0.42896410822868347,-1.2845326662063599,-0.13682854175567627,-0.298911988735199,-0.23237401247024536
1749027056.5148425,0.1004912331700325,-1.8149258098998011,2.2124860922442835,-3.674634119073385,4.472229480743408,5.297953128814697,0.09146934002637863,0.0038671272341161966,-0.03928535804152489,0.0533001646399498,-0.08401202410459518,-0.1180274710059166,0.43544235825538635,-0.4395981431007385,-1.2800003290176392,-0.14652343094348907,-0.27011433243751526,-0.23313507437705994
1749027056.5148785,0.100975401699543,-1.8148828945555628,2.2123306433307093,-3.674387117425436,4.471858978271484,5.297499179840088,0.09723221510648727,0.004056185018271208,-0.03912138566374779,0.05347803980112076,-0.0860605537891388,-0.11750461161136627,0.414839506149292,-0.4501388370990753,-1.2969062328338623,-0.13789048790931702,-0.28548941016197205,-0.25579285621643066
1749027056.514916,0.100975401699543,-1.8148828945555628,2.2123306433307093,-3.674387117425436,4.471858978271484,5.297499179840088,0.09723221510648727,0.004056185018271208,-0.03912138566374779,0.05347803980112076,-0.0860605537891388,-0.11750461161136627,0.414839506149292,-0.4501388370990753,-1.2969062328338623,-0.13789048790931702,-0.28548941016197205,-0.25579285621643066
1749027056.5149524,0.10115175694227219,-1.8148671589293421,2.212243382130758,-3.6742879352965296,4.471620082855225,5.297260284423828,0.09761974960565567,0.003807207802310586,-0.0413360595703125,0.054588496685028076,-0.08942973613739014,-0.12041190266609192,0.439674437046051,-0.4402039051055908,-1.3026912212371826,-0.1483275145292282,-0.2882864773273468,-0.25695574283599854
1749027056.5149932,0.1015356034040451,-1.8148395023741664,2.212090794240133,-3.6740948162474574,4.471259117126465,5.296751022338867,0.099874347448349,0.0034862523898482323,-0.04038691893219948,0.05711158737540245,-0.09571438282728195,-0.12203074991703033,0.39018678665161133,-0.42953547835350037,-1.310043215751648,-0.12823548913002014,-0.24654537439346313,-0.2692040205001831
1749027056.51503,0.1015356034040451,-1.8148395023741664,2.212090794240133,-3.6740948162474574,4.471259117126465,5.296751022338867,0.099874347448349,0.0034862523898482323,-0.04038691893219948,0.05711158737540245,-0.09571438282728195,-0.12203074991703033,0.39018678665161133,-0.42953547835350037,-1.310043215751648,-0.12823548913002014,-0.24654537439346313,-0.2692040205001831
1749027056.5150669,0.10197426378726959,-1.8148776493468226,2.2119229475604456,-3.6738511524596156,4.470861911773682,5.296268463134766,0.10377690196037292,0.003613605396822095,-0.04217613488435745,0.059285908937454224,-0.09492193162441254,-0.13080385327339172,0.3981529474258423,-0.41371700167655945,-1.2988308668136597,-0.13848623633384705,-0.25201717019081116,-0.2503982484340668
1749027056.5157375,0.10197426378726959,-1.8148776493468226,2.2119229475604456,-3.6738511524596156,4.470861911773682,5.296268463134766,0.10377690196037292,0.003613605396822095,-0.04217613488435745,0.059285908937454224,-0.09492193162441254,-0.13080385327339172,0.3981529474258423,-0.41371700167655945,-1.2988308668136597,-0.13848623633384705,-0.25201717019081116,-0.2503982484340668
1749027056.5176802,0.10219322144985199,-1.8148194752135218,2.2118428389178675,-3.6737429104247035,4.470675468444824,5.295989990234375,0.10503652691841125,0.003409279976040125,-0.04478622227907181,0.060592859983444214,-0.09668799489736557,-0.13242970407009125,0.41944292187690735,-0.42180120944976807,-1.3004767894744873,-0.14703448116779327,-0.26007160544395447,-0.25805503129959106
1749027056.5623028,0.10254651308059692,-1.8148499927916468,2.211647335683004,-3.6734916172423304,4.470315456390381,5.295409202575684,0.10742960125207901,0.00391280697658658,-0.04332228749990463,0.06165999174118042,-0.09727638214826584,-0.1413620412349701,0.4268527626991272,-0.40623417496681213,-1.3178496360778809,-0.12958769500255585,-0.2384176105260849,-0.19851192831993103
1749027056.562349,0.10254651308059692,-1.8148499927916468,2.211647335683004,-3.6734916172423304,4.470315456390381,5.295409202575684,0.10742960125207901,0.00391280697658658,-0.04332228749990463,0.06165999174118042,-0.09727638214826584,-0.1413620412349701,0.4268527626991272,-0.40623417496681213,-1.3178496360778809,-0.12958769500255585,-0.2384176105260849,-0.19851192831993103
1749027056.5623891,0.10298965126276016,-1.8148194752135218,2.211451832448141,-3.673220773736471,4.46990442276001,5.294832229614258,0.10991499572992325,0.0037666901480406523,-0.046310678124427795,0.06413310766220093,-0.09804660826921463,-0.14365793764591217,0.43325531482696533,-0.40047603845596313,-1.3115841150283813,-0.14011727273464203,-0.2511385381221771,-0.1689489334821701
1749027056.5624285,0.10298965126276016,-1.8148194752135218,2.211451832448141,-3.673220773736471,4.46990442276001,5.294832229614258,0.10991499572992325,0.0037666901480406523,-0.046310678124427795,0.06413310766220093,-0.09804660826921463,-0.14365793764591217,0.43325531482696533,-0.40047603845596313,-1.3115841150283813,-0.14011727273464203,-0.2511385381221771,-0.1689489334821701
1749027056.5624666,0.10323260724544525,-1.8148414097227992,2.211383644734518,-3.6731168232359828,4.469654560089111,5.294576168060303,0.11191736161708832,0.0036995087284594774,-0.04726377874612808,0.06390675157308578,-0.09876187145709991,-0.1433531939983368,0.4292859435081482,-0.40923282504081726,-1.3226104974746704,-0.12878215312957764,-0.2615482211112976,-0.19741615653038025
1749027056.5625048,0.10350574553012848,-1.8148137531676234,2.2112916151629847,-3.6729656658568324,4.469491004943848,5.294290542602539,0.1124696135520935,0.004152461886405945,-0.047142717987298965,0.06489671766757965,-0.09928590059280396,-0.14141634106636047,0.44782719016075134,-0.3549990653991699,-1.3065019845962524,-0.12180065363645554,-0.2681814432144165,-0.23056095838546753
1749027056.5625424,0.10373352468013763,-1.8147880039610804,2.2111833731280726,-3.67283358196401,4.469284534454346,5.2940473556518555,0.11431881785392761,0.0042823972180485725,-0.046807847917079926,0.06658380478620529,-0.10075537860393524,-0.1410466879606247,0.4182196259498596,-0.3734835982322693,-1.3344511985778809,-0.12865571677684784,-0.26751407980918884,-0.23765544593334198
1749027056.5625806,0.10395027697086334,-1.8147832355894984,2.2110841909991663,-3.6727053127684535,4.469093322753906,5.293729782104492,0.11315752565860748,0.0040525998920202255,-0.0483567975461483,0.06651889532804489,-0.10021276772022247,-0.14206315577030182,0.4606953263282776,-0.3598470687866211,-1.3091835975646973,-0.11591948568820953,-0.30796656012535095,-0.23850175738334656
1749027056.5626178,0.10414291173219681,-1.8148137531676234,2.2110002676593226,-3.672561307946676,4.468886375427246,5.293484210968018,0.11945084482431412,0.003957414999604225,-0.04852978512644768,0.06760646402835846,-0.10198968648910522,-0.14199292659759521,0.3819889724254608,-0.39003223180770874,-1.302293062210083,-0.14234690368175507,-0.30590420961380005,-0.2632482647895813
1749027056.5626593,0.10441602766513824,-1.814817567864889,2.2108920256244105,-3.6724258861937464,4.468687057495117,5.293152332305908,0.11961039155721664,0.004505089018493891,-0.048666708171367645,0.06800153106451035,-0.10362819582223892,-0.1414516717195511,0.4325506091117859,-0.39451760053634644,-1.3224573135375977,-0.12243407219648361,-0.31973522901535034,-0.288921058177948
1749027056.562698,0.10467240959405899,-1.8147779903807582,2.210792843495504,-3.6723200283446253,4.468400955200195,5.292880535125732,0.12110403180122375,0.00499183963984251,-0.04919146001338959,0.07102850079536438,-0.106758251786232,-0.14472544193267822,0.45483720302581787,-0.38973772525787354,-1.318258285522461,-0.11966964602470398,-0.31423860788345337,-0.30631956458091736
1749027056.5627356,0.10492352396249771,-1.8147627315916957,2.2106693426715296,-3.6721536121764125,4.468217372894287,5.292585372924805,0.12364713847637177,0.004847733303904533,-0.04974338784813881,0.07166872173547745,-0.10926642268896103,-0.15000154078006744,0.43120500445365906,-0.3840458393096924,-1.3323909044265747,-0.1333613246679306,-0.32711508870124817,-0.2811185419559479
1749027056.562773,0.10514404624700546,-1.814746995965475,2.210604492818014,-3.6719943485655726,4.468021392822266,5.2922821044921875,0.12518884241580963,0.004225678741931915,-0.05027654394507408,0.06898745149374008,-0.11509092897176743,-0.1539582759141922,0.41491469740867615,-0.36579352617263794,-1.336350917816162,-0.1113632544875145,-0.2768224775791168,-0.2853548526763916
1749027056.5628097,0.1054389476776123,-1.8147503338255824,2.2104771772967737,-3.6718574963011683,4.4677629470825195,5.291937351226807,0.12613332271575928,0.003991432022303343,-0.05057426914572716,0.06957593560218811,-0.11477837711572647,-0.1606231927871704,0.4451497495174408,-0.36298131942749023,-1.3320423364639282,-0.12250462174415588,-0.2779283821582794,-0.26729583740234375
1749027056.5628462,0.10568304359912872,-1.8147350750365199,2.2104042212115687,-3.671694417993063,4.467493057250977,5.291622638702393,0.1265818476676941,0.004138544201850891,-0.05032387375831604,0.07189267873764038,-0.11572184413671494,-0.16369466483592987,0.39808809757232666,-0.363386332988739,-1.3440743684768677,-0.10090398043394089,-0.28974050283432007,-0.2474302053451538
1749027056.5628834,0.10592974722385406,-1.8147350750365199,2.2102893034564417,-3.6715971432127894,4.4672770500183105,5.2912917137146,0.12733833491802216,0.004804237745702267,-0.05023905262351036,0.0723535493016243,-0.1178225725889206,-0.16553784906864166,0.48048514127731323,-0.38441702723503113,-1.3809982538223267,-0.11150047183036804,-0.29746609926223755,-0.2338840365409851
1749027056.56292,0.10620924830436707,-1.8146993122496546,2.2101967970477503,-3.6714259586729945,4.467019081115723,5.290944576263428,0.13019594550132751,0.005389380734413862,-0.05087260529398918,0.07519253343343735,-0.1207028180360794,-0.16648165881633759,0.4305472671985626,-0.36294782161712646,-1.3713725805282593,-0.13567997515201569,-0.2609349191188812,-0.2187471091747284
1749027056.5629568,0.10648436844348907,-1.814714094201559,2.2100661436664026,-3.671274801293844,4.466810703277588,5.290633201599121,0.1342625916004181,0.005086814984679222,-0.051945365965366364,0.07638903707265854,-0.11857244372367859,-0.16365957260131836,0.41893038153648376,-0.3617764413356781,-1.3766133785247803,-0.14154395461082458,-0.28499406576156616,-0.24816536903381348
1749027056.562993,0.10704216361045837,-1.814702650109762,2.209869686757223,-3.6709748707213343,4.466274261474609,5.289947032928467,0.13776730000972748,0.004617209080606699,-0.05306891351938248,0.073385089635849,-0.12460733950138092,-0.16419799625873566,0.37945398688316345,-0.35252684354782104,-1.3804492950439453,-0.10214747488498688,-0.2589907944202423,-0.2683541476726532
1749027056.5630298,0.10704216361045837,-1.814702650109762,2.209869686757223,-3.6709748707213343,4.466274261474609,5.289947032928467,0.13776730000972748,0.004617209080606699,-0.05306891351938248,0.073385089635849,-0.12460733950138092,-0.16419799625873566,0.37945398688316345,-0.35252684354782104,-1.3804492950439453,-0.10214747488498688,-0.2589907944202423,-0.2683541476726532
1749027056.563066,0.10728096961975098,-1.814709802667135,2.2097581068622034,-3.670835157433981,4.466034412384033,5.289608001708984,0.1372900903224945,0.004130260553210974,-0.05390036106109619,0.07730472087860107,-0.12543775141239166,-0.16577033698558807,0.42150023579597473,-0.33614450693130493,-1.4011934995651245,-0.10212914645671844,-0.2572357952594757,-0.3032698929309845
1749027056.563103,0.10787910968065262,-1.8146473369994105,2.2095463911639612,-3.670542379418844,4.465587615966797,5.288917064666748,0.1395992934703827,0.006016814615577459,-0.05855697765946388,0.07966960966587067,-0.12411502748727798,-0.17323213815689087,0.4178777039051056,-0.36165717244148254,-1.368282675743103,-0.1193096712231636,-0.28322550654411316,-0.28922533988952637
1749027056.5637615,0.10787910968065262,-1.8146473369994105,2.2095463911639612,-3.670542379418844,4.465587615966797,5.288917064666748,0.1395992934703827,0.006016814615577459,-0.05855697765946388,0.07966960966587067,-0.12411502748727798,-0.17323213815689087,0.4178777039051056,-0.36165717244148254,-1.368282675743103,-0.1193096712231636,-0.28322550654411316,-0.28922533988952637
1749027056.5657322,0.10813841223716736,-1.8146544895567835,2.2094066778766077,-3.6703745327391566,4.4652934074401855,5.2885661125183105,0.13944177329540253,0.006353972014039755,-0.05595164746046066,0.08085808157920837,-0.12742313742637634,-0.17769354581832886,0.44915640354156494,-0.35758543014526367,-1.38624906539917,-0.12161898612976074,-0.2883668541908264,-0.25293445587158203
1749027056.6103084,0.10839056968688965,-1.8146268330016078,2.2093027273761194,-3.6702119312682093,4.465027332305908,5.2881669998168945,0.13959112763404846,0.005754307843744755,-0.05818355083465576,0.0805777832865715,-0.12540984153747559,-0.18175287544727325,0.4361106753349304,-0.3625195324420929,-1.3930449485778809,-0.11121073365211487,-0.29367634654045105,-0.226413294672966
1749027056.6103542,0.10870056599378586,-1.8146425686278285,2.209205452595846,-3.670044084588522,4.464791774749756,5.287819862365723,0.14368602633476257,0.005105871241539717,-0.05974496528506279,0.07995926588773727,-0.12620022892951965,-0.18393458425998688,0.44049257040023804,-0.3662055432796478,-1.3784607648849487,-0.0903860330581665,-0.31166326999664307,-0.2180871218442917
1749027056.6103947,0.10932981967926025,-1.814611097375387,2.208931271229879,-3.669708391229147,4.464267253875732,5.287085056304932,0.14555318653583527,0.005018977914005518,-0.060283113270998,0.08706683665513992,-0.1309628188610077,-0.18474633991718292,0.47332414984703064,-0.35419610142707825,-1.3697447776794434,-0.13666965067386627,-0.29787537455558777,-0.22990456223487854
1749027056.6104336,0.10932981967926025,-1.814611097375387,2.208931271229879,-3.669708391229147,4.464267253875732,5.287085056304932,0.14555318653583527,0.005018977914005518,-0.060283113270998,0.08706683665513992,-0.1309628188610077,-0.18474633991718292,0.47332414984703064,-0.35419610142707825,-1.3697447776794434,-0.13666965067386627,-0.29787537455558777,-0.22990456223487854
1749027056.610472,0.10958502441644669,-1.8145839176573695,2.208799187337057,-3.6695171795287074,4.463961124420166,5.286737442016602,0.14722849428653717,0.004810190759599209,-0.06043974310159683,0.08411972224712372,-0.1331626921892166,-0.18345177173614502,0.439017117023468,-0.34930452704429626,-1.3833224773406982,-0.11354228109121323,-0.30377325415611267,-0.23163703083992004
1749027056.6105103,0.10985656082630157,-1.814601560632223,2.2086833159076136,-3.6693417034544886,4.4637532234191895,5.286346435546875,0.14916828274726868,0.004559583030641079,-0.06071726232767105,0.08350153267383575,-0.13491518795490265,-0.18226489424705505,0.4291893541812897,-0.34857821464538574,-1.3763402700424194,-0.09575752913951874,-0.32092127203941345,-0.22713838517665863
1749027056.6105478,0.11014795303344727,-1.8146287403502406,2.208547894154684,-3.6692010364928187,4.4634504318237305,5.2860188484191895,0.1507437378168106,0.004189023748040199,-0.0623374879360199,0.08493229001760483,-0.13810180127620697,-0.1821974515914917,0.4394961893558502,-0.3734912574291229,-1.3631442785263062,-0.09954418241977692,-0.29359006881713867,-0.26733624935150146
1749027056.6105855,0.11052131652832031,-1.8145667515196742,2.2084348837481897,-3.669014116326803,4.463187217712402,5.285608291625977,0.15182432532310486,0.004500946030020714,-0.06266720592975616,0.08724476397037506,-0.14028280973434448,-0.18772652745246887,0.4292622208595276,-0.32024240493774414,-1.3832532167434692,-0.10985279083251953,-0.3019421696662903,-0.2642384171485901
1749027056.6106222,0.11108432710170746,-1.8145667515196742,2.2081645170794886,-3.6686541042723597,4.462639331817627,5.284869194030762,0.1542431116104126,0.004734080750495195,-0.06517884880304337,0.08747746795415878,-0.14262636005878448,-0.1930120885372162,0.4485357999801636,-0.32302772998809814,-1.3608992099761963,-0.09977889806032181,-0.2919121980667114,-0.24102267622947693
1749027056.610659,0.11108432710170746,-1.8145667515196742,2.2081645170794886,-3.6686541042723597,4.462639331817627,5.284869194030762,0.1542431116104126,0.004734080750495195,-0.06517884880304337,0.08747746795415878,-0.14262636005878448,-0.1930120885372162,0.4485357999801636,-0.32302772998809814,-1.3608992099761963,-0.09977889806032181,-0.2919121980667114,-0.24102267622947693
1749027056.6106992,0.11177211254835129,-1.8145691357054652,2.2079127470599573,-3.6683017216124476,4.462011337280273,5.28408670425415,0.1584598571062088,0.004804050084203482,-0.06840772181749344,0.08935875445604324,-0.1428566426038742,-0.1982921063899994,0.44178393483161926,-0.3411579728126526,-1.339681625366211,-0.10673011094331741,-0.3104192912578583,-0.2343837022781372
1749027056.6107366,0.11177211254835129,-1.8145691357054652,2.2079127470599573,-3.6683017216124476,4.462011337280273,5.28408670425415,0.1584598571062088,0.004804050084203482,-0.06840772181749344,0.08935875445604324,-0.1428566426038742,-0.1982921063899994,0.44178393483161926,-0.3411579728126526,-1.339681625366211,-0.10673011094331741,-0.3104192912578583,-0.2343837022781372
1749027056.6107733,0.11205167323350906,-1.814542909661764,2.20776874223818,-3.6681224308409632,4.461759090423584,5.283688068389893,0.1594298779964447,0.004719891119748354,-0.0658908486366272,0.09010861814022064,-0.14385907351970673,-0.1991315633058548,0.4241352677345276,-0.312857449054718,-1.362267255783081,-0.10253659635782242,-0.31280872225761414,-0.2407912015914917
1749027056.61081,0.11240222305059433,-1.8145462475218714,2.2076452414142054,-3.667938371697897,4.4614410400390625,5.283246040344238,0.1632358431816101,0.004668708425015211,-0.06615642458200455,0.09011854231357574,-0.14589078724384308,-0.1990388184785843,0.42561525106430054,-0.3340699076652527,-1.3693695068359375,-0.12203148007392883,-0.2977544665336609,-0.237607941031456
1749027056.6108475,0.11270232498645782,-1.8145371876158656,2.207505528126852,-3.6677776775755824,4.461185455322266,5.28289794921875,0.16159415245056152,0.0049738576635718346,-0.06938440352678299,0.0907975435256958,-0.1473517119884491,-0.1969975382089615,0.48318159580230713,-0.31699007749557495,-1.3523224592208862,-0.09811750054359436,-0.32466572523117065,-0.28325551748275757
1749027056.6108842,0.11306308954954147,-1.8144604168333949,2.207341972981588,-3.6675669155516566,4.460831165313721,5.282474994659424,0.16257795691490173,0.005079907830804586,-0.06879978626966476,0.09113075584173203,-0.15340594947338104,-0.2017701417207718,0.4444466531276703,-0.31573545932769775,-1.3324134349822998,-0.10492241382598877,-0.2760562300682068,-0.25982141494750977
1749027056.6109216,0.11370883136987686,-1.8144637546935023,2.207062069569723,-3.6671954594054164,4.4602952003479,5.281691551208496,0.16431982815265656,0.005257599521428347,-0.06924748420715332,0.09240026026964188,-0.15305061638355255,-0.207539901137352,0.45755133032798767,-0.30636441707611084,-1.3406028747558594,-0.09357219189405441,-0.30592623353004456,-0.2778297960758209
1749027056.610958,0.11370883136987686,-1.8144637546935023,2.207062069569723,-3.6671954594054164,4.4602952003479,5.281691551208496,0.16431982815265656,0.005257599521428347,-0.06924748420715332,0.09240026026964188,-0.15305061638355255,-0.207539901137352,0.45755133032798767,-0.30636441707611084,-1.3406028747558594,-0.09357219189405441,-0.30592623353004456,-0.2778297960758209
1749027056.610994,0.1140327975153923,-1.8144709072508753,2.2069218794452112,-3.667019029656881,4.459958076477051,5.281214237213135,0.16581790149211884,0.005492158234119415,-0.06867020577192307,0.0939660519361496,-0.1558552235364914,-0.21338824927806854,0.4848812520503998,-0.3282501697540283,-1.3533440828323364,-0.10604424774646759,-0.2718298137187958,-0.26497623324394226
1749027056.611031,0.11439073085784912,-1.8144518337645472,2.206790272389547,-3.66680445293569,4.459662437438965,5.280755519866943,0.16833451390266418,0.005436771083623171,-0.06979549676179886,0.09563841670751572,-0.1556575745344162,-0.21592497825622559,0.4480219781398773,-0.32021093368530273,-1.3370811939239502,-0.10940233618021011,-0.2970240116119385,-0.24329213798046112
1749027056.6110673,0.11472138017416,-1.8144551716246546,2.2066548506366175,-3.666647573510641,4.459421634674072,5.280421257019043,0.1710970401763916,0.005068118218332529,-0.07053335756063461,0.09640882164239883,-0.15578915178775787,-0.21634843945503235,0.4410130977630615,-0.3176805377006531,-1.3332605361938477,-0.0866859033703804,-0.32340484857559204,-0.22588664293289185
1749027056.6111042,0.11538048088550568,-1.8144189320006312,2.2063515822040003,-3.6662169895567835,4.458718776702881,5.279510498046875,0.17593678832054138,0.005562914535403252,-0.07150731235742569,0.09656588733196259,-0.15590587258338928,-0.21758489310741425,0.4817565977573395,-0.31226587295532227,-1.3287277221679688,-0.09103009104728699,-0.3406562805175781,-0.23671643435955048
1749027056.6118047,0.11538048088550568,-1.8144189320006312,2.2063515822040003,-3.6662169895567835,4.458718776702881,5.279510498046875,0.17593678832054138,0.005562914535403252,-0.07150731235742569,0.09656588733196259,-0.15590587258338928,-0.21758489310741425,0.4817565977573395,-0.31226587295532227,-1.3287277221679688,-0.09103009104728699,-0.3406562805175781,-0.23671643435955048
1749027056.613715,0.11574243754148483,-1.8144413433470667,2.2061684767352503,-3.6660529575743617,4.458430767059326,5.2791242599487305,0.1748780906200409,0.00576974218711257,-0.07233397662639618,0.09812983870506287,-0.15876202285289764,-0.21441273391246796,0.44338929653167725,-0.3017861843109131,-1.3154253959655762,-0.08420315384864807,-0.3363860845565796,-0.27614977955818176
1749027056.6542764,0.11649481952190399,-1.8144227466978968,2.2058962027179163,-3.665633817712301,4.45784330368042,5.278184413909912,0.1783187836408615,0.006002486217767,-0.07324061542749405,0.10059699416160583,-0.16369616985321045,-0.21907594799995422,0.4559180438518524,-0.308678537607193,-1.3045426607131958,-0.1095505803823471,-0.33064568042755127,-0.2818542420864105
1749027056.6543229,0.11649481952190399,-1.8144227466978968,2.2058962027179163,-3.665633817712301,4.45784330368042,5.278184413909912,0.1783187836408615,0.006002486217767,-0.07324061542749405,0.10059699416160583,-0.16369616985321045,-0.21907594799995422,0.4559180438518524,-0.308678537607193,-1.3045426607131958,-0.1095505803823471,-0.33064568042755127,-0.2818542420864105
1749027056.6543639,0.11721482127904892,-1.8143898449339808,2.2056005636798304,-3.6652142010130824,4.457127094268799,5.277313232421875,0.1782049834728241,0.006758420262485743,-0.07258952409029007,0.1041768491268158,-0.16642113029956818,-0.22279572486877441,0.44562190771102905,-0.30708640813827515,-1.3047637939453125,-0.13343757390975952,-0.3482534885406494,-0.2685515284538269
1749027056.6544037,0.11721482127904892,-1.8143898449339808,2.2056005636798304,-3.6652142010130824,4.457127094268799,5.277313232421875,0.1782049834728241,0.006758420262485743,-0.07258952409029007,0.1041768491268158,-0.16642113029956818,-0.22279572486877441,0.44562190771102905,-0.30708640813827515,-1.3047637939453125,-0.13343757390975952,-0.3482534885406494,-0.2685515284538269
1749027056.6544425,0.11748514324426651,-1.8143521747984828,2.2054408232318323,-3.665025373498434,4.456761837005615,5.276866912841797,0.18086707592010498,0.006229241844266653,-0.07250037789344788,0.10136079043149948,-0.16811512410640717,-0.2249077558517456,0.47097140550613403,-0.2842056155204773,-1.3361830711364746,-0.10015656054019928,-0.323137491941452,-0.2881959080696106
1749027056.654482,0.11828393489122391,-1.814338823358053,2.205153767262594,-3.6645990810790003,4.4561004638671875,5.275940895080566,0.18450388312339783,0.0058753290213644505,-0.07263092696666718,0.10478246957063675,-0.17211715877056122,-0.22805453836917877,0.4434640109539032,-0.31320345401763916,-1.3107936382293701,-0.08077099919319153,-0.3108351230621338,-0.28055304288864136
1749027056.6545203,0.11828393489122391,-1.814338823358053,2.205153767262594,-3.6645990810790003,4.4561004638671875,5.275940895080566,0.18450388312339783,0.0058753290213644505,-0.07263092696666718,0.10478246957063675,-0.17211715877056122,-0.22805453836917877,0.4434640109539032,-0.31320345401763916,-1.3107936382293701,-0.08077099919319153,-0.3108351230621338,-0.28055304288864136
1749027056.654558,0.11859720200300217,-1.8143297634520472,2.205017391835348,-3.6644140682616175,4.455737590789795,5.2754669189453125,0.18483848869800568,0.006582397036254406,-0.0730590745806694,0.10661962628364563,-0.17418698966503143,-0.22965587675571442,0.4586111009120941,-0.2961949110031128,-1.3226819038391113,-0.11306382715702057,-0.297983855009079,-0.28865212202072144
1749027056.6545956,0.11939987540245056,-1.814298769036764,2.20469838777651,-3.663978715936178,4.455028533935547,5.274570941925049,0.18494732677936554,0.006320555228739977,-0.07422107458114624,0.10413046926259995,-0.17287112772464752,-0.2359839677810669,0.4691481590270996,-0.30937743186950684,-1.3108991384506226,-0.10088455677032471,-0.2866472601890564,-0.25008639693260193
1749027056.6546328,0.11939987540245056,-1.814298769036764,2.20469838777651,-3.663978715936178,4.455028533935547,5.274570941925049,0.18494732677936554,0.006320555228739977,-0.07422107458114624,0.10413046926259995,-0.17287112772464752,-0.2359839677810669,0.4691481590270996,-0.30937743186950684,-1.3108991384506226,-0.10088455677032471,-0.2866472601890564,-0.25008639693260193
1749027056.65467,0.1201099380850792,-1.8142906628050746,2.2043989340411585,-3.6635829410948695,4.454347133636475,5.2736005783081055,0.1903560310602188,0.006340634543448687,-0.07467346638441086,0.10485394299030304,-0.1716117113828659,-0.23835818469524384,0.5157802104949951,-0.28964895009994507,-1.3474626541137695,-0.08285798132419586,-0.3259696960449219,-0.25452420115470886
1749027056.6547074,0.1201099380850792,-1.8142906628050746,2.2043989340411585,-3.6635829410948695,4.454347133636475,5.2736005783081055,0.1903560310602188,0.006340634543448687,-0.07467346638441086,0.10485394299030304,-0.1716117113828659,-0.23835818469524384,0.5157802104949951,-0.28964895009994507,-1.3474626541137695,-0.08285798132419586,-0.3259696960449219,-0.25452420115470886
1749027056.6547449,0.12048535794019699,-1.8142749271788539,2.204252068196432,-3.6633674106993617,4.453988075256348,5.273114204406738,0.19479678571224213,0.006948164198547602,-0.07548251003026962,0.10569249838590622,-0.17694920301437378,-0.2383090853691101,0.5288844108581543,-0.29802507162094116,-1.341992974281311,-0.09035266935825348,-0.31302326917648315,-0.2597407102584839
1749027056.654782,0.12124300003051758,-1.814249177972311,2.203967873250143,-3.6629167995848597,4.453277111053467,5.272163391113281,0.1963096410036087,0.0062568299472332,-0.0747777447104454,0.1082734763622284,-0.18109317123889923,-0.23739734292030334,0.46885183453559875,-0.32352715730667114,-1.3813812732696533,-0.07779321819543839,-0.3197808265686035,-0.27213403582572937
1749027056.654822,0.12124300003051758,-1.814249177972311,2.203967873250143,-3.6629167995848597,4.453277111053467,5.272163391113281,0.1963096410036087,0.0062568299472332,-0.0747777447104454,0.1082734763622284,-0.18109317123889923,-0.23739734292030334,0.46885183453559875,-0.32352715730667114,-1.3813812732696533,-0.07779321819543839,-0.3197808265686035,-0.27213403582572937
1749027056.6548593,0.12206625193357468,-1.8142339191832484,2.2036669890033167,-3.662464757958883,4.452585697174072,5.271151542663574,0.1973123848438263,0.007228906732052565,-0.07554933428764343,0.11419326812028885,-0.18086212873458862,-0.2417469173669815,0.4391895830631256,-0.3037818670272827,-1.3943557739257812,-0.10997283458709717,-0.31950920820236206,-0.3016480803489685
1749027056.6548958,0.12206625193357468,-1.8142339191832484,2.2036669890033167,-3.662464757958883,4.452585697174072,5.271151542663574,0.1973123848438263,0.007228906732052565,-0.07554933428764343,0.11419326812028885,-0.18086212873458862,-0.2417469173669815,0.4391895830631256,-0.3037818670272827,-1.3943557739257812,-0.10997283458709717,-0.31950920820236206,-0.3016480803489685
1749027056.6549327,0.12245352566242218,-1.8141786060728968,2.2034452597247522,-3.662272115746969,4.452277183532715,5.270671367645264,0.19855491816997528,0.007411694619804621,-0.07541041821241379,0.11519632488489151,-0.17973236739635468,-0.2470070868730545,0.486183762550354,-0.2999812662601471,-1.3969112634658813,-0.12274975329637527,-0.30873191356658936,-0.2677488923072815
1749027056.6549697,0.12284442782402039,-1.8141824207701625,2.2033050696002405,-3.6620055637755335,4.451861381530762,5.270219802856445,0.20054617524147034,0.006254501175135374,-0.079490527510643,0.11710407584905624,-0.1778673231601715,-0.24698512256145477,0.48281991481781006,-0.31612735986709595,-1.360424280166626,-0.11493873596191406,-0.3207967281341553,-0.2770792841911316
1749027056.655007,0.1232077032327652,-1.8142129383482875,2.20313007036318,-3.661816736260885,4.45151424407959,5.2696356773376465,0.2028428614139557,0.007111931219696999,-0.07792170345783234,0.12092233449220657,-0.18293987214565277,-0.2503666877746582,0.5069937705993652,-0.33665788173675537,-1.401314377784729,-0.1346760392189026,-0.3193040192127228,-0.26880088448524475
1749027056.6556957,0.12409871071577072,-1.8142086468138636,2.2028263250934046,-3.6612826786436976,4.45076847076416,5.2686285972595215,0.2054423689842224,0.006940854713320732,-0.08069049566984177,0.11754558980464935,-0.1827319711446762,-0.25138160586357117,0.4718911647796631,-0.291522353887558,-1.3880140781402588,-0.11936349421739578,-0.35477393865585327,-0.26638326048851013
1749027056.6577692,0.12409871071577072,-1.8142086468138636,2.2028263250934046,-3.6612826786436976,4.45076847076416,5.2686285972595215,0.2054423689842224,0.006940854713320732,-0.08069049566984177,0.11754558980464935,-0.1827319711446762,-0.25138160586357117,0.4718911647796631,-0.291522353887558,-1.3880140781402588,-0.11936349421739578,-0.35477393865585327,-0.26638326048851013
1749027056.7023158,0.12449780851602554,-1.8141724071898402,2.2026856581317347,-3.6610776386656703,4.450401782989502,5.268165111541748,0.2045605480670929,0.007473934907466173,-0.08241809904575348,0.11890630424022675,-0.18444328010082245,-0.25433778762817383,0.4978533089160919,-0.31409066915512085,-1.3753516674041748,-0.11215080320835114,-0.34378480911254883,-0.28841549158096313
1749027056.7023618,0.12535600364208221,-1.8141066036620082,2.2023471037494105,-3.6605903110899867,4.449703216552734,5.267080307006836,0.2106657177209854,0.0065740542486310005,-0.08410817384719849,0.12104937434196472,-0.19476927816867828,-0.2586418688297272,0.45250579714775085,-0.30106121301651,-1.3715970516204834,-0.1466013789176941,-0.3129444718360901,-0.2913263440132141
1749027056.7024064,0.12535600364208221,-1.8141066036620082,2.2023471037494105,-3.6605903110899867,4.449703216552734,5.267080307006836,0.2106657177209854,0.0065740542486310005,-0.08410817384719849,0.12104937434196472,-0.19476927816867828,-0.2586418688297272,0.45250579714775085,-0.30106121301651,-1.3715970516204834,-0.1466013789176941,-0.3129444718360901,-0.2913263440132141
1749027056.7024462,0.12572085857391357,-1.8141066036620082,2.202179257069723,-3.6602913341917933,4.449285507202148,5.266592502593994,0.21235303580760956,0.006926463916897774,-0.08391935378313065,0.12168308347463608,-0.1961807757616043,-0.2595791518688202,0.4600690007209778,-0.2879776954650879,-1.373241901397705,-0.17640124261379242,-0.2951509356498718,-0.2755724787712097
1749027056.702485,0.1261666864156723,-1.8141051731505335,2.2019804159747522,-3.6600710354247035,4.448894500732422,5.2660932540893555,0.2128174602985382,0.007375326007604599,-0.08438660949468613,0.12183468788862228,-0.19750049710273743,-0.2596351206302643,0.46834439039230347,-0.30318576097488403,-1.3734620809555054,-0.17517682909965515,-0.3000730872154236,-0.29362010955810547
1749027056.702526,0.12658171355724335,-1.8140746555724085,2.2018354574786585,-3.6597963772215785,4.4484758377075195,5.265532493591309,0.21302059292793274,0.007157665677368641,-0.08490961790084839,0.12144540995359421,-0.19454115629196167,-0.2617379426956177,0.46068793535232544,-0.2979590892791748,-1.3905627727508545,-0.1804157793521881,-0.3117724657058716,-0.28254780173301697
1749027056.7025647,0.12749598920345306,-1.814038415948385,2.2014883200274866,-3.6592966518797816,4.447670936584473,5.264469146728516,0.2147732675075531,0.007603120058774948,-0.08776146173477173,0.11950968950986862,-0.19516831636428833,-0.26662641763687134,0.4891258776187897,-0.29502928256988525,-1.3638008832931519,-0.1651352345943451,-0.3415777087211609,-0.29169145226478577
1749027056.7026024,0.12749598920345306,-1.814038415948385,2.2014883200274866,-3.6592966518797816,4.447670936584473,5.264469146728516,0.2147732675075531,0.007603120058774948,-0.08776146173477173,0.11950968950986862,-0.19516831636428833,-0.26662641763687134,0.4891258776187897,-0.29502928256988525,-1.3638008832931519,-0.1651352345943451,-0.3415777087211609,-0.29169145226478577
1749027056.7026398,0.12787993252277374,-1.8140417538084925,2.2013328711139124,-3.6590963802733363,4.447323322296143,5.263930320739746,0.21726638078689575,0.007779683917760849,-0.08600663393735886,0.11918208748102188,-0.2010795623064041,-0.26884540915489197,0.49831390380859375,-0.3169838488101959,-1.3886611461639404,-0.17251311242580414,-0.30942171812057495,-0.2947652339935303
1749027056.7026765,0.1282951533794403,-1.8140417538084925,2.2011683622943323,-3.658825536767477,4.4469709396362305,5.263357162475586,0.22047825157642365,0.007109628524631262,-0.08816337585449219,0.11856859177350998,-0.19997048377990723,-0.27010220289230347,0.5476236343383789,-0.30223849415779114,-1.4290052652359009,-0.14719724655151367,-0.32074230909347534,-0.30858156085014343
1749027056.7027133,0.1287452131509781,-1.814005514184469,2.2009852568255823,-3.6585775814452113,4.446502685546875,5.2628560066223145,0.22574056684970856,0.006390704773366451,-0.09055756777524948,0.11963088810443878,-0.20612971484661102,-0.2759322226047516,0.4415339231491089,-0.25399476289749146,-1.3511298894882202,-0.14752623438835144,-0.30452093482017517,-0.2681795358657837
1749027056.7027502,0.12919974327087402,-1.813986440698141,2.2007582823382776,-3.6583296261229457,4.446064472198486,5.262328624725342,0.2238323837518692,0.0067735472694039345,-0.09068411588668823,0.12165210396051407,-0.20470793545246124,-0.275723934173584,0.4688146412372589,-0.2730964124202728,-1.3724052906036377,-0.16293975710868835,-0.30514973402023315,-0.2876346707344055
1749027056.7027905,0.12960980832576752,-1.8139969311156214,2.200606171284811,-3.6580587826170863,4.445645809173584,5.261760711669922,0.22185419499874115,0.008050479926168919,-0.09191861748695374,0.11891679465770721,-0.20557822287082672,-0.27642592787742615,0.47800740599632263,-0.282062292098999,-1.3562734127044678,-0.14120708405971527,-0.29369887709617615,-0.27901697158813477
1749027056.7028282,0.13007621467113495,-1.8139697513976039,2.2004221121417444,-3.6578384838499964,4.445226669311523,5.26122522354126,0.22433604300022125,0.008170311339199543,-0.09302834421396255,0.11821062117815018,-0.2060033082962036,-0.27887383103370667,0.503564178943634,-0.2851095199584961,-1.330241322517395,-0.1370021551847458,-0.2688763737678528,-0.2786458134651184
1749027056.7028651,0.13093793392181396,-1.8139454327025355,2.2000578085528772,-3.6573311291136683,4.444425106048584,5.260037422180176,0.23018760979175568,0.007408155128359795,-0.0948270857334137,0.12178605049848557,-0.2052781730890274,-0.28685376048088074,0.45312610268592834,-0.28610891103744507,-1.3205747604370117,-0.16090576350688934,-0.2770281136035919,-0.26434576511383057
1749027056.7029018,0.13093793392181396,-1.8139454327025355,2.2000578085528772,-3.6573311291136683,4.444425106048584,5.260037422180176,0.23018760979175568,0.007408155128359795,-0.0948270857334137,0.12178605049848557,-0.2052781730890274,-0.28685376048088074,0.45312610268592834,-0.28610891103744507,-1.3205747604370117,-0.16090576350688934,-0.2770281136035919,-0.26434576511383057
1749027056.702942,0.13093793392181396,-1.8139454327025355,2.2000578085528772,-3.6573311291136683,4.444425106048584,5.260037422180176,0.23018760979175568,0.007408155128359795,-0.0948270857334137,0.12178605049848557,-0.2052781730890274,-0.28685376048088074,0.45312610268592834,-0.28610891103744507,-1.3205747604370117,-0.16090576350688934,-0.2770281136035919,-0.26434576511383057
1749027056.7029798,0.13193148374557495,-1.8138905964293421,2.1996706167804163,-3.656856199304098,4.443573474884033,5.2588629722595215,0.23266680538654327,0.007714889943599701,-0.09665132313966751,0.12385247647762299,-0.20592914521694183,-0.28495678305625916,0.4965137839317322,-0.30679771304130554,-1.2917389869689941,-0.12538720667362213,-0.3111238479614258,-0.2519698739051819
1749027056.703017,0.13231660425662994,-1.813885351220602,2.199437443410055,-3.6566044292845667,4.443142890930176,5.25832986831665,0.23090322315692902,0.007149707991629839,-0.09416016191244125,0.1243303045630455,-0.2062944918870926,-0.28433528542518616,0.5331447124481201,-0.29408425092697144,-1.3220006227493286,-0.1337280571460724,-0.3251705765724182,-0.25579673051834106
1749027056.7030582,0.13281312584877014,-1.813909193078512,2.1992648283587855,-3.6563216648497523,4.4427170753479,5.257740497589111,0.23311127722263336,0.007034757174551487,-0.09698934108018875,0.12410355359315872,-0.21024711430072784,-0.28270822763442993,0.5487695932388306,-0.26875728368759155,-1.295862078666687,-0.1283949464559555,-0.3176177144050598,-0.2956351637840271
1749027056.7030964,0.13332751393318176,-1.813866754571432,2.199076477681295,-3.6560856304564417,4.442347049713135,5.257174015045166,0.23672527074813843,0.007915171794593334,-0.09645582735538483,0.12529446184635162,-0.21254011988639832,-0.28330332040786743,0.5437315106391907,-0.2805202007293701,-1.312780737876892,-0.12572652101516724,-0.28209590911865234,-0.29896679520606995
1749027056.703134,0.13374260067939758,-1.8137957058348597,2.1988728682147425,-3.655814310113424,4.441906452178955,5.256603717803955,0.23806825280189514,0.008345247246325016,-0.09748830646276474,0.127267986536026,-0.2148054540157318,-0.2868794798851013,0.46665751934051514,-0.29203176498413086,-1.286218523979187,-0.125252366065979,-0.2778910994529724,-0.29471710324287415
1749027056.7037418,0.13476623594760895,-1.8138286075987757,2.1984928289996546,-3.655285974542135,4.441112041473389,5.255469799041748,0.23384010791778564,0.007977539673447609,-0.09498811513185501,0.12950585782527924,-0.20863792300224304,-0.2865947186946869,0.4158705472946167,-0.2689014673233032,-1.2874622344970703,-0.15180771052837372,-0.27212175726890564,-0.2609460949897766
1749027056.7057455,0.13476623594760895,-1.8138286075987757,2.1984928289996546,-3.655285974542135,4.441112041473389,5.255469799041748,0.23384010791778564,0.007977539673447609,-0.09498811513185501,0.12950585782527924,-0.20863792300224304,-0.2865947186946869,0.4158705472946167,-0.2689014673233032,-1.2874622344970703,-0.15180771052837372,-0.27212175726890564,-0.2609460949897766
1749027056.7503076,0.13520236313343048,-1.8138166866698207,2.198313061391012,-3.6550499401488246,4.440689563751221,5.2548933029174805,0.23094622790813446,0.008031989447772503,-0.09266160428524017,0.1291799396276474,-0.20501883327960968,-0.2869504690170288,0.4399273991584778,-0.2827465832233429,-1.3000895977020264,-0.14488962292671204,-0.33565300703048706,-0.26286715269088745
1749027056.7503524,0.13617804646492004,-1.813789506951803,2.197942558919088,-3.654527326623434,4.439857006072998,5.253697872161865,0.23718303442001343,0.0062781344167888165,-0.09271759539842606,0.12984253466129303,-0.20825524628162384,-0.2915330231189728,0.44701898097991943,-0.2873144745826721,-1.3151098489761353,-0.15388824045658112,-0.36101627349853516,-0.3029874861240387
1749027056.750393,0.13617804646492004,-1.813789506951803,2.197942558919088,-3.654527326623434,4.439857006072998,5.253697872161865,0.23718303442001343,0.0062781344167888165,-0.09271759539842606,0.12984253466129303,-0.20825524628162384,-0.2915330231189728,0.44701898097991943,-0.2873144745826721,-1.3151098489761353,-0.15388824045658112,-0.36101627349853516,-0.3029874861240387
1749027056.7504313,0.13713015615940094,-1.8137809238829554,2.197573963795797,-3.6540075741209925,4.438976764678955,5.252504825592041,0.2432871311903,0.005706337280571461,-0.09671606868505478,0.13001543283462524,-0.21934069693088531,-0.30246788263320923,0.5279116630554199,-0.2681034505367279,-1.336837887763977,-0.1239575520157814,-0.35320815443992615,-0.24321500957012177
1749027056.7504697,0.1375737339258194,-1.8137465916075648,2.1973636786090296,-3.6536933384337367,4.438526153564453,5.251914024353027,0.24561366438865662,0.005106925964355469,-0.10027073323726654,0.13086079061031342,-0.22147154808044434,-0.30278053879737854,0.5170130133628845,-0.23575156927108765,-1.3244372606277466,-0.10591554641723633,-0.33258312940597534,-0.2455979883670807
1749027056.7505078,0.1375737339258194,-1.8137465916075648,2.1973636786090296,-3.6536933384337367,4.438526153564453,5.251914024353027,0.24561366438865662,0.005106925964355469,-0.10027073323726654,0.13086079061031342,-0.22147154808044434,-0.30278053879737854,0.5170130133628845,-0.23575156927108765,-1.3244372606277466,-0.10591554641723633,-0.33258312940597534,-0.2455979883670807
1749027056.750547,0.1385815590620041,-1.8137504063048304,2.1969764868365687,-3.653185030023092,4.437568664550781,5.250723838806152,0.2496514767408371,0.007445768918842077,-0.09740917384624481,0.13434669375419617,-0.22475886344909668,-0.3034510612487793,0.45835646986961365,-0.25554409623146057,-1.3391048908233643,-0.10119043290615082,-0.3113032281398773,-0.3076433539390564
1749027056.7505836,0.1385815590620041,-1.8137504063048304,2.1969764868365687,-3.653185030023092,4.437568664550781,5.250723838806152,0.2496514767408371,0.007445768918842077,-0.09740917384624481,0.13434669375419617,-0.22475886344909668,-0.3034510612487793,0.45835646986961365,-0.25554409623146057,-1.3391048908233643,-0.10119043290615082,-0.3113032281398773,-0.3076433539390564
1749027056.7506206,0.13908858597278595,-1.813714166680807,2.196784798298971,-3.6528941593565882,4.437098026275635,5.250085830688477,0.2500867247581482,0.008047866635024548,-0.0970965102314949,0.13498082756996155,-0.22562138736248016,-0.3050213158130646,0.45051127672195435,-0.2529435455799103,-1.3294293880462646,-0.11855518072843552,-0.292593389749527,-0.33130455017089844
1749027056.7506576,0.13958238065242767,-1.8137051067748011,2.196596924458639,-3.65262570003652,4.4366631507873535,5.249487400054932,0.24871230125427246,0.008450803346931934,-0.09493520855903625,0.137017622590065,-0.22828061878681183,-0.3084608316421509,0.44739213585853577,-0.25802895426750183,-1.3764606714248657,-0.09634401649236679,-0.3114222586154938,-0.3058358132839203
1749027056.750695,0.14006857573986053,-1.813674112359518,2.1964014212237757,-3.652342458764547,4.4362053871154785,5.24886417388916,0.24925774335861206,0.00915452279150486,-0.09658975899219513,0.14028975367546082,-0.2286137044429779,-0.3119775354862213,0.4941141903400421,-0.2385723739862442,-1.3795744180679321,-0.11232777684926987,-0.2954689562320709,-0.2805294096469879
1749027056.750732,0.14064794778823853,-1.8137041531004847,2.196204487477438,-3.6520544491209925,4.435785293579102,5.248269081115723,0.24870795011520386,0.009497508406639099,-0.09742138534784317,0.14142924547195435,-0.23106156289577484,-0.31006646156311035,0.5603697896003723,-0.2862448990345001,-1.401215672492981,-0.11801468580961227,-0.3047655522823334,-0.33035796880722046
1749027056.750769,0.14111556112766266,-1.8136335812010707,2.1960251967059534,-3.651787420312399,4.435277462005615,5.247615814208984,0.25198841094970703,0.008893387392163277,-0.0975986123085022,0.14294488728046417,-0.23206835985183716,-0.3119504451751709,0.553666889667511,-0.2708717882633209,-1.3952200412750244,-0.1111818253993988,-0.29656001925468445,-0.34061625599861145
1749027056.7508051,0.1416497826576233,-1.8135901890196742,2.1957901159869593,-3.6514913044371546,4.434868335723877,5.247020244598389,0.25562721490859985,0.008464090526103973,-0.09953833371400833,0.14688919484615326,-0.23121318221092224,-0.3189272880554199,0.4859180152416229,-0.23663991689682007,-1.4000434875488281,-0.1355309635400772,-0.2867307662963867,-0.3426509201526642
1749027056.7508426,0.14263522624969482,-1.813573499719137,2.195382897053854,-3.650868078271383,4.433916091918945,5.245643615722656,0.2595958709716797,0.008571687154471874,-0.10400025546550751,0.14539796113967896,-0.23044979572296143,-0.33185577392578125,0.4620363414287567,-0.29968398809432983,-1.3766167163848877,-0.09986841678619385,-0.3170740604400635,-0.24759739637374878
1749027056.7508793,0.14263522624969482,-1.813573499719137,2.195382897053854,-3.650868078271383,4.433916091918945,5.245643615722656,0.2595958709716797,0.008571687154471874,-0.10400025546550751,0.14539796113967896,-0.23044979572296143,-0.33185577392578125,0.4620363414287567,-0.29968398809432983,-1.3766167163848877,-0.09986841678619385,-0.3170740604400635,-0.24759739637374878
1749027056.750916,0.1432182341814041,-1.813573499719137,2.195179287587301,-3.650576730767721,4.4334235191345215,5.245015621185303,0.260234534740448,0.007960779592394829,-0.10691504925489426,0.1486213654279709,-0.2325216680765152,-0.33164605498313904,0.5201603174209595,-0.23318403959274292,-1.3930342197418213,-0.13686951994895935,-0.33842527866363525,-0.2512909173965454
1749027056.7509525,0.14373494684696198,-1.8135577640929164,2.194979492818014,-3.650281091729635,4.432969093322754,5.2443413734436035,0.2629670798778534,0.008561106398701668,-0.1045469120144844,0.14811797440052032,-0.23383542895317078,-0.32619473338127136,0.5050504207611084,-0.2547149956226349,-1.3843319416046143,-0.11702632904052734,-0.3660871386528015,-0.28135946393013
1749027056.7509887,0.1442786306142807,-1.8135611019530238,2.1947410742389124,-3.6499625645079554,4.432514667510986,5.2436909675598145,0.265242338180542,0.008462999947369099,-0.10612279921770096,0.14938144385814667,-0.23993836343288422,-0.3258555829524994,0.5150232911109924,-0.28092437982559204,-1.3963494300842285,-0.10644175112247467,-0.33794498443603516,-0.3210528790950775
1749027056.751025,0.14481790363788605,-1.8135253391661585,2.1945446173297327,-3.6496745548644007,4.432062149047852,5.243043422698975,0.26684772968292236,0.008292711339890957,-0.10551077127456665,0.15072724223136902,-0.2449469268321991,-0.32877787947654724,0.4832964539527893,-0.254682332277298,-1.397246241569519,-0.13734108209609985,-0.3156540095806122,-0.3246224522590637
1749027056.751061,0.145359605550766,-1.8134976826109828,2.194360081349508,-3.6493989429869593,4.4315185546875,5.242377758026123,0.26500576734542847,0.009016184136271477,-0.10475938022136688,0.14980971813201904,-0.24749355018138885,-0.3323585093021393,0.49135515093803406,-0.25518885254859924,-1.413852334022522,-0.1314120888710022,-0.3179457187652588,-0.30823951959609985
1749027056.751098,0.14588913321495056,-1.8134428463377894,2.194125000630514,-3.6491152248778285,4.431024074554443,5.241687297821045,0.2659938335418701,0.010191784240305424,-0.10688122361898422,0.1513708084821701,-0.24583086371421814,-0.3341639041900635,0.45061618089675903,-0.2705633044242859,-1.403890609741211,-0.10889402031898499,-0.3153899610042572,-0.29756149649620056
1749027056.7516923,0.1469772756099701,-1.8134533367552699,2.1936939398394983,-3.6485191784300746,4.430066108703613,5.24036169052124,0.2732035517692566,0.008865127339959145,-0.10957749933004379,0.1558937281370163,-0.24090048670768738,-0.33368510007858276,0.44483891129493713,-0.26960474252700806,-1.4130234718322754,-0.12617090344429016,-0.3708988428115845,-0.3558877408504486
1749027056.7536392,0.1469772756099701,-1.8134533367552699,2.1936939398394983,-3.6485191784300746,4.430066108703613,5.24036169052124,0.2732035517692566,0.008865127339959145,-0.10957749933004379,0.1558937281370163,-0.24090048670768738,-0.33368510007858276,0.44483891129493713,-0.26960474252700806,-1.4130234718322754,-0.12617090344429016,-0.3708988428115845,-0.3558877408504486
1749027056.7982984,0.14805327355861664,-1.8134366474547328,2.1932347456561487,-3.6478802166380824,4.4290547370910645,5.238960266113281,0.2728004455566406,0.007701687980443239,-0.11147750169038773,0.1543361246585846,-0.24855312705039978,-0.34852102398872375,0.49317222833633423,-0.24084998667240143,-1.3944703340530396,-0.10465861856937408,-0.39367666840553284,-0.27794939279556274
1749027056.7983441,0.14805327355861664,-1.8134366474547328,2.1932347456561487,-3.6478802166380824,4.4290547370910645,5.238960266113281,0.2728004455566406,0.007701687980443239,-0.11147750169038773,0.1543361246585846,-0.24855312705039978,-0.34852102398872375,0.49317222833633423,-0.24084998667240143,-1.3944703340530396,-0.10465861856937408,-0.39367666840553284,-0.27794939279556274
1749027056.7983851,0.1486160010099411,-1.8134046993651332,2.193007294331686,-3.6475845775999964,4.428618431091309,5.238282203674316,0.27316632866859436,0.00731351925060153,-0.11445583403110504,0.15915854275226593,-0.25565987825393677,-0.3464473783969879,0.5276484489440918,-0.25027167797088623,-1.340538740158081,-0.1412171870470047,-0.34470754861831665,-0.2601211369037628
1749027056.7984245,0.1497161090373993,-1.8133775196471156,2.192540470753805,-3.6469580135741175,4.427550315856934,5.236916542053223,0.2776530086994171,0.008889826945960522,-0.11578702181577682,0.1549941599369049,-0.2593912184238434,-0.3390474319458008,0.4794469177722931,-0.22636623680591583,-1.3475061655044556,-0.11777752637863159,-0.294691801071167,-0.32757553458213806
1749027056.7984636,0.1497161090373993,-1.8133775196471156,2.192540470753805,-3.6469580135741175,4.427550315856934,5.236916542053223,0.2776530086994171,0.008889826945960522,-0.11578702181577682,0.1549941599369049,-0.2593912184238434,-0.3390474319458008,0.4794469177722931,-0.22636623680591583,-1.3475061655044556,-0.11777752637863159,-0.294691801071167,-0.32757553458213806
1749027056.798505,0.15084229409694672,-1.8133379421629847,2.192061249409811,-3.6463657818236292,4.426528453826904,5.235527038574219,0.2776317000389099,0.008775460533797741,-0.11825928092002869,0.15578104555606842,-0.25654661655426025,-0.3452598750591278,0.5028529167175293,-0.2389848381280899,-1.3190462589263916,-0.10952199250459671,-0.3085443377494812,-0.35597771406173706
1749027056.7985432,0.15084229409694672,-1.8133379421629847,2.192061249409811,-3.6463657818236292,4.426528453826904,5.235527038574219,0.2776317000389099,0.008775460533797741,-0.11825928092002869,0.15578104555606842,-0.25654661655426025,-0.3452598750591278,0.5028529167175293,-0.2389848381280899,-1.3190462589263916,-0.10952199250459671,-0.3085443377494812,-0.35597771406173706
1749027056.7985814,0.15135835111141205,-1.813305517236227,2.1918214003192347,-3.6460348568358363,4.426010608673096,5.234848976135254,0.2801624834537506,0.008414520882070065,-0.11891443282365799,0.15718048810958862,-0.2591143548488617,-0.3492434322834015,0.5337733626365662,-0.22890521585941315,-1.3009982109069824,-0.10826793313026428,-0.33939725160598755,-0.33942121267318726
1749027056.7986226,0.15249738097190857,-1.8132935963072718,2.1913579146014612,-3.645439764062399,4.424958229064941,5.233419895172119,0.2858780324459076,0.008364501409232616,-0.11752330511808395,0.15960808098316193,-0.25995901226997375,-0.350890576839447,0.49056702852249146,-0.2388661503791809,-1.2902768850326538,-0.07476097345352173,-0.3282269835472107,-0.34552010893821716
1749027056.7986605,0.15249738097190857,-1.8132935963072718,2.1913579146014612,-3.645439764062399,4.424958229064941,5.233419895172119,0.2858780324459076,0.008364501409232616,-0.11752330511808395,0.15960808098316193,-0.25995901226997375,-0.350890576839447,0.49056702852249146,-0.2388661503791809,-1.2902768850326538,-0.07476097345352173,-0.3282269835472107,-0.34552010893821716
1749027056.7986982,0.15312182903289795,-1.8132816753783167,2.191134277974264,-3.6450969181456507,4.424417018890381,5.232728481292725,0.28417691588401794,0.00781924743205309,-0.11670524626970291,0.1584804505109787,-0.26286762952804565,-0.3575848937034607,0.5205445885658264,-0.22984153032302856,-1.3386623859405518,-0.05875606834888458,-0.3222690224647522,-0.3265778124332428
