nimar13/UR3e_dataset_trayectorias/trayectorias_ejecutadas/jtraj/trayectoria_108_result.csv
timestamp,q1,q2,q3,q4,q5,q6,qd1,qd2,qd3,qd4,qd5,qd6,tau1,tau2,tau3,tau4,tau5,tau6
1749028048.434286,0.8079946041107178,-0.5672148031047364,-1.0024598836898804,2.2196990686604003,0.44780927896499634,-2.777156416569845,0.0002490929327905178,-0.0017871606396511197,0.004342334810644388,-0.0023454446345567703,0.0023929907474666834,0.002131566870957613,0.1411793828010559,-0.973766565322876,0.02366720139980316,0.12510555982589722,-0.2999139428138733,-0.011258944869041443
1749028048.434332,0.8079791069030762,-0.5672183793834229,-1.0024635791778564,2.2197109895893554,0.4477791488170624,-2.7771719137774866,0.00023962589330039918,-0.001546369632706046,0.003780551953241229,-0.0022759728599339724,0.0019228208111599088,0.002076967852190137,0.13851670920848846,-0.9635627269744873,0.031874947249889374,0.11519810557365417,-0.31758755445480347,-0.004712268710136414
1749028048.434376,0.8079791069030762,-0.5672183793834229,-1.0024635791778564,2.2197109895893554,0.4477791488170624,-2.7771719137774866,0.00023962589330039918,-0.001546369632706046,0.003780551953241229,-0.0022759728599339724,0.0019228208111599088,0.002076967852190137,0.13851670920848846,-0.9635627269744873,0.031874947249889374,0.11519810557365417,-0.31758755445480347,-0.004712268710136414
1749028048.4344172,0.8079791069030762,-0.5672100347331543,-1.0024759769439697,2.2196990686604003,0.44782477617263794,-2.777163330708639,0.00023084554413799196,-0.001386401941999793,0.003143468638882041,-0.0025132379960268736,0.001502036931924522,0.0026691060047596693,0.13543260097503662,-0.9875648021697998,0.04089979827404022,0.12767060101032257,-0.30131465196609497,-0.014965072274208069
1749028048.4344566,0.8080028891563416,-0.5672100347331543,-1.0024516582489014,2.2196990686604003,0.44782114028930664,-2.777132574711935,0.00022267873282544315,-0.0011507412418723106,0.002559656510129571,-0.0025584811810404062,0.0012144059874117374,0.0033693022560328245,0.11286115646362305,-0.9779036641120911,0.021638929843902588,0.12693800032138824,-0.3042522966861725,-0.02106626331806183
1749028048.434495,0.8080017566680908,-0.5672183793834229,-1.002455234527588,2.219695492381714,0.4477863013744354,-2.777151409779684,0.00021508244390133768,-0.0011103460565209389,0.0026090091560035944,-0.00250967126339674,0.0010165603598579764,0.0036204266361892223,0.141219362616539,-0.9802664518356323,0.05073632672429085,0.1333950161933899,-0.30981773138046265,-0.025728002190589905
1749028048.4345405,0.8079981803894043,-0.5672183793834229,-1.0024362802505493,2.2196990686604003,0.44780564308166504,-2.7771547476397913,0.00020798196783289313,-0.000854338810313493,0.00303793721832335,-0.002007466508075595,0.0008740748162381351,0.003445017384365201,0.14766812324523926,-0.9699760675430298,0.03986654430627823,0.12507978081703186,-0.30800530314445496,-0.00938500463962555
1749028048.4345798,0.8080017566680908,-0.5672028821757813,-1.0024397373199463,2.2196835714527587,0.44780564308166504,-2.7771242300616663,0.00020132942881900817,-0.0008378099882975221,0.0029876327607780695,-0.0015569020761176944,0.0007668188191018999,0.0028884971980005503,0.15233132243156433,-0.990308403968811,0.03639878332614899,0.12986531853675842,-0.301268607378006,-0.01393146812915802
1749028048.4346404,0.8079946041107178,-0.5672457975200196,-1.0024278163909912,2.21967522680249,0.44782477617263794,-2.777151409779684,0.00018923947936855257,-0.0007548673893325031,0.0019303809385746717,-0.0011583653977140784,0.0006160360644571483,0.0020067128352820873,0.13356658816337585,-0.9633439779281616,0.03000672534108162,0.12220355868339539,-0.3065129220485687,-0.01474393904209137
1749028048.4346983,0.8079946041107178,-0.5672457975200196,-1.0024278163909912,2.21967522680249,0.44782477617263794,-2.777151409779684,0.00018923947936855257,-0.0007548673893325031,0.0019303809385746717,-0.0011583653977140784,0.0006160360644571483,0.0020067128352820873,0.13356658816337585,-0.9633439779281616,0.03000672534108162,0.12220355868339539,-0.3065129220485687,-0.01474393904209137
1749028048.4347534,0.8079946041107178,-0.5672183793834229,-1.0024467706680298,2.2196835714527587,0.4477621912956238,-2.777158323918478,0.0001837163435993716,-0.0006750008906237781,0.0015212809666991234,-0.0010233571520075202,0.0005609772051684558,0.0018160529434680939,0.13918539881706238,-0.9795478582382202,0.03129401430487633,0.12413519620895386,-0.3147415518760681,-0.009411141276359558
1749028048.4348042,0.8079826831817627,-0.567230300312378,-1.0024278163909912,2.219668074245117,0.44779497385025024,-2.7771275679217737,0.00017851447046268731,-0.0006958097219467163,0.0012267236597836018,-0.0009573756833560765,0.0005149819771759212,0.001618208596482873,0.15742900967597961,-0.9653948545455933,0.03828038275241852,0.12936599552631378,-0.299776554107666,-0.013916566967964172
1749028048.4348435,0.8080328106880188,-0.567230300312378,-1.0024243593215942,2.2196871477314453,0.4478248059749603,-2.7771087328540247,0.0001735957630444318,-0.0006352519849315286,0.0010260597337037325,-0.0008799845818430185,0.0004759762960020453,0.0013744615716859698,0.16352349519729614,-0.9581418037414551,0.030007801949977875,0.12609395384788513,-0.2982387840747833,-0.009203508496284485
1749028048.4348931,0.8079946041107178,-0.5672230285457154,-1.0024278163909912,2.2196716505238037,0.44785210490226746,-2.7771087328540247,0.0001689371420070529,-0.0005837416392751038,0.0009982932824641466,-0.0007388039375655353,0.0004424762155395001,0.001233546994626522,0.15215718746185303,-0.9477030038833618,0.04760442301630974,0.11518445611000061,-0.3258618712425232,-0.00302790105342865
1749028048.4349406,0.8080017566680908,-0.5672267240336915,-1.0024621486663818,2.219702644939087,0.44780564308166504,-2.7771123091327112,0.00016452869749628007,-0.0005399499787017703,0.000883177388459444,-0.000577241531573236,0.00041339031304232776,0.001179979182779789,0.1533815562725067,-0.9701900482177734,0.04174191877245903,0.13031916320323944,-0.32224708795547485,-0.0033546537160873413
1749028048.434982,0.8079791069030762,-0.5672577184489747,-1.0024431943893433,2.2196990686604003,0.44778984785079956,-2.777099672948019,0.00016034141299314797,-0.0005022789118811488,0.000685856502968818,-0.0005005403072573245,0.00038789803511463106,0.0011210166849195957,0.18036186695098877,-0.9516544342041016,0.027465034276247025,0.13286030292510986,-0.312618225812912,-0.014691159129142761
1749028048.4350197,0.8079862594604492,-0.5672530692866822,-1.0024243593215942,2.219668074245117,0.447847455739975,-2.7771225611316126,0.00015257489576470107,-0.0004407683154568076,0.0004595524806063622,-0.0004839468456339091,0.00034531994606368244,0.0009256803314201534,0.17317011952400208,-0.9405614137649536,0.038296669721603394,0.1235990971326828,-0.32007747888565063,-0.014650359749794006
1749028048.4350784,0.8079862594604492,-0.5672530692866822,-1.0024243593215942,2.219668074245117,0.447847455739975,-2.7771225611316126,0.00015257489576470107,-0.0004407683154568076,0.0004595524806063622,-0.0004839468456339091,0.00034531994606368244,0.0009256803314201534,0.17317011952400208,-0.9405614137649536,0.038296669721603394,0.1235990971326828,-0.32007747888565063,-0.014650359749794006
1749028048.435119,0.8079683184623718,-0.5672612947276612,-1.0024313926696777,2.2196716505238037,0.44778984785079956,-2.7771032492267054,0.00014552631182596087,-0.0003926861099898815,0.000455993227660656,-0.00041334013803862035,0.00018839412950910628,0.000754356209654361,0.1752040684223175,-0.9373757839202881,0.03498532250523567,0.12832817435264587,-0.31718459725379944,-0.017193302512168884
1749028048.435156,0.8080017566680908,-0.5672064584544678,-1.0023998022079468,2.2196716505238037,0.4478175640106201,-2.777119223271505,0.000142240576678887,-0.0003723721602000296,0.00048223588964901865,-0.00038399294135160744,0.00010696539538912475,0.0007411337574012578,0.17058071494102478,-0.9056169986724854,0.04121936857700348,0.13628140091896057,-0.32120463252067566,-0.018715322017669678
1749028048.4364836,0.8079719543457031,-0.5672530692866822,-1.0024312734603882,2.219690724010132,0.4477970600128174,-2.777134720479147,0.0001390999968862161,-0.00035406078677624464,0.00045567614142782986,-0.00035845351521857083,8.908649760996923e-05,0.0007165705319494009,0.18367943167686462,-0.9217493534088135,0.03944183513522148,0.12383785843849182,-0.3269054591655731,-0.0138588547706604
1749028048.4378002,0.8079910278320312,-0.5672612947276612,-1.0024278163909912,2.2196871477314453,0.44777435064315796,-2.777099672948019,0.00013609277084469795,-0.00033746479311957955,0.00048195759882219136,-0.000336125202011317,8.275298750959337e-05,0.0006973774288780987,0.18780042231082916,-0.9177979230880737,0.036398060619831085,0.1331903636455536,-0.32102563977241516,-0.011857211589813232
1749028048.4782841,0.8079910278320312,-0.5672612947276612,-1.0024278163909912,2.2196871477314453,0.44777435064315796,-2.777099672948019,0.00013609277084469795,-0.00033746479311957955,0.00048195759882219136,-0.000336125202011317,8.275298750959337e-05,0.0006973774288780987,0.18780042231082916,-0.9177979230880737,0.036398060619831085,0.1331903636455536,-0.32102563977241516,-0.011857211589813232
1749028048.4783306,0.807968258857727,-0.5672183793834229,-1.0023998022079468,2.2196716505238037,0.44778984785079956,-2.7771225611316126,0.0001304586185142398,-0.00026998596149496734,0.0004283458983991295,-0.0002988598425872624,7.536549674114212e-05,0.0006399776320904493,0.18031463027000427,-0.9175928831100464,0.03805914521217346,0.14990085363388062,-0.3231962025165558,-0.02089017629623413
1749028048.478371,0.807968258857727,-0.5672183793834229,-1.0023998022079468,2.2196716505238037,0.44778984785079956,-2.7771225611316126,0.0001304586185142398,-0.00026998596149496734,0.0004283458983991295,-0.0002988598425872624,7.536549674114212e-05,0.0006399776320904493,0.18031463027000427,-0.9175928831100464,0.03805914521217346,0.14990085363388062,-0.3231962025165558,-0.02089017629623413
1749028048.4784098,0.8080101013183594,-0.567237452869751,-1.0024124383926392,2.2196871477314453,0.447797030210495,-2.7771428267108362,0.00012527072976808995,-0.00024865998420864344,0.00038279633736237884,-0.00026905996492132545,6.952599505893886e-05,0.0005686769145540893,0.19434970617294312,-0.8962600231170654,0.030153796076774597,0.1527855396270752,-0.3287072479724884,-0.00710006058216095
1749028048.4784486,0.8080101013183594,-0.5672529500773926,-1.0024195909500122,2.2196597295948486,0.44782477617263794,-2.7771225611316126,0.00012282835086807609,-0.00023921816318761557,0.0003634657186921686,-0.0002562804729677737,6.693881005048752e-05,0.000561438559088856,0.19885171949863434,-0.9019439220428467,0.022999711334705353,0.13964691758155823,-0.32844167947769165,-0.031061530113220215
1749028048.478487,0.8080101013183594,-0.5672529500773926,-1.0024195909500122,2.2196597295948486,0.44782477617263794,-2.7771225611316126,0.00012282835086807609,-0.00023921816318761557,0.0003634657186921686,-0.0002562804729677737,6.693881005048752e-05,0.000561438559088856,0.19885171949863434,-0.9019439220428467,0.022999711334705353,0.13964691758155823,-0.32844167947769165,-0.031061530113220215
1749028048.4785252,0.8080256581306458,-0.5672410291484375,-1.0024124383926392,2.2196943002888183,0.44781285524368286,-2.777119223271505,0.00011821860243799165,-0.0002223327028332278,0.0003301254764664918,-0.00023404855164699256,6.230281724128872e-05,0.0004836362786591053,0.2132011502981186,-0.8928990364074707,0.037147361785173416,0.15196943283081055,-0.32681602239608765,-0.021719515323638916
1749028048.4785626,0.8079754710197449,-0.5672064584544678,-1.0024195909500122,2.2196871477314453,0.4478093087673187,-2.777099672948019,0.00011604118481045589,-0.00011851244198624045,0.00031564905657432973,-0.00022431998513638973,6.021771696396172e-05,0.00044935441110283136,0.22324220836162567,-0.8650110960006714,0.00911097601056099,0.1636294722557068,-0.33888518810272217,-0.03417477011680603
1749028048.4786012,0.8079754710197449,-0.5672064584544678,-1.0024195909500122,2.2196871477314453,0.4478093087673187,-2.777099672948019,0.00011604118481045589,-0.00011851244198624045,0.00031564905657432973,-0.00022431998513638973,6.021771696396172e-05,0.00044935441110283136,0.22324220836162567,-0.8650110960006714,0.00911097601056099,0.1636294722557068,-0.33888518810272217,-0.03417477011680603
1749028048.478639,0.8079791069030762,-0.5672338765910645,-1.0023998022079468,2.219690724010132,0.4478020668029785,-2.777126137410299,0.00011394076864235103,-7.132141763577238e-05,0.0003023892058990896,-0.00021536827262025326,5.826769120176323e-05,0.0004193665226921439,0.2170681208372116,-0.8826447129249573,0.02044769935309887,0.13830135762691498,-0.3350884020328522,-0.04546135663986206
1749028048.478676,0.8079826831817627,-0.5672146838954468,-1.0024124383926392,2.21967522680249,0.4478020668029785,-2.777119223271505,0.00011191827070433646,-6.820336420787498e-05,0.0002901987754739821,-0.00020710397802758962,5.6440116168232635e-05,0.0003932102117687464,0.22411216795444489,-0.8854489326477051,0.007586494088172913,0.14512935280799866,-0.32486721873283386,-0.03783807158470154
1749028048.4787133,0.8080137372016907,-0.5672422212413331,-1.0024349689483643,2.2197062212177734,0.4478175640106201,-2.7771156469928187,0.00011864316184073687,-6.339529500110075e-05,0.00026854718453250825,-0.00019234341743867844,5.310861160978675e-05,0.0003778251411858946,0.20950709283351898,-0.8776236772537231,0.019048817455768585,0.16186963021755219,-0.3463440537452698,-0.024833619594573975
1749028048.4787514,0.8079636096954346,-0.5672219556621094,-1.0024278163909912,2.2196716505238037,0.44780564308166504,-2.777060572301046,0.00012138740567024797,-6.1238300986588e-05,0.00025888957316055894,-0.00018572525004856288,5.158615385880694e-05,0.0003746234579011798,0.23548951745033264,-0.8698595762252808,0.019187819212675095,0.1574760377407074,-0.34186771512031555,-0.034144699573516846
1749028048.4787886,0.8079636096954346,-0.5672219556621094,-1.0024278163909912,2.2196716505238037,0.44780564308166504,-2.777060572301046,0.00012138740567024797,-6.1238300986588e-05,0.00025888957316055894,-0.00018572525004856288,5.158615385880694e-05,0.0003746234579011798,0.23548951745033264,-0.8698595762252808,0.019187819212675095,0.1574760377407074,-0.34186771512031555,-0.034144699573516846
1749028048.4788299,0.8080017566680908,-0.5672219556621094,-1.0024158954620361,2.219690724010132,0.44782108068466187,-2.777076069508688,0.00011747248936444521,-5.73370089114178e-05,0.00024151869001798332,-0.00017376794130541384,4.878899926552549e-05,0.00034229911398142576,0.2375774383544922,-0.8572636842727661,0.004905086010694504,0.15876081585884094,-0.34268078207969666,-0.018383443355560303
1749028048.4788685,0.8080017566680908,-0.5672219556621094,-1.0024158954620361,2.219690724010132,0.44782108068466187,-2.777076069508688,0.00011747248936444521,-5.73370089114178e-05,0.00024151869001798332,-0.00017376794130541384,4.878899926552549e-05,0.00034229911398142576,0.2375774383544922,-0.8572636842727661,0.004905086010694504,0.15876081585884094,-0.34268078207969666,-0.018383443355560303
1749028048.478906,0.8079981803894043,-0.5672146838954468,-1.0024123191833496,2.2196871477314453,0.44780564308166504,-2.7771344820605677,0.0001137603321694769,-2.6954208806273527e-05,0.000226332587772049,-0.0001632576750125736,4.627966700354591e-05,0.0003126509254798293,0.2522936463356018,-0.869078516960144,0.0046453289687633514,0.14896976947784424,-0.3485598564147949,-0.02568724751472473
1749028048.4789429,0.8079910278320312,-0.5672338765910645,-1.0023963451385498,2.2196788030811767,0.44777798652648926,-2.777119223271505,0.00011198957508895546,-2.616787242004648e-05,0.0002194339467678219,-0.00015846535097807646,4.511935912887566e-05,0.00029963706037960947,0.22665400803089142,-0.8575342297554016,-0.0029982849955558777,0.151537224650383,-0.34851595759391785,-0.040074706077575684
1749028048.47898,0.8079900145530701,-0.5672064584544678,-1.0024124383926392,2.219668074245117,0.44780927896499634,-2.7771032492267054,0.00011027570144506171,-2.5428429580642842e-05,0.0002129435888491571,-0.00015394645743072033,4.401585101732053e-05,0.0002876597282011062,0.24077174067497253,-0.8646348714828491,0.013457225635647774,0.17235618829727173,-0.37337613105773926,-0.0364147424697876
1749028048.479017,0.8079671859741211,-0.567237452869751,-1.0024158954620361,2.219656153316162,0.4477851986885071,-2.7771032492267054,0.0001086122210836038,-2.4729763026698492e-05,0.0002068261383101344,-0.00012926281488034874,4.296501720091328e-05,0.0002766032121144235,0.2424146980047226,-0.8671451210975647,-0.004404846578836441,0.16750331223011017,-0.3538919687271118,-0.03472733497619629
1749028048.4797354,0.8079826831817627,-0.5672146838954468,-1.0024124383926392,2.21970979749646,0.44779348373413086,-2.7771225611316126,0.00010699685662984848,-2.4068422135314904e-05,0.0002010499156313017,-0.000122167679364793,4.1963241528719664e-05,0.0002663651539478451,0.20759811997413635,-0.8818908929824829,-0.005828995257616043,0.17375457286834717,-0.3575107753276825,-0.037841856479644775
1749028048.4817045,0.8080184459686279,-0.5672493737987061,-1.0024349689483643,2.2196835714527587,0.44782114028930664,-2.7770946661578577,0.000105431376141496,-2.3441465600626543e-05,0.00019558810163289309,-9.897405107039958e-05,2.9221884688013233e-05,0.00025685864966362715,0.18505240976810455,-0.8775506019592285,-0.00019697844982147217,0.19058752059936523,-0.35841044783592224,-0.032469213008880615
1749028048.5222814,0.8080184459686279,-0.5672493737987061,-1.0024349689483643,2.2196835714527587,0.44782114028930664,-2.7770946661578577,0.000105431376141496,-2.3441465600626543e-05,0.00019558810163289309,-9.897405107039958e-05,2.9221884688013233e-05,0.00025685864966362715,0.18505240976810455,-0.8775506019592285,-0.00019697844982147217,0.19058752059936523,-0.35841044783592224,-0.032469213008880615
1749028048.5223272,0.8080184459686279,-0.5672493737987061,-1.0024349689483643,2.2196835714527587,0.44782114028930664,-2.7770946661578577,0.000105431376141496,-2.3441465600626543e-05,0.00019558810163289309,-9.897405107039958e-05,2.9221884688013233e-05,0.00025685864966362715,0.18505240976810455,-0.8775506019592285,-0.00019697844982147217,0.19058752059936523,-0.35841044783592224,-0.032469213008880615
1749028048.522368,0.8079900145530701,-0.5672183793834229,-1.0024124383926392,2.219690724010132,0.44778627157211304,-2.777106587086813,0.00010390985698904842,-2.2846474166726694e-05,0.00019041523046325892,-7.405060023302212e-05,2.1587400624412112e-05,0.00024800701066851616,0.20884521305561066,-0.892362117767334,-0.0025061629712581635,0.19338399171829224,-0.3711565434932709,-0.05217611789703369
1749028048.522408,0.8080220222473145,-0.5672183793834229,-1.0023927688598633,2.219690724010132,0.4477708041667938,-2.777076069508688,0.00010099478822667152,-2.1742545868619345e-05,0.00018084885959979147,7.77903405833058e-05,8.202669050660916e-06,0.00023201768635772169,0.18673232197761536,-0.8842812776565552,-0.019579999148845673,0.2019703984260559,-0.37038618326187134,-0.022867560386657715
1749028048.5224457,0.808025598526001,-0.5672530692866822,-1.0024158954620361,2.219668074245117,0.4477970600128174,-2.7770689169513147,9.823774598771706e-05,-2.074047915812116e-05,0.00017219789151567966,0.000743894197512418,2.5614144760766067e-07,0.00021795507927890867,0.17388790845870972,-0.9192681312561035,-0.005828354507684708,0.23364943265914917,-0.3957051932811737,-0.01496914029121399
1749028048.522484,0.8080101013183594,-0.567230300312378,-1.0024124383926392,2.219702644939087,0.4477815628051758,-2.7771156469928187,9.691655577626079e-05,-4.034410085296258e-05,0.00016817553841974586,0.0012067265342921019,4.526287966655218e-08,0.00021202843345236033,0.18445271253585815,-0.9225418567657471,-0.002884097397327423,0.21163368225097656,-0.39413347840309143,-0.012447357177734375
1749028048.5225227,0.8080101013183594,-0.567230300312378,-1.0024124383926392,2.219702644939087,0.4477815628051758,-2.7771156469928187,9.691655577626079e-05,-4.034410085296258e-05,0.00016817553841974586,0.0012067265342921019,4.526287966655218e-08,0.00021202843345236033,0.18445271253585815,-0.9225418567657471,-0.002884097397327423,0.21163368225097656,-0.39413347840309143,-0.012447357177734375
1749028048.5225608,0.8079981803894043,-0.5672410291484375,-1.0024124383926392,2.2196990686604003,0.44780927896499634,-2.777099672948019,9.437485277885571e-05,-3.8798611058155075e-05,0.0001606695877853781,0.0016681443667039275,1.4134058368142632e-09,0.00022480676125269383,0.18194667994976044,-0.9229063987731934,-0.00849786028265953,0.22622674703598022,-0.41217711567878723,0.013219565153121948
1749028048.522598,0.8080065250396729,-0.5672338765910645,-1.0024312734603882,2.2196990686604003,0.44777435064315796,-2.7770913282977503,9.31548056541942e-05,-3.7979883927619085e-05,0.0001571622269693762,0.001986896153539419,-0.0004623087588697672,0.0019683889113366604,0.15866461396217346,-0.9198160171508789,0.006938185542821884,0.23328238725662231,-0.42768946290016174,0.027558982372283936
1749028048.5226355,0.8080065250396729,-0.5672338765910645,-1.0024312734603882,2.2196990686604003,0.44777435064315796,-2.7770913282977503,9.31548056541942e-05,-3.7979883927619085e-05,0.0001571622269693762,0.001986896153539419,-0.0004623087588697672,0.0019683889113366604,0.15866461396217346,-0.9198160171508789,0.006938185542821884,0.23328238725662231,-0.42768946290016174,0.027558982372283936
1749028048.522673,0.8079671859741211,-0.567237452869751,-1.0024313926696777,2.2197109895893554,0.44780924916267395,-2.77706748643984,7.980938971741125e-05,-5.460587635752745e-05,0.00015058802091516554,0.0024495243560522795,-0.0011703306809067726,0.006775401998311281,0.14806315302848816,-0.9349433779716492,0.006027694791555405,0.26203209161758423,-0.42318716645240784,0.05018915235996246
1749028048.5227108,0.8079671859741211,-0.567237452869751,-1.0024313926696777,2.2197109895893554,0.44780924916267395,-2.77706748643984,7.980938971741125e-05,-5.460587635752745e-05,0.00015058802091516554,0.0024495243560522795,-0.0011703306809067726,0.006775401998311281,0.14806315302848816,-0.9349433779716492,0.006027694791555405,0.26203209161758423,-0.42318716645240784,0.05018915235996246
1749028048.5227487,0.8080220222473145,-0.5672722619822999,-1.0024158954620361,2.219743176097534,0.44777798652648926,-2.7769933382617396,7.749980431981385e-05,-5.253594645182602e-05,0.00014454177289735526,0.0035469699651002884,-0.0013771547237411141,0.011301902122795582,0.17639443278312683,-0.9406654238700867,0.008989516645669937,0.2582054138183594,-0.46570566296577454,0.05803598463535309
1749028048.5227861,0.8079946041107178,-0.5672266048244019,-1.0024278163909912,2.2197229105183105,0.4477851986885071,-2.7770074049579065,7.655716763110831e-05,-5.153328675078228e-05,0.00014169701898936182,0.0038671803195029497,-0.0017677235882729292,0.013754759915173054,0.1421160250902176,-0.9494283199310303,0.022621959447860718,0.2704676389694214,-0.47016724944114685,0.0647762268781662
1749028048.5228236,0.8079946041107178,-0.5672266048244019,-1.0024278163909912,2.2197229105183105,0.4477851986885071,-2.7770074049579065,7.655716763110831e-05,-5.153328675078228e-05,0.00014169701898936182,0.0038671803195029497,-0.0017677235882729292,0.013754759915173054,0.1421160250902176,-0.9494283199310303,0.022621959447860718,0.2704676389694214,-0.47016724944114685,0.0647762268781662
1749028048.522861,0.8079791069030762,-0.567237452869751,-1.0024431943893433,2.2197512823292236,0.44774672389030457,-2.776947800313131,7.474151061614975e-05,-6.61794183542952e-05,0.00013633091293741018,0.0048719109036028385,-0.003066006815060973,0.020726589486002922,0.15592357516288757,-0.9691015481948853,0.021853554993867874,0.2956482172012329,-0.4739561378955841,0.06936211884021759
1749028048.5228977,0.8080101013183594,-0.5672410291484375,-1.0024278163909912,2.2197560507008056,0.44776469469070435,-2.776907984410421,7.386446668533608e-05,-6.498971924884245e-05,0.00010702386498451233,0.005981110502034426,-0.0037167868576943874,0.022587290033698082,0.13530553877353668,-0.9758018255233765,0.05458499491214752,0.29136472940444946,-0.47693613171577454,0.05331540107727051
1749028048.5229352,0.8080101013183594,-0.5672410291484375,-1.0024278163909912,2.2197560507008056,0.44776469469070435,-2.776907984410421,7.386446668533608e-05,-6.498971924884245e-05,0.00010702386498451233,0.005981110502034426,-0.0037167868576943874,0.022587290033698082,0.13530553877353668,-0.9758018255233765,0.05458499491214752,0.29136472940444946,-0.47693613171577454,0.05331540107727051
1749028048.5229728,0.8079791069030762,-0.5672649902156373,-1.0024278163909912,2.219766779536865,0.4477766156196594,-2.7769063154803675,7.300921424757689e-05,-6.383727304637432e-05,0.00010566746641416103,0.007940080016851425,-0.004642194602638483,0.021801279857754707,0.12553158402442932,-0.9881589412689209,0.048222534358501434,0.30768293142318726,-0.4830847978591919,0.061323702335357666
1749028048.5230098,0.8079826831817627,-0.5672338765910645,-1.0023963451385498,2.2197953897663574,0.44773340225219727,-2.7768245379077356,7.217282109195367e-05,-5.449972377391532e-05,0.00012569372483994812,0.008669152855873108,-0.005652822088450193,0.021951081231236458,0.12616047263145447,-0.9972710609436035,0.06251584738492966,0.29366517066955566,-0.5061790347099304,0.05016686022281647
1749028048.5237594,0.8079826831817627,-0.5672457975200196,-1.0023998022079468,2.219839020366333,0.44773340225219727,-2.776780430470602,7.055624882923439e-05,-7.593579357489944e-05,0.002606884343549609,0.010745168663561344,-0.006690718233585358,0.02078927680850029,0.10792461037635803,-0.998537540435791,0.0634748786687851,0.32244813442230225,-0.5092332363128662,0.07923479378223419
1749028048.5257068,0.8079791069030762,-0.5672219556621094,-1.0024034976959229,2.219862623805664,0.4477059841156006,-2.7767015139209192,6.977484008530155e-05,-9.870470967143774e-05,0.004625728353857994,0.011835671961307526,-0.008290290832519531,0.02089935727417469,0.08390184491872787,-1.0154950618743896,0.037129294127225876,0.3280407190322876,-0.52217698097229,0.08958043903112411
1749028048.5662875,0.8079791069030762,-0.5672219556621094,-1.0024034976959229,2.219862623805664,0.4477059841156006,-2.7767015139209192,6.977484008530155e-05,-9.870470967143774e-05,0.004625728353857994,0.011835671961307526,-0.008290290832519531,0.02089935727417469,0.08390184491872787,-1.0154950618743896,0.037129294127225876,0.3280407190322876,-0.52217698097229,0.08958043903112411
1749028048.5663328,0.8079981803894043,-0.5672219556621094,-1.0023677349090576,2.2198948103138427,0.44763755798339844,-2.776644770299093,4.666993845603429e-06,-0.0012097748694941401,0.004046352580189705,0.014619490131735802,-0.011582443490624428,0.02182047627866268,0.10692119598388672,-1.0273774862289429,0.0549994595348835,0.332372784614563,-0.5191538333892822,0.12074442207813263
1749028048.566373,0.8079755306243896,-0.5672612947276612,-1.0023831129074097,2.219931049937866,0.4476149082183838,-2.776578489934103,4.5534022774518235e-08,-0.0030714846216142178,0.0033438147511333227,0.015530739910900593,-0.01269502379000187,0.023381372913718224,0.05656138062477112,-1.0288101434707642,0.06432445347309113,0.31293874979019165,-0.5147879719734192,0.11548210680484772
1749028048.5664117,0.8079862594604492,-0.5672649902156373,-1.0023677349090576,2.2199548917957763,0.44760626554489136,-2.7765420118915003,4.442575474161714e-10,-0.0027965314220637083,0.00353433471173048,0.0167216993868351,-0.013363313861191273,0.023846890777349472,0.08277958631515503,-1.0062439441680908,0.06998899579048157,0.3278936445713043,-0.5214025378227234,0.12310268729925156
1749028048.56645,0.8079636096954346,-0.5672493737987061,-1.0023523569107056,2.220003290767334,0.44756701588630676,-2.7764881292926233,4.334445996567737e-12,-0.0022499612532556057,0.004278502427041531,0.016963986679911613,-0.014537263661623001,0.025862766429781914,0.05977664887905121,-1.0178533792495728,0.06854469329118729,0.3126908540725708,-0.5124693512916565,0.1182045191526413
1749028048.5664883,0.8079636096954346,-0.5672493737987061,-1.0023523569107056,2.220003290767334,0.44756701588630676,-2.7764881292926233,4.334445996567737e-12,-0.0022499612532556057,0.004278502427041531,0.016963986679911613,-0.014537263661623001,0.025862766429781914,0.05977664887905121,-1.0178533792495728,0.06854469329118729,0.3126908540725708,-0.5124693512916565,0.1182045191526413
1749028048.5665257,0.8079599738121033,-0.5672530692866822,-1.0023283958435059,2.2200698095509033,0.44750213623046875,-2.7764180342303675,4.1260187176662727e-16,-0.0016643514391034842,0.0054237558506429195,0.016656197607517242,-0.017438584938645363,0.02941243164241314,0.06008391082286835,-1.0514823198318481,0.06274504214525223,0.3040085434913635,-0.5034629702568054,0.153019979596138
1749028048.5665643,0.8079791069030762,-0.5672858518413086,-1.0023285150527954,2.220082922572754,0.4474973678588867,-2.7763541380511683,4.025593978587823e-18,-0.0027202374767512083,0.0051998598501086235,0.016223866492509842,-0.016946731135249138,0.030976107344031334,0.05074998363852501,-1.0749714374542236,0.05800577998161316,0.29976674914360046,-0.5017417669296265,0.1574370115995407
1749028048.5666025,0.8079910278320312,-0.5672930043986817,-1.0023249387741089,2.220122738475464,0.44737982749938965,-2.77627402940859,-0.0006675460608676076,-0.004109908826649189,0.005372165236622095,0.01573588326573372,-0.017328713089227676,0.033957019448280334,0.0250091552734375,-1.0597823858261108,0.0875866711139679,0.3043692708015442,-0.503802478313446,0.17101450264453888
1749028048.5666404,0.8079707622528076,-0.5673131507686158,-1.0023319721221924,2.220167322749756,0.44740962982177734,-2.7762039343463343,-0.0017985308077186346,-0.0046026501804590225,0.00572730740532279,0.015595718286931515,-0.018454769626259804,0.03661089763045311,0.04534761607646942,-1.0692495107650757,0.07542327046394348,0.2977791428565979,-0.4853232204914093,0.1526946872472763
1749028048.5666776,0.8079707622528076,-0.5673131507686158,-1.0023319721221924,2.220167322749756,0.44740962982177734,-2.7762039343463343,-0.0017985308077186346,-0.0046026501804590225,0.00572730740532279,0.015595718286931515,-0.018454769626259804,0.03661089763045311,0.04534761607646942,-1.0692495107650757,0.07542327046394348,0.2977791428565979,-0.4853232204914093,0.1526946872472763
1749028048.5667148,0.8079546093940735,-0.5672622484019776,-1.002303957939148,2.2202109533497314,0.4473891258239746,-2.7761240641223353,-0.0016550741856917739,-0.004245541989803314,0.006164398044347763,0.015530683100223541,-0.018326329067349434,0.039268579334020615,0.04655855521559715,-1.0604958534240723,0.09641702473163605,0.2972053289413452,-0.48270565271377563,0.16195794939994812
1749028048.5667524,0.8079707622528076,-0.567282037144043,-1.002295732498169,2.220242901439331,0.4472947418689728,-2.7760401407824915,-0.0016738459235057235,-0.00407623453065753,0.006364499218761921,0.015514716506004333,-0.017836060374975204,0.04187073931097984,0.04644261673092842,-1.0733875036239624,0.0793689414858818,0.28306692838668823,-0.4611985683441162,0.1721859723329544
1749028048.5667899,0.8079546093940735,-0.5672903817943116,-1.002280354499817,2.2202703195759277,0.44727057218551636,-2.775964323674337,-0.0014846917474642396,-0.00562691455706954,0.0066347261890769005,0.01550434622913599,-0.016320152208209038,0.044799234718084335,0.036734748631715775,-1.0583398342132568,0.09837706387042999,0.279244989156723,-0.45831286907196045,0.16467560827732086
1749028048.566827,0.8079583644866943,-0.5673452180675049,-1.0022684335708618,2.2203232485004882,0.4472334384918213,-2.775761429463522,-0.0012793188216164708,-0.006444302387535572,0.006512072868645191,0.015114208683371544,-0.010908898897469044,0.04722784459590912,-0.009247083216905594,-1.0539462566375732,0.10568556189537048,0.29670995473861694,-0.48036906123161316,0.2014898955821991
1749028048.5668645,0.8079862594604492,-0.5673716825297852,-1.0022599697113037,2.2203942972370605,0.4471747875213623,-2.7756622473346155,-0.001374437939375639,-0.006851002108305693,0.0075477734208106995,0.0148527342826128,-0.009458205662667751,0.05052834376692772,0.0061709024012088776,-1.0574558973312378,0.11018168926239014,0.30514800548553467,-0.4869832694530487,0.18408121168613434
1749028048.566901,0.8079707622528076,-0.5673815769008179,-1.00222909450531,2.22040240346875,0.4471711814403534,-2.7755473295794886,-0.0027056094259023666,-0.00759010249748826,0.007950279861688614,0.015388140454888344,-0.009259372018277645,0.05428340658545494,0.008071549236774445,-1.0448055267333984,0.11861597001552582,0.2976170480251312,-0.4601890444755554,0.191247820854187
1749028048.566938,0.8079473972320557,-0.5673342508128663,-1.00222909450531,2.2204107481190185,0.44716644287109375,-2.7754536310779017,-0.003249967470765114,-0.006710367742925882,0.008393650874495506,0.016596559435129166,-0.009401009418070316,0.05734195187687874,-0.00727463886141777,-1.0560317039489746,0.11039604246616364,0.30261847376823425,-0.46976327896118164,0.1977325975894928
1749028048.5669746,0.8079473972320557,-0.5673342508128663,-1.00222909450531,2.2204107481190185,0.44716644287109375,-2.7754536310779017,-0.003249967470765114,-0.006710367742925882,0.008393650874495506,0.016596559435129166,-0.009401009418070316,0.05734195187687874,-0.00727463886141777,-1.0560317039489746,0.11039604246616364,0.30261847376823425,-0.46976327896118164,0.1977325975894928
1749028048.567011,0.8079390525817871,-0.5673586887172242,-1.0022516250610352,2.2204627233692626,0.4471700191497803,-2.775353972111837,-0.003092462196946144,-0.00656557735055685,0.00809718668460846,0.017612747848033905,-0.00912588182836771,0.059486664831638336,-0.013616170734167099,-1.081763744354248,0.09891927242279053,0.3105720281600952,-0.48392048478126526,0.20103438198566437
1749028048.56797,0.8079583644866943,-0.5673743051341553,-1.0022083520889282,2.2204901415058593,0.4471302032470703,-2.775198761616842,-0.0029101395048201084,-0.007176073268055916,0.007945562712848186,0.01813543029129505,-0.00906005036085844,0.06071320176124573,-0.015821967273950577,-1.095963716506958,0.11643929779529572,0.3011855185031891,-0.5035288333892822,0.18941029906272888
1749028048.5697885,0.8079080581665039,-0.5673815769008179,-1.0022307634353638,2.2205185133167724,0.4471457004547119,-2.7750876585589808,-0.003061853349208832,-0.007566448301076889,0.00855652429163456,0.019349778071045876,-0.009528689086437225,0.06231660023331642,-0.04627233371138573,-1.1010996103286743,0.12147875130176544,0.3033198118209839,-0.511318564414978,0.21031038463115692
1749028048.6102886,0.8079345226287842,-0.5674255651286622,-1.002172589302063,2.220618649119995,0.44707149267196655,-2.7747774759875696,-0.003624419216066599,-0.007357344962656498,0.008620528504252434,0.019896695390343666,-0.011016341857612133,0.06473975628614426,-0.019042756408452988,-1.0844999551773071,0.12458689510822296,0.3024928867816925,-0.5201833844184875,0.21096263825893402
1749028048.6103358,0.8079345226287842,-0.5674255651286622,-1.002172589302063,2.220618649119995,0.44707149267196655,-2.7747774759875696,-0.003624419216066599,-0.007357344962656498,0.008620528504252434,0.019896695390343666,-0.011016341857612133,0.06473975628614426,-0.019042756408452988,-1.0844999551773071,0.12458689510822296,0.3024928867816925,-0.5201833844184875,0.21096263825893402
1749028048.6103776,0.8079004883766174,-0.5674255651286622,-1.0021445751190186,2.22067038595166,0.4470894932746887,-2.7746835390674036,-0.003541432088240981,-0.007396620232611895,0.009438568726181984,0.02121610939502716,-0.012378402054309845,0.06660950183868408,-0.025571417063474655,-1.1032307147979736,0.13808849453926086,0.31825143098831177,-0.5182111263275146,0.2204199880361557
1749028048.6104164,0.8079147338867188,-0.5674300950816651,-1.0021274089813232,2.2207388120838623,0.4470343589782715,-2.7743731180774134,-0.004998119082301855,-0.008179372176527977,0.010073237121105194,0.022939909249544144,-0.013993940316140652,0.06907486915588379,-0.024549711495637894,-1.1234995126724243,0.13201239705085754,0.313284695148468,-0.5161927342414856,0.23654164373874664
1749028048.610454,0.8078837394714355,-0.5674737256816407,-1.002103567123413,2.220758839244507,0.4470210075378418,-2.774245087300436,-0.004947415553033352,-0.00844009593129158,0.010378845036029816,0.023999515920877457,-0.0156470388174057,0.07355964183807373,-0.04055466130375862,-1.1359367370605469,0.13343574106693268,0.31206709146499634,-0.5269463658332825,0.23134583234786987
1749028048.6104925,0.8078837394714355,-0.5674737256816407,-1.002103567123413,2.220758839244507,0.4470210075378418,-2.774245087300436,-0.004947415553033352,-0.00844009593129158,0.010378845036029816,0.023999515920877457,-0.0156470388174057,0.07355964183807373,-0.04055466130375862,-1.1359367370605469,0.13343574106693268,0.31206709146499634,-0.5269463658332825,0.23134583234786987
1749028048.6105318,0.8078575134277344,-0.5674856466105958,-1.002095103263855,2.2208308416553955,0.44695401191711426,-2.7740700880633753,-0.005826924927532673,-0.008383184671401978,0.011169207282364368,0.024831464514136314,-0.017889905720949173,0.07826295495033264,-0.04312121495604515,-1.15720534324646,0.12896762788295746,0.32012587785720825,-0.5214133262634277,0.22486740350723267
1749028048.61057,0.8079219460487366,-0.5675094884685059,-1.0020678043365479,2.2208821016499023,0.4469180107116699,-2.773942534123556,-0.005716048646718264,-0.009398640133440495,0.011219666339457035,0.025937821716070175,-0.01881067268550396,0.07733042538166046,-0.0587349571287632,-1.137001633644104,0.13135741651058197,0.30569323897361755,-0.5115668773651123,0.21725492179393768
1749028048.6106074,0.8078510761260986,-0.5675531190684815,-1.0020350217819214,2.2210144239613037,0.4468532204627991,-2.7736194769488733,-0.006307175848633051,-0.008845756761729717,0.011768881231546402,0.028053954243659973,-0.02069481834769249,0.08173482865095139,-0.05483579263091087,-1.1447880268096924,0.13828971982002258,0.31750619411468506,-0.5174751281738281,0.24937179684638977
1749028048.6106453,0.8078592419624329,-0.5675258201411744,-1.001973271369934,2.2210470873066406,0.4467740058898926,-2.7734549681292933,-0.0059496620669960976,-0.009420384652912617,0.011680305935442448,0.028474364429712296,-0.02046174742281437,0.08562032878398895,-0.052863236516714096,-1.1382695436477661,0.14105205237865448,0.3188926875591278,-0.520147442817688,0.2551395297050476
1749028048.610686,0.8078547120094299,-0.5675545495799561,-1.001968502998352,2.221114321345947,0.4466998279094696,-2.7732566038714808,-0.006726821418851614,-0.009180104359984398,0.011838418431580067,0.029558461159467697,-0.02030044049024582,0.09021482616662979,-0.0675831139087677,-1.1571671962738037,0.1379944086074829,0.30913370847702026,-0.5193185210227966,0.23111139237880707
1749028048.6107266,0.8078200221061707,-0.567559079532959,-1.001960039138794,2.221158190364502,0.44669008255004883,-2.773081127797262,-0.006283835973590612,-0.009304751642048359,0.011749673634767532,0.030484799295663834,-0.020348140969872475,0.09125897288322449,-0.07454398274421692,-1.1425672769546509,0.13449019193649292,0.32598692178726196,-0.5374981760978699,0.2310127466917038
1749028048.6107643,0.8077961802482605,-0.5675938886455079,-1.0019510984420776,2.2212301927753906,0.4466695785522461,-2.772956673298971,-0.006023599300533533,-0.009884415194392204,0.01150753814727068,0.03179748356342316,-0.0197859276086092,0.09019820392131805,-0.08358639478683472,-1.1596450805664062,0.13786853849887848,0.3068094849586487,-0.5234087705612183,0.2327863723039627
1749028048.6108017,0.8078117370605469,-0.5676250022700806,-1.0019237995147705,2.221317692393921,0.44658350944519043,-2.7727258841144007,-0.0059126755222678185,-0.009542887099087238,0.010569906793534756,0.031554099172353745,-0.020935719832777977,0.09422489255666733,-0.10439598560333252,-1.1693698167800903,0.15331491827964783,0.30008578300476074,-0.535345196723938,0.2407204508781433
1749028048.6108384,0.8077753186225891,-0.5676332277110596,-1.0018999576568604,2.2213587003895263,0.44658952951431274,-2.7725659052478235,-0.006334185600280762,-0.009542835876345634,0.010614437982439995,0.03224194794893265,-0.021980896592140198,0.09445097297430038,-0.09130964428186417,-1.175471544265747,0.1631162017583847,0.31590336561203003,-0.5305415987968445,0.2395462691783905
1749028048.6108758,0.8077753186225891,-0.5676332277110596,-1.0018999576568604,2.2213587003895263,0.44658952951431274,-2.7725659052478235,-0.006334185600280762,-0.009542835876345634,0.010614437982439995,0.03224194794893265,-0.021980896592140198,0.09445097297430038,-0.09130964428186417,-1.175471544265747,0.1631162017583847,0.31590336561203003,-0.5305415987968445,0.2395462691783905
1749028048.610913,0.8077598214149475,-0.5676694673350831,-1.0018250942230225,2.2215134340473632,0.44644781947135925,-2.772191349660055,-0.0065623396076262,-0.009257356636226177,0.01044434867799282,0.03337959945201874,-0.02274290658533573,0.0970979705452919,-0.08172296732664108,-1.176125168800354,0.1669158935546875,0.30642491579055786,-0.5521367192268372,0.2502456605434418
1749028048.6109495,0.8077516555786133,-0.5677125018886109,-1.0018240213394165,2.221566362971924,0.4464344382286072,-2.7720068136798304,-0.006883695721626282,-0.01013532467186451,0.010685469023883343,0.03416220098733902,-0.023455386981368065,0.09831923991441727,-0.08909513056278229,-1.1820670366287231,0.15921097993850708,0.3087840676307678,-0.535239040851593,0.24981850385665894
1749028048.6109865,0.8077516555786133,-0.5677125018886109,-1.0018240213394165,2.221566362971924,0.4464344382286072,-2.7720068136798304,-0.006883695721626282,-0.01013532467186451,0.010685469023883343,0.03416220098733902,-0.023455386981368065,0.09831923991441727,-0.08909513056278229,-1.1820670366287231,0.15921097993850708,0.3087840676307678,-0.535239040851593,0.24981850385665894
1749028048.6110249,0.8077360987663269,-0.5677369397929688,-1.0018036365509033,2.2216455179401855,0.4463484287261963,-2.7717652956592005,-0.00624696584418416,-0.009711078368127346,0.010529587045311928,0.033044129610061646,-0.02413845993578434,0.09916241466999054,-0.10582919418811798,-1.1749944686889648,0.14809608459472656,0.30543750524520874,-0.5369369387626648,0.24150407314300537
1749028048.6116881,0.8077123165130615,-0.567780928020813,-1.0017448663711548,2.2217508989521484,0.4462680518627167,-2.771381680165426,-0.007244532462209463,-0.009723627008497715,0.01092202216386795,0.033005036413669586,-0.02440360002219677,0.10133083164691925,-0.09703383594751358,-1.193403959274292,0.15208351612091064,0.30009719729423523,-0.5399438738822937,0.23308303952217102
1749028048.6136723,0.8077123165130615,-0.567780928020813,-1.0017448663711548,2.2217508989521484,0.4462680518627167,-2.771381680165426,-0.007244532462209463,-0.009723627008497715,0.01092202216386795,0.033005036413669586,-0.02440360002219677,0.10133083164691925,-0.09703383594751358,-1.193403959274292,0.15208351612091064,0.30009719729423523,-0.5399438738822937,0.23308303952217102
1749028048.6546128,0.8077241778373718,-0.5677306217006226,-1.0017637014389038,2.2218455511280517,0.4462118148803711,-2.771170679722921,-0.006577900145202875,-0.009269692935049534,0.010338200256228447,0.03316546976566315,-0.02540675923228264,0.10021546483039856,-0.0955124944448471,-1.1883795261383057,0.16400229930877686,0.30804571509361267,-0.5346221923828125,0.23770789802074432
1749028048.6546938,0.8077003359794617,-0.5677736562541504,-1.0017435550689697,2.2219182687946777,0.44614413380622864,-2.7709742228137415,-0.006857738830149174,-0.00904922466725111,0.010745041072368622,0.03331223875284195,-0.024971909821033478,0.10039562731981277,-0.1061248704791069,-1.204795479774475,0.17305076122283936,0.29754936695098877,-0.5496872663497925,0.2214849889278412
1749028048.6547656,0.8076848387718201,-0.5678094190410157,-1.0017197132110596,2.2220496374317626,0.44610595703125,-2.770547691975729,-0.00660482794046402,-0.009216918610036373,0.010891776531934738,0.03442443907260895,-0.025393659248948097,0.09873369336128235,-0.10778874903917313,-1.198225498199463,0.19157342612743378,0.2982480823993683,-0.5236870646476746,0.2128242552280426
1749028048.6548362,0.807711124420166,-0.5678256315043946,-1.00167977809906,2.2221335607716064,0.4460005760192871,-2.770348135625021,-0.007126795127987862,-0.008621614426374435,0.01108558103442192,0.03381926938891411,-0.02578793838620186,0.09813759475946426,-0.09306729584932327,-1.2103135585784912,0.16912022233009338,0.2917063236236572,-0.5431053042411804,0.2372100055217743
1749028048.654905,0.807711124420166,-0.5678256315043946,-1.00167977809906,2.2221335607716064,0.4460005760192871,-2.770348135625021,-0.007126795127987862,-0.008621614426374435,0.01108558103442192,0.03381926938891411,-0.02578793838620186,0.09813759475946426,-0.09306729584932327,-1.2103135585784912,0.16912022233009338,0.2917063236236572,-0.5431053042411804,0.2372100055217743
1749028048.6549733,0.8076521754264832,-0.5678695005229493,-1.001659631729126,2.222237749690674,0.4459190368652344,-2.769949738179342,-0.005608898587524891,-0.00937250629067421,0.010878508910536766,0.03330603614449501,-0.02566435933113098,0.09819013625383377,-0.11770585924386978,-1.1781482696533203,0.1889970898628235,0.29237937927246094,-0.5345311760902405,0.2358943521976471
1749028048.65504,0.8076521754264832,-0.5678695005229493,-1.001659631729126,2.222237749690674,0.4459190368652344,-2.769949738179342,-0.005608898587524891,-0.00937250629067421,0.010878508910536766,0.03330603614449501,-0.02566435933113098,0.09819013625383377,-0.11770585924386978,-1.1781482696533203,0.1889970898628235,0.29237937927246094,-0.5345311760902405,0.2358943521976471
1749028048.655107,0.8076200485229492,-0.5679250520518799,-1.0016000270843506,2.2223550516315917,0.445815771818161,-2.769590679799215,-0.006958829239010811,-0.00867290236055851,0.011349301785230637,0.03303157910704613,-0.02552964724600315,0.09725174307823181,-0.13481739163398743,-1.1788690090179443,0.17634239792823792,0.28675052523612976,-0.5378542542457581,0.23488450050354004
1749028048.6551719,0.8076391220092773,-0.5679140847972413,-1.0015876293182373,2.2224299150654296,0.4457678496837616,-2.7693753878222864,-0.0071945698000490665,-0.008718851953744888,0.011498342268168926,0.03293979912996292,-0.026568632572889328,0.09764742106199265,-0.11032120883464813,-1.1957981586456299,0.19176757335662842,0.31395864486694336,-0.533893346786499,0.244581937789917
1749028048.6552417,0.8076391220092773,-0.5679140847972413,-1.0015876293182373,2.2224299150654296,0.4457678496837616,-2.7693753878222864,-0.0071945698000490665,-0.008718851953744888,0.011498342268168926,0.03293979912996292,-0.026568632572889328,0.09764742106199265,-0.11032120883464813,-1.1957981586456299,0.19176757335662842,0.31395864486694336,-0.533893346786499,0.244581937789917
1749028048.6553113,0.8076152801513672,-0.5679689210704346,-1.0015548467636108,2.222585840816162,0.4456633925437927,-2.76896840730776,-0.005983011331409216,-0.008614491671323776,0.011407257057726383,0.033200085163116455,-0.027293408289551735,0.10292921960353851,-0.1409052312374115,-1.217527985572815,0.19117891788482666,0.31696969270706177,-0.516509473323822,0.21913501620292664
1749028048.6553643,0.8076152801513672,-0.5679689210704346,-1.0015548467636108,2.222585840816162,0.4456633925437927,-2.76896840730776,-0.005983011331409216,-0.008614491671323776,0.011407257057726383,0.033200085163116455,-0.027293408289551735,0.10292921960353851,-0.1409052312374115,-1.217527985572815,0.19117891788482666,0.31696969270706177,-0.516509473323822,0.21913501620292664
1749028048.6554034,0.8075563907623291,-0.5680015844157715,-1.0014841556549072,2.222674532527588,0.44556042551994324,-2.7685886065112513,-0.007203911431133747,-0.009621135890483856,0.011668440885841846,0.03370312601327896,-0.02615184523165226,0.10171165317296982,-0.1102462038397789,-1.1994783878326416,0.19623398780822754,0.3130321204662323,-0.5369011759757996,0.22272787988185883
1749028048.6554408,0.8075563907623291,-0.5680015844157715,-1.0014841556549072,2.222674532527588,0.44556042551994324,-2.7685886065112513,-0.007203911431133747,-0.009621135890483856,0.011668440885841846,0.03370312601327896,-0.02615184523165226,0.10171165317296982,-0.1102462038397789,-1.1994783878326416,0.19623398780822754,0.3130321204662323,-0.5369011759757996,0.22272787988185883
1749028048.6554785,0.8075635433197021,-0.5680053991130372,-1.0014640092849731,2.2227811056324462,0.4455075263977051,-2.7683666388141077,-0.006475602742284536,-0.008925390429794788,0.012076854705810547,0.03417672589421272,-0.025921136140823364,0.10307241231203079,-0.1303473860025406,-1.2239711284637451,0.205983966588974,0.310194730758667,-0.5314072370529175,0.22693480551242828
1749028048.6555164,0.8075635433197021,-0.5680757325938721,-1.001452088356018,2.2229291635700683,0.44541171193122864,-2.767982546483175,-0.006491084583103657,-0.010014479979872704,0.012386796064674854,0.03650132566690445,-0.02661609649658203,0.10513336211442947,-0.13384318351745605,-1.204557180404663,0.1956472098827362,0.31340286135673523,-0.5169630646705627,0.2198890894651413
1749028048.6555533,0.8075014352798462,-0.5680721563151856,-1.00140380859375,2.2229975897022705,0.44535186886787415,-2.7677903811084192,-0.007414694409817457,-0.00956642348319292,0.012443704530596733,0.03861131891608238,-0.026470646262168884,0.10536544770002365,-0.14459535479545593,-1.2316389083862305,0.22550639510154724,0.28949496150016785,-0.5235092639923096,0.20414793491363525
1749028048.6555903,0.8074770569801331,-0.5680803817561646,-1.0013799667358398,2.223069115276001,0.44528457522392273,-2.7676308790790003,-0.007403896655887365,-0.011255934834480286,0.012033231556415558,0.03815316781401634,-0.027297839522361755,0.10587809234857559,-0.11724399030208588,-1.244476556777954,0.21208728849887848,0.30298513174057007,-0.5427240133285522,0.2506233751773834
1749028048.655627,0.8074842095375061,-0.5681328338435669,-1.0013680458068848,2.2231291967579345,0.44524019956588745,-2.767407480870382,-0.007106949109584093,-0.011260325089097023,0.013149486854672432,0.03726506605744362,-0.02783939614892006,0.11063309758901596,-0.1211325153708458,-1.2010815143585205,0.2176426500082016,0.30180925130844116,-0.5327711701393127,0.21908682584762573
1749028048.6556628,0.8074842095375061,-0.5681328338435669,-1.0013680458068848,2.2231291967579345,0.44524019956588745,-2.767407480870382,-0.007106949109584093,-0.011260325089097023,0.013149486854672432,0.03726506605744362,-0.02783939614892006,0.11063309758901596,-0.1211325153708458,-1.2010815143585205,0.2176426500082016,0.30180925130844116,-0.5327711701393127,0.21908682584762573
1749028048.6558225,0.8075070381164551,-0.5681372445872803,-1.001332402229309,2.2232131200977783,0.4451524615287781,-2.7671852747546595,-0.007058280520141125,-0.010795654729008675,0.013165284879505634,0.03647928312420845,-0.0294250026345253,0.10899477452039719,-0.1433219313621521,-1.2410283088684082,0.21248561143875122,0.32350248098373413,-0.5073995590209961,0.22881744801998138
1749028048.6576803,0.8074641227722168,-0.5681420129588624,-1.0012996196746826,2.223341627711914,0.44509872794151306,-2.766707245503561,-0.008051551878452301,-0.010217663832008839,0.013396364636719227,0.037938229739665985,-0.029630199074745178,0.11037406325340271,-0.13891980051994324,-1.2185875177383423,0.21473601460456848,0.32722005248069763,-0.5017198324203491,0.24904297292232513
1749028048.6983135,0.8074557781219482,-0.568169431095459,-1.0012444257736206,2.2234255510517578,0.4450003504753113,-2.766516987477438,-0.008258359506726265,-0.011122506111860275,0.013975542038679123,0.03955945745110512,-0.02992166392505169,0.11671644449234009,-0.14754167199134827,-1.2567402124404907,0.21755443513393402,0.3064110279083252,-0.5134803652763367,0.2251492589712143
1749028048.6983664,0.8074402809143066,-0.5682404798320313,-1.0012080669403076,2.223524971599243,0.4449438452720642,-2.7662809530841272,-0.008017177693545818,-0.01178442221134901,0.014157507568597794,0.040196266025304794,-0.030156956985592842,0.11495820432901382,-0.15051530301570892,-1.216866135597229,0.21189925074577332,0.3277130424976349,-0.505802571773529,0.2354722023010254
1749028048.698408,0.8074402809143066,-0.5682404798320313,-1.0012080669403076,2.223524971599243,0.4449438452720642,-2.7662809530841272,-0.008017177693545818,-0.01178442221134901,0.014157507568597794,0.040196266025304794,-0.030156956985592842,0.11495820432901382,-0.15051530301570892,-1.216866135597229,0.21189925074577332,0.3277130424976349,-0.505802571773529,0.2354722023010254
1749028048.6984491,0.8074392676353455,-0.5682340425303956,-1.0011640787124634,2.223665876979492,0.444843053817749,-2.7657836119281214,-0.008685840293765068,-0.0111097302287817,0.014306113123893738,0.040529780089855194,-0.03138275817036629,0.11663183569908142,-0.11677073687314987,-1.2309519052505493,0.21822890639305115,0.3095698058605194,-0.4963003993034363,0.2530304491519928
1749028048.698488,0.8074038624763489,-0.5682740968516846,-1.0011277198791504,2.223780794734619,0.4447447657585144,-2.7655296961413782,-0.00816849060356617,-0.011607108637690544,0.014565834775567055,0.041085563600063324,-0.0327756293118,0.11843405663967133,-0.1543211042881012,-1.2295690774917603,0.20924308896064758,0.31229716539382935,-0.4917813837528229,0.22920364141464233
1749028048.6985302,0.8074038624763489,-0.5682740968516846,-1.0011277198791504,2.223780794734619,0.4447447657585144,-2.7655296961413782,-0.00816849060356617,-0.011607108637690544,0.014565834775567055,0.041085563600063324,-0.0327756293118,0.11843405663967133,-0.1543211042881012,-1.2295690774917603,0.20924308896064758,0.31229716539382935,-0.4917813837528229,0.22920364141464233
1749028048.6985698,0.8073992729187012,-0.5683052104762574,-1.0011159181594849,2.2238337236591796,0.44468849897384644,-2.7652624289142054,-0.008307133801281452,-0.01072353683412075,0.01443545799702406,0.041448790580034256,-0.030936090275645256,0.11978334188461304,-0.16840341687202454,-1.235548973083496,0.21826639771461487,0.32190775871276855,-0.49954599142074585,0.2165812999010086
1749028048.6986086,0.8073718547821045,-0.5683527749827881,-1.0010634660720825,2.224024220103882,0.44456103444099426,-2.7647836844073694,-0.00871224794536829,-0.011630717664957047,0.014540481381118298,0.04276140779256821,-0.029916243627667427,0.12105892598628998,-0.1565159410238266,-1.224785566329956,0.2214977890253067,0.3111686110496521,-0.49931466579437256,0.22273457050323486
1749028048.6986494,0.8073945641517639,-0.568345384006836,-1.0010473728179932,2.2240819174000244,0.44451212882995605,-2.7645323912249964,-0.009060194715857506,-0.01156152319163084,0.01487592700868845,0.041115324944257736,-0.031100334599614143,0.12120550870895386,-0.1765153706073761,-1.2437998056411743,0.21821646392345428,0.3247855603694916,-0.5122552514076233,0.24749219417572021
1749028048.6986923,0.8073127269744873,-0.5683770936778565,-1.0010032653808594,2.2242044645496826,0.4444594383239746,-2.7643421331988733,-0.009486552327871323,-0.011498529464006424,0.014875790104269981,0.040835410356521606,-0.031541500240564346,0.12268995493650436,-0.14650288224220276,-1.2400137186050415,0.20880965888500214,0.33835095167160034,-0.5086047053337097,0.22575464844703674
1749028048.698731,0.8073127269744873,-0.5683770936778565,-1.0010032653808594,2.2242044645496826,0.4444594383239746,-2.7643421331988733,-0.009486552327871323,-0.011498529464006424,0.014875790104269981,0.040835410356521606,-0.031541500240564346,0.12268995493650436,-0.14650288224220276,-1.2400137186050415,0.20880965888500214,0.33835095167160034,-0.5086047053337097,0.22575464844703674
1749028048.6987686,0.807279646396637,-0.568440393810608,-1.000935673713684,2.2243496614643554,0.4443395137786865,-2.763848129902975,-0.009492895565927029,-0.011247214861214161,0.015205374918878078,0.04451513662934303,-0.03298565000295639,0.12513889372348785,-0.17096015810966492,-1.2411736249923706,0.2192806750535965,0.3103408217430115,-0.48612120747566223,0.22969454526901245
1749028048.6988058,0.8072330355644226,-0.5684566062739869,-1.0008928775787354,2.224499149913452,0.44426727294921875,-2.763596836720602,-0.009032516740262508,-0.01142767071723938,0.015325105749070644,0.044718336313962936,-0.03211936727166176,0.12442395091056824,-0.16301873326301575,-1.2356476783752441,0.22163125872612,0.3171688914299011,-0.496982604265213,0.2389375865459442
1749028048.6988456,0.8072330355644226,-0.5684566062739869,-1.0008928775787354,2.224499149913452,0.44426727294921875,-2.763596836720602,-0.009032516740262508,-0.01142767071723938,0.015325105749070644,0.044718336313962936,-0.03211936727166176,0.12442395091056824,-0.16301873326301575,-1.2356476783752441,0.22163125872612,0.3171688914299011,-0.496982604265213,0.2389375865459442
1749028048.6988833,0.8072628974914551,-0.568493203525879,-1.0008480548858643,2.224644823665283,0.4441162943840027,-2.7630932966815394,-0.008929114788770676,-0.011751847341656685,0.015610293485224247,0.04373754933476448,-0.030741222202777863,0.12447544932365417,-0.15093985199928284,-1.2221840620040894,0.2521560788154602,0.30619722604751587,-0.5122025609016418,0.2833050489425659
1749028048.6989207,0.8072628974914551,-0.568493203525879,-1.0008480548858643,2.224644823665283,0.4441162943840027,-2.7630932966815394,-0.008929114788770676,-0.011751847341656685,0.015610293485224247,0.04373754933476448,-0.030741222202777863,0.12447544932365417,-0.15093985199928284,-1.2221840620040894,0.2521560788154602,0.30619722604751587,-0.5122025609016418,0.2833050489425659
1749028048.6989572,0.8072044849395752,-0.568521575336792,-1.0007885694503784,2.2247931200214843,0.44399309158325195,-2.7625446955310267,-0.00870155356824398,-0.01217048428952694,0.01652161031961441,0.04448297247290611,-0.030736295506358147,0.12654727697372437,-0.1547943353652954,-1.2386329174041748,0.2232981026172638,0.3034091293811798,-0.5186374187469482,0.2662314772605896
1749028048.6989994,0.8071770668029785,-0.5685843986323853,-1.0007522106170654,2.2249085146137695,0.443936288356781,-2.762312714253561,-0.007736216299235821,-0.011441134847700596,0.01588139683008194,0.044588588178157806,-0.03218960016965866,0.12723490595817566,-0.14978650212287903,-1.2624340057373047,0.2359524667263031,0.3121466040611267,-0.4852222204208374,0.2709636390209198
1749028048.6990376,0.8071770668029785,-0.5685843986323853,-1.0007522106170654,2.2249085146137695,0.443936288356781,-2.762312714253561,-0.007736216299235821,-0.011441134847700596,0.01588139683008194,0.044588588178157806,-0.03218960016965866,0.12723490595817566,-0.14978650212287903,-1.2624340057373047,0.2359524667263031,0.3121466040611267,-0.4852222204208374,0.2709636390209198
1749028048.699074,0.8071324825286865,-0.5685926240733643,-1.0006641149520874,2.225076838130615,0.44374212622642517,-2.761751715336935,-0.008149471133947372,-0.011886566877365112,0.016304442659020424,0.04583193361759186,-0.03205733373761177,0.13260792195796967,-0.1837015300989151,-1.2445080280303955,0.23473820090293884,0.32828208804130554,-0.5018088817596436,0.258314311504364
1749028048.6997702,0.8071677684783936,-0.5686482948115845,-1.0006630420684814,2.2251810270496826,0.44371694326400757,-2.7615037600146692,-0.008728274144232273,-0.011267203837633133,0.016330596059560776,0.04648910090327263,-0.03117261454463005,0.1337711066007614,-0.17632097005844116,-1.2634689807891846,0.22940167784690857,0.30164995789527893,-0.5014368295669556,0.28139957785606384
1749028048.7017252,0.8070859313011169,-0.5686372083476563,-1.0006238222122192,2.2252651888081054,0.4436812400817871,-2.7612133661853235,-0.008100014179944992,-0.011622418649494648,0.016914362087845802,0.0470350980758667,-0.031134312972426414,0.13569772243499756,-0.17386794090270996,-1.2696754932403564,0.2271667718887329,0.31936970353126526,-0.5083258152008057,0.25448307394981384
1749028048.7463088,0.8070859313011169,-0.5686372083476563,-1.0006238222122192,2.2252651888081054,0.4436812400817871,-2.7612133661853235,-0.008100014179944992,-0.011622418649494648,0.016914362087845802,0.0470350980758667,-0.031134312972426414,0.13569772243499756,-0.17386794090270996,-1.2696754932403564,0.2271667718887329,0.31936970353126526,-0.5083258152008057,0.25448307394981384
1749028048.7463558,0.8071122169494629,-0.5686921638301392,-1.0005873441696167,2.225376530284546,0.4435776174068451,-2.760941807423727,-0.007770462892949581,-0.01196093950420618,0.01717049442231655,0.04687078297138214,-0.031376518309116364,0.1388399302959442,-0.18362592160701752,-1.2829525470733643,0.22671152651309967,0.31758037209510803,-0.5182821154594421,0.2346877008676529
1749028048.746397,0.8070573806762695,-0.5687446159175416,-1.0004929304122925,2.2255377012440185,0.4434651732444763,-2.7604129950152796,-0.007897285744547844,-0.013117966242134571,0.016325734555721283,0.04793868213891983,-0.0330708883702755,0.14346100389957428,-0.19531849026679993,-1.2807623147964478,0.24671587347984314,0.32149583101272583,-0.5235472917556763,0.2157505750656128
1749028048.7464359,0.8070573806762695,-0.5687446159175416,-1.0004929304122925,2.2255377012440185,0.4434651732444763,-2.7604129950152796,-0.007897285744547844,-0.013117966242134571,0.016325734555721283,0.04793868213891983,-0.0330708883702755,0.14346100389957428,-0.19531849026679993,-1.2807623147964478,0.24671587347984314,0.32149583101272583,-0.5235472917556763,0.2157505750656128
1749028048.7464738,0.8070485591888428,-0.5687692922404786,-1.0004334449768066,2.2257601457783203,0.44335246086120605,-2.759864632283346,-0.008954392746090889,-0.012912866659462452,0.017542077228426933,0.04979277774691582,-0.03343522548675537,0.1403932124376297,-0.18703070282936096,-1.266494631767273,0.23549634218215942,0.32678717374801636,-0.5583469867706299,0.24726201593875885
1749028048.746512,0.8070020079612732,-0.5687931340983887,-1.000432014465332,2.225860520000122,0.4432697296142578,-2.7595768610583704,-0.008688539266586304,-0.01235528476536274,0.0175482090562582,0.05092181637883186,-0.033455412834882736,0.14492583274841309,-0.19259360432624817,-1.2852553129196167,0.22732695937156677,0.3082379698753357,-0.5696242451667786,0.2498253881931305
1749028048.7465491,0.8070020079612732,-0.5687931340983887,-1.000432014465332,2.225860520000122,0.4432697296142578,-2.7595768610583704,-0.008688539266586304,-0.01235528476536274,0.0175482090562582,0.05092181637883186,-0.033455412834882736,0.14492583274841309,-0.19259360432624817,-1.2852553129196167,0.22732695937156677,0.3082379698753357,-0.5696242451667786,0.2498253881931305
1749028048.7465873,0.8069900870323181,-0.5688212674907227,-1.0003993511199951,2.225979967708252,0.4432181715965271,-2.7592433134662073,-0.00845540501177311,-0.012480582110583782,0.018069682642817497,0.05100875347852707,-0.034302547574043274,0.1435292512178421,-0.1792650818824768,-1.273136854171753,0.22302374243736267,0.3064115047454834,-0.5467361211776733,0.27546271681785583
1749028048.746625,0.8069627285003662,-0.5688377183726807,-1.0003392696380615,2.2261523443409423,0.44307297468185425,-2.7586668173419397,-0.009331791661679745,-0.013378131203353405,0.017584122717380524,0.050049763172864914,-0.03558465465903282,0.15015621483325958,-0.18964508175849915,-1.2921428680419922,0.24014045298099518,0.34499698877334595,-0.5617709159851074,0.24440336227416992
1749028048.7466626,0.8069627285003662,-0.5688377183726807,-1.0003392696380615,2.2261523443409423,0.44307297468185425,-2.7586668173419397,-0.009331791661679745,-0.013378131203353405,0.017584122717380524,0.050049763172864914,-0.03558465465903282,0.15015621483325958,-0.18964508175849915,-1.2921428680419922,0.24014045298099518,0.34499698877334595,-0.5617709159851074,0.24440336227416992
1749028048.7467,0.8069453835487366,-0.5689636033824463,-1.0002483129501343,2.2263571459003906,0.4429013133049011,-2.758057181035177,-0.00902207288891077,-0.013072839006781578,0.018424538895487785,0.051901910454034805,-0.03672374039888382,0.1567484587430954,-0.20547160506248474,-1.2757606506347656,0.22662881016731262,0.3369981050491333,-0.5811178088188171,0.22085532546043396
1749028048.7467382,0.8069453835487366,-0.5689636033824463,-1.0002483129501343,2.2263571459003906,0.4429013133049011,-2.758057181035177,-0.00902207288891077,-0.013072839006781578,0.018424538895487785,0.051901910454034805,-0.03672374039888382,0.1567484587430954,-0.20547160506248474,-1.2757606506347656,0.22662881016731262,0.3369981050491333,-0.5811178088188171,0.22085532546043396
1749028048.7467756,0.8069169521331787,-0.5689848226359864,-1.0001678466796875,2.2265798288532714,0.44276946783065796,-2.757423702870504,-0.010225714184343815,-0.014162324368953705,0.019220871850848198,0.05474507063627243,-0.039100803434848785,0.1598961502313614,-0.20121151208877563,-1.294633150100708,0.23979206383228302,0.32387709617614746,-0.5829558372497559,0.2215331792831421
1749028048.7468126,0.8068704009056091,-0.5690054458430787,-1.0001317262649536,2.226668282146118,0.4427201747894287,-2.757080141698019,-0.00971012283116579,-0.01509955246001482,0.01899297721683979,0.05635037645697594,-0.03928149491548538,0.15984784066677094,-0.18206730484962463,-1.2891929149627686,0.23235970735549927,0.3156439960002899,-0.5936965942382812,0.20691095292568207
1749028048.7468503,0.8068578243255615,-0.5690329831889649,-1.0000889301300049,2.2268082338520507,0.44261354207992554,-2.756775442753927,-0.010216068476438522,-0.014778305776417255,0.019474128261208534,0.05670113116502762,-0.03982016444206238,0.16040337085723877,-0.21823400259017944,-1.2606267929077148,0.22065405547618866,0.3170660734176636,-0.5930103063583374,0.2112879455089569
1749028048.7468882,0.8068604469299316,-0.569056825046875,-1.0000399351119995,2.226912422771118,0.4425141215324402,-2.756468121205465,-0.009908810257911682,-0.015087754465639591,0.020081713795661926,0.05541658028960228,-0.040340106934309006,0.1580924391746521,-0.20561620593070984,-1.2647905349731445,0.2351921796798706,0.32533299922943115,-0.5818545818328857,0.23774723708629608
1749028048.7469258,0.80684494972229,-0.5691507619670411,-1.0000388622283936,2.227008267039917,0.44244569540023804,-2.756134573613302,-0.010541477240622044,-0.014620528556406498,0.019917553290724754,0.05488680675625801,-0.041980545967817307,0.1574394702911377,-0.17746305465698242,-1.3048654794692993,0.22619709372520447,0.33652931451797485,-0.5818084478378296,0.25715333223342896
1749028048.7469637,0.8068056106567383,-0.5690941375545044,-0.9999561905860901,2.227147026652954,0.442361444234848,-2.755827013646261,-0.011208551004529,-0.015362265519797802,0.019767530262470245,0.05624886229634285,-0.0432933010160923,0.1584518551826477,-0.18923336267471313,-1.269696831703186,0.22524617612361908,0.34708458185195923,-0.5634152889251709,0.2678990662097931
1749028048.7470007,0.8067811131477356,-0.5691215556911011,-0.9999121427536011,2.2272557455250244,0.44225019216537476,-2.7554917971240442,-0.010188022628426552,-0.0151430144906044,0.02009890414774418,0.05725383386015892,-0.04437818005681038,0.15797531604766846,-0.208901047706604,-1.2907358407974243,0.23108339309692383,0.3323521912097931,-0.5762434601783752,0.2702680826187134
1749028048.7470376,0.8067765235900879,-0.569191650753357,-0.9998883605003357,2.22737900793042,0.4421158730983734,-2.755180899296896,-0.010773247107863426,-0.015611600130796432,0.01959395594894886,0.05859171971678734,-0.04488445445895195,0.16404825448989868,-0.19824868440628052,-1.293225646018982,0.2245692014694214,0.35191380977630615,-0.5585561990737915,0.27453380823135376
1749028048.747076,0.8067646026611328,-0.5691853326610108,-0.9998519420623779,2.2274951177784423,0.44207367300987244,-2.754857603703634,-0.011159959249198437,-0.015252494253218174,0.01998085528612137,0.05870337411761284,-0.044282156974077225,0.1650076061487198,-0.17293478548526764,-1.2977943420410156,0.2427607625722885,0.3258925676345825,-0.5843167304992676,0.2796236276626587
1749028048.7471135,0.8067144751548767,-0.5692401689342041,-0.9997924566268921,2.2275842863270263,0.4419430196285248,-2.754486624394552,-0.010609627701342106,-0.015804152935743332,0.02075435221195221,0.05840900167822838,-0.043317463248968124,0.16947747766971588,-0.1895228922367096,-1.2884758710861206,0.2346227616071701,0.32424163818359375,-0.5825955867767334,0.28425097465515137
1749028048.7477374,0.8067144751548767,-0.5692401689342041,-0.9997924566268921,2.2275842863270263,0.4419430196285248,-2.754486624394552,-0.010609627701342106,-0.015804152935743332,0.02075435221195221,0.05840900167822838,-0.043317463248968124,0.16947747766971588,-0.1895228922367096,-1.2884758710861206,0.2346227616071701,0.32424163818359375,-0.5825955867767334,0.28425097465515137
1749028048.7496839,0.8066543340682983,-0.569300727253296,-0.9997165203094482,2.2278074461170654,0.44180750846862793,-2.7537923494922083,-0.01039352361112833,-0.015005274675786495,0.019780687987804413,0.05920599028468132,-0.04533862695097923,0.17427022755146027,-0.22028766572475433,-1.3275920152664185,0.2567412853240967,0.3429756760597229,-0.5782803893089294,0.21764340996742249
1749028048.7903314,0.8066543340682983,-0.569300727253296,-0.9997165203094482,2.2278074461170654,0.44180750846862793,-2.7537923494922083,-0.01039352361112833,-0.015005274675786495,0.019780687987804413,0.05920599028468132,-0.04533862695097923,0.17427022755146027,-0.22028766572475433,-1.3275920152664185,0.2567412853240967,0.3429756760597229,-0.5782803893089294,0.21764340996742249
1749028048.7903774,0.8066651821136475,-0.5693292182734986,-0.9996206164360046,2.2280401426502685,0.441579669713974,-2.7530553976642054,-0.010587475262582302,-0.015512385405600071,0.02191925048828125,0.060849878937006,-0.04746648669242859,0.17467087507247925,-0.19579865038394928,-1.3060334920883179,0.2263438105583191,0.3216690421104431,-0.5674669742584229,0.19850756227970123
1749028048.7904177,0.8066580295562744,-0.5694002670100708,-0.9995877742767334,2.228179379100464,0.4415377974510193,-2.7527170817004603,-0.010909364558756351,-0.016203684732317924,0.020949123427271843,0.06154925376176834,-0.04757854342460632,0.17180807888507843,-0.2130141258239746,-1.3198388814926147,0.22232858836650848,0.3536093831062317,-0.5700806379318237,0.24893127381801605
1749028048.7904563,0.8066580295562744,-0.5694002670100708,-0.9995877742767334,2.228179379100464,0.4415377974510193,-2.7527170817004603,-0.010909364558756351,-0.016203684732317924,0.020949123427271843,0.06154925376176834,-0.04757854342460632,0.17180807888507843,-0.2130141258239746,-1.3198388814926147,0.22232858836650848,0.3536093831062317,-0.5700806379318237,0.24893127381801605
1749028048.7904947,0.8065776824951172,-0.5694641631892701,-0.9995038509368896,2.228423996562622,0.4413577914237976,-2.752050224934713,-0.01094991248100996,-0.016566574573516846,0.02014944516122341,0.06336110830307007,-0.04902394488453865,0.17331813275814056,-0.2059062123298645,-1.3149075508117676,0.23709920048713684,0.3361004889011383,-0.5441991686820984,0.260111927986145
1749028048.7905326,0.8066040277481079,-0.569476918583252,-0.9994558095932007,2.2285560804554443,0.4412774443626404,-2.751667324696676,-0.010680080391466618,-0.016379376873373985,0.020265229046344757,0.06272333860397339,-0.04897288605570793,0.17611855268478394,-0.19736997783184052,-1.3215436935424805,0.23366022109985352,0.3362545073032379,-0.5286091566085815,0.26560068130493164
1749028048.7905695,0.8066040277481079,-0.569476918583252,-0.9994558095932007,2.2285560804554443,0.4412774443626404,-2.751667324696676,-0.010680080391466618,-0.016379376873373985,0.020265229046344757,0.06272333860397339,-0.04897288605570793,0.17611855268478394,-0.19736997783184052,-1.3215436935424805,0.23366022109985352,0.3362545073032379,-0.5286091566085815,0.26560068130493164
1749028048.7906067,0.8065335750579834,-0.5695563119700928,-0.9993873238563538,2.228823347682617,0.44103044271469116,-2.7508869806872767,-0.010228853672742844,-0.016317691653966904,0.021350383758544922,0.06293796747922897,-0.04910777509212494,0.1824711561203003,-0.2197534292936325,-1.3264529705047607,0.22024109959602356,0.34214842319488525,-0.5259175896644592,0.2310865819454193
1749028048.7906432,0.8065335750579834,-0.5695563119700928,-0.9993873238563538,2.228823347682617,0.44103044271469116,-2.7508869806872767,-0.010228853672742844,-0.016317691653966904,0.021350383758544922,0.06293796747922897,-0.04910777509212494,0.1824711561203003,-0.2197534292936325,-1.3264529705047607,0.22024109959602356,0.34214842319488525,-0.5259175896644592,0.2310865819454193
1749028048.7906797,0.8065370321273804,-0.5696111482432862,-0.9993550777435303,2.22894732534375,0.440981388092041,-2.75051457086672,-0.010155096650123596,-0.01612589880824089,0.021363334730267525,0.0650285854935646,-0.050302378833293915,0.18372498452663422,-0.21098780632019043,-1.3339054584503174,0.23591351509094238,0.33133620023727417,-0.5178624987602234,0.1942041516304016
1749028048.790717,0.8064393997192383,-0.569648341541626,-0.999252200126648,2.229198856944702,0.4407232701778412,-2.7497521082507532,-0.010042890906333923,-0.016507139429450035,0.02083740569651127,0.06447973102331161,-0.04949971288442612,0.1828751564025879,-0.22493930160999298,-1.3278089761734009,0.23662428557872772,0.3450322151184082,-0.5233243703842163,0.1950739473104477
1749028048.790754,0.8064393997192383,-0.569648341541626,-0.999252200126648,2.229198856944702,0.4407232701778412,-2.7497521082507532,-0.010042890906333923,-0.016507139429450035,0.02083740569651127,0.06447973102331161,-0.04949971288442612,0.1828751564025879,-0.22493930160999298,-1.3278089761734009,0.23662428557872772,0.3450322151184082,-0.5233243703842163,0.1950739473104477
1749028048.7907913,0.8064501285552979,-0.5697032970241089,-0.9991886615753174,2.229311152095459,0.4406394064426422,-2.749396626149313,-0.010907123796641827,-0.017872367054224014,0.021589940413832664,0.06497452408075333,-0.04917902871966362,0.17969395220279694,-0.2265428602695465,-1.3106337785720825,0.23902887105941772,0.3281533122062683,-0.5117887854576111,0.21766053140163422
1749028048.7908278,0.8064537048339844,-0.5697241586497803,-0.9991713166236877,2.2294630247303466,0.4405665397644043,-2.7490220705615442,-0.0100249657407403,-0.017888493835926056,0.021908491849899292,0.06616096198558807,-0.04878968372941017,0.18124225735664368,-0.2330431044101715,-1.335057258605957,0.23401090502738953,0.33529049158096313,-0.5012142062187195,0.23563124239444733
1749028048.790865,0.8063709139823914,-0.5698045057109375,-0.9990993738174438,2.2297302919575195,0.4403984844684601,-2.748312536870138,-0.010230825282633305,-0.018296455964446068,0.020574824884533882,0.06567880511283875,-0.04872604459524155,0.18017487227916718,-0.2177194058895111,-1.3544620275497437,0.25217095017433167,0.3460438847541809,-0.520313560962677,0.2824760377407074
1749028048.7909017,0.8063709139823914,-0.5698045057109375,-0.9990993738174438,2.2297302919575195,0.4403984844684601,-2.748312536870138,-0.010230825282633305,-0.018296455964446068,0.020574824884533882,0.06567880511283875,-0.04872604459524155,0.18017487227916718,-0.2177194058895111,-1.3544620275497437,0.25217095017433167,0.3460438847541809,-0.520313560962677,0.2824760377407074
1749028048.790938,0.8063781261444092,-0.569840745334961,-0.9990510940551758,2.229839487666748,0.4402640759944916,-2.7479448954211634,-0.011027648113667965,-0.01757795549929142,0.020588571205735207,0.06617005169391632,-0.04882395640015602,0.18319907784461975,-0.21355366706848145,-1.3527164459228516,0.25752773880958557,0.3560441732406616,-0.5204066634178162,0.26405248045921326
1749028048.7909744,0.8063352108001709,-0.5698562425426026,-0.9990000128746033,2.229987307185791,0.44014772772789,-2.7475977579699915,-0.010074324905872345,-0.018362805247306824,0.021419094875454903,0.06884618103504181,-0.04854161664843559,0.18755553662776947,-0.22669440507888794,-1.3286633491516113,0.2583073079586029,0.3159632682800293,-0.5387475490570068,0.2669886350631714
1749028048.7910113,0.8062951564788818,-0.5699008268168946,-0.998929500579834,2.230126066798828,0.44008296728134155,-2.747169081364767,-0.010175198316574097,-0.018399599939584732,0.021988216787576675,0.07032256573438644,-0.048556286841630936,0.19188570976257324,-0.24802297353744507,-1.330456018447876,0.2550879716873169,0.3276737928390503,-0.5310155749320984,0.2739008665084839
1749028048.7910476,0.806333601474762,-0.5699053567698975,-0.9989503622055054,2.230267210597656,0.4400181174278259,-2.7467311064349573,-0.010417863726615906,-0.01867114193737507,0.02210417576134205,0.06865546852350235,-0.04811491817235947,0.19493280351161957,-0.22005152702331543,-1.3330786228179932,0.24970905482769012,0.35324037075042725,-0.5356907844543457,0.21835139393806458
1749028048.7917354,0.8062703609466553,-0.5700277847102662,-0.9988198280334473,2.230570002193115,0.43979161977767944,-2.745979134236471,-0.0108896903693676,-0.01997472532093525,0.022779058665037155,0.06924107670783997,-0.04713005572557449,0.19599668681621552,-0.23864665627479553,-1.2935642004013062,0.2577396035194397,0.3389297425746918,-0.564096212387085,0.21185429394245148
1749028048.7937722,0.8062703609466553,-0.5700277847102662,-0.9988198280334473,2.230570002193115,0.43979161977767944,-2.745979134236471,-0.0108896903693676,-0.01997472532093525,0.022779058665037155,0.06924107670783997,-0.04713005572557449,0.19599668681621552,-0.23864665627479553,-1.2935642004013062,0.2577396035194397,0.3389297425746918,-0.564096212387085,0.21185429394245148
1749028048.8342943,0.8062186241149902,-0.5700767797282715,-0.9987205266952515,2.2308270174213867,0.43962621688842773,-2.7451890150653284,-0.010623992420732975,-0.019839351996779442,0.023321807384490967,0.07262279093265533,-0.04854224994778633,0.19757576286792755,-0.22542206943035126,-1.347269058227539,0.26928967237472534,0.31887173652648926,-0.5602781176567078,0.260750949382782
1749028048.8343413,0.8062186241149902,-0.5700767797282715,-0.9987205266952515,2.2308270174213867,0.43962621688842773,-2.7451890150653284,-0.010623992420732975,-0.019839351996779442,0.023321807384490967,0.07262279093265533,-0.04854224994778633,0.19757576286792755,-0.22542206943035126,-1.347269058227539,0.26928967237472534,0.31887173652648926,-0.5602781176567078,0.260750949382782
1749028048.8343832,0.8061792254447937,-0.5701602262309571,-0.9986554384231567,2.2311343389698486,0.43937674164772034,-2.7443764845477503,-0.0111254146322608,-0.019665565341711044,0.024181634187698364,0.0713898092508316,-0.049312859773635864,0.2004210203886032,-0.23412412405014038,-1.3244743347167969,0.24721971154212952,0.3258040249347687,-0.5825255513191223,0.26570045948028564
1749028048.8344278,0.8061792254447937,-0.5701602262309571,-0.9986554384231567,2.2311343389698486,0.43937674164772034,-2.7443764845477503,-0.0111254146322608,-0.019665565341711044,0.024181634187698364,0.0713898092508316,-0.049312859773635864,0.2004210203886032,-0.23412412405014038,-1.3244743347167969,0.24721971154212952,0.3258040249347687,-0.5825255513191223,0.26570045948028564
1749028048.8344681,0.8061553835868835,-0.5702083867839356,-0.9985953569412231,2.2312626081654052,0.43930357694625854,-2.7440040747271937,-0.011611702851951122,-0.019932925701141357,0.0244679506868124,0.06986752152442932,-0.0487530343234539,0.20386195182800293,-0.2452319860458374,-1.3102611303329468,0.2604304552078247,0.3339884281158447,-0.589627742767334,0.27324047684669495
1749028048.834507,0.8061309456825256,-0.5702639383128663,-0.9985471963882446,2.23139397680249,0.4392157196998596,-2.743542734776632,-0.01169534120708704,-0.021102702245116234,0.024479856714606285,0.06990506500005722,-0.0508098304271698,0.20978398621082306,-0.2509664297103882,-1.312816858291626,0.25922465324401855,0.3502928912639618,-0.5832546353340149,0.24805408716201782
1749028048.8345456,0.8060880899429321,-0.5702768129161377,-0.9984836578369141,2.2315735059925537,0.43910059332847595,-2.743159357701437,-0.011358331888914108,-0.020862773060798645,0.024786435067653656,0.07112547755241394,-0.05243330076336861,0.2110750377178192,-0.25748759508132935,-1.32111656665802,0.2667149603366852,0.3387528657913208,-0.5705904960632324,0.23069369792938232
1749028048.8345873,0.8061273097991943,-0.5703198474696656,-0.9984046220779419,2.231682701701782,0.43896183371543884,-2.7427220980273646,-0.011646186001598835,-0.019870799034833908,0.025856466963887215,0.07280372828245163,-0.05337616801261902,0.21218758821487427,-0.26104164123535156,-1.3249825239181519,0.2469482421875,0.33594655990600586,-0.5983150601387024,0.23573985695838928
1749028048.8346257,0.806063175201416,-0.5704000753215333,-0.998293399810791,2.2319864469715576,0.43875306844711304,-2.741847817097799,-0.011307409033179283,-0.021744631230831146,0.025507865473628044,0.07259958237409592,-0.055501095950603485,0.21175990998744965,-0.26388266682624817,-1.3198572397232056,0.24990442395210266,0.35110971331596375,-0.6023699641227722,0.2563209533691406
1749028048.8346632,0.806063175201416,-0.5704000753215333,-0.998293399810791,2.2319864469715576,0.43875306844711304,-2.741847817097799,-0.011307409033179283,-0.021744631230831146,0.025507865473628044,0.07259958237409592,-0.055501095950603485,0.21175990998744965,-0.26388266682624817,-1.3198572397232056,0.24990442395210266,0.35110971331596375,-0.6023699641227722,0.2563209533691406
1749028048.8347013,0.8060388565063477,-0.5704835218242188,-0.9982988834381104,2.2321294981190185,0.438649982213974,-2.741464440022604,-0.012153797782957554,-0.022215720266103745,0.02441645786166191,0.07348107546567917,-0.058487504720687866,0.213419571518898,-0.256305068731308,-1.3163446187973022,0.24463492631912231,0.37143829464912415,-0.5768611431121826,0.27844369411468506
1749028048.834742,0.8060222268104553,-0.5705036681941529,-0.9982312917709351,2.232266588802002,0.43856820464134216,-2.7410107294665735,-0.012208350002765656,-0.02099321410059929,0.025082683190703392,0.07347625494003296,-0.05985211208462715,0.21404889225959778,-0.2659764289855957,-1.315802812576294,0.25038284063339233,0.35692933201789856,-0.574365496635437,0.2996455430984497
1749028048.8347802,0.8059792518615723,-0.570555643444397,-0.9981718063354492,2.232426806087158,0.4384206235408783,-2.740575377141134,-0.012374219484627247,-0.021491367369890213,0.026640091091394424,0.07314766198396683,-0.059141334146261215,0.21809861063957214,-0.2697044610977173,-1.3309234380722046,0.2444535791873932,0.3717045485973358,-0.5654412508010864,0.2882619798183441
1749028048.8348176,0.8059740662574768,-0.5706394475749512,-0.9980674982070923,2.2327651220509033,0.4381963610649109,-2.7396939436541956,-0.012559285387396812,-0.021687209606170654,0.026504524052143097,0.07748163491487503,-0.06194602698087692,0.22388726472854614,-0.2453775405883789,-1.3299591541290283,0.2451973855495453,0.34707334637641907,-0.547897219657898,0.2930232882499695
1749028048.8348548,0.8059740662574768,-0.5706394475749512,-0.9980674982070923,2.2327651220509033,0.4381963610649109,-2.7396939436541956,-0.012559285387396812,-0.021687209606170654,0.026504524052143097,0.07748163491487503,-0.06194602698087692,0.22388726472854614,-0.2453775405883789,-1.3299591541290283,0.2451973855495453,0.34707334637641907,-0.547897219657898,0.2930232882499695
1749028048.8348956,0.8059191703796387,-0.5706523221782227,-0.9979851245880127,2.2328943449207763,0.4380417764186859,-2.7392426172839563,-0.013133451342582703,-0.022451359778642654,0.026945309713482857,0.07558348774909973,-0.06262736022472382,0.2283504605293274,-0.24475505948066711,-1.3257980346679688,0.2516371011734009,0.37214773893356323,-0.5577614903450012,0.29796743392944336
1749028048.8349335,0.8058435320854187,-0.5707864326289673,-0.9978957176208496,2.233177824611328,0.43776950240135193,-2.7383771578418177,-0.013545781373977661,-0.023441093042492867,0.02758028730750084,0.07815276831388474,-0.06469126790761948,0.2325354814529419,-0.26770853996276855,-1.2990350723266602,0.2383911907672882,0.36484599113464355,-0.5184192657470703,0.27420181035995483
1749028048.8349705,0.8058435320854187,-0.5707864326289673,-0.9978957176208496,2.233177824611328,0.43776950240135193,-2.7383771578418177,-0.013545781373977661,-0.023441093042492867,0.02758028730750084,0.07815276831388474,-0.06469126790761948,0.2325354814529419,-0.26770853996276855,-1.2990350723266602,0.2383911907672882,0.36484599113464355,-0.5184192657470703,0.27420181035995483
1749028048.8350072,0.8058082461357117,-0.5708631438067933,-0.9977719783782959,2.233536406154297,0.43755707144737244,-2.73745567003359,-0.013509847223758698,-0.023145023733377457,0.026295363903045654,0.0836840346455574,-0.06152220815420151,0.23509201407432556,-0.27473822236061096,-1.2900192737579346,0.24890634417533875,0.346137136220932,-0.5097620487213135,0.3119659125804901
1749028048.8350475,0.8058154582977295,-0.5709151190570374,-0.9977090358734131,2.233673258418701,0.4374251961708069,-2.736957375203268,-0.013172357343137264,-0.023422999307513237,0.027806967496871948,0.08310335874557495,-0.060574937611818314,0.2398039996623993,-0.2737143039703369,-1.2969801425933838,0.23856619000434875,0.36574435234069824,-0.5249528288841248,0.3008720278739929
1749028048.8356843,0.8058154582977295,-0.5709151190570374,-0.9977090358734131,2.233673258418701,0.4374251961708069,-2.736957375203268,-0.013172357343137264,-0.023422999307513237,0.027806967496871948,0.08310335874557495,-0.060574937611818314,0.2398039996623993,-0.2737143039703369,-1.2969801425933838,0.23856619000434875,0.36574435234069824,-0.5249528288841248,0.3008720278739929
1749028048.8376873,0.8057637214660645,-0.5710040491870423,-0.9976070523262024,2.2340091901966552,0.4371458888053894,-2.7360318342791956,-0.013613215647637844,-0.023569943383336067,0.02784970961511135,0.08404622226953506,-0.06232393905520439,0.24669674038887024,-0.2789956331253052,-1.2735936641693115,0.24006249010562897,0.3603552281856537,-0.5146162509918213,0.2702595591545105
1749028048.8782961,0.8057637214660645,-0.5710040491870423,-0.9976070523262024,2.2340091901966552,0.4371458888053894,-2.7360318342791956,-0.013613215647637844,-0.023569943383336067,0.02784970961511135,0.08404622226953506,-0.06232393905520439,0.24669674038887024,-0.2789956331253052,-1.2735936641693115,0.24006249010562897,0.3603552281856537,-0.5146162509918213,0.2702595591545105
1749028048.878342,0.8056797385215759,-0.5710998934558411,-0.9974993467330933,2.2343641954609375,0.4369298815727234,-2.7350152174579065,-0.013947267085313797,-0.02261207439005375,0.027669547125697136,0.08499827980995178,-0.06057380512356758,0.24454762041568756,-0.2587750554084778,-1.3000385761260986,0.24394869804382324,0.37716197967529297,-0.5154886245727539,0.28122276067733765
1749028048.878383,0.8056797981262207,-0.5711356562427063,-0.9974671602249146,2.2345165449329834,0.4367237389087677,-2.7345243136035364,-0.014024874195456505,-0.022831708192825317,0.0275669377297163,0.08571984618902206,-0.0590771809220314,0.24845805764198303,-0.285057008266449,-1.3236656188964844,0.2353236973285675,0.3614587187767029,-0.5334989428520203,0.28481030464172363
1749028048.878423,0.8056797981262207,-0.5711356562427063,-0.9974671602249146,2.2345165449329834,0.4367237389087677,-2.7345243136035364,-0.014024874195456505,-0.022831708192825317,0.0275669377297163,0.08571984618902206,-0.0590771809220314,0.24845805764198303,-0.285057008266449,-1.3236656188964844,0.2353236973285675,0.3614587187767029,-0.5334989428520203,0.28481030464172363
1749028048.8784623,0.8056429624557495,-0.5712267917445679,-0.997418999671936,2.2346815305897216,0.4366661012172699,-2.7340224424945276,-0.014053950086236,-0.021933872252702713,0.027651751413941383,0.08627498894929886,-0.05898548662662506,0.24690133333206177,-0.24061644077301025,-1.2839549779891968,0.25080594420433044,0.3534931540489197,-0.5420514345169067,0.3067484200000763
1749028048.8785055,0.8056201934814453,-0.5712123078158875,-0.9973275661468506,2.234888477916382,0.4365499019622803,-2.7335384527789515,-0.014403929002583027,-0.023935893550515175,0.027875380590558052,0.08585543930530548,-0.05895357206463814,0.24924355745315552,-0.2583138644695282,-1.2998639345169067,0.24622845649719238,0.3668432831764221,-0.5430945158004761,0.3248338997364044
1749028048.8785467,0.8055601119995117,-0.571355478172638,-0.997235119342804,2.23523656904187,0.436297744512558,-2.732553545628683,-0.014122085645794868,-0.023259621113538742,0.02817632257938385,0.08619311451911926,-0.05827026069164276,0.2504124641418457,-0.24131858348846436,-1.2900420427322388,0.2574085295200348,0.36425715684890747,-0.5766029357910156,0.30006036162376404
1749028048.878588,0.8055601119995117,-0.571355478172638,-0.997235119342804,2.23523656904187,0.436297744512558,-2.732553545628683,-0.014122085645794868,-0.023259621113538742,0.02817632257938385,0.08619311451911926,-0.05827026069164276,0.2504124641418457,-0.24131858348846436,-1.2900420427322388,0.2574085295200348,0.36425715684890747,-0.5766029357910156,0.30006036162376404
1749028048.8786256,0.8055243492126465,-0.5713874262622376,-0.9971637725830078,2.235407992000244,0.436190128326416,-2.732050959263937,-0.01435034815222025,-0.02276233397424221,0.02835538052022457,0.08543621003627777,-0.05904248356819153,0.25347912311553955,-0.27288568019866943,-1.2798751592636108,0.2551286518573761,0.36533626914024353,-0.5770179033279419,0.2619973421096802
1749028048.878667,0.8054844737052917,-0.5714231890491028,-0.9970967769622803,2.2356106477924804,0.4360737204551697,-2.731567684804098,-0.014779811725020409,-0.023008806630969048,0.028925305232405663,0.08704227209091187,-0.059613294899463654,0.25501686334609985,-0.2390701025724411,-1.3063559532165527,0.25373727083206177,0.3818510174751282,-0.5854600667953491,0.30674004554748535
1749028048.8787053,0.8054242730140686,-0.5715580743602295,-0.9969954490661621,2.235905094737671,0.43583035469055176,-2.7305074373828333,-0.015282521024346352,-0.024099500849843025,0.029415210708975792,0.08758760988712311,-0.06140272691845894,0.25997307896614075,-0.2468780279159546,-1.305474877357483,0.24874146282672882,0.3864889442920685,-0.592053234577179,0.3035181164741516
1749028048.878743,0.8054388165473938,-0.5715906184962769,-0.9969353675842285,2.236088200206421,0.4357377588748932,-2.730011765156881,-0.014533125795423985,-0.024101724848151207,0.029901331290602684,0.08838631957769394,-0.06161626800894737,0.26203837990760803,-0.2727842628955841,-1.3123159408569336,0.2533337473869324,0.3869628310203552,-0.5933094024658203,0.309670090675354
1749028048.8787818,0.8053373098373413,-0.571627752189972,-0.9968717098236084,2.236283465022705,0.4355592131614685,-2.7294815222369593,-0.015355903655290604,-0.024090034887194633,0.0300259068608284,0.08833687752485275,-0.06403019279241562,0.2638688385486603,-0.28338274359703064,-1.295554757118225,0.25337040424346924,0.37848031520843506,-0.5881168842315674,0.30140310525894165
1749028048.87882,0.8053373098373413,-0.571627752189972,-0.9968717098236084,2.236283465022705,0.4355592131614685,-2.7294815222369593,-0.015355903655290604,-0.024090034887194633,0.0300259068608284,0.08833687752485275,-0.06403019279241562,0.2638688385486603,-0.28338274359703064,-1.295554757118225,0.25337040424346924,0.37848031520843506,-0.5881168842315674,0.30140310525894165
1749028048.8788576,0.8053320050239563,-0.5717154902270813,-0.9967551231384277,2.2366432386585693,0.4353625774383545,-2.7284205595599573,-0.015220165252685547,-0.023745624348521233,0.03072456829249859,0.09133512526750565,-0.06688811630010605,0.26647162437438965,-0.2759954631328583,-1.2830934524536133,0.2536461353302002,0.38010072708129883,-0.5922311544418335,0.2709182798862457
1749028048.8788953,0.8053320050239563,-0.5717154902270813,-0.9967551231384277,2.2366432386585693,0.4353625774383545,-2.7284205595599573,-0.015220165252685547,-0.023745624348521233,0.03072456829249859,0.09133512526750565,-0.06688811630010605,0.26647162437438965,-0.2759954631328583,-1.2830934524536133,0.2536461353302002,0.38010072708129883,-0.5922311544418335,0.2709182798862457
1749028048.8789337,0.805280864238739,-0.5717712801745911,-0.9966760873794556,2.236816330546997,0.4351755976676941,-2.7278829256640833,-0.014593347907066345,-0.02382674068212509,0.030752044171094894,0.09153202921152115,-0.06572656333446503,0.2686927318572998,-0.26293864846229553,-1.3109742403030396,0.26228058338165283,0.3757241666316986,-0.602357804775238,0.27185747027397156
1749028048.8789716,0.8052409291267395,-0.5718496602824708,-0.9966006875038147,2.237015648479126,0.43509021401405334,-2.7273879686938685,-0.015236969105899334,-0.02387862466275692,0.031042249873280525,0.09358290582895279,-0.06700453162193298,0.2672979235649109,-0.29785284399986267,-1.2960233688354492,0.25450384616851807,0.3769592344760895,-0.5894371271133423,0.2852019667625427
1749028048.879009,0.805236279964447,-0.5718588393977662,-0.996551513671875,2.237196131343506,0.4349498450756073,-2.7268644014941614,-0.014988790266215801,-0.023346900939941406,0.031231589615345,0.09725724905729294,-0.0691443681716919,0.26716217398643494,-0.2714711129665375,-1.3318407535552979,0.2549319267272949,0.3459712564945221,-0.5844376087188721,0.29082340002059937
1749028048.8790529,0.8051337599754333,-0.571954683666565,-0.9964272975921631,2.2375642496296386,0.43465131521224976,-2.7257614771472376,-0.01595291495323181,-0.023361630737781525,0.031487494707107544,0.09454793483018875,-0.07388611882925034,0.2700713276863098,-0.26369553804397583,-1.3068318367004395,0.257291316986084,0.3572905361652374,-0.5758591890335083,0.30312955379486084
1749028048.8797,0.8050991892814636,-0.5719754856875916,-0.9963712692260742,2.2377754884907226,0.43450039625167847,-2.7251954714404505,-0.015740571543574333,-0.024026378989219666,0.03157918527722359,0.09475627541542053,-0.07338239252567291,0.2732231914997101,-0.2698877453804016,-1.317854881286621,0.24844305217266083,0.3699823021888733,-0.5622648000717163,0.26103663444519043
1749028048.8816884,0.8050896525382996,-0.5720386070064087,-0.9962958097457886,2.2379397588917236,0.434347927570343,-2.7246647516833704,-0.015314333140850067,-0.024208085611462593,0.03187175467610359,0.09860657900571823,-0.07197016477584839,0.2762598395347595,-0.2745513319969177,-1.3477883338928223,0.23874002695083618,0.3476629853248596,-0.5706035494804382,0.25467023253440857
1749028048.9222922,0.8050652146339417,-0.5720639389804383,-0.9962321519851685,2.2381247717091064,0.4341885447502136,-2.7240739504443567,-0.015520187094807625,-0.024154307320713997,0.03162967041134834,0.09803587198257446,-0.07217735052108765,0.27348342537879944,-0.25645288825035095,-1.3215209245681763,0.2480180859565735,0.3318701982498169,-0.571398913860321,0.27387258410453796
1749028048.9223378,0.8050451278686523,-0.5721469682506104,-0.9961566925048828,2.238323612804077,0.43408745527267456,-2.7235706488238733,-0.015542207285761833,-0.024679133668541908,0.03159547597169876,0.09301651269197464,-0.07362677901983261,0.2742038369178772,-0.26220041513442993,-1.324198603630066,0.23781718313694,0.36923903226852417,-0.5544013977050781,0.26865288615226746
1749028048.9223783,0.8050403594970703,-0.5721830886653443,-0.9961224794387817,2.238527699107788,0.4339579939842224,-2.722992483769552,-0.015827417373657227,-0.023830026388168335,0.03195222467184067,0.09396947920322418,-0.07403361797332764,0.27300652861595154,-0.22941842675209045,-1.318924903869629,0.24584397673606873,0.36743640899658203,-0.547107458114624,0.2812548577785492
1749028048.9224176,0.8049502968788147,-0.572215275173523,-0.9960317015647888,2.238722963924072,0.4337722659111023,-2.722477738057272,-0.0159163698554039,-0.02411637455224991,0.03226292505860329,0.0933825820684433,-0.07264645397663116,0.27018654346466064,-0.24713349342346191,-1.333702802658081,0.23066303133964539,0.3785698413848877,-0.546061635017395,0.296874076128006
1749028048.922456,0.80495285987854,-0.5722597402385254,-0.9959908723831177,2.23891465246167,0.4336044192314148,-2.721912447606222,-0.014911161735653877,-0.023780979216098785,0.03244038671255112,0.09328952431678772,-0.07314949482679367,0.27160996198654175,-0.25099942088127136,-1.3470934629440308,0.23010361194610596,0.37652355432510376,-0.550753116607666,0.28288960456848145
1749028048.922495,0.8049099445343018,-0.572311059837677,-0.995934247970581,2.2390760618397216,0.4334605038166046,-2.7213500181781214,-0.014872842468321323,-0.024261808022856712,0.03217524662613869,0.09475719183683395,-0.072528176009655,0.27407050132751465,-0.2827708423137665,-1.3540157079696655,0.23066914081573486,0.37613460421562195,-0.5545940399169922,0.282863974571228
1749028048.9225333,0.8049099445343018,-0.572311059837677,-0.995934247970581,2.2390760618397216,0.4334605038166046,-2.7213500181781214,-0.014872842468321323,-0.024261808022856712,0.03217524662613869,0.09475719183683395,-0.072528176009655,0.27407050132751465,-0.2827708423137665,-1.3540157079696655,0.23066914081573486,0.37613460421562195,-0.5545940399169922,0.282863974571228
1749028048.9225712,0.8049207329750061,-0.5723747772029419,-0.9958702325820923,2.2392870622822265,0.4333081841468811,-2.7207678000079554,-0.014934803359210491,-0.025526318699121475,0.03192932903766632,0.09348095208406448,-0.07158545404672623,0.2773857116699219,-0.26389527320861816,-1.3416997194290161,0.2274979203939438,0.3832189738750458,-0.5365434885025024,0.26577648520469666
1749028048.9226084,0.8048615455627441,-0.5724114340594788,-0.99576735496521,2.23946396886792,0.4332263469696045,-2.72022515932192,-0.014890952967107296,-0.025795886293053627,0.031953852623701096,0.09518910199403763,-0.07121817767620087,0.2753128707408905,-0.31467515230178833,-1.3382675647735596,0.23871077597141266,0.37552887201309204,-0.5199015736579895,0.28533875942230225
1749028048.922646,0.8048615455627441,-0.5724114340594788,-0.99576735496521,2.23946396886792,0.4332263469696045,-2.72022515932192,-0.014890952967107296,-0.025795886293053627,0.031953852623701096,0.09518910199403763,-0.07121817767620087,0.2753128707408905,-0.31467515230178833,-1.3382675647735596,0.23871077597141266,0.37552887201309204,-0.5199015736579895,0.28533875942230225
1749028048.9226832,0.8048368096351624,-0.5725389879992981,-0.9956443309783936,2.239856167430542,0.4329388737678528,-2.719081226979391,-0.015245272777974606,-0.02536715194582939,0.03210354968905449,0.0952405333518982,-0.06983325630426407,0.27572527527809143,-0.3000340163707733,-1.352457880973816,0.22837631404399872,0.38075530529022217,-0.5568109154701233,0.27086275815963745
1749028048.9227202,0.8047575950622559,-0.572559193973877,-0.9955561757087708,2.240039272899292,0.43274104595184326,-2.718506638203756,-0.015342790633440018,-0.02640344388782978,0.03153400868177414,0.09585758298635483,-0.06950769573450089,0.27957791090011597,-0.2927343249320984,-1.32631254196167,0.23412366211414337,0.3856751322746277,-0.5515946745872498,0.2511126399040222
1749028048.9227576,0.8047301173210144,-0.5727060002139588,-0.9954471588134766,2.240438624019287,0.4324961006641388,-2.717416826878683,-0.015534551814198494,-0.026633713394403458,0.03390905261039734,0.10193729400634766,-0.06923133879899979,0.28007546067237854,-0.3032533526420593,-1.3095262050628662,0.23485298454761505,0.3748778700828552,-0.5780767202377319,0.26531440019607544
1749028048.9227986,0.8047301173210144,-0.5727060002139588,-0.9954471588134766,2.240438624019287,0.4324961006641388,-2.717416826878683,-0.015534551814198494,-0.026633713394403458,0.03390905261039734,0.10193729400634766,-0.06923133879899979,0.28007546067237854,-0.3032533526420593,-1.3095262050628662,0.23485298454761505,0.3748778700828552,-0.5780767202377319,0.26531440019607544
1749028048.922837,0.8047208189964294,-0.5727155965617676,-0.9953716993331909,2.240649862880371,0.4323749542236328,-2.7168660799609583,-0.015897752717137337,-0.025591302663087845,0.033624228090047836,0.10154236853122711,-0.06849940121173859,0.2812144458293915,-0.2934878468513489,-1.3445608615875244,0.22952014207839966,0.35273393988609314,-0.5671685338020325,0.2743346691131592
1749028048.9228747,0.8046653270721436,-0.5728618067554017,-0.9952578544616699,2.2410542207905273,0.43204179406166077,-2.715667788182394,-0.016089625656604767,-0.02830229327082634,0.03163132816553116,0.10220994055271149,-0.07021127641201019,0.28576475381851196,-0.3169351816177368,-1.316725492477417,0.24374927580356598,0.3861631155014038,-0.6084416508674622,0.29938220977783203
1749028048.9229112,0.8045788407325745,-0.572890893822052,-0.9952101707458496,2.2412237364002685,0.43192893266677856,-2.7150850931750696,-0.016670413315296173,-0.027943700551986694,0.03326612338423729,0.10235602408647537,-0.07107695937156677,0.2867943048477173,-0.29303228855133057,-1.3241137266159058,0.24641923606395721,0.37324967980384827,-0.5903852581977844,0.2801901400089264
