nimar13/UR3e_dataset_trayectorias/trayectorias_ejecutadas/jtraj/trayectoria_123_result.csv
timestamp,q1,q2,q3,q4,q5,q6,qd1,qd2,qd3,qd4,qd5,qd6,tau1,tau2,tau3,tau4,tau5,tau6
1749028443.750291,3.7747554779052734,-2.5235611400999964,1.6547849814044397,-2.735401769677633,-0.9127672354327601,-1.0630396048175257,-0.0010698622791096568,0.0003310746978968382,0.00016367850184906274,0.0007831833208911121,0.00029502404504455626,-1.9279692038862923e-18,0.037618063390254974,0.33718985319137573,-0.5358529090881348,-0.12649065256118774,-0.17424222826957703,-0.06788462400436401
1749028443.7503376,3.774852991104126,-2.5235735378661097,1.6547849814044397,-2.735405584374899,-0.9127367178546351,-1.0629890600787562,-0.0007335609989240766,0.0003145446244161576,0.00016004192002583295,0.0007778651779517531,0.0002768446574918926,-3.406924040064699e-19,0.058038242161273956,0.35416755080223083,-0.540246844291687,-0.11795681715011597,-0.17285579442977905,-0.0686434805393219
1749028443.7503772,3.7748022079467773,-2.5235687694945277,1.6547849814044397,-2.735401769677633,-0.9127219359027308,-1.0630205313311976,-0.0006258441717363894,0.0002995857794303447,0.00015656182949896902,0.0007228258764371276,0.0003031509695574641,-6.020392396631982e-20,0.035546816885471344,0.33973267674446106,-0.5408487319946289,-0.13118258118629456,-0.18260616064071655,-0.0632680356502533
1749028443.7504153,3.774845600128174,-2.523533960381979,1.6547778288470667,-2.735405584374899,-0.9127400557147425,-1.063028637562887,-0.0005493729840964079,0.0002859846281353384,0.00015322807303164154,0.0006604602094739676,0.0002940464182756841,-1.0638664702696424e-20,0.07849159091711044,0.35870859026908875,-0.546474814414978,-0.14416570961475372,-0.17921313643455505,-0.07475453615188599
1749028443.7504528,3.774817943572998,-2.5235687694945277,1.6547849814044397,-2.7354332409300746,-0.9127948919879358,-1.0630634466754358,-0.0004895719466730952,0.0002735668094828725,0.00015003650332801044,0.0006054331315681338,0.000280095380730927,-1.87996383196674e-21,0.06581652909517288,0.32678094506263733,-0.5553855895996094,-0.13472895324230194,-0.181301087141037,-0.08075618743896484
1749028443.7504907,3.7748265266418457,-2.5235687694945277,1.6547849814044397,-2.735405584374899,-0.9127524534808558,-1.063016716633932,-0.000441399693954736,0.00026218057610094547,0.00014697374717798084,0.0005585210165008903,0.0002664931816980243,-3.3220934532289896e-22,0.07362071424722672,0.3366380035877228,-0.54041588306427,-0.1422421932220459,-0.18580427765846252,-0.09348270297050476
1749028443.750528,3.7747747898101807,-2.5235492191710414,1.6547849814044397,-2.73538937191152,-0.9127433935748499,-1.0630086104022425,-0.0004020518681500107,0.00025170459412038326,0.00014403194654732943,0.0005182606400921941,0.0002539897395763546,-5.870487655399826e-23,0.10950926691293716,0.3209178149700165,-0.537569522857666,-0.12423661351203918,-0.18267878890037537,-0.08100292086601257
1749028443.7505696,3.774805784225464,-2.5235611400999964,1.6547849814044397,-2.7354284725584925,-0.9127400557147425,-1.0630009810077112,-0.00029769542743451893,0.0002426584396744147,0.0001412083802279085,0.0004833664570469409,0.0002425788261462003,-1.037376781711964e-23,0.09051478654146194,0.3162003457546234,-0.5544092655181885,-0.13969042897224426,-0.18781962990760803,-0.08400732278823853
1749028443.7506082,3.774783134460449,-2.523592611352438,1.6547849814044397,-2.735405584374899,-0.9127181212054651,-1.06303579012026,-0.00027287888224236667,7.438394823111594e-05,0.00013849236711394042,0.0004529391590040177,0.00023214415705297142,-1.833153591046003e-24,0.08991176635026932,0.33247971534729004,-0.5392122864723206,-0.14055365324020386,-0.18140757083892822,-0.09930813312530518
1749028443.7506452,3.7747676372528076,-2.523572107354635,1.6547849814044397,-2.735417505303854,-0.9127419630633753,-1.06301194826235,-0.0002536403189878911,6.994528666837141e-05,0.00013587722787633538,0.000426100887125358,0.0002225705684395507,-3.2393747234140697e-25,0.10745007544755936,0.3092443645000458,-0.5557664632797241,-0.15004882216453552,-0.18149212002754211,-0.09775468707084656
1749028443.7506826,3.7747950553894043,-2.5235735378661097,1.6547811667071741,-2.7354093990721644,-0.9127596060382288,-1.06303579012026,-0.0002369425492361188,6.731448956998065e-05,0.00013336166739463806,0.0004022397333756089,0.00021375506184995174,-5.724314924549038e-26,0.09406589716672897,0.3044385313987732,-0.5379744172096252,-0.14594529569149017,-0.18755194544792175,-0.09353333711624146
1749028443.75072,3.774803638458252,-2.5235959492125453,1.654769245778219,-2.7354213200011195,-0.9127329031573694,-1.0630009810077112,-0.00017238892905879766,3.570727858459577e-05,0.00013093640154693276,0.00038095476338639855,0.00020561202836688608,-1.0115464780035882e-26,0.10530132800340652,0.31378281116485596,-0.5464842915534973,-0.15270747244358063,-0.1909409463405609,-0.09737905859947205
1749028443.750757,3.774810791015625,-2.523581167260641,1.6547730604754847,-2.735436578790182,-0.912699047719137,-1.0630396048175257,-0.00015708853607065976,3.134669896098785e-05,0.00012859661364927888,0.0003617971087805927,0.00019806659838650376,-1.787508929645253e-27,0.06998231261968613,0.3031732141971588,-0.5545690059661865,-0.15313346683979034,-0.187921941280365,-0.09918254613876343
1749028443.7507942,3.7748143672943115,-2.523612161675924,1.6547849814044397,-2.7354213200011195,-0.9127638975726526,-1.0630324522601526,-0.00014840156654827297,3.058373749809107e-07,0.00012634124141186476,0.0003444538451731205,0.00019105590763501823,-3.158715775859561e-28,0.07424177974462509,0.33091917634010315,-0.5369124412536621,-0.15190529823303223,-0.1896478235721588,-0.10268402099609375
1749028443.7508316,3.774852991104126,-2.523557802239889,1.654769245778219,-2.7354213200011195,-0.9127982298480433,-1.0630009810077112,4.444016667548567e-05,2.983935099010182e-09,0.00012416251411195844,0.0003287295694462955,0.00018452444055583328,-5.581781924190342e-29,0.10469947010278702,0.302683562040329,-0.5524841547012329,-0.1410081833600998,-0.1997222900390625,-0.0922580361366272
1749028443.7508693,3.7748093605041504,-2.5235663853087367,1.654769245778219,-2.7354332409300746,-0.9127672354327601,-1.0629857222186487,0.0001634789223317057,2.911308000230761e-11,0.00012205657549202442,0.0003143692447338253,0.00017842558736447245,-9.863593786450389e-30,0.11657587438821793,0.3322295844554901,-0.5446110963821411,-0.1532147228717804,-0.20527127385139465,-0.09408101439476013
1749028443.7509062,3.7747602462768555,-2.5235959492125453,1.6547768751727503,-2.735417505303854,-0.9127147833453577,-1.0630047957049769,0.00021106585336383432,2.8404486878894075e-13,0.00012002289440715685,0.0003011950175277889,0.00017271671094931662,-1.7430006419868483e-30,0.10670610517263412,0.3106057047843933,-0.5526533126831055,-0.15512126684188843,-0.1917656660079956,-0.09050148725509644
1749028443.7509437,3.7748420238494873,-2.5235773525633753,1.6547377745257776,-2.735417505303854,-0.9127524534808558,-1.0630095640765589,0.0002640982565935701,2.7713135029806737e-15,0.00011805487156379968,0.0002631214156281203,0.00016736191173549742,-3.080064857558472e-31,0.10439851135015488,0.2969745397567749,-0.5416381359100342,-0.1711888164281845,-0.19736921787261963,-0.1139901876449585
1749028443.7509809,3.7748494148254395,-2.5235773525633753,1.6547887961017054,-2.7354136906065882,-0.9127710501300257,-1.0630047957049769,0.0007832111441530287,2.7038616819698577e-17,0.00011614938557613641,0.00024499298888258636,0.0001623293210286647,-5.442798040811547e-32,0.1017550602555275,0.28718528151512146,-0.541924238204956,-0.15033943951129913,-0.20268091559410095,-0.10438600182533264
1749028443.7510285,3.7748022079467773,-2.523581167260641,1.6547849814044397,-2.735417505303854,-0.9127329031573694,-1.0630047957049769,0.0008506481535732746,2.6380513888905343e-19,0.0001143063636845909,0.00023446217528544366,0.00015759066445752978,-9.617995430131746e-33,0.08913329988718033,0.30571791529655457,-0.5390287637710571,-0.1728038638830185,-0.1938793957233429,-0.1054384708404541
1749028443.7511554,3.7748022079467773,-2.523581167260641,1.6547849814044397,-2.735417505303854,-0.9127329031573694,-1.0630047957049769,0.0008506481535732746,2.6380513888905343e-19,0.0001143063636845909,0.00023446217528544366,0.00015759066445752978,-9.617995430131746e-33,0.08913329988718033,0.30571791529655457,-0.5390287637710571,-0.1728038638830185,-0.1938793957233429,-0.1054384708404541
1749028443.7531369,3.7747950553894043,-2.523616930047506,1.6547768751727503,-2.735417505303854,-0.9127491156207483,-1.0630009810077112,0.0008553581428714097,-0.0007646454032510519,0.00010559222573647276,0.00022581480152439326,0.00015312076720874757,-1.6996008130928896e-33,0.09672979265451431,0.30357620120048523,-0.5441709756851196,-0.15045282244682312,-0.20167720317840576,-0.11132216453552246
1749028443.7942975,3.7748193740844727,-2.5235663853087367,1.6547768751727503,-2.7354332409300746,-0.9127286116229456,-1.0630086104022425,0.0006524079362861812,-0.0008324813097715378,9.550144022796303e-05,8.16446918179281e-05,0.00014490132161881775,-5.307275489959788e-35,0.09532035142183304,0.28098064661026,-0.5476983189582825,-0.16773444414138794,-0.19947481155395508,-0.10537150502204895
1749028443.7943451,3.7748806476593018,-2.523588796655172,1.6547768751727503,-2.7354332409300746,-0.9127638975726526,-1.063016716633932,0.0005820051301270723,-0.0008097838144749403,9.404782758792862e-05,6.998168100835755e-05,0.00014111386553850025,-9.378512069353654e-36,0.12359897047281265,0.3037426769733429,-0.553905725479126,-0.15997064113616943,-0.18753394484519958,-0.10762912034988403
1749028443.794386,3.774857521057129,-2.523605009118551,1.654769245778219,-2.7354332409300746,-0.9127867857562464,-1.0630009810077112,0.000525390962138772,-0.0007550501613877714,9.266198321711272e-05,3.913984619430266e-05,0.00013751955702900887,-1.6572814796536562e-36,0.09894398599863052,0.30332449078559875,-0.5495315790176392,-0.14608275890350342,-0.20873266458511353,-0.11461234092712402
1749028443.794426,3.7748420238494873,-2.52359737972402,1.6547568480121058,-2.7354451618590296,-0.9127491156207483,-1.0630129019366663,0.00047878967598080635,-0.0008146082982420921,9.131936531048268e-05,3.2754745916463435e-05,0.00013410361134447157,-2.928590251966253e-37,0.08277016133069992,0.28197571635246277,-0.553097128868103,-0.1554090678691864,-0.20874476432800293,-0.09913170337677002
1749028443.7944646,3.7748265266418457,-2.5236131153502406,1.654764477406637,-2.7354375324644984,-0.9127219359027308,-1.063023869191305,0.000439761410234496,-0.0009249528520740569,9.001464059110731e-05,3.075700078625232e-05,0.00013085358659736812,-5.175125829768425e-38,0.0848008468747139,0.2833554446697235,-0.5458305478096008,-0.15830138325691223,-0.20690438151359558,-0.09701129794120789
1749028443.7945023,3.7748770713806152,-2.5236321888365687,1.6547535101519983,-2.7354256115355433,-0.9127400557147425,-1.0630324522601526,0.0004722028970718384,-0.0014012845931574702,8.874593186192214e-05,2.9589926271000877e-05,0.00012775715731550008,-9.144990085956295e-39,0.09597138315439224,0.271332710981369,-0.5396103858947754,-0.1599738746881485,-0.20459383726119995,-0.11638841032981873
1749028443.79454,3.774838447570801,-2.5236288509764613,1.6547606627093714,-2.7354570827879847,-0.9127638975726526,-1.0630009810077112,0.0004411792615428567,-0.0019449280807748437,8.751383575145155e-05,2.8620008379220963e-05,0.00010776593262562528,-1.6160152241179158e-39,0.11164943128824234,0.24197494983673096,-0.5190656781196594,-0.13373051583766937,-0.2260790765285492,-0.12187451124191284
1749028443.7945776,3.7749085426330566,-2.523609300652975,1.6547487417804163,-2.7354136906065882,-0.9127672354327601,-1.063028637562887,0.00041230424540117383,-0.005046208389103413,8.631490345578641e-05,2.773377491394058e-05,0.00010231855412712321,-2.855664101493615e-40,0.09619248658418655,0.2545255720615387,-0.5319340229034424,-0.14000746607780457,-0.23233482241630554,-0.1230650544166565
1749028443.7946148,3.7748193740844727,-2.523609300652975,1.6547606627093714,-2.735410352746481,-0.9127557913409632,-1.0630009810077112,0.00017258350271731615,-0.005422115325927734,8.514826913597062e-05,2.690377732506022e-05,9.952519030775875e-05,-5.046215899880099e-41,0.0834852084517479,0.2960680425167084,-0.5132768750190735,-0.132151797413826,-0.23965567350387573,-0.11882710456848145
1749028443.7946522,3.7748265266418457,-2.5236598453917445,1.6547415892230433,-2.735429426232809,-0.9127605597125452,-1.0629976431476038,0.00013716517423745245,-0.004408075008541346,8.401277591474354e-05,2.612164280435536e-05,9.727961150929332e-05,-8.917863426963136e-42,0.05733851343393326,0.256521075963974,-0.5145266056060791,-0.1431816816329956,-0.24936407804489136,-0.1191357970237732
1749028443.79469,3.7748265266418457,-2.5236178837218226,1.6547768751727503,-2.7354332409300746,-0.9127710501300257,-1.063023869191305,8.396804332733154e-05,-0.003025437006726861,9.170451812678948e-05,2.538532135076821e-05,8.1437494372949e-05,-1.5764607723654192e-42,0.026274122297763824,0.2522318363189697,-0.5217958688735962,-0.12828335165977478,-0.24294063448905945,-0.1199575662612915
1749028443.7947268,3.7748336791992188,-2.523648878137106,1.6547377745257776,-2.7354136906065882,-0.9127948919879358,-1.0630129019366663,6.268275228649145e-06,-0.0027130746748298407,9.33207556954585e-05,3.326060686958954e-05,7.551524322479963e-05,-2.788583944006386e-43,0.006647981703281403,0.2395622432231903,-0.506460428237915,-0.11456206440925598,-0.26151227951049805,-0.13593775033950806
1749028443.7947643,3.774857521057129,-2.52364506343984,1.6547768751727503,-2.735436578790182,-0.9127491156207483,-1.0630205313311976,6.115709538789815e-08,-0.002529754303395748,9.230819705408067e-05,5.3555326303467155e-05,5.8261262893211097e-05,-4.90454462513686e-44,-0.001156635582447052,0.256659597158432,-0.48493194580078125,-0.11190518736839294,-0.25632351636886597,-0.15121909976005554
1749028443.794801,3.774852991104126,-2.5236417255797328,1.6547535101519983,-2.7353984318175257,-0.9128087202655237,-1.0630248228656214,-0.0026478846557438374,-0.002530326833948493,9.115160355577245e-05,7.506985275540501e-05,-1.2889042864117073e-06,-8.407790785948902e-45,-0.013099052011966705,0.2794719338417053,-0.5039457082748413,-0.12875981628894806,-0.26533806324005127,-0.14810889959335327
1749028443.7948377,3.7747912406921387,-2.523672719995016,1.6547768751727503,-2.7354256115355433,-0.9127672354327601,-1.0630515257464808,-0.004256570246070623,-0.0024055156391113997,9.001221769722179e-05,9.674560715211555e-05,-4.670945054385811e-05,-1.401298464324817e-45,0.005841203033924103,0.2777355909347534,-0.4991734027862549,-0.08972865343093872,-0.2910187244415283,-0.16029897332191467
1749028443.7948744,3.7748301029205322,-2.523672719995016,1.6547802130328577,-2.7354256115355433,-0.9128049055682581,-1.0630324522601526,-0.004141864366829395,-0.0023140786215662956,8.890141907613724e-05,0.0001473213342251256,-5.8698293287307024e-05,-0.0,0.00048564374446868896,0.27583402395248413,-0.5136764049530029,-0.07208683341741562,-0.2845323085784912,-0.16203904151916504
1749028443.7949111,3.7747673988342285,-2.523679872552389,1.6547887961017054,-2.7354451618590296,-0.9127457777606409,-1.0630434195147913,-0.0043187011033296585,-0.002004762878641486,8.781713404459879e-05,0.00022625585552304983,-7.61391274863854e-05,-0.0009457297855988145,-0.03994779661297798,0.2550547420978546,-0.5028952360153198,-0.09077043831348419,-0.3053608238697052,-0.15450948476791382
1749028443.7949474,3.774759292602539,-2.5236922703185023,1.6547449270831507,-2.735429426232809,-0.9127329031573694,-1.0629976431476038,-0.005464621819555759,-0.0016962540103122592,8.67583803483285e-05,0.0013022255152463913,-8.90811497811228e-05,-0.001518135890364647,-0.06755079329013824,0.2588008642196655,-0.5026708841323853,-0.08829247206449509,-0.2959149479866028,-0.1564638614654541
1749028443.7949834,3.774724245071411,-2.523707529107565,1.6547568480121058,-2.735429426232809,-0.9127710501300257,-1.0630129019366663,-0.0068192495964467525,-0.0015483442693948746,8.572592196287587e-05,0.0016712318174540997,-0.0003458569699432701,-0.0025182347744703293,-0.05314206704497337,0.28329506516456604,-0.5116592645645142,-0.09105297923088074,-0.30087918043136597,-0.16986232995986938
1749028443.7950199,3.7747700214385986,-2.5236689052977503,1.6547730604754847,-2.735405584374899,-0.9127710501300257,-1.0630443731891077,-0.008994857780635357,-0.0014776713214814663,8.471728506265208e-05,0.0023191070649772882,-0.0007300733122974634,-0.0027942433953285217,-0.04347957670688629,0.28283604979515076,-0.5116592645645142,-0.07848929613828659,-0.3291081190109253,-0.15456637740135193
1749028443.7951627,3.7747507095336914,-2.523677965203756,1.654764477406637,-2.735417505303854,-0.9127214590655726,-1.063028637562887,-0.009672443382441998,-0.001440122607164085,8.373156015295535e-05,0.0027026531752198935,-0.0007798479637131095,-0.002596612088382244,-0.04555412381887436,0.27767717838287354,-0.5288333892822266,-0.07806567847728729,-0.3204135298728943,-0.15418420732021332
1749028443.7971294,3.7747433185577393,-2.523703714410299,1.6547606627093714,-2.73538937191152,-0.9127796331988733,-1.0630758444415491,-0.010944626294076443,-0.0011545470915734768,8.276949665741995e-05,0.0033260395284742117,-0.000799564877524972,-0.002410655375570059,-0.07868190854787827,0.28651827573776245,-0.5234817862510681,-0.0729561597108841,-0.32907813787460327,-0.16256220638751984
1749028443.8383017,3.774714708328247,-2.523654123345846,1.6547768751727503,-2.735377927819723,-0.9127524534808558,-1.0630443731891077,-0.012413199990987778,-0.0009510517120361328,8.182883175322786e-05,0.004083736799657345,-0.0007809652015566826,-0.0023401144426316023,-0.07737617939710617,0.31324878334999084,-0.533778190612793,-0.05663181096315384,-0.3296775221824646,-0.15772689878940582
1749028443.8383482,3.774709939956665,-2.523677965203756,1.6547921339618128,-2.7354003391661585,-0.9127901236163538,-1.0630524794207972,-0.01324804499745369,-0.0007176806684583426,8.090880874078721e-05,0.004308574367314577,-0.0009697398054413497,-0.002360196318477392,-0.11692182719707489,0.33379659056663513,-0.5435949563980103,-0.05373472720384598,-0.33640360832214355,-0.16020603477954865
1749028443.8383877,3.774635076522827,-2.5236741505064906,1.6547568480121058,-2.7353621921935023,-0.9127638975726526,-1.0630486647235315,-0.014241954311728477,-0.00058636290486902,8.001019159564748e-05,0.004423866979777813,-0.0011104292934760451,-0.002879372565075755,-0.13160625100135803,0.33687111735343933,-0.5482964515686035,-0.033361226320266724,-0.3726992607116699,-0.1716626137495041
1749028443.8384264,3.7746424674987793,-2.5237003765501917,1.6547730604754847,-2.7353693447508753,-0.9127762953387659,-1.0630996862994593,-0.015928274020552635,-0.00044824337237514555,1.8443161025061272e-05,0.00504159415140748,-0.0017633996903896332,-0.003495978657156229,-0.13026317954063416,0.34870073199272156,-0.5574396252632141,-0.05211368203163147,-0.37323689460754395,-0.1551511138677597
1749028443.8384638,3.77461838722229,-2.523672719995016,1.6547768751727503,-2.735373159448141,-0.9127877394305628,-1.0630486647235315,-0.017804333940148354,-0.00028889469103887677,1.2042066828144016e-06,0.005858791992068291,-0.00288601266220212,-0.003533734241500497,-0.12150705605745316,0.402803897857666,-0.5628580451011658,-0.03014063835144043,-0.37758591771125793,-0.1644139438867569
1749028443.8385017,3.774571657180786,-2.5236851177611292,1.6547449270831507,-2.735349317590231,-0.912813965474264,-1.0630453268634241,-0.018555784597992897,0.0003809753688983619,7.862609407993659e-08,0.007644280791282654,-0.004013116471469402,-0.0035966478753834963,-0.10013478249311447,0.3724921643733978,-0.5755131244659424,-0.03530517965555191,-0.3860904276371002,-0.16860778629779816
1749028443.8385386,3.774491786956787,-2.5236689052977503,1.6547568480121058,-2.7353297672667445,-0.9127910772906702,-1.0631077925311487,-0.018785342574119568,0.002188062760978937,5.133722336125857e-09,0.008480479940772057,-0.004453867208212614,-0.0039122640155255795,-0.1293727606534958,0.4202089309692383,-0.5806835889816284,-0.02555955946445465,-0.38515549898147583,-0.17813672125339508
1749028443.8385773,3.774510145187378,-2.523665567437643,1.6547535101519983,-2.735321661035055,-0.912818733845846,-1.0631006399737757,-0.018127650022506714,0.0028035081923007965,4.262411039235303e-06,0.008676671423017979,-0.004447962157428265,-0.004238435532897711,-0.11262473464012146,0.4019266963005066,-0.5962470769882202,-0.016658566892147064,-0.4085443615913391,-0.17242510616779327
1749028443.8386147,3.774411678314209,-2.5236689052977503,1.6547568480121058,-2.7353254757323207,-0.9128358999835413,-1.0630725065814417,-0.019361384212970734,0.003119718050584197,2.78304980838584e-07,0.010382801294326782,-0.004568270407617092,-0.004421895835548639,-0.1259092539548874,0.4067625403404236,-0.6130198240280151,-0.02190382033586502,-0.4256451427936554,-0.16129161417484283
1749028443.838652,3.7744462490081787,-2.5236417255797328,1.6547606627093714,-2.73528589824819,-0.9128358999835413,-1.063101593648092,-0.01871201954782009,0.0024182989727705717,1.8171327553773153e-08,0.011926846578717232,-0.005331309046596289,-0.004832093138247728,-0.16475826501846313,0.44837450981140137,-0.6287851333618164,-0.01715037226676941,-0.416855126619339,-0.1700626164674759
1749028443.8386893,3.7743899822235107,-2.5236922703185023,1.6547921339618128,-2.735258241693014,-0.9128358999835413,-1.0631282965289515,-0.019228579476475716,0.002271458739414811,1.1864578208786725e-09,0.01294095441699028,-0.007021027151495218,-0.005307098850607872,-0.15164868533611298,0.48091503977775574,-0.6474354267120361,-0.012378744781017303,-0.42486557364463806,-0.17268170416355133
1749028443.8387263,3.774315357208252,-2.523648878137106,1.6547449270831507,-2.7352382145323695,-0.9128325621234339,-1.0631206671344202,-0.019303645938634872,0.0026740198954939842,-0.0028034644201397896,0.013757944107055664,-0.00912935845553875,-0.005683027673512697,-0.17037369310855865,0.4753493368625641,-0.6452065706253052,-0.007514625787734985,-0.41807371377944946,-0.1652096062898636
1749028443.8387635,3.7743141651153564,-2.52362122158193,1.6547802130328577,-2.7352143726744593,-0.912875000630514,-1.0631488005267542,-0.022320976480841637,0.005592484958469868,-0.003331746207550168,0.014950267970561981,-0.010830237530171871,-0.00616601062938571,-0.1719602793455124,0.47569534182548523,-0.6439334154129028,0.007795944809913635,-0.4332425594329834,-0.17609579861164093
1749028443.838804,3.774301052093506,-2.523633142510885,1.6547415892230433,-2.7351747951903285,-0.9128783384906214,-1.0631797949420374,-0.02247920073568821,0.005458270665258169,-0.0029069529846310616,0.015721924602985382,-0.01245470717549324,-0.006535104010254145,-0.15909910202026367,0.46222054958343506,-0.6561309695243835,-0.026318751275539398,-0.4123855233192444,-0.16338156163692474
1749028443.8388422,3.7741987705230713,-2.5236131153502406,1.6547487417804163,-2.735147615472311,-0.9129226843463343,-1.063188378010885,-0.022457024082541466,0.00536412512883544,-0.0022344139870256186,0.016089709475636482,-0.014190268702805042,-0.0068079098127782345,-0.20761150121688843,0.4838329255580902,-0.6818927526473999,-0.011493556201457977,-0.4254797697067261,-0.16929300129413605
1749028443.8388805,3.7741823196411133,-2.5236131153502406,1.6547330061541956,-2.7350956402220667,-0.9129636923419397,-1.0631845633136194,-0.023591816425323486,0.005811713635921478,-0.002143335063010454,0.016569852828979492,-0.01687486656010151,-0.007131210528314114,-0.2181904911994934,0.4938364326953888,-0.6982548832893372,-0.005459018051624298,-0.4271713197231293,-0.15702398121356964
1749028443.838918,3.7740955352783203,-2.52359737972402,1.6547330061541956,-2.735075613061422,-0.9130137602435511,-1.0632241407977503,-0.025020087137818336,0.007004245650023222,-0.0030629620887339115,0.01695903204381466,-0.017512835562229156,-0.006953810807317495,-0.21471217274665833,0.5184047818183899,-0.7011582851409912,-0.03264089673757553,-0.41054096817970276,-0.15801949799060822
1749028443.838955,3.7740821838378906,-2.523605009118551,1.6547330061541956,-2.735051771203512,-0.9130719343768519,-1.063204590474264,-0.026283863931894302,0.007685249205678701,-0.00542315561324358,0.01608249731361866,-0.01815260760486126,-0.007046849466860294,-0.19864487648010254,0.5025275945663452,-0.7020244598388672,-0.01699846237897873,-0.4122874140739441,-0.18461410701274872
1749028443.8389926,3.7740414142608643,-2.5235420666136683,1.6547248999225062,-2.735012193719381,-0.9130733648883265,-1.0632289091693323,-0.026903603225946426,0.00730978325009346,-0.005960328038781881,0.015106907114386559,-0.018387125805020332,-0.007017058786004782,-0.19562825560569763,0.5226619839668274,-0.7074480652809143,-0.022572845220565796,-0.4027029871940613,-0.15695616602897644
1749028443.8390303,3.7740414142608643,-2.5235420666136683,1.6547248999225062,-2.735012193719381,-0.9130733648883265,-1.0632289091693323,-0.026903603225946426,0.00730978325009346,-0.005960328038781881,0.015106907114386559,-0.018387125805020332,-0.007017058786004782,-0.19562825560569763,0.5226619839668274,-0.7074480652809143,-0.022572845220565796,-0.4027029871940613,-0.15695616602897644
1749028443.8391418,3.77392578125,-2.5235492191710414,1.654701058064596,-2.734971662560934,-0.9131034056292933,-1.0632527510272425,-0.02903931401669979,0.008378694765269756,-0.006929839961230755,0.013923254795372486,-0.01996270939707756,-0.007269297726452351,-0.2376573532819748,0.5472488403320312,-0.7148187160491943,-0.012876629829406738,-0.37662366032600403,-0.16630059480667114
1749028443.8411593,3.7738730907440186,-2.5235372982420863,1.6546972433673304,-2.734959741631979,-0.9131858984576624,-1.0632994810687464,-0.03101089596748352,0.009965716861188412,-0.007607649080455303,0.013486269861459732,-0.0192574393004179,-0.007716469932347536,-0.2449282556772232,0.535988450050354,-0.7251206040382385,0.00016041100025177002,-0.3975676894187927,-0.16143110394477844
1749028443.8823104,3.7737865447998047,-2.5235172710814417,1.6546929518329065,-2.734936376611227,-0.9132216612445276,-1.0632885138141077,-0.032276857644319534,0.009662074968218803,-0.008073480799794197,0.01318431831896305,-0.018795479089021683,-0.0076492782682180405,-0.2514551281929016,0.5428492426872253,-0.7127574682235718,0.004563584923744202,-0.37359899282455444,-0.1717577576637268
1749028443.8823674,3.773749351501465,-2.523489614526266,1.6546457449542444,-2.734931608239645,-0.9132660071002405,-1.0633237997638147,-0.03397176414728165,0.01008711475878954,-0.009349478408694267,0.01289190724492073,-0.017840158194303513,-0.0073384931311011314,-0.28785449266433716,0.5725833773612976,-0.7269032001495361,0.010181054472923279,-0.36880743503570557,-0.1773468554019928
1749028443.8824098,3.7736542224884033,-2.5235048733153285,1.6546652952777308,-2.7349001369872035,-0.913281265889303,-1.0633237997638147,-0.03567427024245262,0.011199248023331165,-0.009212147444486618,0.013249281793832779,-0.015691569074988365,-0.007022027857601643,-0.27858132123947144,0.5738908052444458,-0.7410010695457458,0.006334230303764343,-0.36535513401031494,-0.16726887226104736
1749028443.882453,3.773554563522339,-2.523450037042135,1.6546099821673792,-2.734875818292135,-0.9132946173297327,-1.0633247534381312,-0.03684167191386223,0.010584097355604172,-0.009541594423353672,0.013563854619860649,-0.014462629333138466,-0.006950614508241415,-0.280853271484375,0.5841673016548157,-0.7327191233634949,0.02431350201368332,-0.3800002932548523,-0.17159289121627808
1749028443.8824916,3.7735447883605957,-2.523464342156881,1.6546133200274866,-2.7348557911314906,-0.9133346716510218,-1.0633323828326624,-0.03892330080270767,0.011304369196295738,-0.009779386222362518,0.014029956422746181,-0.014193874783813953,-0.007314298301935196,-0.2626970112323761,0.6006974577903748,-0.7342707514762878,0.008828215301036835,-0.37989509105682373,-0.17896772921085358
1749028443.8825297,3.773460626602173,-2.523433347741598,1.654593292866842,-2.734847684899801,-0.9133856932269495,-1.0633991400348108,-0.040438320487737656,0.011804360896348953,-0.01050987932831049,0.015221095643937588,-0.013841019943356514,-0.007729684934020042,-0.2977388799190521,0.6223534941673279,-0.7334614992141724,0.01890183985233307,-0.36273789405822754,-0.16652388870716095
1749028443.8825676,3.7733588218688965,-2.523393293420309,1.6545851866351526,-2.7348042927184046,-0.9134629408465784,-1.0633919874774378,-0.042913664132356644,0.012089966796338558,-0.010997018776834011,0.01636754348874092,-0.012641983106732368,-0.008057341910898685,-0.31384971737861633,0.6129447221755981,-0.7380852103233337,0.01448289304971695,-0.3628692626953125,-0.1590258628129959
1749028443.8826096,3.773332357406616,-2.5233622990050257,1.654541317616598,-2.734765192071432,-0.9134796301471155,-1.0634005705462855,-0.043575797230005264,0.012655439786612988,-0.012043843045830727,0.01707865484058857,-0.012509106658399105,-0.008792925626039505,-0.3057551980018616,0.6018387079238892,-0.7366463541984558,0.03944839537143707,-0.37644606828689575,-0.1518786996603012
1749028443.8826478,3.773216724395752,-2.5233494244017542,1.654541317616598,-2.7347566090025843,-0.9134677092181605,-1.0634353796588343,-0.04830809682607651,0.011691994965076447,-0.012396413832902908,0.01797315664589405,-0.012939519248902798,-0.009652391076087952,-0.314026415348053,0.6240134239196777,-0.7442578077316284,0.050341129302978516,-0.34979376196861267,-0.16573072969913483
1749028443.8826852,3.7731361389160156,-2.5233494244017542,1.6544902960406702,-2.7347446880736292,-0.9134691397296351,-1.0634401480304163,-0.04934326186776161,0.012205475941300392,-0.012877674773335457,0.019530078396201134,-0.013264528475701809,-0.009409196674823761,-0.3019871711730957,0.6309047341346741,-0.7462620735168457,0.057978153228759766,-0.3758309781551361,-0.16161875426769257
1749028443.8827221,3.773029327392578,-2.5233408413329066,1.6544817129718226,-2.734709402123922,-0.9135082403766077,-1.0634291807757776,-0.04904462769627571,0.012039732187986374,-0.012853436172008514,0.021260205656290054,-0.012810546904802322,-0.00864453800022602,-0.3405914902687073,0.6367748975753784,-0.7295873165130615,0.044279247522354126,-0.36928051710128784,-0.15944139659404755
1749028443.8827624,3.772952079772949,-2.5232893429198207,1.6544540564166468,-2.734673162499899,-0.9135358969317835,-1.0634563604937952,-0.0513317845761776,0.011044594459235668,-0.013038115575909615,0.0221797376871109,-0.011859526857733727,-0.00845248345285654,-0.3601337671279907,0.6368823647499084,-0.7382470369338989,0.06536856293678284,-0.39034563302993774,-0.16162829101085663
1749028443.8827999,3.772852659225464,-2.5232235393919886,1.6544182936297815,-2.7346373997130335,-0.9135597387896937,-1.0634806791888636,-0.05394634231925011,0.01078936830163002,-0.013337142765522003,0.02352289855480194,-0.012165810912847519,-0.008930184878408909,-0.3427034020423889,0.6651124954223633,-0.7503611445426941,0.060272373259067535,-0.3918146789073944,-0.17875678837299347
1749028443.8828359,3.772693634033203,-2.523257394830221,1.6543944517718714,-2.7346016369261683,-0.9136069456683558,-1.0635154883014124,-0.05627162382006645,0.010376929305493832,-0.012971141375601292,0.024383775889873505,-0.013856888748705387,-0.009282881394028664,-0.3188557028770447,0.6704251170158386,-0.7473083734512329,0.05460786446928978,-0.3894624412059784,-0.15572397410869598
1749028443.8828723,3.772639751434326,-2.5232140026488246,1.6543858687030237,-2.734573026696676,-0.9136469999896448,-1.0635479132281702,-0.054541945457458496,0.01046277116984129,-0.013262314721941948,0.024974100291728973,-0.015399525873363018,-0.009446769952774048,-0.359710156917572,0.675163984298706,-0.7573761940002441,0.06636987626552582,-0.38156604766845703,-0.1705668419599533
1749028443.8829124,3.7725205421447754,-2.523198267022604,1.6543620268451136,-2.734530111352438,-0.9136245886432093,-1.0635283629046839,-0.05785972252488136,0.010775509290397167,-0.012722223997116089,0.026004137471318245,-0.015310803428292274,-0.010039995424449444,-0.36569148302078247,0.6747221946716309,-0.7706538438796997,0.08449559658765793,-0.37007957696914673,-0.15666349232196808
1749028443.8829522,3.7724077701568604,-2.523193498651022,1.6543377081500452,-2.734450479547018,-0.9136603514300745,-1.0635598341571253,-0.05988376587629318,0.01085660234093666,-0.013370131142437458,0.027436114847660065,-0.01609867438673973,-0.00985503289848566,-0.37488314509391785,0.7181931734085083,-0.7514147162437439,0.08135934919118881,-0.38357120752334595,-0.15944655239582062
1749028443.8829896,3.7722995281219482,-2.523177763024801,1.6543176809894007,-2.7344256840147914,-0.9136927763568323,-1.0635960737811487,-0.06131709739565849,0.01234597060829401,-0.013681181706488132,0.02848317287862301,-0.017062494531273842,-0.009364831261336803,-0.37883758544921875,0.7133209705352783,-0.7461993098258972,0.08385910093784332,-0.383283793926239,-0.16535408794879913
1749028443.883026,3.7722067832946777,-2.5231696567931117,1.6542709509478968,-2.7343622646727503,-0.9137170950519007,-1.0635960737811487,-0.06280990689992905,0.01262771338224411,-0.014097942970693111,0.02913770079612732,-0.016998691484332085,-0.009682529605925083,-0.3842087984085083,0.7112901210784912,-0.7398166060447693,0.08081366866827011,-0.40872541069984436,-0.17010778188705444
1749028443.8830667,3.772024393081665,-2.5231229267516078,1.6542542616473597,-2.7343064747252406,-0.9138072172748011,-1.0636280218707483,-0.06461036950349808,0.012387802824378014,-0.012668749317526817,0.029699986800551414,-0.017891306430101395,-0.009108702652156353,-0.39984965324401855,0.7055293917655945,-0.7655084133148193,0.08276258409023285,-0.39665427803993225,-0.17028453946113586
1749028443.883274,3.771923065185547,-2.523102422753805,1.6542266050921839,-2.7342235050597132,-0.9137991110431116,-1.0636242071734827,-0.0668925866484642,0.012372426688671112,-0.014025249518454075,0.03018755279481411,-0.01901460625231266,-0.009982241317629814,-0.37532705068588257,0.7434428334236145,-0.7597233653068542,0.09498706459999084,-0.3850708603858948,-0.17542171478271484
1749028443.8851235,3.771822452545166,-2.523097654382223,1.6542061010943812,-2.7341557941832484,-0.913858715687887,-1.0636399427997034,-0.06775486469268799,0.012690050527453423,-0.014825813472270966,0.03038390725851059,-0.018834460526704788,-0.009989842772483826,-0.40432262420654297,0.7524625658988953,-0.7528534531593323,0.08371463418006897,-0.3946598470211029,-0.16426430642604828
1749028443.9262998,3.7716779708862305,-2.5230304203429164,1.654182259236471,-2.734108110467428,-0.9138649145709437,-1.063695255910055,-0.06951843202114105,0.013546799309551716,-0.0147897619754076,0.03051796928048134,-0.018671434372663498,-0.009680141694843769,-0.3895907998085022,0.7433845400810242,-0.757949709892273,0.076861672103405,-0.4174533784389496,-0.15677015483379364
1749028443.926346,3.771550416946411,-2.523033758203024,1.6541431585894983,-2.734051366845602,-0.9139307180987757,-1.06370717683901,-0.07130075246095657,0.013780881650745869,-0.01459871232509613,0.03132098168134689,-0.020185399800539017,-0.008957138285040855,-0.38801172375679016,0.747931182384491,-0.7728961706161499,0.09323255717754364,-0.41193974018096924,-0.17890457808971405
1749028443.9263856,3.771385908126831,-2.5230294666686,1.654106918965475,-2.733969350854391,-0.9139350096331995,-1.0636962095843714,-0.07292846590280533,0.01481970027089119,-0.01545191090553999,0.030636519193649292,-0.021733548492193222,-0.009624076075851917,-0.38832539319992065,0.7440626621246338,-0.7759241461753845,0.10742257535457611,-0.40112248063087463,-0.16865816712379456
1749028443.9264243,3.7712066173553467,-2.5229393444456996,1.6540711561786097,-2.7339288196959437,-0.9140070120440882,-1.063774887715475,-0.0740513727068901,0.014845645986497402,-0.015305289067327976,0.030219782143831253,-0.023375950753688812,-0.010517969727516174,-0.409396767616272,0.7616738080978394,-0.7653180360794067,0.11261911690235138,-0.39438948035240173,-0.16830846667289734
1749028443.9264627,3.7710936069488525,-2.522966047326559,1.6540539900409144,-2.7338654003539027,-0.9140513578998011,-1.0637672583209437,-0.07674495875835419,0.015935232862830162,-0.015907056629657745,0.031526338309049606,-0.02462759055197239,-0.011043203063309193,-0.4081038236618042,0.7612230181694031,-0.7839254140853882,0.08907079696655273,-0.3947738707065582,-0.16661867499351501
1749028443.9265032,3.7709734439849854,-2.5229021511473597,1.6540263334857386,-2.733809610406393,-0.9141109625445765,-1.0637791792498987,-0.07924135774374008,0.016617586836218834,-0.015522208996117115,0.03239501640200615,-0.024361010640859604,-0.01085471361875534,-0.3762712776660919,0.7774543166160583,-0.778404712677002,0.10451453179121017,-0.3888034522533417,-0.1638796329498291
1749028443.926541,3.770730495452881,-2.5229250393309535,1.653987232838766,-2.733734270135397,-0.914184872304098,-1.063826862965719,-0.07861360907554626,0.016421345993876457,-0.015982242301106453,0.033700525760650635,-0.025222325697541237,-0.010891729965806007,-0.40193572640419006,0.7451287508010864,-0.7715600728988647,0.11691756546497345,-0.4026585519313812,-0.15217339992523193
1749028443.9265785,3.770648956298828,-2.5228544674315394,1.6539824644671839,-2.73364319423818,-0.914278809224264,-1.0637958685504358,-0.08284785598516464,0.016582677140831947,-0.015860820189118385,0.034444909542798996,-0.02445693500339985,-0.009921476244926453,-0.39688193798065186,0.783958375453949,-0.7794457674026489,0.0972561463713646,-0.3940868675708771,-0.1811903715133667
1749028443.9266205,3.7704966068267822,-2.5228029690184535,1.6539271513568323,-2.733568330804342,-0.9142649809466761,-1.063854996358053,-0.07898065447807312,0.016935868188738823,-0.016369283199310303,0.0350862592458725,-0.02406679280102253,-0.010727174580097198,-0.438887357711792,0.7909968495368958,-0.7813992500305176,0.10651136934757233,-0.4087974727153778,-0.17141780257225037
1749028443.9266589,3.770312786102295,-2.522794385949606,1.6539185682879847,-2.733534952203268,-0.9143241087542933,-1.0638940970050257,-0.08436223119497299,0.018199032172560692,-0.017336631193757057,0.03519531711935997,-0.024357646703720093,-0.01162085309624672,-0.40435081720352173,0.7749006748199463,-0.7883768081665039,0.10544992983341217,-0.4035823941230774,-0.16178804636001587
1749028443.9266956,3.7700934410095215,-2.5227390728392542,1.653867546712057,-2.7334591350951136,-0.9143880049334925,-1.063875977193014,-0.08571656048297882,0.01915518380701542,-0.017396222800016403,0.03599443659186363,-0.024465540423989296,-0.01171802543103695,-0.42441505193710327,0.7961496114730835,-0.7816751599311829,0.12390105426311493,-0.4098132848739624,-0.16993752121925354
1749028443.9267325,3.7699058055877686,-2.522710462609762,1.653846565877096,-2.7334186039366664,-0.9144476095782679,-1.0639265219317835,-0.08689866214990616,0.019750306382775307,-0.016868291422724724,0.037213169038295746,-0.026493974030017853,-0.012716863304376602,-0.419868528842926,0.7816349267959595,-0.7822209000587463,0.11364053189754486,-0.3891637921333313,-0.16213899850845337
1749028443.9267697,3.7697410583496094,-2.522635122338766,1.6538074652301233,-2.73330082515859,-0.9144800345050257,-1.063927952443258,-0.08776538819074631,0.020511329174041748,-0.016132041811943054,0.038802046328783035,-0.026769835501909256,-0.012333954684436321,-0.42332637310028076,0.7765712141990662,-0.8120951652526855,0.08457793295383453,-0.41200634837150574,-0.16306939721107483
1749028443.926807,3.769606828689575,-2.5226265392699183,1.653771702443258,-2.7332359753050746,-0.9145467917071741,-1.0639551321612757,-0.08923045545816422,0.020545579493045807,-0.01730184815824032,0.03938157483935356,-0.02782006375491619,-0.012853749096393585,-0.43027055263519287,0.7986932396888733,-0.8066957592964172,0.09429283440113068,-0.4092894494533539,-0.18756410479545593
1749028443.926844,3.7694311141967773,-2.5225631199278773,1.653766934071676,-2.733145376245016,-0.914583985005514,-1.0639718214618128,-0.09155834466218948,0.020744431763887405,-0.01831791177392006,0.03949993476271629,-0.027364883571863174,-0.013733217492699623,-0.4086000323295593,0.7982414960861206,-0.8058086037635803,0.08231985569000244,-0.4103616774082184,-0.15204468369483948
1749028443.9268806,3.769195318222046,-2.522508283654684,1.653743092213766,-2.733042379418844,-0.9146044890033167,-1.0639994780169886,-0.09240391850471497,0.021989326924085617,-0.018886175006628036,0.0398612916469574,-0.028550148010253906,-0.01445809006690979,-0.41550007462501526,0.7765582799911499,-0.804319441318512,0.09064948558807373,-0.4001767635345459,-0.15636023879051208
1749028443.9269173,3.7690465450286865,-2.5224863491454066,1.6537068525897425,-2.73300900081777,-0.9146950880633753,-1.064042870198385,-0.09638980031013489,0.02302717976272106,-0.019320957362651825,0.04094485566020012,-0.028518304228782654,-0.014183617196977139,-0.3817284405231476,0.7607373595237732,-0.8111124038696289,0.08583149313926697,-0.4153318405151367,-0.15537375211715698
1749028443.926955,3.768831253051758,-2.5224348507323207,1.6536520163165491,-2.732882638970846,-0.914809528981344,-1.0640667120562952,-0.09582862257957458,0.023382894694805145,-0.018794765695929527,0.04093025624752045,-0.029755007475614548,-0.014268183149397373,-0.4502955377101898,0.8015149831771851,-0.832370400428772,0.10078127682209015,-0.40684521198272705,-0.1779806762933731
1749028443.9269922,3.768638849258423,-2.5223523579039515,1.6536310354815882,-2.732779642144674,-0.9148452917682093,-1.0640924612628382,-0.10101170837879181,0.024470895528793335,-0.01909080147743225,0.041102804243564606,-0.02907051518559456,-0.015499449335038662,-0.398955762386322,0.8089955449104309,-0.8061445951461792,0.08923334628343582,-0.4069698750972748,-0.14413362741470337
1749028443.92703,3.768454074859619,-2.5223385296263636,1.6535761992083948,-2.732718606988424,-0.9148433844195765,-1.0641472975360315,-0.09911847114562988,0.02489890716969967,-0.01943906396627426,0.04233037680387497,-0.029827482998371124,-0.015881912782788277,-0.4238913059234619,0.772986650466919,-0.8188457489013672,0.0868203416466713,-0.4219430088996887,-0.17527981102466583
1749028443.9272137,3.7682337760925293,-2.5222684345641078,1.6535561720477503,-2.7326437435545863,-0.9149716536151331,-1.0641868750201624,-0.10155393928289413,0.025228718295693398,-0.01932409033179283,0.042810309678316116,-0.029660498723387718,-0.015572018921375275,-0.4197010099887848,0.7893831133842468,-0.8385499119758606,0.06920771300792694,-0.41785645484924316,-0.1669287085533142
1749028443.9291964,3.767997980117798,-2.5222274265685023,1.6535552183734339,-2.732544084588522,-0.9149745146380823,-1.064206902180807,-0.10325156152248383,0.02692406252026558,-0.019985098391771317,0.042401060461997986,-0.03078843653202057,-0.01638094335794449,-0.40324053168296814,0.7847967743873596,-0.8292492628097534,0.07771695405244827,-0.4188004434108734,-0.1772933006286621
1749028443.974321,3.767770767211914,-2.522179742852682,1.653468434010641,-2.7324606380858363,-0.9150808493243616,-1.0642502943622034,-0.10472752153873444,0.025670336559414864,-0.020316096022725105,0.041310012340545654,-0.031381282955408096,-0.016924183815717697,-0.39997291564941406,0.7816051244735718,-0.8385845422744751,0.0777091532945633,-0.4295576214790344,-0.16253764927387238
1749028443.9743664,3.7675652503967285,-2.522146841088766,1.6534393469439905,-2.7323619327940882,-0.9151371161090296,-1.0642865339862269,-0.1054268553853035,0.02659175917506218,-0.020754719153046608,0.04122232645750046,-0.0325513556599617,-0.016844408586621284,-0.42493492364883423,0.7860214114189148,-0.8563675880432129,0.0925651267170906,-0.43683096766471863,-0.17176349461078644
1749028443.9744072,3.7675652503967285,-2.522146841088766,1.6534393469439905,-2.7323619327940882,-0.9151371161090296,-1.0642865339862269,-0.1054268553853035,0.02659175917506218,-0.020754719153046608,0.04122232645750046,-0.0325513556599617,-0.016844408586621284,-0.42493492364883423,0.7860214114189148,-0.8563675880432129,0.0925651267170906,-0.43683096766471863,-0.17176349461078644
1749028443.9744463,3.767404556274414,-2.522083898583883,1.653431240712301,-2.73230042080068,-0.9152348677264612,-1.0642946402179163,-0.10725972801446915,0.02792503498494625,-0.020857760682702065,0.0423639677464962,-0.03384047746658325,-0.016332371160387993,-0.41675084829330444,0.7753597497940063,-0.8644436001777649,0.0740310326218605,-0.4336042106151581,-0.17316719889640808
1749028443.9744847,3.766956090927124,-2.5219789944090785,1.6533005873309534,-2.7321330509581507,-0.9153593222247522,-1.0643623510943812,-0.11103074252605438,0.029238123446702957,-0.022976577281951904,0.045137543231248856,-0.03646235913038254,-0.017142681404948235,-0.42351317405700684,0.771789014339447,-0.842191755771637,0.06740175932645798,-0.4156530797481537,-0.14973999559879303
1749028443.9745276,3.7667200565338135,-2.5219041309752406,1.653252426777975,-2.7320414982237757,-0.9153912703143519,-1.0643866697894495,-0.11069750040769577,0.02927197515964508,-0.022793347015976906,0.044495243579149246,-0.036600638180971146,-0.01689101941883564,-0.45937380194664,0.7830243706703186,-0.8521431088447571,0.10949546843767166,-0.42109495401382446,-0.19228753447532654
1749028443.9745657,3.766460418701172,-2.5218283138670863,1.6532285849200647,-2.7319423160948695,-0.9154904524432581,-1.0644343535052698,-0.11679458618164062,0.03018318861722946,-0.02242126315832138,0.0454719103872776,-0.03687479346990585,-0.017918938770890236,-0.41414740681648254,0.7528246641159058,-0.8732894659042358,0.08353196829557419,-0.4159955084323883,-0.17786934971809387
1749028443.9746034,3.766235828399658,-2.5218192539610804,1.6531880537616175,-2.731831213037008,-0.9155572096454065,-1.0644391218768519,-0.11522554606199265,0.030563971027731895,-0.023168297484517097,0.04803772643208504,-0.03751882538199425,-0.01895737834274769,-0.4450978636741638,0.7805969715118408,-0.8668419718742371,0.09887227416038513,-0.4244289696216583,-0.16719771921634674
1749028443.9746408,3.766042470932007,-2.5217396221556605,1.653126064931051,-2.731732030908102,-0.9156153837787073,-1.064503018056051,-0.11861877888441086,0.03138289973139763,-0.024795804172754288,0.04914015159010887,-0.038221534341573715,-0.018924882635474205,-0.3785485625267029,0.7535562515258789,-0.8684491515159607,0.0745234340429306,-0.42662930488586426,-0.16744832694530487
1749028443.974678,3.765770673751831,-2.5216452083983363,1.6530969778644007,-2.731655260125631,-0.9157021681415003,-1.0645392576800745,-0.11957672983407974,0.03107321634888649,-0.025744229555130005,0.04892636463046074,-0.03928901255130768,-0.01905638910830021,-0.42756763100624084,0.7670425176620483,-0.8595267534255981,0.0702299177646637,-0.44475582242012024,-0.18148565292358398
1749028443.974715,3.7655107975006104,-2.5215851269164027,1.6530330816852015,-2.7315684757628382,-0.9157894293414515,-1.0645940939532679,-0.12191261351108551,0.0312039777636528,-0.02575511299073696,0.04784849286079407,-0.0408625565469265,-0.019091179594397545,-0.45991331338882446,0.7685674428939819,-0.8682202100753784,0.09345628321170807,-0.42318570613861084,-0.18563909828662872
1749028443.9747515,3.765277624130249,-2.521559854547018,1.6529892126666468,-2.7314611874022425,-0.9159072081195276,-1.0646494070636194,-0.12446946650743484,0.03230290487408638,-0.026258090510964394,0.0486375130712986,-0.0413462296128273,-0.018555620685219765,-0.42218995094299316,0.7441403865814209,-0.8738476037979126,0.10237160325050354,-0.43029823899269104,-0.1679401397705078
1749028443.974788,3.765014410018921,-2.5214535198607386,1.652945343648092,-2.7313338718810023,-0.9159310499774378,-1.064650837575094,-0.12310215830802917,0.032354701310396194,-0.02708418481051922,0.05034447833895683,-0.04209321737289429,-0.01926264353096485,-0.43266698718070984,0.75633704662323,-0.8689756989479065,0.0945349931716919,-0.42132580280303955,-0.18814097344875336
1749028443.9748247,3.7648210525512695,-2.5213848553099574,1.6528852621661585,-2.7312733135619105,-0.9160369078265589,-1.0646832625018519,-0.12771718204021454,0.03167996183037758,-0.027836719527840614,0.05334360897541046,-0.04203375428915024,-0.020410887897014618,-0.4035821855068207,0.7879016399383545,-0.8754957914352417,0.0857587456703186,-0.4242638051509857,-0.18016986548900604
1749028443.9748614,3.764528512954712,-2.5213405094542445,1.6528375784503382,-2.7311345539488734,-0.9161241690265101,-1.0647500197040003,-0.1277070790529251,0.03201683983206749,-0.028618203476071358,0.053007934242486954,-0.04262849688529968,-0.020686108618974686,-0.47440847754478455,0.7678098678588867,-0.875469446182251,0.09544801712036133,-0.4305086135864258,-0.18185433745384216
1749028443.9748979,3.7643113136291504,-2.521273752252096,1.6527894178973597,-2.7310272655882777,-0.916210953389303,-1.0647700468646448,-0.12927842140197754,0.03206663206219673,-0.029569342732429504,0.05272744968533516,-0.04295587167143822,-0.021967845037579536,-0.44994962215423584,0.7796528935432434,-0.8574259877204895,0.09434199333190918,-0.4322108030319214,-0.18258588016033173
1749028443.9749346,3.7640397548675537,-2.521217485467428,1.6527298132525843,-2.7309075794615687,-0.9163029829608362,-1.0648306051837366,-0.13422398269176483,0.03269082307815552,-0.02989581599831581,0.053506266325712204,-0.04378396272659302,-0.02251889370381832,-0.4179939031600952,0.7699325084686279,-0.872093677520752,0.08674658834934235,-0.4156038463115692,-0.1738738715648651
1749028443.9749713,3.763763189315796,-2.521145006219381,1.652665917073385,-2.730788370172018,-0.9163554350482386,-1.0648749510394495,-0.13471674919128418,0.03226280212402344,-0.030408188700675964,0.05411629006266594,-0.04405806213617325,-0.02283441834151745,-0.4221593141555786,0.7796046137809753,-0.8659653067588806,0.060625433921813965,-0.41123872995376587,-0.15828007459640503
1749028443.975008,3.7635180950164795,-2.521116395989889,1.6526177565204065,-2.7306844196715296,-0.916455094014303,-1.064902130757467,-0.13711492717266083,0.0325702428817749,-0.030894827097654343,0.05412360280752182,-0.04423309117555618,-0.022704973816871643,-0.42825254797935486,0.8225080966949463,-0.8692972660064697,0.08151818066835403,-0.41573309898376465,-0.15638579428195953
1749028443.975045,3.7632381916046143,-2.5210172138609828,1.652546230946676,-2.730558057824606,-0.9165476004229944,-1.0649970213519495,-0.1398395299911499,0.03293141722679138,-0.031616032123565674,0.05438932403922081,-0.04290654882788658,-0.021759847179055214,-0.43129655718803406,0.805520236492157,-0.8576439619064331,0.10453625023365021,-0.44466546177864075,-0.17417976260185242
1749028443.9750848,3.762953281402588,-2.520965715447897,1.6524742285357874,-2.7304536304869593,-0.9166224638568323,-1.0649483839618128,-0.14133363962173462,0.03339605778455734,-0.03173568844795227,0.05449828505516052,-0.043588392436504364,-0.02069009840488434,-0.4220224618911743,0.7766854166984558,-0.8528419733047485,0.09613171964883804,-0.43630415201187134,-0.17292961478233337
1749028443.9751222,3.7627007961273193,-2.5208784542479457,1.652426544819967,-2.7303501568236292,-0.9167407194720667,-1.0650342146502894,-0.14449240267276764,0.032777756452560425,-0.031654566526412964,0.055241018533706665,-0.04640679433941841,-0.02206405997276306,-0.38605406880378723,0.8048577904701233,-0.8597496747970581,0.07872031629085541,-0.4308944344520569,-0.18453294038772583
1749028443.9752262,3.7623770236968994,-2.5208336315550746,1.6523545424090784,-2.730210920373434,-0.9168699423419397,-1.0650976339923304,-0.14369507133960724,0.03302665799856186,-0.0326036661863327,0.05505424737930298,-0.04821505397558212,-0.022494500502943993,-0.4708312749862671,0.837178647518158,-0.8707201480865479,0.08444256335496902,-0.4119332730770111,-0.18154215812683105
1749028443.9771056,3.762092351913452,-2.520768781701559,1.6522982756244105,-2.7301351032652796,-0.9169471899615687,-1.0651496092425745,-0.14359983801841736,0.034842319786548615,-0.03255905583500862,0.05573481321334839,-0.04913733899593353,-0.023410173133015633,-0.4807552993297577,0.8265398740768433,-0.8619768619537354,0.11930761486291885,-0.42361268401145935,-0.18657413125038147
1749028444.0182974,3.7617650032043457,-2.5207015476622523,1.6522067228900355,-2.730011602441305,-0.9170287291156214,-1.0651662985431116,-0.147760272026062,0.03465205430984497,-0.033322032541036606,0.058515895158052444,-0.05110564082860947,-0.02342435158789158,-0.4445699453353882,0.8202104568481445,-0.8727242350578308,0.09997531771659851,-0.4198077917098999,-0.17991536855697632
1749028444.0183458,3.7614524364471436,-2.5206457577147425,1.6521547476397913,-2.7299162350096644,-0.9171813170062464,-1.0652144590960901,-0.1498543620109558,0.03289041295647621,-0.033724594861269,0.060845568776130676,-0.05334806814789772,-0.024014605209231377,-0.44002053141593933,0.8628063201904297,-0.8549990653991699,0.09545604139566422,-0.39387810230255127,-0.16903609037399292
1749028444.0183861,3.761183261871338,-2.520573755303854,1.6520946661578577,-2.7297965488829554,-0.917269531880514,-1.0653241316424769,-0.1515352576971054,0.03398364037275314,-0.033363379538059235,0.060544371604919434,-0.053257979452610016,-0.0242768507450819,-0.43455737829208374,0.8799244165420532,-0.867376983165741,0.10181187093257904,-0.3783045709133148,-0.17537102103233337
1749028444.0184252,3.76088285446167,-2.5204984150328578,1.6519840399371546,-2.7296964130797328,-0.9173510710345667,-1.0653021971331995,-0.15422426164150238,0.036171991378068924,-0.03346648067235947,0.0600535050034523,-0.050900306552648544,-0.023561257869005203,-0.46881407499313354,0.8549308180809021,-0.8594218492507935,0.13845102488994598,-0.3773345947265625,-0.1682365983724594
1749028444.0184634,3.7605631351470947,-2.5204349956908167,1.651954476033346,-2.729541917840475,-0.9174469153033655,-1.0653660933123987,-0.15427938103675842,0.03602057322859764,-0.03486284986138344,0.06191020458936691,-0.048811931163072586,-0.024165578186511993,-0.4607785940170288,0.8771414160728455,-0.8498063087463379,0.14926129579544067,-0.40364593267440796,-0.1836419552564621
1749028444.0185013,3.7602698802948,-2.5203000507750453,1.65187913576235,-2.7294074497618617,-0.9175580183612269,-1.065449062977926,-0.15829013288021088,0.03772682324051857,-0.03609830141067505,0.06408316642045975,-0.048999808728694916,-0.02405751310288906,-0.4270816743373871,0.8445413112640381,-0.8427388072013855,0.11353007704019547,-0.3928590714931488,-0.1758410632610321
1749028444.0185387,3.759942054748535,-2.52030148128652,1.651787583027975,-2.7293106518187464,-0.917675797139303,-1.0655038992511194,-0.15830349922180176,0.03809725493192673,-0.0347716249525547,0.06574760377407074,-0.050547100603580475,-0.025091782212257385,-0.435624361038208,0.8242440819740295,-0.866922914981842,0.13696253299713135,-0.3970095217227936,-0.1696256697177887
1749028444.0185764,3.7596328258514404,-2.5201908550658167,1.6517279783831995,-2.7291370830931605,-0.9177644888507288,-1.0655258337603968,-0.15861393511295319,0.03625638782978058,-0.03418761119246483,0.06905194371938705,-0.05091771110892296,-0.025367019698023796,-0.433510959148407,0.8907965421676636,-0.8712692856788635,0.11945308744907379,-0.3953261971473694,-0.16421326994895935
1749028444.0186148,3.7593204975128174,-2.520123144189352,1.6516559759723108,-2.7290131054320277,-0.917856518422262,-1.0655501524554651,-0.15894867479801178,0.03626495599746704,-0.03590373694896698,0.07014720886945724,-0.050874728709459305,-0.027255667373538017,-0.4802273213863373,0.9089298248291016,-0.8555708527565002,0.09523545950651169,-0.3963300585746765,-0.1702020764350891
1749028444.0186524,3.758964776992798,-2.5200511417784632,1.6515877882586878,-2.7288853130736292,-0.9179642836200159,-1.0656793753253382,-0.16116663813591003,0.03840872645378113,-0.03638044372200966,0.06869581341743469,-0.050696421414613724,-0.027763012796640396,-0.4944842755794525,0.8864020109176636,-0.8548756837844849,0.13405302166938782,-0.3937363028526306,-0.17084279656410217
1749028444.0186896,3.7586944103240967,-2.519982477227682,1.6515005270587366,-2.7287494144835414,-0.9180787245379847,-1.0656850973712366,-0.16286982595920563,0.03938727825880051,-0.0378839373588562,0.06789650022983551,-0.050686489790678024,-0.028106803074479103,-0.4551636576652527,0.8736091256141663,-0.8463693857192993,0.10492809116840363,-0.4101654291152954,-0.15361171960830688
1749028444.0187323,3.7583537101745605,-2.5199223957457484,1.651440445576803,-2.728586336175436,-0.9181674162494105,-1.0657413641559046,-0.16521911323070526,0.03978872299194336,-0.03840707242488861,0.06994082033634186,-0.05061886087059975,-0.027477627620100975,-0.4561004936695099,0.859165370464325,-0.8236810564994812,0.11359196901321411,-0.40261110663414,-0.17935286462306976
1749028444.0187705,3.7579946517944336,-2.519862791100973,1.6513879934894007,-2.7284590206541957,-0.9183052221881312,-1.0657308737384241,-0.1692567616701126,0.03950302675366402,-0.03693867102265358,0.07081617414951324,-0.05115480720996857,-0.027105526998639107,-0.4251520037651062,0.9135160446166992,-0.8561596274375916,0.10307533293962479,-0.4002084732055664,-0.18077966570854187
1749028444.0188074,3.757638692855835,-2.5197321377196253,1.651304070149557,-2.7282964191832484,-0.9183586279498499,-1.0658376852618616,-0.170465886592865,0.04156283289194107,-0.03583144024014473,0.07156170159578323,-0.05137902870774269,-0.027470532804727554,-0.47428226470947266,0.9184910655021667,-0.8704713582992554,0.10539564490318298,-0.39829620718955994,-0.18563631176948547
1749028444.0188441,3.7572972774505615,-2.519670625726217,1.6512087027179163,-2.7281681499876917,-0.9184659163104456,-1.0659006277667444,-0.17149683833122253,0.042568519711494446,-0.037856537848711014,0.07208611816167831,-0.051837582141160965,-0.027366317808628082,-0.46690136194229126,0.8972066640853882,-0.8561530113220215,0.09835085272789001,-0.40327274799346924,-0.19605480134487152
1749028444.018882,3.7569727897644043,-2.5195681057372035,1.651144806538717,-2.7280060253539027,-0.9185960928546351,-1.0659597555743616,-0.1710936725139618,0.04302550479769707,-0.03864657133817673,0.07203429937362671,-0.05110406503081322,-0.027775447815656662,-0.4839535355567932,0.8847267031669617,-0.8619140982627869,0.10375925898551941,-0.41713446378707886,-0.18786711990833282
1749028444.0189188,3.7566158771514893,-2.5194999180235804,1.6510689894305628,-2.727866312066549,-0.9186762014972132,-1.066000763569967,-0.1735396832227707,0.04360120743513107,-0.038294292986392975,0.07255522161722183,-0.05001834034919739,-0.02815423533320427,-0.47189342975616455,0.898149311542511,-0.8532612323760986,0.08459819108247757,-0.4497973918914795,-0.21621902287006378
1749028444.0189555,3.7566158771514893,-2.5194999180235804,1.6510689894305628,-2.727866312066549,-0.9186762014972132,-1.066000763569967,-0.1735396832227707,0.04360120743513107,-0.038294292986392975,0.07255522161722183,-0.05001834034919739,-0.02815423533320427,-0.47189342975616455,0.898149311542511,-0.8532612323760986,0.08459819108247757,-0.4497973918914795,-0.21621902287006378
1749028444.0189924,3.7558491230010986,-2.5193668804564417,1.6509254614459437,-2.7275830707945765,-0.9188569227801722,-1.0661357084857386,-0.1782967746257782,0.0448707640171051,-0.037566643208265305,0.07406336814165115,-0.05218593031167984,-0.030503500252962112,-0.48307424783706665,0.9092511534690857,-0.8559489250183105,0.10604600608348846,-0.47652876377105713,-0.19304507970809937
1749028444.0190296,3.755518674850464,-2.5192796192564906,1.6508610884295862,-2.727443357507223,-0.9189561049090784,-1.06614858308901,-0.18059350550174713,0.04764249175786972,-0.039327189326286316,0.07496940344572067,-0.05455157905817032,-0.03001733496785164,-0.44938796758651733,0.851087749004364,-0.8707588911056519,0.09881682693958282,-0.46719449758529663,-0.19641278684139252
1749028444.0191433,3.7551305294036865,-2.519174715081686,1.6507771650897425,-2.727300306359762,-0.9190648237811487,-1.0662248770343226,-0.18245957791805267,0.047622792422771454,-0.040310490876436234,0.07528898119926453,-0.056468766182661057,-0.030182037502527237,-0.4976649880409241,0.8836008906364441,-0.8538231253623962,0.10996873676776886,-0.4705478847026825,-0.19185999035835266
1749028444.021083,3.7547852993011475,-2.5190559826292933,1.6506899038897913,-2.7271257839598597,-0.9192140738116663,-1.066296402608053,-0.18524394929409027,0.047276146709918976,-0.03995630145072937,0.07633890211582184,-0.05702739581465721,-0.031015366315841675,-0.5037826895713806,0.9119148850440979,-0.857048749923706,0.10326928645372391,-0.4950031042098999,-0.2033199965953827
1749028444.0623102,3.754396915435791,-2.5189606151976527,1.6506369749652308,-2.727001806298727,-0.9193099180804651,-1.0663874785052698,-0.18599171936511993,0.04881487786769867,-0.03993159905076027,0.07744806259870529,-0.05836903303861618,-0.031578924506902695,-0.44079676270484924,0.8220764398574829,-0.869454026222229,0.09467620402574539,-0.4853835701942444,-0.17842036485671997
1749028444.0623593,3.7540509700775146,-2.518864770928854,1.6505301634417933,-2.7268272838988246,-0.9194801489459437,-1.0664427916156214,-0.18233884871006012,0.04823498800396919,-0.04126402363181114,0.0776984840631485,-0.06196241453289986,-0.03147122263908386,-0.373017281293869,0.8008507490158081,-0.8745537996292114,0.08099327236413956,-0.4600220024585724,-0.1696213334798813
1749028444.0624003,3.7535853385925293,-2.518788000146383,1.6504462401019495,-2.726663728753561,-0.9195998350726526,-1.066507641469137,-0.18177101016044617,0.0476834736764431,-0.04279395937919617,0.07634932547807693,-0.06338994950056076,-0.032290540635585785,-0.5117919445037842,0.8527483940124512,-0.8504553437232971,0.10685361921787262,-0.47139689326286316,-0.1836170107126236
1749028444.0624402,3.7532706260681152,-2.518661161462301,1.650381867085592,-2.7265202007689417,-0.9197037855731409,-1.0665252844439905,-0.18816447257995605,0.0471886545419693,-0.04162629693746567,0.07689924538135529,-0.06291290372610092,-0.031196502968668938,-0.53232741355896,0.887076199054718,-0.8345880508422852,0.12457258999347687,-0.47859078645706177,-0.16547399759292603
1749028444.0624788,3.7528932094573975,-2.51859249691152,1.6502979437457483,-2.726325651208395,-0.9198148886310022,-1.0665958563434046,-0.19460828602313995,0.051506128162145615,-0.04031958058476448,0.07969572395086288,-0.06311363726854324,-0.031233670189976692,-0.4195650517940521,0.8643054962158203,-0.8576837778091431,0.10605458915233612,-0.46243664622306824,-0.18500001728534698
1749028444.062517,3.7524771690368652,-2.5184294186034144,1.650198761616842,-2.726185461083883,-0.9199093023883265,-1.0667150656329554,-0.19653254747390747,0.05342701077461243,-0.040256816893815994,0.08108177781105042,-0.06591775268316269,-0.029798831790685654,-0.3852579891681671,0.8021669387817383,-0.8815737962722778,0.10315842926502228,-0.4641037583351135,-0.20079413056373596
1749028444.0625548,3.752088785171509,-2.5183454952635707,1.6501229445086878,-2.7260152302184046,-0.9200657049762171,-1.0667350927936,-0.19708894193172455,0.05148329585790634,-0.04123269394040108,0.08178505301475525,-0.06733255088329315,-0.03071160428225994,-0.43745186924934387,0.84192955493927,-0.8698834180831909,0.10011424124240875,-0.4567583203315735,-0.20048218965530396
1749028444.0625925,3.751627206802368,-2.518256803552145,1.6500161329852503,-2.7258440456786097,-0.9202125708209437,-1.0668070952044886,-0.19579964876174927,0.051974061876535416,-0.04114045202732086,0.08286415040493011,-0.06882819533348083,-0.03105957619845867,-0.5006560683250427,0.8734488487243652,-0.8683221340179443,0.09827162325382233,-0.44095945358276367,-0.19388218224048615
1749028444.0626304,3.7512450218200684,-2.5181919536986292,1.6499670187579554,-2.7256928882994593,-0.9203527609454554,-1.0668442885028284,-0.1973085254430771,0.05301319435238838,-0.039954304695129395,0.0848374143242836,-0.07308677583932877,-0.03229697793722153,-0.460191011428833,0.8313872218132019,-0.9029553532600403,0.0833536759018898,-0.4325353503227234,-0.19458606839179993
1749028444.062667,3.7509145736694336,-2.518057962457174,1.6498993078814905,-2.725497385064596,-0.9205392042743128,-1.066911522542135,-0.19860020279884338,0.05252016335725784,-0.04045170173048973,0.08176567405462265,-0.07363496720790863,-0.03332692012190819,-0.47089600563049316,0.8162800073623657,-0.9325048923492432,0.08480717986822128,-0.3997376561164856,-0.1915225088596344
1749028444.0627048,3.7504706382751465,-2.5179106197752894,1.6498311201678675,-2.725330492059225,-0.9206631819354456,-1.066967789326803,-0.20084570348262787,0.05092642456293106,-0.04300816357135773,0.08177223801612854,-0.07192100584506989,-0.033681951463222504,-0.5015901327133179,0.8527470231056213,-0.8979436159133911,0.1136074885725975,-0.41529834270477295,-0.19884397089481354
1749028444.062742,3.75005841255188,-2.517834325829977,1.6497471968280237,-2.7251397571959437,-0.9207795302020472,-1.0670326391803187,-0.2034934163093567,0.05163595825433731,-0.0447462759912014,0.08207985758781433,-0.0730455219745636,-0.03405730426311493,-0.5110026001930237,0.8480446338653564,-0.9035069346427917,0.09236310422420502,-0.39949002861976624,-0.1884848028421402
1749028444.0627797,3.7496933937072754,-2.517749925652975,1.6496713797198694,-2.724971910516256,-0.9209707419024866,-1.0671199003802698,-0.2058429718017578,0.05310838669538498,-0.04242260754108429,0.08549786359071732,-0.07338616997003555,-0.0336882621049881,-0.4952182471752167,0.8385552167892456,-0.8999381065368652,0.08432640135288239,-0.3749880790710449,-0.17887482047080994
1749028444.062817,3.749248504638672,-2.5176335773863734,1.649571720753805,-2.7247969112791957,-0.9210436979876917,-1.0672338644610804,-0.2062423676252365,0.05311551317572594,-0.041750963777303696,0.08686891198158264,-0.0721660926938057,-0.03408200666308403,-0.4981936514377594,0.8365914821624756,-0.9430325627326965,0.062316372990608215,-0.37100619077682495,-0.202205091714859
1749028444.0628538,3.748800039291382,-2.5174786053099574,1.649484936391012,-2.7246257267394007,-0.9212248961078089,-1.0672906080829065,-0.20745064318180084,0.05383020639419556,-0.042869094759225845,0.08410230278968811,-0.07004918903112411,-0.03378729894757271,-0.5046176314353943,0.8426207900047302,-0.9359962940216064,0.0644443929195404,-0.38804593682289124,-0.19429844617843628
1749028444.0628908,3.748387575149536,-2.5173832378783167,1.6494081656085413,-2.724415441552633,-0.921368424092428,-1.0673583189593714,-0.21278458833694458,0.05392321199178696,-0.04560043662786484,0.0837700366973877,-0.06835875660181046,-0.03403907269239426,-0.4826936423778534,0.8153406381607056,-0.9250676035881042,0.09564565122127533,-0.4055168032646179,-0.17705094814300537
1749028444.0629315,3.7479114532470703,-2.517294546166891,1.6493051687823694,-2.7242709598936976,-0.9214533011065882,-1.0674150625811976,-0.21564842760562897,0.05402688682079315,-0.04710490256547928,0.08476243168115616,-0.06870894134044647,-0.034200504422187805,-0.44955500960350037,0.8187256455421448,-0.9027891755104065,0.09453770518302917,-0.41274750232696533,-0.17782379686832428
1749028444.0629687,3.7475101947784424,-2.51719393352651,1.6492283979998987,-2.724049230615133,-0.9216206709491175,-1.0674403349505823,-0.21476136147975922,0.05409189686179161,-0.045021917670965195,0.0864030122756958,-0.06972400844097137,-0.0337056964635849,-0.46655821800231934,0.8202555775642395,-0.9323170185089111,0.08142416924238205,-0.3990183174610138,-0.20015984773635864
1749028444.0630062,3.7470929622650146,-2.5170632801451625,1.649137322102682,-2.723877092401022,-0.9217832724200647,-1.0675471464740198,-0.21719220280647278,0.054492637515068054,-0.045225728303194046,0.0869138091802597,-0.06992931663990021,-0.03443809598684311,-0.4580763876438141,0.851074755191803,-0.9475772380828857,0.07854912430047989,-0.39227235317230225,-0.20887510478496552
1749028444.0630498,3.7466602325439453,-2.5169512234129847,1.6490448156939905,-2.723647733727926,-0.9219115416156214,-1.0676310698138636,-0.21970327198505402,0.05453407019376755,-0.046694643795490265,0.08715685456991196,-0.06941775232553482,-0.03384963423013687,-0.4412666857242584,0.8249644041061401,-0.9188912510871887,0.06649171561002731,-0.4191916286945343,-0.17651093006134033
1749028444.0631752,3.7461562156677246,-2.516832014123434,1.6489370504962366,-2.723467012444967,-0.922030274068014,-1.0677064100848597,-0.21822711825370789,0.05587823688983917,-0.04907526820898056,0.08698747307062149,-0.06739354878664017,-0.03354107216000557,-0.47836703062057495,0.8192622661590576,-0.9284613132476807,0.05452477186918259,-0.41442781686782837,-0.20086534321308136
1749028444.0650904,3.7457549571990967,-2.516735693017477,1.6488569418536585,-2.7233039341368617,-0.9221432844745081,-1.0677745977984827,-0.2219068706035614,0.05502070486545563,-0.04911721125245094,0.0864005908370018,-0.06458994746208191,-0.034329429268836975,-0.5093897581100464,0.8250420093536377,-0.920249879360199,0.05544544756412506,-0.4630056321620941,-0.2071208655834198
1749028444.1063118,3.7453017234802246,-2.5166474781432093,1.6487334410296839,-2.7231246433653773,-0.9223435560809534,-1.0677960554706019,-0.2250513881444931,0.05758674070239067,-0.04856736585497856,0.08674905449151993,-0.06645595282316208,-0.03465074673295021,-0.4770975708961487,0.7997487783432007,-0.9257804155349731,0.08664412796497345,-0.45736435055732727,-0.1947697550058365
1749028444.1063588,3.744884967803955,-2.5165587864317835,1.6486614386187952,-2.7229415378966273,-0.9224298636065882,-1.06789476076235,-0.22707416117191315,0.05433524772524834,-0.04820210859179497,0.08660408854484558,-0.06815014034509659,-0.035703882575035095,-0.4530443251132965,0.8349922895431519,-0.9343072772026062,0.0746794119477272,-0.461295485496521,-0.19123904407024384
1749028444.1063998,3.7444019317626953,-2.516435285607809,1.6485660711871546,-2.7227541408934535,-0.922556225453512,-1.0679858366595667,-0.22735363245010376,0.056332480162382126,-0.0479460135102272,0.0891634002327919,-0.07045603543519974,-0.03545845299959183,-0.4947970509529114,0.8031740188598633,-0.953808605670929,0.06800524890422821,-0.4510985016822815,-0.21928676962852478
1749028444.1064386,3.7440185546875,-2.5162960491576136,1.6485016981707972,-2.722595354119772,-0.9227188269244593,-1.068019215260641,-0.22875192761421204,0.05941419303417206,-0.048744767904281616,0.08949752151966095,-0.07127968221902847,-0.036005619913339615,-0.4940009117126465,0.7938350439071655,-0.951278567314148,0.059631675481796265,-0.4527210593223572,-0.18717901408672333
1749028444.1064765,3.7435109615325928,-2.516200204888815,1.6483591238604944,-2.722431798974508,-0.9228275457965296,-1.068141285573141,-0.2298021912574768,0.059466514736413956,-0.050474949181079865,0.08672580868005753,-0.07197623699903488,-0.03673839196562767,-0.49201178550720215,0.7653241157531738,-0.9470385909080505,0.08205880224704742,-0.4692131280899048,-0.191811203956604
1749028444.106515,3.7430784702301025,-2.516064783135885,1.648266617451803,-2.722264429131979,-0.9230173269854944,-1.0681942144977015,-0.23203745484352112,0.05638862028717995,-0.050758205354213715,0.09001801908016205,-0.07510817050933838,-0.036340560764074326,-0.4944811761379242,0.8105496764183044,-0.9274699091911316,0.09092305600643158,-0.4688025116920471,-0.20552131533622742
1749028444.106552,3.7425434589385986,-2.5159765682616175,1.6481555143939417,-2.722109457055563,-0.9231470266925257,-1.068235222493307,-0.23562142252922058,0.05898997187614441,-0.051876604557037354,0.0927882269024849,-0.07719480246305466,-0.03717516362667084,-0.4868815839290619,0.8109971880912781,-0.9278698563575745,0.09977322816848755,-0.44020867347717285,-0.20779842138290405
1749028444.1065898,3.7421441078186035,-2.5158635578551234,1.6480439344989222,-2.7219420872130335,-0.9233163038836878,-1.06830341020693,-0.23717032372951508,0.058851372450590134,-0.05250007286667824,0.09791506081819534,-0.07627052813768387,-0.03785350173711777,-0.4931141436100006,0.804630696773529,-0.9291107654571533,0.09399975836277008,-0.4480908215045929,-0.18792222440242767
1749028444.1066318,3.7416648864746094,-2.5157247982420863,1.647959057484762,-2.7217594585814417,-0.9234679380999964,-1.0684102217303675,-0.2396921068429947,0.05890101194381714,-0.05299394577741623,0.09757676720619202,-0.07713738828897476,-0.03817993029952049,-0.5046861171722412,0.8141838312149048,-0.9296857118606567,0.07935507595539093,-0.463018000125885,-0.2052312195301056
1749028444.10667,3.74116849899292,-2.5155936680235804,1.647820297871725,-2.721564909020895,-0.923626724873678,-1.0685442129718226,-0.24077922105789185,0.058651287108659744,-0.053307246416807175,0.09754195064306259,-0.07902472466230392,-0.03998780995607376,-0.5098118782043457,0.8241629004478455,-0.925974428653717,0.12340740859508514,-0.4671133756637573,-0.2030409872531891
1749028444.1067069,3.740687608718872,-2.515496870080465,1.6476967970477503,-2.7213617763915003,-0.9237635771380823,-1.0686009565936487,-0.24208952486515045,0.05859052389860153,-0.05687180161476135,0.10125038772821426,-0.08198274672031403,-0.040169451385736465,-0.5134431719779968,0.8341952562332153,-0.8944786787033081,0.11055175960063934,-0.4672093391418457,-0.1899643838405609
1749028444.106744,3.740234613418579,-2.5153657398619593,1.6476004759417933,-2.721177717248434,-0.9239462057696741,-1.0686810652362269,-0.2460772842168808,0.05836831405758858,-0.054758764803409576,0.10287687182426453,-0.08639813214540482,-0.03940331190824509,-0.5151442289352417,0.8435032963752747,-0.9125162363052368,0.11133454740047455,-0.39827507734298706,-0.21095608174800873
1749028444.106784,3.7397658824920654,-2.5152651272215785,1.6474884192096155,-2.7209555111327113,-0.9241288344012659,-1.0687287489520472,-0.2484714835882187,0.059273261576890945,-0.05571352690458298,0.1034204289317131,-0.08563567698001862,-0.038922812789678574,-0.47536319494247437,0.8386255502700806,-0.8849658370018005,0.10807950049638748,-0.39710259437561035,-0.2135351598262787
1749028444.1068218,3.7392213344573975,-2.5151249370970667,1.6473806540118616,-2.7207561932005824,-0.9242890516864222,-1.0688212553607386,-0.24987618625164032,0.05847671255469322,-0.05565086379647255,0.10433321446180344,-0.08408656716346741,-0.03954264894127846,-0.5123997926712036,0.8736864328384399,-0.8781634569168091,0.10455161333084106,-0.41217899322509766,-0.19126667082309723
1749028444.1068587,3.7387473583221436,-2.5150095425047816,1.6472294966327112,-2.7205049000182093,-0.9244597593890589,-1.0688584486590784,-0.2521415054798126,0.06116395443677902,-0.058753401041030884,0.10541734844446182,-0.08520832657814026,-0.03956929221749306,-0.4682503640651703,0.8193340301513672,-0.8664286136627197,0.10381278395652771,-0.4194738566875458,-0.2128039300441742
1749028444.1068957,3.7382547855377197,-2.514921804467672,1.6471217314349573,-2.720255514184469,-0.9246528784381312,-1.068977181111471,-0.2521379590034485,0.05785532295703888,-0.05634189769625664,0.10521278530359268,-0.08322183042764664,-0.04087294638156891,-0.5199852585792542,0.8502747416496277,-0.8808281421661377,0.0897195041179657,-0.4069196879863739,-0.19554616510868073
1749028444.1069322,3.737746238708496,-2.5148102245726527,1.6470020453082483,-2.7200476131834925,-0.9248321692096155,-1.0690606276141565,-0.25426968932151794,0.05745752900838852,-0.05685083940625191,0.10352474451065063,-0.0832505077123642,-0.04154208302497864,-0.5057971477508545,0.9154273867607117,-0.8720405101776123,0.10299438238143921,-0.41335439682006836,-0.1957572102546692
1749028444.1069689,3.737260341644287,-2.514681955377096,1.6469014326678675,-2.7198287449278773,-0.9249737898456019,-1.0691564718829554,-0.25667187571525574,0.05858192965388298,-0.05708659440279007,0.103659488260746,-0.08296747505664825,-0.042186953127384186,-0.49297386407852173,0.8976223468780518,-0.8610007166862488,0.09380055218935013,-0.41104012727737427,-0.1984119415283203
1749028444.1070051,3.7367026805877686,-2.5145980320372523,1.6467903296100062,-2.719586034814352,-0.9251459280597132,-1.069221321736471,-0.25998014211654663,0.06110302731394768,-0.05649346485733986,0.10424356907606125,-0.08340281248092651,-0.04269905015826225,-0.496372789144516,0.8578078150749207,-0.8750824928283691,0.08999574184417725,-0.40960878133773804,-0.19489307701587677
1749028444.1070416,3.73620867729187,-2.5144154034056605,1.6466549078570765,-2.719375272790426,-0.9253204504596155,-1.0692933241473597,-0.26060202717781067,0.05872425064444542,-0.05542151629924774,0.10389924049377441,-0.08362399786710739,-0.04416070133447647,-0.48030930757522583,0.9269242882728577,-0.9001720547676086,0.0849110335111618,-0.3911657929420471,-0.1848868429660797
1749028444.1071482,3.73569655418396,-2.5142904720702113,1.6465628782855433,-2.7191630802550257,-0.9254725615130823,-1.0694001356707972,-0.2591799795627594,0.06104623153805733,-0.055791787803173065,0.10432081669569016,-0.08106067031621933,-0.04511702433228493,-0.536457359790802,0.8881930708885193,-0.8826795816421509,0.084093376994133,-0.41576439142227173,-0.1737109273672104
1749028444.109107,3.7351198196411133,-2.5141827068724574,1.646423641835348,-2.718936105767721,-0.925577465687887,-1.0694449583636683,-0.2618338465690613,0.06256886571645737,-0.056704625487327576,0.10597384721040726,-0.07839511334896088,-0.04420129209756851,-0.5020523071289062,0.8777367472648621,-0.8841468691825867,0.08698230981826782,-0.43278640508651733,-0.1579703688621521
1749028444.1503024,3.7345993518829346,-2.5140630207457484,1.6463196913348597,-2.7187301121153773,-0.9257624785052698,-1.069552246724264,-0.2663232684135437,0.06380322575569153,-0.0566825307905674,0.11023817211389542,-0.0763140469789505,-0.04312458634376526,-0.5196179151535034,0.8652409315109253,-0.8793018460273743,0.057746730744838715,-0.46540942788124084,-0.1878422349691391
1749028444.150353,3.7340946197509766,-2.5139314136900843,1.6462119261371058,-2.7185222111144007,-0.9259489218341272,-1.0696137587176722,-0.2684960663318634,0.06424996256828308,-0.05628589540719986,0.10573560744524002,-0.07624658942222595,-0.042903319001197815,-0.5048990845680237,0.8597951531410217,-0.8874536156654358,0.07830267399549484,-0.47127673029899597,-0.17450901865959167
1749028444.1503952,3.7335619926452637,-2.5138122044005335,1.6460955778705042,-2.7183152637877406,-0.9260852972613733,-1.0697286764727991,-0.2674520015716553,0.06474119424819946,-0.05620024353265762,0.10573241859674454,-0.07790815085172653,-0.044425856322050095,-0.5065877437591553,0.8645656108856201,-0.8948186039924622,0.10562731325626373,-0.49084654450416565,-0.18660832941532135
1749028444.1504335,3.733006477355957,-2.513679643670553,1.6459911505328577,-2.7181278667845667,-0.9262765089618128,-1.0698159376727503,-0.2665315270423889,0.06546517461538315,-0.05651570484042168,0.10632450133562088,-0.08018362522125244,-0.04595401510596275,-0.5015284419059753,0.8626642227172852,-0.8802935481071472,0.10597451776266098,-0.5020182132720947,-0.18323570489883423
1749028444.150472,3.732438802719116,-2.5135513744749964,1.6458523909198206,-2.717881818810934,-0.9264352957354944,-1.0699313322650355,-0.2701417803764343,0.06677083671092987,-0.05721227079629898,0.10966409742832184,-0.08514483273029327,-0.04633273184299469,-0.5380257964134216,0.8580586314201355,-0.8865833878517151,0.10397078841924667,-0.4567243456840515,-0.17539900541305542
1749028444.15051,3.731964588165283,-2.5134006939330042,1.645752255116598,-2.7176743946471156,-0.9265769163714808,-1.0699885527240198,-0.2746104300022125,0.06706465035676956,-0.05786088481545448,0.10786113888025284,-0.08505775034427643,-0.04583097621798515,-0.5279099941253662,0.8630353212356567,-0.877212405204773,0.07933981716632843,-0.48314526677131653,-0.17650659382343292
1749028444.1505485,3.731368064880371,-2.513275762597555,1.6456597487079065,-2.7174159489073695,-0.9267767111407679,-1.0701196829425257,-0.2767353653907776,0.06698344647884369,-0.059751566499471664,0.10944317281246185,-0.08340991288423538,-0.04498353227972984,-0.45004045963287354,0.8441867828369141,-0.8741743564605713,0.10079972445964813,-0.4880104064941406,-0.15567608177661896
1749028444.1505866,3.730886936187744,-2.5131284199156703,1.6455209890948694,-2.717173238793844,-0.9269164244281214,-1.070172135029928,-0.2761244773864746,0.06812121719121933,-0.06115882098674774,0.11083053052425385,-0.08579444140195847,-0.04502919688820839,-0.5151352882385254,0.8629514575004578,-0.8346688151359558,0.09673440456390381,-0.5105889439582825,-0.1749328225851059
1749028444.1506248,3.730274200439453,-2.513020177880758,1.6453941504107874,-2.716950079003805,-0.9270837942706507,-1.0702994505511683,-0.27632999420166016,0.06742528080940247,-0.05797930061817169,0.11216270178556442,-0.08850365877151489,-0.04533182457089424,-0.528508722782135,0.8663903474807739,-0.8737866878509521,0.07885947823524475,-0.4994121491909027,-0.16953356564044952
1749028444.1506624,3.729729652404785,-2.5128613911070765,1.6452935377704065,-2.7167426548399867,-0.9272668997394007,-1.070395294819967,-0.28023645281791687,0.06777160614728928,-0.05789325758814812,0.11212535947561264,-0.09438754618167877,-0.0447741374373436,-0.574249804019928,0.8853724598884583,-0.889064610004425,0.0911545604467392,-0.4797269105911255,-0.16056127846240997
1749028444.1506996,3.7291650772094727,-2.51273312191152,1.6451690832721155,-2.7165314159789027,-0.9274509588824671,-1.0704286734210413,-0.2849184572696686,0.06774385273456573,-0.06025628373026848,0.11193781346082687,-0.0947837084531784,-0.04442587494850159,-0.5096449255943298,0.8798593878746033,-0.8799389004707336,0.08460203558206558,-0.4648823142051697,-0.17203234136104584
1749028444.1507368,3.7286229133605957,-2.5126167736449183,1.6450417677508753,-2.7162887058653773,-0.927619759236471,-1.0705907980548304,-0.28526994585990906,0.07043258845806122,-0.05995972454547882,0.11291708052158356,-0.09646100550889969,-0.04472090303897858,-0.4650112986564636,0.828208327293396,-0.8498035669326782,0.08974578976631165,-0.47369149327278137,-0.18173061311244965
1749028444.1507745,3.7280304431915283,-2.512460847894186,1.6449101606952112,-2.716069360772604,-0.9278762976275843,-1.0706551710711878,-0.28254473209381104,0.06658872961997986,-0.058779165148735046,0.1122189536690712,-0.09986059367656708,-0.04477789252996445,-0.4868771433830261,0.868400514125824,-0.9001114368438721,0.09399774670600891,-0.43616539239883423,-0.16192594170570374
1749028444.150819,3.7274413108825684,-2.5123216114439906,1.644806210194723,-2.715827604333395,-0.9280722776996058,-1.070723835621969,-0.28484806418418884,0.06623965501785278,-0.060579217970371246,0.11159708350896835,-0.10076682269573212,-0.04457436129450798,-0.5467566251754761,0.9068361520767212,-0.873840868473053,0.12276947498321533,-0.4056779742240906,-0.1745820939540863
1749028444.1508617,3.7268800735473633,-2.5122162304320277,1.6446741263019007,-2.71560062984609,-0.9282634894000452,-1.0708397070514124,-0.28874024748802185,0.06943655759096146,-0.0608021542429924,0.11743241548538208,-0.09920430183410645,-0.04398192837834358,-0.563495934009552,0.9004113078117371,-0.865235447883606,0.09186132252216339,-0.42809581756591797,-0.19185161590576172
1749028444.1509037,3.7262802124023438,-2.5120345554747523,1.6445630232440394,-2.715365072289938,-0.9285162130938929,-1.0709503332721155,-0.2930575907230377,0.06803765892982483,-0.06087523326277733,0.11499599367380142,-0.09738191962242126,-0.043878696858882904,-0.4370613992214203,0.8861197829246521,-0.876566469669342,0.1053800955414772,-0.4304129183292389,-0.17835141718387604
1749028444.1509416,3.7257022857666016,-2.511916776696676,1.6444276014911097,-2.715114255944723,-0.9286425749408167,-1.0709837118731897,-0.2900089621543884,0.06762291491031647,-0.0614132359623909,0.1150551438331604,-0.09774251282215118,-0.04466680809855461,-0.4707077741622925,0.9352395534515381,-0.8863846063613892,0.11059048026800156,-0.4085801839828491,-0.19385313987731934
1749028444.1509786,3.72512149810791,-2.5117389164366664,1.6442959944354456,-2.7148529491820277,-0.9288561979876917,-1.0710952917682093,-0.28906065225601196,0.06929796189069748,-0.06118014454841614,0.11845958977937698,-0.0968945175409317,-0.04545072093605995,-0.5495241284370422,0.8941952586174011,-0.8691530227661133,0.10551991313695908,-0.4348386526107788,-0.2007734477519989
1749028444.1510158,3.72454833984375,-2.5116073093810023,1.6441953817950647,-2.714640279809469,-0.9290321508990687,-1.0712135473834437,-0.29297903180122375,0.07096261531114578,-0.061988770961761475,0.11984753608703613,-0.09499143809080124,-0.045442815870046616,-0.5187251567840576,0.8958925008773804,-0.8750081658363342,0.09587356448173523,-0.41792985796928406,-0.19537845253944397
1749028444.151059,3.7239158153533936,-2.5114861927428187,1.6440756956683558,-2.714358469048971,-0.9292009512530726,-1.0712593237506312,-0.2959265112876892,0.07191649824380875,-0.06207825988531113,0.11764678359031677,-0.0929974839091301,-0.04516756534576416,-0.47477081418037415,0.872442364692688,-0.875907301902771,0.0871226117014885,-0.43141841888427734,-0.18133237957954407
1749028444.1511734,3.7233076095581055,-2.5113302669920863,1.6439126173602503,-2.714146753350729,-0.9293835798846644,-1.071343247090475,-0.2945629954338074,0.07247424870729446,-0.06139618158340454,0.11845312267541885,-0.0909612700343132,-0.04567632079124451,-0.4903668463230133,0.8840880990028381,-0.8856843709945679,0.11775181442499161,-0.4639708399772644,-0.19424816966056824
1749028444.1531458,3.7227532863616943,-2.511186739007467,1.6438239256488245,-2.713895937005514,-0.9296401182757776,-1.07145864168276,-0.2957184612751007,0.07334020733833313,-0.06135834753513336,0.1182146742939949,-0.09272066503763199,-0.04653942957520485,-0.5665450692176819,0.8876557350158691,-0.8857308626174927,0.1097199097275734,-0.46628302335739136,-0.18397851288318634
1749028444.1943016,3.7221055030822754,-2.511019846002096,1.6436923185931605,-2.713649889031881,-0.9297969977008265,-1.0715821425067347,-0.29962629079818726,0.0751243531703949,-0.060383837670087814,0.12041914463043213,-0.09563767164945602,-0.04692058265209198,-0.5853832960128784,0.8888798952102661,-0.9064006805419922,0.11669177561998367,-0.4574590027332306,-0.20168499648571014
1749028444.1943488,3.7214767932891846,-2.5108868084349574,1.643562142048971,-2.713414808312887,-0.9299529234515589,-1.071634594594137,-0.302884042263031,0.07653122395277023,-0.062040168792009354,0.12051667273044586,-0.10008088499307632,-0.04752982407808304,-0.501091718673706,0.832905650138855,-0.8857470750808716,0.11017592251300812,-0.42958879470825195,-0.1855076402425766
1749028444.1943934,3.720891237258911,-2.510738512078756,1.6434491316424769,-2.7131601772704066,-0.9301632086383265,-1.0717857519732874,-0.3039582669734955,0.07777641713619232,-0.05932283028960228,0.12102491408586502,-0.10143672674894333,-0.04781077057123184,-0.48774436116218567,0.7774629592895508,-0.9413517117500305,0.11791764199733734,-0.40730616450309753,-0.20263436436653137
1749028444.1944332,3.720891237258911,-2.510738512078756,1.6434491316424769,-2.7131601772704066,-0.9301632086383265,-1.0717857519732874,-0.3039582669734955,0.07777641713619232,-0.05932283028960228,0.12102491408586502,-0.10143672674894333,-0.04781077057123184,-0.48774436116218567,0.7774629592895508,-0.9413517117500305,0.11791764199733734,-0.40730616450309753,-0.20263436436653137
1749028444.194474,3.720250368118286,-2.5105401478209437,1.643329922352926,-2.7129489384093226,-0.9303892294513147,-1.0718348662005823,-0.30014050006866455,0.074388287961483,-0.06067628040909767,0.12172268331050873,-0.09823856502771378,-0.04814807325601578,-0.48357853293418884,0.8522744178771973,-0.9358587265014648,0.13368292152881622,-0.42270082235336304,-0.17617596685886383
1749028444.1945124,3.7190117835998535,-2.510240694085592,1.6430853048907679,-2.712447305718893,-0.9307487646685999,-1.072038475667135,-0.3042610287666321,0.07692881673574448,-0.06317178905010223,0.12505437433719635,-0.10041142255067825,-0.048561304807662964,-0.5468103885650635,0.8197668194770813,-0.921815812587738,0.14081846177577972,-0.4232637882232666,-0.20525452494621277
1749028444.1945498,3.718423366546631,-2.5101119480528773,1.6429427305804651,-2.712196489373678,-0.9309518972979944,-1.0721023718463343,-0.3080109655857086,0.07421942800283432,-0.062269143760204315,0.12489724904298782,-0.10551946610212326,-0.04886886849999428,-0.46404266357421875,0.8420016765594482,-0.952513575553894,0.13497668504714966,-0.3737415671348572,-0.20806190371513367
1749028444.1945865,3.7178092002868652,-2.5099712810912074,1.6428025404559534,-2.7119456730284632,-0.9312132040606897,-1.0722172896014612,-0.30513492226600647,0.07444001734256744,-0.06440269201993942,0.12957125902175903,-0.1033969447016716,-0.04954177513718605,-0.4513210654258728,0.8343110084533691,-0.9436607360839844,0.10860542953014374,-0.37577104568481445,-0.22047865390777588
1749028444.1946247,3.7171850204467773,-2.509819646874899,1.6426861921893519,-2.7116552791991175,-0.9314091841327112,-1.072371784840719,-0.3028649389743805,0.0731186792254448,-0.06402905285358429,0.12680013477802277,-0.10195533186197281,-0.04926137253642082,-0.6059566140174866,0.9030504822731018,-0.9317846298217773,0.134705051779747,-0.39602383971214294,-0.20997707545757294
1749028444.1946619,3.71659517288208,-2.5096479854979457,1.6425474325763147,-2.7113691769041957,-0.9315770308123987,-1.072441879902975,-0.3068345785140991,0.07482337951660156,-0.0654018297791481,0.12597790360450745,-0.10124074667692184,-0.04955793544650078,-0.5431745648384094,0.8405066132545471,-0.9349164366722107,0.1346246898174286,-0.4206145405769348,-0.19611744582653046
1749028444.194699,3.7159616947174072,-2.5095354519286097,1.6424315611468714,-2.7111174068846644,-0.931833569203512,-1.0725720564471644,-0.3103734850883484,0.07478300482034683,-0.06516002118587494,0.13043084740638733,-0.09884528070688248,-0.05015230551362038,-0.49829918146133423,0.8293274641036987,-0.9459928274154663,0.11437559127807617,-0.4088992476463318,-0.18351005017757416
1749028444.1947358,3.715273857116699,-2.5093566379942835,1.6423309485064905,-2.7108737430968226,-0.9320228735553187,-1.072641674672262,-0.3097798824310303,0.07515271008014679,-0.06550128012895584,0.1308308094739914,-0.09734146296977997,-0.05044716224074364,-0.488036185503006,0.8473193645477295,-0.9430984854698181,0.08961325138807297,-0.428160160779953,-0.17377407848834991
1749028444.194773,3.7146973609924316,-2.509188791314596,1.6421955267535608,-2.7106157741942347,-0.9322069326983851,-1.0727265516864222,-0.30966395139694214,0.07560549676418304,-0.06468885391950607,0.12989464402198792,-0.09811375290155411,-0.05024470388889313,-0.5679664611816406,0.8794896602630615,-0.9386178851127625,0.09929657727479935,-0.4247606098651886,-0.20163127779960632
1749028444.1948097,3.7140793800354004,-2.5090447864928187,1.6420605818377894,-2.7103411159911097,-0.9324205557452601,-1.0728524366961878,-0.3121641278266907,0.07694508135318756,-0.06347940117120743,0.12983623147010803,-0.09766749292612076,-0.049909356981515884,-0.5252074003219604,0.8755353093147278,-0.9469949007034302,0.10685653239488602,-0.4192395806312561,-0.20690524578094482
1749028444.194846,3.7134275436401367,-2.5088802776732386,1.6419127623187464,-2.7100941143431605,-0.9326203505145472,-1.0729101339923304,-0.3149902820587158,0.07775232195854187,-0.06366296112537384,0.13042044639587402,-0.09616617858409882,-0.04828980937600136,-0.44026562571525574,0.7825787663459778,-0.9964118003845215,0.0900961384177208,-0.4175381660461426,-0.2093440741300583
1749028444.1948836,3.712799310684204,-2.5087558231749476,1.6417697111712855,-2.7098432979979457,-0.9327800909625452,-1.07302171388735,-0.31294089555740356,0.07545008510351181,-0.0656592845916748,0.1307447999715805,-0.0951107069849968,-0.04849360138177872,-0.5034772157669067,0.8476629257202148,-0.982151448726654,0.07204177975654602,-0.44695180654525757,-0.21208852529525757
1749028444.1949246,3.7121899127960205,-2.508568426171774,1.6416218916522425,-2.70957674602651,-0.9330027739154261,-1.0731642881976526,-0.3121778070926666,0.07568588852882385,-0.06705622375011444,0.12919345498085022,-0.09516146034002304,-0.05039970576763153,-0.5150771141052246,0.8632850646972656,-0.9539913535118103,0.10830223560333252,-0.46367576718330383,-0.20467619597911835
1749028444.1949627,3.711545705795288,-2.5084592304625453,1.6415284315692347,-2.709317823449606,-0.9331987539874476,-1.073263947163717,-0.3149472177028656,0.08024020493030548,-0.06658608466386795,0.13018445670604706,-0.09846621006727219,-0.05090099573135376,-0.4913893938064575,0.724871039390564,-0.9564900398254395,0.09213371574878693,-0.44197165966033936,-0.18676429986953735
1749028444.1950002,3.7109286785125732,-2.5082527599730433,1.6413310209857386,-2.709020277062887,-0.9334362188922327,-1.073364559804098,-0.31587040424346924,0.07607565820217133,-0.06934399157762527,0.129564106464386,-0.09833940118551254,-0.05134577676653862,-0.47116467356681824,0.763470470905304,-0.9557759165763855,0.08843142539262772,-0.41202524304389954,-0.1787939816713333
1749028444.1950371,3.710301399230957,-2.50805725673818,1.6412408987628382,-2.7088195286192835,-0.933608357106344,-1.0734565893756312,-0.31496483087539673,0.07638134807348251,-0.06846047192811966,0.12785503268241882,-0.09562406688928604,-0.05250154808163643,-0.4834862947463989,0.7861460447311401,-0.938765823841095,0.1005353331565857,-0.45987504720687866,-0.18787208199501038
1749028444.195152,3.709714889526367,-2.5079523525633753,1.6410864035235804,-2.7085615597166957,-0.9337762037860315,-1.0735562483416956,-0.3107894957065582,0.07977228611707687,-0.06800927966833115,0.1317760944366455,-0.09590895473957062,-0.053021010011434555,-0.5326916575431824,0.7343840003013611,-0.9349539279937744,0.09272776544094086,-0.4450545907020569,-0.17747753858566284
1749028444.1971776,3.7090981006622314,-2.507792135278219,1.6409309546100062,-2.7082673511900843,-0.9339793364154261,-1.0736764113055628,-0.3153930902481079,0.07737606018781662,-0.06901204586029053,0.12806116044521332,-0.09880035370588303,-0.052141670137643814,-0.5110858678817749,0.7765093445777893,-0.9600200057029724,0.10943429917097092,-0.4515123963356018,-0.19257864356040955
1749028444.242413,3.708488702774048,-2.507608552972311,1.6407917181598108,-2.7080398998656214,-0.9342096487628382,-1.0738104025470179,-0.3174162805080414,0.0776066705584526,-0.07006333023309708,0.12774313986301422,-0.1020987406373024,-0.050307728350162506,-0.4723640978336334,0.7596649527549744,-0.9029753804206848,0.13467416167259216,-0.4280588924884796,-0.1757766753435135
1749028444.2424881,3.707880735397339,-2.5074874363341273,1.6406710783587855,-2.7077728710570277,-0.9344089666949671,-1.0738604704486292,-0.318206250667572,0.07805276662111282,-0.0679142102599144,0.13045068085193634,-0.10097987949848175,-0.04941432178020477,-0.47831863164901733,0.7442644834518433,-0.9350916743278503,0.12455134838819504,-0.4415076971054077,-0.2046741247177124
1749028444.2425585,3.7072243690490723,-2.507331510583395,1.6405513922320765,-2.707522054711813,-0.9345815817462366,-1.0740106741534632,-0.3169659972190857,0.07828620821237564,-0.06773481518030167,0.13227835297584534,-0.10240992903709412,-0.049961842596530914,-0.48323336243629456,0.763441264629364,-0.943543553352356,0.10052713751792908,-0.4181511402130127,-0.20181575417518616
1749028444.2426276,3.706587314605713,-2.507207056085104,1.6404197851764124,-2.707259794274801,-0.9348495642291468,-1.0740836302386683,-0.3161221444606781,0.07761359214782715,-0.06748509407043457,0.13107673823833466,-0.1031741052865982,-0.051016390323638916,-0.5225093960762024,0.7370595335960388,-0.9317259192466736,0.1071876659989357,-0.42902547121047974,-0.18244735896587372
1749028444.2426963,3.7059550285339355,-2.506993433038229,1.6402724424945276,-2.707012792626852,-0.9350221792804163,-1.074219051991598,-0.31897297501564026,0.07732827216386795,-0.06773358583450317,0.13246919214725494,-0.10220839828252792,-0.051162537187337875,-0.47674888372421265,0.7732730507850647,-0.9265825748443604,0.10321236401796341,-0.4212392568588257,-0.19397054612636566
1749028444.2427654,3.705353260040283,-2.5068255863585414,1.6401408354388636,-2.706773420373434,-0.9352558294879358,-1.0743268171893519,-0.3189515173435211,0.07639253884553909,-0.06742902100086212,0.13367287814617157,-0.10267684608697891,-0.050592198967933655,-0.4562801718711853,0.7793076038360596,-0.9392078518867493,0.08689315617084503,-0.4193548858165741,-0.16483542323112488
1749028444.242834,3.7047364711761475,-2.506740232507223,1.640024487172262,-2.7064949474730433,-0.9354756514178675,-1.074430290852682,-0.31882280111312866,0.07440907508134842,-0.0674157366156578,0.13319402933120728,-0.1033385843038559,-0.05002114176750183,-0.5173029899597168,0.8321804404258728,-0.9307399988174438,0.11028008162975311,-0.4096357524394989,-0.1753126084804535
1749028444.242905,3.704063653945923,-2.506533762017721,1.6398966948138636,-2.7062322101988734,-0.935648266469137,-1.074503246937887,-0.3189467489719391,0.07865758240222931,-0.0668712854385376,0.1338731348514557,-0.10268139839172363,-0.049578696489334106,-0.5127542018890381,0.7980462908744812,-0.9149051904678345,0.09678994864225388,-0.4078889489173889,-0.19421528279781342
1749028444.2429743,3.703350305557251,-2.506467958489889,1.6397059599505823,-2.705907484094137,-0.9358819166766565,-1.074622933064596,-0.32077479362487793,0.075323686003685,-0.06679088622331619,0.13290145993232727,-0.10173995792865753,-0.050111789256334305,-0.4428473711013794,0.7710793614387512,-0.934515118598938,0.08319704234600067,-0.38847753405570984,-0.176517516374588
1749028444.2430434,3.702786684036255,-2.50628199199819,1.6395776907550257,-2.70565189937734,-0.936110798512594,-1.0747187773333948,-0.3171330690383911,0.0723814070224762,-0.06745751202106476,0.13469298183918,-0.0996929183602333,-0.04903992637991905,-0.45213526487350464,0.8293492794036865,-0.9349792003631592,0.08830289542675018,-0.41229248046875,-0.19023576378822327
1749028444.2431118,3.7021188735961914,-2.506156106988424,1.6394460836993616,-2.7053963146605433,-0.9362576643573206,-1.0748150984393519,-0.31846991181373596,0.07843399792909622,-0.07139212638139725,0.13239844143390656,-0.09801819175481796,-0.04831033945083618,-0.44838598370552063,0.7662962675094604,-0.8866358399391174,0.07998822629451752,-0.4267922341823578,-0.18408453464508057
1749028444.243181,3.7015676498413086,-2.5059968433775843,1.63930589357485,-2.7051335773863734,-0.9364569822894495,-1.074914280568258,-0.31587064266204834,0.07391306757926941,-0.06844644248485565,0.13241924345493317,-0.09646988660097122,-0.04832799360156059,-0.48524242639541626,0.7955096364021301,-0.8966711759567261,0.09826552867889404,-0.425228089094162,-0.17777623236179352
1749028444.243249,3.700896739959717,-2.505853315392965,1.6391552130328577,-2.7048708401122035,-0.9366367498980921,-1.0750187079059046,-0.31960195302963257,0.07670578360557556,-0.06778422743082047,0.13226452469825745,-0.09811990708112717,-0.04903726279735565,-0.4574722349643707,0.768984854221344,-0.9067199230194092,0.06591153889894485,-0.44707682728767395,-0.18664279580116272
1749028444.2433174,3.700291633605957,-2.505693098107809,1.639015022908346,-2.704604288140768,-0.9369052092181605,-1.0750678221331995,-0.3196522891521454,0.07798340171575546,-0.06921789795160294,0.1268533617258072,-0.09886138141155243,-0.04905188828706741,-0.4635532796382904,0.802851676940918,-0.8939477205276489,0.09899447858333588,-0.42200276255607605,-0.1870531439781189
1749028444.2433853,3.699613332748413,-2.505505701104635,1.6388991514789026,-2.7044159374632777,-0.9370616118060511,-1.075160328541891,-0.31721797585487366,0.07806361466646194,-0.06569626182317734,0.1254010647535324,-0.09968354552984238,-0.050000935792922974,-0.4534134566783905,0.7913406491279602,-0.92496258020401,0.13541194796562195,-0.4269171953201294,-0.18903185427188873
1749028444.2434535,3.6990466117858887,-2.505393167535299,1.6387513319598597,-2.704118867913717,-0.9372718969928187,-1.0752947966205042,-0.3165367543697357,0.07817403227090836,-0.0673743411898613,0.1299499273300171,-0.10131451487541199,-0.0508781373500824,-0.4871761202812195,0.7776169776916504,-0.9043141007423401,0.12090292572975159,-0.4201350510120392,-0.17921267449855804
1749028444.2435212,3.6984176635742188,-2.505210062066549,1.638604466115133,-2.703871866265768,-0.9374874273883265,-1.0754302183734339,-0.31757280230522156,0.07711626589298248,-0.06725328415632248,0.1250908076763153,-0.09856774657964706,-0.0515686459839344,-0.4706645607948303,0.7559791207313538,-0.9054513573646545,0.14879995584487915,-0.4220747947692871,-0.17535927891731262
