nimar13/UR3e_dataset_trayectorias/trayectorias_ejecutadas/jtraj/trayectoria_208_result.csv
timestamp,q1,q2,q3,q4,q5,q6,qd1,qd2,qd3,qd4,qd5,qd6,tau1,tau2,tau3,tau4,tau5,tau6
1749031003.806307,-0.9697812239276331,-1.1965368551066895,-1.6104137897491455,4.260795279140137,-1.0534794966327112,3.2679247856140137,-0.009273379109799862,0.0006180350319482386,-0.02929544448852539,0.041682980954647064,-0.024727193638682365,0.033360570669174194,-0.3408748209476471,0.6811054348945618,0.906984269618988,0.7368867993354797,-0.5426676869392395,0.15864033997058868
1749031003.8063579,-0.9698169867144983,-1.1965828996947785,-1.6104966402053833,4.26090590536084,-1.053523365651266,3.267974376678467,-0.007908807136118412,0.0006486188503913581,-0.026820404455065727,0.04045313596725464,-0.023562198504805565,0.03228635713458061,-0.29967862367630005,0.6751534342765808,0.9036520719528198,0.7086807489395142,-0.5235163569450378,0.1548219621181488
1749031003.8063984,-0.9698050657855433,-1.1965984267047425,-1.6105525493621826,4.26094309865918,-1.0535405317889612,3.268030881881714,-0.006503615062683821,0.0005819521611556411,-0.02443011663854122,0.03718592971563339,-0.021247463300824165,0.0290481336414814,-0.3047352135181427,0.6832365393638611,0.9052834510803223,0.7202286124229431,-0.5309548377990723,0.1585865467786789
1749031003.806437,-0.9698050657855433,-1.1965876084617157,-1.610588788986206,4.261033697719238,-1.0535724798785608,3.2680821418762207,-0.004658838734030724,0.0005253402632661164,-0.023197881877422333,0.03429029881954193,-0.01974279247224331,0.026797235012054443,-0.30883708596229553,0.6666044592857361,0.9016596674919128,0.7007501125335693,-0.5418669581413269,0.161345437169075
1749031003.8064752,-0.9697940985309046,-1.1965720516494294,-1.6106436252593994,4.261089487666748,-1.0535805861102503,3.268099308013916,-0.003807801054790616,0.0004787521902471781,-0.020978474989533424,0.03167707473039627,-0.018301036208868027,0.02489595301449299,-0.29708757996559143,0.6700401902198792,0.8809202909469604,0.7293986082077026,-0.5401571989059448,0.16102533042430878
1749031003.8065243,-0.9698599020587366,-1.1965720814517518,-1.6106728315353394,4.261130018825195,-1.0536559263812464,3.2681808471679688,-0.0031805941835045815,0.0004397540760692209,-0.018403615802526474,0.028926029801368713,-0.015804162248969078,0.022313151508569717,-0.2901267111301422,0.6704436540603638,0.8811995983123779,0.7016997933387756,-0.5352550745010376,0.16322101652622223
1749031003.8065825,-0.9698599020587366,-1.1965720814517518,-1.6106728315353394,4.261130018825195,-1.0536559263812464,3.2681808471679688,-0.0031805941835045815,0.0004397540760692209,-0.018403615802526474,0.028926029801368713,-0.015804162248969078,0.022313151508569717,-0.2901267111301422,0.6704436540603638,0.8811995983123779,0.7016997933387756,-0.5352550745010376,0.16322101652622223
1749031003.8066304,-0.969856087361471,-1.1966031354716797,-1.61069655418396,4.261196776027344,-1.0537069479571741,3.268244504928589,-0.002369136782363057,0.0004066284454893321,-0.017336681485176086,0.02687973715364933,-0.015524462796747684,0.0212198905646801,-0.28965094685554504,0.6755423545837402,0.8829894065856934,0.706469714641571,-0.538550853729248,0.14899738132953644
1749031003.806688,-0.9698527495013636,-1.1966067415526886,-1.610764980316162,4.261304064387939,-1.053704086934225,3.2682785987854004,-0.001363513059914112,0.0003533976268954575,-0.01408397126942873,0.022152725607156754,-0.012908680364489555,0.01753232628107071,-0.29894736409187317,0.655501663684845,0.8768497705459595,0.7102491855621338,-0.5467832684516907,0.15284977853298187
1749031003.8067431,-0.9698722998248499,-1.1965948206237336,-1.6108038425445557,4.261346979732178,-1.0537708441363733,3.2683262825012207,-0.001120514702051878,0.0003316854126751423,-0.012545864097774029,0.020251035690307617,-0.011273813433945179,0.016777539625763893,-0.26317670941352844,0.6550824046134949,0.8580619692802429,0.7254312634468079,-0.561571478843689,0.15731178224086761
1749031003.8068078,-0.9698527495013636,-1.1965673726848145,-1.6108157634735107,4.2613794046589355,-1.0537784735309046,3.2683537006378174,-0.000951134308706969,0.0003124897484667599,-0.011917965486645699,0.018283439800143242,-0.01039715576916933,0.01472795382142067,-0.2349667251110077,0.6367698311805725,0.8763363361358643,0.7022709846496582,-0.5547688603401184,0.15266580879688263
1749031003.8068693,-0.9698408285724085,-1.1965912145427247,-1.6108402013778687,4.261380358333252,-1.0538070837603968,3.2683780193328857,-0.000461653689853847,0.00029539354727603495,-0.01011081226170063,0.015936365351080894,-0.01076866127550602,0.012179727666079998,-0.22716829180717468,0.6478580832481384,0.8791130781173706,0.7078871726989746,-0.5417889356613159,0.15314479172229767
1749031003.8069355,-0.9697940985309046,-1.1966104072383423,-1.6108521223068237,4.261431856746338,-1.053796116505758,3.2683708667755127,-0.00024573697010055184,0.00028007023502141237,-0.009224832989275455,0.015154557302594185,-0.010427378118038177,0.010835825465619564,-0.2349802553653717,0.6686968207359314,0.8659086227416992,0.6980261206626892,-0.4892394542694092,0.15945132076740265
1749031003.8070004,-0.9698408285724085,-1.196625904445984,-1.6108567714691162,4.261443777675293,-1.053842846547262,3.268413782119751,-0.0002148616622434929,0.0002662604092620313,-0.00889370683580637,0.013579431921243668,-0.008250162936747074,0.009967714548110962,-0.2403169572353363,0.6619322896003723,0.8993827104568481,0.6963493227958679,-0.48405921459198,0.14359544217586517
1749031003.807064,-0.9697864691363733,-1.1965828996947785,-1.610884189605713,4.261479540462158,-1.0538786093341272,3.2684102058410645,-0.00019191087631043047,0.0002537488180678338,-0.006654925644397736,0.012158729135990143,-0.005717167630791664,0.008510262705385685,-0.2513215243816376,0.6678956151008606,0.9217633008956909,0.6994672417640686,-0.4775841236114502,0.12379126250743866
1749031003.807123,-0.9698060194598597,-1.1965948206237336,-1.6108734607696533,4.261506720180176,-1.053835693989889,3.2684531211853027,-0.00017342460341751575,0.00024235794262494892,-0.004429436754435301,0.0110462112352252,-0.003201262094080448,0.00672344584017992,-0.24728885293006897,0.6636226773262024,0.92564457654953,0.6849063038825989,-0.4672686755657196,0.11289413273334503
1749031003.8071764,-0.9698250929461878,-1.1966067415526886,-1.6108806133270264,4.261495752925537,-1.0538862387286585,3.2684268951416016,-0.00015817859093658626,0.00023194862296804786,-0.002803264884278178,0.008853768929839134,-0.0019016573205590248,0.003959169611334801,-0.21634051203727722,0.6516796946525574,0.9197930693626404,0.6373761296272278,-0.45049694180488586,0.09779883921146393
1749031003.80723,-0.9698599020587366,-1.1965792936137696,-1.610888957977295,4.261511488551758,-1.053847614918844,3.268430471420288,-0.00014539067342411727,0.00022239549434743822,-0.0020101380068808794,0.005226243752986193,-0.0013158918591216207,0.0023248407524079084,-0.21103712916374207,0.6568059921264648,0.9430940747261047,0.6418080925941467,-0.43887680768966675,0.10429926216602325
1749031003.8072832,-0.9698517958270472,-1.1966222685626526,-1.6108770370483398,4.261507673854492,-1.0538595358477991,3.2684690952301025,-0.00013452865823637694,0.0002135970426024869,-0.0014268207596614957,0.002748690312728286,-0.001006938749924302,0.0014241994358599186,-0.1980321705341339,0.6632190346717834,0.9634385108947754,0.6265977025032043,-0.4234042465686798,0.08885715901851654
1749031003.8073382,-0.9697940985309046,-1.1966150564006348,-1.6108996868133545,4.261483831996582,-1.053847614918844,3.268430471420288,-0.0001251717476407066,0.00020547020540107042,-0.001128232222981751,0.001229570829309523,-0.0007305015460588038,0.001008276012726128,-0.20982158184051514,0.6555840373039246,0.9837297201156616,0.6243909001350403,-0.42472830414772034,0.09268645942211151
1749031003.8073916,-0.9698331991778772,-1.1965756875327607,-1.6108651161193848,4.261511488551758,-1.0538705031024378,3.2684459686279297,-0.00011702702613547444,0.0001979384251171723,-0.0006476850830949843,-0.00038257535197772086,-0.0005655749700963497,0.0007199235842563212,-0.21469426155090332,0.6657583713531494,1.004711389541626,0.6020970940589905,-0.3885219395160675,0.08404023945331573
1749031003.8074434,-0.9697626272784632,-1.1965995293906708,-1.6108770370483398,4.261495752925537,-1.053852383290426,3.2684152126312256,-0.0001098862339858897,0.00019093850278295577,-0.00018668292614165694,-0.0008307725074701011,-0.00048043063725344837,1.2369439446047181e-06,-0.21587646007537842,0.6662078499794006,0.9945231676101685,0.6171106100082397,-0.39504945278167725,0.058259740471839905
1749031003.8075986,-0.9698093573199671,-1.1965720516494294,-1.6108496189117432,4.261499567622803,-1.0538633505450647,3.2684619426727295,-0.00010356312850490212,0.0001844182115746662,-1.9829902157653123e-05,-0.001312070875428617,-0.00042205824865959585,-0.000542423571459949,-0.1795695424079895,0.6597961783409119,1.016324758529663,0.5795623660087585,-0.37431877851486206,0.052676960825920105
1749031003.8091743,-0.9698250929461878,-1.1965756875327607,-1.6108651161193848,4.261483831996582,-1.0538905302630823,3.268430471420288,-9.792493801796809e-05,0.000178328191395849,-1.2947507457283791e-06,-0.0016122324159368873,-0.00037730965414084494,-0.0022503521759063005,-0.2212243378162384,0.6623223423957825,1.02276611328125,0.5927773118019104,-0.36274707317352295,0.04751242697238922
1749031003.8503082,-0.969797436391012,-1.1965792936137696,-1.610884189605713,4.261483831996582,-1.0538557211505335,3.2684152126312256,-9.287511056754738e-05,0.00017262669280171394,-8.453797306628985e-08,-0.0021239870693534613,-0.00027261339710094035,-0.00298821902833879,-0.2040761113166809,0.6871131062507629,1.0512168407440186,0.5594227910041809,-0.3678702712059021,0.06469394266605377
1749031003.8503592,-0.969802204762594,-1.1966031354716797,-1.6108651161193848,4.261483831996582,-1.053840462361471,3.268418550491333,-8.831772720441222e-05,0.0001672795187914744,-5.519725565505951e-09,-0.002505130134522915,-0.00010095232573803514,-0.00304220849648118,-0.19557923078536987,0.6687905192375183,1.0467380285263062,0.5663153529167175,-0.3498374819755554,0.06428833305835724
1749031003.8504179,-0.9698212782489222,-1.196591244345047,-1.6108686923980713,4.261479540462158,-1.053835693989889,3.2684221267700195,-8.418424113187939e-05,0.00016225321451202035,-3.603986276079496e-10,-0.002780061447992921,0.00015301995154004544,-0.0028493297286331654,-0.17759165167808533,0.6584919095039368,1.0729575157165527,0.5636778473854065,-0.34208863973617554,0.06367538869380951
1749031003.85047,-0.9698212782489222,-1.1965792936137696,-1.6108877658843994,4.261459990138672,-1.053835693989889,3.268430471420288,-8.042504487093538e-05,0.000157519883941859,0.0014238113071769476,-0.003161715343594551,0.00020225351909175515,-0.002894909353926778,-0.18171289563179016,0.677270233631134,1.0556488037109375,0.5602899193763733,-0.34596437215805054,0.05168147385120392
1749031003.8505096,-0.9698212782489222,-1.1965995293906708,-1.6108496189117432,4.261459990138672,-1.0538318792926233,3.2684149742126465,-7.698490662733093e-05,0.00017775551532395184,0.001463116379454732,-0.0034228134900331497,0.00025226062280125916,-0.002980434102937579,-0.17440935969352722,0.6922062039375305,1.0443745851516724,0.5603123307228088,-0.3498327136039734,0.053763166069984436
1749031003.8505478,-0.9698722998248499,-1.1965792936137696,-1.6108651161193848,4.261482878322266,-1.053835693989889,3.2684221267700195,-7.382534386124462e-05,0.00019059109035879374,0.0012361292028799653,-0.0033346745185554028,0.00024639806360937655,-0.0030055444221943617,-0.18255218863487244,0.6887717843055725,1.0697702169418335,0.5568315386772156,-0.3356377184391022,0.03466947376728058
1749031003.850586,-0.9698684851275843,-1.1965248447707673,-1.6108686923980713,4.261459036464355,-1.0538199583636683,3.268425703048706,-7.091851148288697e-05,0.00019383487233426422,0.0011055403156206012,-0.002962450496852398,0.0002740212366916239,-0.002962005790323019,-0.2029273509979248,0.6785505414009094,1.060009241104126,0.5523403286933899,-0.3304617702960968,0.03897051513195038
1749031003.8506272,-0.9698370138751429,-1.1965828996947785,-1.6108877658843994,4.261455698604248,-1.0538237730609339,3.2684030532836914,-6.823019793955609e-05,0.00016529220738448203,0.0010113391326740384,-0.0024948311038315296,0.00027045331080444157,-0.0028870715759694576,-0.194717675447464,0.6990340352058411,1.0776005983352661,0.5339513421058655,-0.33046776056289673,0.031935080885887146
1749031003.8506649,-0.969848934804098,-1.1965876084617157,-1.6108531951904297,4.261455698604248,-1.0538395086871546,3.268413782119751,-6.573666905751452e-05,0.00020728954405058175,0.000946097425185144,-0.0019783370662480593,0.0002572562952991575,-0.0026720475871115923,-0.18450868129730225,0.6710059642791748,1.084720492362976,0.5249701738357544,-0.3227224349975586,0.03570680320262909
1749031003.8507018,-0.9698250929461878,-1.1965601605227967,-1.610837697982788,4.261428042049072,-1.0538080374347132,3.2684326171875,-6.342191773001105e-05,0.0017528760945424438,0.0010158164659515023,-0.0018008043989539146,0.00024372193729504943,-0.0024328604340553284,-0.1772717535495758,0.6752470135688782,1.0852431058883667,0.5272729992866516,-0.3343406319618225,0.0409897118806839
1749031003.850739,-0.9698441664325159,-1.1965356928161164,-1.6108412742614746,4.261443777675293,-1.0538046995746058,3.268413782119751,-6.126329390099272e-05,0.002812078921124339,0.0016617134679108858,-0.0016611131140962243,0.00023123406572267413,-0.0021842934656888247,-0.1951490342617035,0.6602779030799866,1.0829777717590332,0.5331840515136719,-0.3253069519996643,0.031248345971107483
1749031003.8507786,-0.9698289076434534,-1.1965948206237336,-1.6108567714691162,4.261424227351807,-1.053842846547262,3.268413782119751,-5.924550350755453e-05,0.002695284318178892,0.0018481011502444744,-0.0017012959579005837,0.00021992871188558638,-0.002017961349338293,-0.17563602328300476,0.660379946231842,1.0779386758804321,0.5240873098373413,-0.3382070064544678,0.035559192299842834
1749031003.850816,-0.9698212782489222,-1.1966021817973633,-1.6108567714691162,4.261428042049072,-1.0538199583636683,3.268413782119751,-5.7358840422239155e-05,0.0020494733471423388,0.0017085896106436849,-0.0016722714062780142,0.00020968925673514605,-0.0017940232064574957,-0.1968170702457428,0.6702020764350891,1.091815710067749,0.53764408826828,-0.33950144052505493,0.022333815693855286
1749031003.8508523,-0.9698637167560022,-1.1965637666038056,-1.6108531951904297,4.261424227351807,-1.0538199583636683,3.268401861190796,-5.5587475799256936e-05,0.0013825643109157681,0.0014880159869790077,-0.001738924067467451,0.0002003493282245472,-0.0017503509297966957,-0.20338091254234314,0.6676103472709656,1.085910677909851,0.5232000946998596,-0.3265887498855591,0.03257624804973602
1749031003.850889,-0.9698250929461878,-1.1965673726848145,-1.6108448505401611,4.261424227351807,-1.0538237730609339,3.268413782119751,-5.3921110520605e-05,0.001259643235243857,0.0012111281976103783,-0.0016071964055299759,0.0001918100460898131,-0.0016429262468591332,-0.20499387383460999,0.6724271774291992,1.0820585489273071,0.5348303318023682,-0.3188492953777313,0.02373276650905609
1749031003.8509295,-0.9698722998248499,-1.196562336092331,-1.6108448505401611,4.2614123064228515,-1.053852383290426,3.2683792114257812,-5.2353821956785396e-05,0.0013096050824970007,0.0011317365569993854,-0.0013386314967647195,0.00018394827202428132,-0.0016519043128937483,-0.16938260197639465,0.6484436392784119,1.074427843093872,0.5229474902153015,-0.3227255344390869,0.03295926749706268
1749031003.8509674,-0.9698331991778772,-1.196535663013794,-1.6108293533325195,4.261428042049072,-1.0538824240313929,3.2683863639831543,-5.0874121370725334e-05,0.0011488753370940685,0.0009749928722158074,-0.0011125628370791674,0.0001767147914506495,-0.001600006246007979,-0.1666097342967987,0.6297508478164673,1.0779705047607422,0.5353912711143494,-0.3098123371601105,0.017900213599205017
1749031003.8510063,-0.9698060194598597,-1.1965659123710175,-1.6108603477478027,4.261428042049072,-1.0538395086871546,3.2683863639831543,-4.947482739225961e-05,0.0009910684311762452,0.0008450539316982031,-0.000945901672821492,0.00017004043911583722,-0.0018837027018889785,-0.14416834712028503,0.600275456905365,1.0771496295928955,0.5285777449607849,-0.3407886028289795,0.025886833667755127
1749031003.8510544,-0.9698799292193812,-1.1965747636607666,-1.610832929611206,4.261450930232666,-1.053854767476217,3.268389940261841,-4.815226202481426e-05,0.0008710643160156906,0.0007449559634551406,-0.0008217626018449664,0.00016384353511966765,-0.002548457123339176,-0.1450415849685669,0.6027100682258606,1.046509027481079,0.55458664894104,-0.3446810245513916,0.025903865694999695
1749031003.851097,-0.9698517958270472,-1.1965550047210236,-1.6108293533325195,4.261428042049072,-1.0538585821734827,3.2683794498443604,-2.3683731342316605e-05,0.0007770190131850541,0.0006660496001131833,-0.0007263794541358948,0.00015808218449819833,-0.0032714835833758116,-0.13563528656959534,0.6349207758903503,1.0669063329696655,0.5404847264289856,-0.33434444665908813,0.030718490481376648
1749031003.8512099,-0.9698250929461878,-1.1965549749187012,-1.610832929611206,4.261408968562744,-1.0538395086871546,3.268374443054199,-2.2855312636238523e-05,0.0007012998685240746,0.0006022772868163884,-0.0006509462837129831,0.00015272504242602736,-0.0033047914039343596,-0.15883967280387878,0.6341624855995178,1.0675572156906128,0.5506284832954407,-0.34854447841644287,0.022316277027130127
1749031003.8531375,-0.969856087361471,-1.1965430539897461,-1.6108448505401611,4.261431856746338,-1.053842846547262,3.2683863639831543,-2.2287471438176e-05,0.0006390289054252207,0.0005495594814419746,-0.0005897581577301025,0.0001477076148148626,-0.003369321348145604,-0.12382937222719193,0.639921247959137,1.0631468296051025,0.5543001294136047,-0.34208327531814575,0.019292622804641724
1749031003.8942852,-0.969856087361471,-1.1965430539897461,-1.6108448505401611,4.261431856746338,-1.053842846547262,3.2683863639831543,-2.2287471438176e-05,0.0006390289054252207,0.0005495594814419746,-0.0005897581577301025,0.0001477076148148626,-0.003369321348145604,-0.12382937222719193,0.639921247959137,1.0631468296051025,0.5543001294136047,-0.34208327531814575,0.019292622804641724
1749031003.8943315,-0.9698250929461878,-1.1965637666038056,-1.6108484268188477,4.261420889491699,-1.0538395086871546,3.268355369567871,-2.1219510415448894e-07,0.0005426781717687845,0.0004679361591115594,-0.0004965117550455034,0.00013860825856681913,-0.0030330021400004625,-0.10747488588094711,0.6595371961593628,1.0726025104522705,0.5664417743682861,-0.34983381628990173,0.00038222968578338623
1749031003.8943717,-0.969848934804098,-1.196535663013794,-1.610825777053833,4.261416121120117,-1.0538862387286585,3.268362522125244,-2.0703041503367103e-09,0.00041893566958606243,0.00043549362453632057,-0.0004601636319421232,0.0001344627235084772,-0.0034077432937920094,-0.08759110420942307,0.665124237537384,1.0727037191390991,0.5537171363830566,-0.35241007804870605,-0.014140099287033081
1749031003.89441,-0.969848934804098,-1.196535663013794,-1.610825777053833,4.261416121120117,-1.0538862387286585,3.268362522125244,-2.0703041503367103e-09,0.00041893566958606243,0.00043549362453632057,-0.0004601636319421232,0.0001344627235084772,-0.0034077432937920094,-0.08759110420942307,0.665124237537384,1.0727037191390991,0.5537171363830566,-0.35241007804870605,-0.014140099287033081
1749031003.8944564,-0.9698298613177698,-1.19656594217334,-1.6108603477478027,4.261431856746338,-1.0538080374347132,3.2683310508728027,-1.970751036320384e-13,0.000444967532530427,0.00038262412999756634,-0.00040209529106505215,0.00012687593698501587,-0.005758105311542749,-0.019553102552890778,0.7103086113929749,1.068281650543213,0.582589328289032,-0.36660945415496826,-0.027833759784698486
1749031003.8944952,-0.9698479811297815,-1.1965585809997101,-1.6108293533325195,4.261428042049072,-1.053854767476217,3.268350124359131,0.0015178266912698746,0.0016781677259132266,0.000360706151695922,-0.0001706729963188991,0.0001234026567544788,-0.0072805616073310375,-0.02188240736722946,0.7302833199501038,1.076364517211914,0.5828040838241577,-0.36660462617874146,-0.02803516387939453
1749031003.8945448,-0.9697940985309046,-1.1965077978423615,-1.6108448505401611,4.261397047633789,-1.0538705031024378,3.268315553665161,0.0022082210052758455,0.0042647141963243484,0.000341165519785136,-0.00012349964526947588,0.00012010287900920957,-0.009146086871623993,0.0004725605249404907,0.7057428956031799,1.0839377641677856,0.5946957468986511,-0.3678991496562958,-0.04237452149391174
1749031003.8945851,-0.9698212782489222,-1.196550415163376,-1.610825777053833,4.2614471155354,-1.0538395086871546,3.268357038497925,0.0028883437626063824,0.004999139346182346,0.00032363276113756,-0.00010963356180582196,0.00011698521120706573,-0.01069730706512928,-0.00871160626411438,0.6966162323951721,1.0799163579940796,0.6042934656143188,-0.38596993684768677,-0.05387164652347565
1749031003.894623,-0.9698131720172327,-1.196526901131012,-1.6108531951904297,4.2614123064228515,-1.0538237730609339,3.2683417797088623,0.003200560575351119,0.005352512933313847,0.000307815324049443,-0.00010227041639154777,0.00011401499796193093,-0.01310130674391985,0.02130690962076187,0.7236737012863159,1.0784326791763306,0.6022946834564209,-0.3820964992046356,-0.047318026423454285
1749031003.8946595,-0.9697940985309046,-1.1965342325023194,-1.6108567714691162,4.261416121120117,-1.0537927786456507,3.268298864364624,0.004123659338802099,0.005829624831676483,0.00029347281088121235,-6.20156351942569e-05,0.00011120052658952773,-0.014792151749134064,0.021895304322242737,0.7372114658355713,1.0970044136047363,0.6175618171691895,-0.37952321767807007,-0.05473756790161133
1749031003.8946967,-0.9698169867144983,-1.1965187352946778,-1.6108567714691162,4.261431856746338,-1.0538237730609339,3.2683093547821045,0.006469341926276684,0.008685319684445858,0.00028040684992447495,-3.250947702326812e-05,0.00010851494153030217,-0.016271844506263733,0.05339370667934418,0.7686104774475098,1.0859897136688232,0.6317019462585449,-0.3898327052593231,-0.058841973543167114
1749031003.8947392,-0.9698169867144983,-1.1965187352946778,-1.6108567714691162,4.261431856746338,-1.0538237730609339,3.2683093547821045,0.006469341926276684,0.008685319684445858,0.00028040684992447495,-3.250947702326812e-05,0.00010851494153030217,-0.016271844506263733,0.05339370667934418,0.7686104774475098,1.0859897136688232,0.6317019462585449,-0.3898327052593231,-0.058841973543167114
1749031003.894776,-0.9697774092303675,-1.1964710515788575,-1.6108341217041016,4.261416121120117,-1.0537927786456507,3.268177032470703,0.00958417821675539,0.01067070011049509,0.00025748132611624897,-1.0151603646590956e-06,0.00010352318349760026,-0.02007109299302101,0.05140373855829239,0.7440397143363953,1.0994503498077393,0.6361784338951111,-0.3833801746368408,-0.03991955518722534
1749031003.8948152,-0.9697530905352991,-1.1964238447001954,-1.6108651161193848,4.261431856746338,-1.0538237730609339,3.2681758403778076,0.011288110166788101,0.011515209451317787,0.0002473694912623614,-1.7938948815299227e-07,0.00010119796934304759,-0.018733732402324677,0.07527488470077515,0.7669705748558044,1.1203312873840332,0.6449572443962097,-0.39242252707481384,-0.06635457277297974
1749031003.8948522,-0.9697254339801233,-1.196422891025879,-1.6108531951904297,4.261443777675293,-1.0538008848773401,3.2681548595428467,0.012984448112547398,0.013183747418224812,0.0002697171294130385,-3.17000043992266e-08,9.897240670397878e-05,-0.01938403770327568,0.07158839702606201,0.7564862966537476,1.1066988706588745,0.6265658736228943,-0.39371705055236816,-0.05604024976491928
1749031003.8948889,-0.9696739355670374,-1.1963844460299988,-1.6108496189117432,4.261424227351807,-1.0538199583636683,3.2681007385253906,0.014467217028141022,0.014483721926808357,0.0002625713241286576,-5.601723529480296e-09,9.684084943728521e-05,-0.01961171068251133,0.0895354375243187,0.769011914730072,1.1255974769592285,0.6526352763175964,-0.38725388050079346,-0.04524560272693634
1749031003.8949258,-0.9696739355670374,-1.1963844460299988,-1.6108496189117432,4.261424227351807,-1.0538199583636683,3.2681007385253906,0.014467217028141022,0.014483721926808357,0.0002625713241286576,-5.601723529480296e-09,9.684084943728521e-05,-0.01961171068251133,0.0895354375243187,0.769011914730072,1.1255974769592285,0.6526352763175964,-0.38725388050079346,-0.04524560272693634
1749031003.8949628,-0.9696610609637659,-1.196292446260788,-1.6108603477478027,4.261443777675293,-1.053835693989889,3.268040657043457,0.01572546362876892,0.01694936491549015,0.0002124371094396338,0.0009688147692941129,9.28456211113371e-05,-0.018110867589712143,0.05930418521165848,0.7678622603416443,1.1371195316314697,0.6692724227905273,-0.4143616855144501,-0.08636529743671417
1749031003.8949993,-0.9696381727801722,-1.196330652838089,-1.6108603477478027,4.2614471155354,-1.0538275877581995,3.2680013179779053,0.015610012225806713,0.018045056611299515,0.00024821568513289094,0.0011735642328858376,9.096846042666584e-05,-0.01888001151382923,0.05411607772111893,0.7642802000045776,1.157069206237793,0.665246844291687,-0.39886975288391113,-0.08857277035713196
1749031003.895036,-0.9695785681353968,-1.1962876480868836,-1.6108651161193848,4.261428042049072,-1.0537851492511194,3.2679803371429443,0.015826363116502762,0.018649274483323097,0.0013225360307842493,0.001182127045467496,8.916574734030291e-05,-0.01970423199236393,0.06479267030954361,0.7931467294692993,1.1480900049209595,0.6760568022727966,-0.41048794984817505,-0.10869698226451874
1749031003.895154,-0.9695928732501429,-1.1962271493724366,-1.6108496189117432,4.261424227351807,-1.053847614918844,3.2679636478424072,0.015210113488137722,0.01835377886891365,0.0014695232966914773,0.0012779185781255364,8.743205398786813e-05,-0.022305214777588844,0.10099885612726212,0.8004469275474548,1.147420883178711,0.6681190133094788,-0.4117852747440338,-0.11151331663131714
1749031003.89715,-0.9695256392108362,-1.1961794358542939,-1.6108531951904297,4.261443777675293,-1.053835693989889,3.267868995666504,0.015883689746260643,0.021350931376218796,0.002157503506168723,0.0013854500139132142,8.57663617352955e-05,-0.023470139130949974,0.09856575727462769,0.8000286817550659,1.1450111865997314,0.6802454590797424,-0.4246795177459717,-0.12255237996578217
1749031003.9382899,-0.9694836775409144,-1.1961742502501984,-1.6108412742614746,4.261443777675293,-1.053828541432516,3.267857074737549,0.015373372472822666,0.02277180179953575,0.0019821454770863056,0.001873102504760027,8.416234777541831e-05,-0.024835674092173576,0.11181578040122986,0.7606586217880249,1.1516451835632324,0.6942813992500305,-0.42597436904907227,-0.11878374218940735
1749031003.9383485,-0.9694388548480433,-1.196072743540146,-1.6108412742614746,4.261451883906982,-1.053847614918844,3.2678511142730713,0.01565460115671158,0.023926764726638794,0.0017736682202666998,0.0023732767440378666,7.065991667332128e-05,-0.027088599279522896,0.1417587250471115,0.7556719183921814,1.1627174615859985,0.6958298683166504,-0.42339563369750977,-0.12823250889778137
1749031003.9383912,-0.9694150129901331,-1.1960592430881043,-1.6108448505401611,4.261455698604248,-1.053842846547262,3.267737627029419,0.015033721923828125,0.022461071610450745,0.0017388073028996587,0.00267772120423615,6.570653204107657e-05,-0.028841670602560043,0.15217220783233643,0.7675874829292297,1.177985668182373,0.6902107000350952,-0.4066274166107178,-0.1431984305381775
1749031003.9384303,-0.9693949858294886,-1.19599603236232,-1.6108448505401611,4.2614638048359375,-1.0538514296161097,3.267692804336548,0.01649518311023712,0.02194255031645298,0.0018455280223861337,0.002926916815340519,6.389396003214642e-05,-0.03180945664644241,0.16832438111305237,0.7598304748535156,1.1897168159484863,0.7092824578285217,-0.410514235496521,-0.14617526531219482
1749031003.938468,-0.9693635145770472,-1.1959665578654786,-1.610825777053833,4.261459990138672,-1.053835693989889,3.2676448822021484,0.016936922445893288,0.021273763850331306,0.003058451460674405,0.0030264731030911207,6.266807031352073e-05,-0.03398185968399048,0.18861520290374756,0.7559882402420044,1.1716046333312988,0.7133664488792419,-0.42079880833625793,-0.14004629850387573
1749031003.938507,-0.9693387190448206,-1.1958997410586854,-1.6108484268188477,4.261482878322266,-1.0538595358477991,3.2675814628601074,0.01868576928973198,0.02116551250219345,0.003335709683597088,0.003241467522457242,6.157603638712317e-05,-0.03433357924222946,0.20477402210235596,0.765142023563385,1.173802137374878,0.7154842019081116,-0.41565847396850586,-0.15923766791820526
1749031003.938545,-0.9692991415606897,-1.1958743196776886,-1.6108366250991821,4.261491461391113,-1.053835693989889,3.2674975395202637,0.020594824105501175,0.02107521891593933,0.0035395531449466944,0.0036073816008865833,6.0535403463291004e-05,-0.03673599660396576,0.20539960265159607,0.7585760951042175,1.179764986038208,0.7336292862892151,-0.4066230356693268,-0.17260301113128662
1749031003.9385822,-0.9692862669574183,-1.1958587926677247,-1.610801339149475,4.261491461391113,-1.0538046995746058,3.26743745803833,0.02088136412203312,0.021767862141132355,0.003631728235632181,0.0043555498123168945,5.9534220781642944e-05,-0.038913119584321976,0.2140737622976303,0.7460092902183533,1.1899070739746094,0.7290406823158264,-0.42985573410987854,-0.18058735132217407
1749031003.9386284,-0.9692547957049769,-1.1957401794246216,-1.6108205318450928,4.2615343767353515,-1.053835693989889,3.267373561859131,0.02159499004483223,0.022103140130639076,0.003809200366958976,0.005414149723947048,5.8565619838191196e-05,-0.042099691927433014,0.22188830375671387,0.7331162691116333,1.192237377166748,0.7535303831100464,-0.42727386951446533,-0.1699003279209137
1749031003.938668,-0.9692099730121058,-1.1957235795310517,-1.610793113708496,4.261570139522217,-1.0538046995746058,3.2672739028930664,0.022903218865394592,0.02197924256324768,0.00434002885594964,0.005947469267994165,5.762869113823399e-05,-0.04558629170060158,0.2158258557319641,0.7365080118179321,1.1803747415542603,0.7414335608482361,-0.44407498836517334,-0.16819804906845093
1749031003.938706,-0.9691785017596644,-1.1956873101047059,-1.6108002662658691,4.261542482967041,-1.0538199583636683,3.2671589851379395,0.024519136175513268,0.02257414162158966,0.005408651661127806,0.0069785648956894875,5.672078259522095e-05,-0.047890909016132355,0.24681951105594635,0.7480624914169312,1.185523271560669,0.7361248731613159,-0.4569705128669739,-0.18981146812438965
1749031003.9387426,-0.9690836111651819,-1.195599154835083,-1.610788345336914,4.261543436641357,-1.0538128058062952,3.2670822143554688,0.02602418139576912,0.023241251707077026,0.005600576288998127,0.007910170592367649,5.587713167187758e-05,-0.049103908240795135,0.2632488012313843,0.7386568188667297,1.1912622451782227,0.72536301612854,-0.451791375875473,-0.18779462575912476
1749031003.9387798,-0.9690521399127405,-1.1955754619887848,-1.6107614040374756,4.261586828822754,-1.053847614918844,3.2670061588287354,0.027167458087205887,0.02260652557015419,0.005540825426578522,0.008725885301828384,3.671035301522352e-05,-0.05022779852151871,0.2588655650615692,0.7284404635429382,1.1854612827301025,0.7339876890182495,-0.4556775987148285,-0.19738823175430298
1749031003.9388168,-0.9690182844745081,-1.1955624979785462,-1.6107304096221924,4.261610670680664,-1.0538046995746058,3.266859292984009,0.02842857502400875,0.023624179884791374,0.005478127393871546,0.009312065318226814,3.284641570644453e-05,-0.053110603243112564,0.2824382483959198,0.7482069134712219,1.1901248693466187,0.706714928150177,-0.45954155921936035,-0.20310871303081512
1749031003.9388537,-0.9689672628985804,-1.1954448980144043,-1.610753059387207,4.2616259294697265,-1.053796116505758,3.266751527786255,0.0301792174577713,0.02322811633348465,0.005492661148309708,0.009102237410843372,3.170299169141799e-05,-0.05624907463788986,0.27066370844841003,0.7464267611503601,1.2027661800384521,0.7142506241798401,-0.4595494270324707,-0.19713088870048523
1749031003.9388902,-0.9689105192767542,-1.1954241555980225,-1.6107375621795654,4.261649771327637,-1.053847614918844,3.2666397094726562,0.031170323491096497,0.023313017562031746,0.006215403787791729,0.009779321029782295,1.982322646654211e-05,-0.05814693495631218,0.29009634256362915,0.7266688942909241,1.2064704895019531,0.6953169107437134,-0.47761887311935425,-0.1897682547569275
1749031003.9389272,-0.9688318411456507,-1.1954065424254914,-1.610713243484497,4.261638804072998,-1.053854767476217,3.266500234603882,0.03287486359477043,0.023989956825971603,0.0065882522612810135,0.010401304811239243,1.601498297532089e-05,-0.05984979495406151,0.278394877910614,0.7390788197517395,1.2014796733856201,0.7267807722091675,-0.46986889839172363,-0.1902400255203247
1749031003.9389634,-0.9687717596637171,-1.1953459841063996,-1.610701322555542,4.261670275325439,-1.0538514296161097,3.2663962841033936,0.033902380615472794,0.02531132847070694,0.006212215404957533,0.009545395150780678,1.5134254681470338e-05,-0.06094907969236374,0.31492167711257935,0.7232524156570435,1.2087154388427734,0.6980482339859009,-0.4814709424972534,-0.18844760954380035
1749031003.9390004,-0.9687069098102015,-1.1952755612185975,-1.6106703281402588,4.26169411718335,-1.053842846547262,3.266267776489258,0.03527412936091423,0.025593960657715797,0.005999143701046705,0.00958203710615635,4.0949794311018195e-06,-0.061926793307065964,0.30784884095191956,0.7035614848136902,1.218914270401001,0.7077903747558594,-0.4853726625442505,-0.19481264054775238
1749031003.9390476,-0.968612019215719,-1.1952118438533326,-1.6106739044189453,4.261737032527588,-1.053847614918844,3.266118288040161,0.036811549216508865,0.025618046522140503,0.005656092893332243,0.009486868046224117,7.236258738885226e-07,-0.06370414793491364,0.30686065554618835,0.729763925075531,1.2281291484832764,0.6943777799606323,-0.49826300144195557,-0.21512554585933685
1749031003.9392557,-0.9685252348529261,-1.1951315265944977,-1.6106464862823486,4.261714144343994,-1.0538199583636683,3.2659780979156494,0.03804570063948631,0.025944633409380913,0.0062632253393530846,0.009628402069211006,1.2787228342858725e-07,-0.06588473170995712,0.3230084478855133,0.716410756111145,1.2238185405731201,0.704516589641571,-0.4917954206466675,-0.1979411393404007
1749031003.9411533,-0.9684799353228968,-1.1951040786555787,-1.6106810569763184,4.261737986201904,-1.053835693989889,3.2658655643463135,0.03955068066716194,0.027133233845233917,0.0072363740764558315,0.009838045574724674,2.259637632562317e-08,-0.06542845070362091,0.31119343638420105,0.7205098867416382,1.2008758783340454,0.6885929703712463,-0.5047355890274048,-0.2118476778268814
1749031003.9832833,-0.968424145375387,-1.195055143242218,-1.6106220483779907,4.261761828059814,-1.053828541432516,3.2657346725463867,0.04107082635164261,0.027337023988366127,0.00737758120521903,0.00871512945741415,3.993017028136592e-09,-0.06751533597707748,0.3549407422542572,0.713375985622406,1.2313587665557861,0.699788510799408,-0.5008637309074402,-0.22687235474586487
1749031003.9833302,-0.9683211485492151,-1.1949994427016755,-1.6106483936309814,4.261792822475098,-1.0538557211505335,3.2656335830688477,0.04309958219528198,0.027948938310146332,0.00698871910572052,0.00857340358197689,7.056079609490951e-10,-0.07103049755096436,0.3149604797363281,0.7411906123161316,1.2201004028320312,0.7056273818016052,-0.5175899267196655,-0.21629968285560608
1749031003.9833713,-0.9682648817645472,-1.1949429971030732,-1.6106138229370117,4.261808558101318,-1.053901497517721,3.265439033508301,0.04465394467115402,0.02874276600778103,0.007449267897754908,0.008004344068467617,1.2468834298395848e-10,-0.07500030100345612,0.32713454961776733,0.7352522015571594,1.2261717319488525,0.7076951861381531,-0.5163508057594299,-0.1894359290599823
1749031003.9834113,-0.9681881109820765,-1.1948526960662385,-1.6106173992156982,4.261805697078369,-1.0538824240313929,3.2652688026428223,0.045750588178634644,0.029242604970932007,0.007764566224068403,0.008122913539409637,2.203373941633835e-11,-0.07302279770374298,0.34797847270965576,0.7251176834106445,1.2234811782836914,0.7112650871276855,-0.511198103427887,-0.2349759340286255
1749031003.9834497,-0.9681113401996058,-1.194796310072281,-1.6106209754943848,4.261829538936279,-1.0538595358477991,3.2651593685150146,0.04698286950588226,0.029582347720861435,0.007149784360080957,0.008280836045742035,-0.0006127958185970783,-0.07501831650733948,0.34919023513793945,0.739700973033905,1.233285903930664,0.6973877549171448,-0.5137187242507935,-0.21711483597755432
1749031003.9834878,-0.9679926077472132,-1.1947591465762635,-1.6105626821517944,4.261857195491455,-1.053847614918844,3.264991521835327,0.04897390678524971,0.030056001618504524,0.006914188154041767,0.008600455708801746,-0.0008911415352486074,-0.0768793374300003,0.33738428354263306,0.7361232042312622,1.255493402481079,0.7055250406265259,-0.5189422369003296,-0.2261827141046524
1749031003.9835253,-0.9679282347308558,-1.1947425168803711,-1.6105971336364746,4.26186911642041,-1.0538981596576136,3.2647976875305176,0.04967723414301872,0.031300924718379974,0.007063086144626141,0.008639928884804249,-0.0009338484960608184,-0.0813421905040741,0.35787540674209595,0.7409183979034424,1.2530593872070312,0.7063934206962585,-0.5306099653244019,-0.24259407818317413
1749031003.9835632,-0.9679282347308558,-1.1947425168803711,-1.6105971336364746,4.26186911642041,-1.0538981596576136,3.2647976875305176,0.04967723414301872,0.031300924718379974,0.007063086144626141,0.008639928884804249,-0.0009338484960608184,-0.0813421905040741,0.35787540674209595,0.7409183979034424,1.2530593872070312,0.7063934206962585,-0.5306099653244019,-0.24259407818317413
1749031003.9836006,-0.9677742163287562,-1.1946705144694825,-1.6105661392211914,4.26186911642041,-1.0538905302630823,3.2646725177764893,0.052052535116672516,0.03212299570441246,0.007586569059640169,0.008311139419674873,-0.0009366513113491237,-0.0848938599228859,0.3598577082157135,0.7307363748550415,1.2573480606079102,0.7206003069877625,-0.5240093469619751,-0.20791953802108765
1749031003.9836378,-0.9675982634173792,-1.1945036214641114,-1.610529899597168,4.261896772975586,-1.0538514296161097,3.2643144130706787,0.05106737092137337,0.03281069174408913,0.007515294943004847,0.009080908261239529,-0.001074408646672964,-0.08715476840734482,0.3885743021965027,0.7465662360191345,1.2772023677825928,0.7143189311027527,-0.5304354429244995,-0.19747799634933472
1749031003.9836752,-0.9674943129168909,-1.194481984978058,-1.6105024814605713,4.261909647578857,-1.053847614918844,3.264110803604126,0.0532102957367897,0.03451447933912277,0.007066036574542522,0.008918169885873795,-0.00108596112113446,-0.08996684104204178,0.41444236040115356,0.6955405473709106,1.2790724039077759,0.7327436804771423,-0.5332350134849548,-0.21066680550575256
1749031003.9837158,-0.9673789183246058,-1.1943561297706147,-1.610517978668213,4.261932535762451,-1.053840462361471,3.2639310359954834,0.056739915162324905,0.03457831218838692,0.007351050153374672,0.009492519311606884,-0.0011187432100996375,-0.09274262934923172,0.37098830938339233,0.7574538588523865,1.2957594394683838,0.7197078466415405,-0.5434104800224304,-0.20243151485919952
1749031003.9837637,-0.9672439734088343,-1.1943033200553437,-1.6104977130889893,4.261990709895752,-1.0538633505450647,3.263704299926758,0.05684243515133858,0.0349571667611599,0.007974504493176937,0.01041490025818348,-0.001247068285010755,-0.09542503952980042,0.3491588532924652,0.7653496861457825,1.2908728122711182,0.7187163233757019,-0.5461455583572388,-0.20421220362186432
1749031003.983829,-0.9671781698810022,-1.194195882683136,-1.6104941368103027,4.2619921404072265,-1.0538786093341272,3.263535737991333,0.05594281107187271,0.03619679808616638,0.007657610345631838,0.010342537425458431,-0.0014343480579555035,-0.09775606542825699,0.40987005829811096,0.7392647862434387,1.2813847064971924,0.7271575331687927,-0.5513479709625244,-0.17244811356067657
1749031003.983895,-0.9670775572406214,-1.1941431325725098,-1.6104549169540405,4.261984511012695,-1.0538786093341272,3.2633063793182373,0.0592566654086113,0.03637875244021416,0.0075095221400260925,0.010404828004539013,-0.0017142121214419603,-0.09804344177246094,0.4013735055923462,0.7555157542228699,1.302385926246643,0.7197371125221252,-0.5640139579772949,-0.14978912472724915
1749031003.9839618,-0.9669626394854944,-1.1940872830203553,-1.6104583740234375,4.262031241054199,-1.0538366476642054,3.2631218433380127,0.06063335761427879,0.03733600303530693,0.007693672087043524,0.01055221538990736,-0.0019486481323838234,-0.0992974042892456,0.3935496211051941,0.7779768109321594,1.3275578022003174,0.7178955078125,-0.5462409853935242,-0.16718566417694092
1749031003.9840279,-0.9668062368976038,-1.1940272015384217,-1.6104267835617065,4.262039824123047,-1.0538905302630823,3.2629261016845703,0.06190409138798714,0.03856538608670235,0.008944729343056679,0.010346130467951298,-0.0028007880318909883,-0.09939591586589813,0.3792963922023773,0.7401933073997498,1.3205467462539673,0.7135868072509766,-0.5396588444709778,-0.18034502863883972
1749031003.984094,-0.9667146841632288,-1.1939432483962555,-1.6104376316070557,4.262063665980957,-1.05389911333193,3.2626559734344482,0.06281574070453644,0.03926732391119003,0.009188983589410782,0.009977600537240505,-0.003874788759276271,-0.09980881214141846,0.3871974050998688,0.7678323984146118,1.3127180337905884,0.7313868403434753,-0.538569986820221,-0.17724627256393433
1749031003.9841592,-0.966590706502096,-1.1938359898379822,-1.6104376316070557,4.262087507838867,-1.0539072195636194,3.262502431869507,0.06369764357805252,0.04202526435256004,0.009699317626655102,0.0111476369202137,-0.004216574598103762,-0.09962675720453262,0.3975360095500946,0.7276144027709961,1.3228493928909302,0.7263014912605286,-0.5336231589317322,-0.18607114255428314
1749031003.984225,-0.966590706502096,-1.1938359898379822,-1.6104376316070557,4.262087507838867,-1.0539072195636194,3.262502431869507,0.06369764357805252,0.04202526435256004,0.009699317626655102,0.0111476369202137,-0.004216574598103762,-0.09962675720453262,0.3975360095500946,0.7276144027709961,1.3228493928909302,0.7263014912605286,-0.5336231589317322,-0.18607114255428314
1749031003.9843848,-0.9662993589984339,-1.1936681431582947,-1.6103899478912354,4.262123270625732,-1.0539034048663538,3.262064218521118,0.0660828948020935,0.04014722257852554,0.009881301783025265,0.010490577667951584,-0.0030362452380359173,-0.10000614076852798,0.3930792212486267,0.7738778591156006,1.3188886642456055,0.729484498500824,-0.5477945804595947,-0.18359102308750153
1749031003.9851425,-0.9661639372455042,-1.1936542850783844,-1.6103501319885254,4.262159033412598,-1.053911034260885,3.2618649005889893,0.06693905591964722,0.04189296439290047,0.010287733748555183,0.010192451067268848,-0.0025374048855155706,-0.10044574737548828,0.3795551359653473,0.7750284075737,1.3371840715408325,0.7132436633110046,-0.5579624176025391,-0.20680242776870728
1749031004.0263174,-0.9659937063800257,-1.1935034555247803,-1.6103227138519287,4.262131376857422,-1.0538881460772913,3.261676788330078,0.06586325913667679,0.04332195594906807,0.010663416236639023,0.009716732427477837,-0.0025386258494108915,-0.10228200256824493,0.39014747738838196,0.7746763229370117,1.322693943977356,0.7367438673973083,-0.5371415615081787,-0.20636418461799622
1749031004.0263646,-0.9659078756915491,-1.1934040051749726,-1.6103029251098633,4.262182875270508,-1.053946320210592,3.261441946029663,0.07186643779277802,0.045220959931612015,0.010925793088972569,0.01024340745061636,-0.0029685962945222855,-0.10123350471258163,0.3778548240661621,0.7778066992759705,1.34197998046875,0.7259659171104431,-0.5437809824943542,-0.22378356754779816
1749031004.0264046,-0.9657838980304163,-1.1933791798404236,-1.6102945804595947,4.262202902431152,-1.0539353529559534,3.261230230331421,0.06952355802059174,0.044498711824417114,0.011802254244685173,0.011139467358589172,-0.0031179022043943405,-0.10569045692682266,0.3972851037979126,0.7920000553131104,1.3180192708969116,0.7398327589035034,-0.5474876761436462,-0.24602068960666656
1749031004.0264435,-0.9656484762774866,-1.193258450632431,-1.6102790832519531,4.2622338968464355,-1.0538914839373987,3.261042594909668,0.07044856995344162,0.044759806245565414,0.01069611869752407,0.011446433141827583,-0.0033238036558032036,-0.10820183157920837,0.4293060600757599,0.7855255603790283,1.3397281169891357,0.7040187120437622,-0.53877854347229,-0.25894519686698914
1749031004.0264814,-0.9654534498797815,-1.1931699079326172,-1.6102547645568848,4.2622386652180175,-1.053950611745016,3.2607834339141846,0.07477027922868729,0.04679475352168083,0.01051226444542408,0.011491035111248493,-0.0035814293660223484,-0.10801124572753906,0.37012308835983276,0.775778591632843,1.3476148843765259,0.7237926125526428,-0.5505194664001465,-0.2544597387313843
1749031004.0265193,-0.9653056303607386,-1.1930439335158844,-1.6102654933929443,4.262262507075928,-1.0539205710040491,3.2605960369110107,0.07172907143831253,0.04728361591696739,0.011323042213916779,0.011733351275324821,-0.003798462450504303,-0.11062230914831161,0.40111660957336426,0.801000714302063,1.3312190771102905,0.7240988612174988,-0.5407186150550842,-0.28254416584968567
1749031004.0265572,-0.9651697317706507,-1.1929431420615693,-1.610215425491333,4.2623020845600585,-1.0539324919330042,3.2603249549865723,0.0743444487452507,0.048264503479003906,0.010649055242538452,0.011943059042096138,-0.0036523856688290834,-0.11861157417297363,0.38741227984428406,0.799660861492157,1.3524316549301147,0.7423006296157837,-0.5169268846511841,-0.2726486325263977
1749031004.0266004,-0.9650409857379358,-1.1928791862777253,-1.610210657119751,4.262337847346924,-1.0539277235614222,3.2600619792938232,0.07536842674016953,0.04931985214352608,0.010767308995127678,0.012333194725215435,-0.0031335295643657446,-0.12251666933298111,0.40625885128974915,0.778679370880127,1.3362174034118652,0.7035930156707764,-0.5335206985473633,-0.2249678075313568
1749031004.0266395,-0.9650409857379358,-1.1928791862777253,-1.610210657119751,4.262337847346924,-1.0539277235614222,3.2600619792938232,0.07536842674016953,0.04931985214352608,0.010767308995127678,0.012333194725215435,-0.0031335295643657446,-0.12251666933298111,0.40625885128974915,0.778679370880127,1.3362174034118652,0.7035930156707764,-0.5335206985473633,-0.2249678075313568
1749031004.0266767,-0.9647186438189905,-1.192690686588623,-1.610177993774414,4.262384577388428,-1.053979221974508,3.259570598602295,0.0760936513543129,0.050537317991256714,0.010684235021471977,0.012068373151123524,-0.0019957399927079678,-0.12752977013587952,0.4187409281730652,0.8291416764259338,1.3558069467544556,0.7274794578552246,-0.5249863862991333,-0.22699293494224548
1749031004.026714,-0.9645665327655237,-1.192540095453598,-1.610154151916504,4.262408419246338,-1.0539634863482874,3.259326696395874,0.07773517072200775,0.05208836868405342,0.011417212896049023,0.011879337951540947,-0.00171720702201128,-0.13028520345687866,0.4470544457435608,0.8041226863861084,1.3549978733062744,0.7445504069328308,-0.5455491542816162,-0.21322821080684662
1749031004.026751,-0.9643948713885706,-1.192482517366745,-1.6101231575012207,4.2624522882648925,-1.0539711157428187,3.2590408325195312,0.07756385952234268,0.05263173580169678,0.011400428600609303,0.011809071525931358,-0.0015356448711827397,-0.12986204028129578,0.43121346831321716,0.7910175919532776,1.3637460470199585,0.7209169268608093,-0.558571457862854,-0.22863620519638062
1749031004.026788,-0.9642551581012171,-1.1923282009414216,-1.6100832223892212,4.262432261104248,-1.0539711157428187,3.258808135986328,0.08095735311508179,0.05301443487405777,0.011971578001976013,0.012602919712662697,-0.001343575306236744,-0.1295318752527237,0.40895289182662964,0.8399608135223389,1.3640891313552856,0.7277288436889648,-0.5649233460426331,-0.23250839114189148
1749031004.0268252,-0.9640453497516077,-1.1921883982471009,-1.6100785732269287,4.26246897756543,-1.0539563337909144,3.2585256099700928,0.08208487927913666,0.0553014762699604,0.011641431599855423,0.012318627908825874,-0.0012807500315830112,-0.13026148080825806,0.40950241684913635,0.8240458369255066,1.3658725023269653,0.7246158719062805,-0.559770405292511,-0.2509985864162445
1749031004.026862,-0.9639161268817347,-1.1921148163131257,-1.6100475788116455,4.262476606959961,-1.0539405981646937,3.258277416229248,0.0821814015507698,0.05705729126930237,0.01144551020115614,0.01234307698905468,-0.0012493010144680738,-0.13272228837013245,0.41227221488952637,0.7887011766433716,1.3724335432052612,0.7224533557891846,-0.5508469343185425,-0.24454909563064575
1749031004.0268993,-0.963775936757223,-1.19194911540065,-1.6100273132324219,4.262519999141357,-1.053979221974508,3.2580649852752686,0.08485686779022217,0.05692219361662865,0.012374124489724636,0.012292887084186077,-0.0015068938955664635,-0.13068754971027374,0.38823869824409485,0.8132663369178772,1.371306300163269,0.7351033687591553,-0.5586532354354858,-0.27729231119155884
1749031004.026936,-0.9635961691485804,-1.1919060212424775,-1.6100118160247803,4.2625366884418945,-1.0539830366717737,3.257763147354126,0.0849185511469841,0.060808856040239334,0.011966215446591377,0.01293885800987482,-0.0015331993345171213,-0.13302741944789886,0.3785880208015442,0.7634826898574829,1.3796751499176025,0.7493268251419067,-0.5510740280151367,-0.2945486307144165
1749031004.026975,-0.9634006659137171,-1.1917512577823182,-1.609994649887085,4.262567682857178,-1.053952995930807,3.257436990737915,0.08512257039546967,0.05866891145706177,0.011892035603523254,0.013850949704647064,-0.0017496547661721706,-0.14088307321071625,0.43853679299354553,0.7899991869926453,1.3793302774429321,0.7250658869743347,-0.5487077236175537,-0.2735466957092285
1749031004.0270119,-0.9632099310504358,-1.1916309160045166,-1.6099827289581299,4.2626001077839355,-1.0539982954608362,3.257181406021118,0.09040825068950653,0.06031959876418114,0.012402105145156384,0.014641303569078445,-0.0017879308434203267,-0.14161434769630432,0.36374804377555847,0.8031368255615234,1.3884879350662231,0.7229133248329163,-0.5553117990493774,-0.26946428418159485
1749031004.027048,-0.9630568663226526,-1.191487894659378,-1.6099278926849365,4.262611551875732,-1.0540221373187464,3.2569007873535156,0.08591272681951523,0.062387507408857346,0.012830854393541813,0.01453904714435339,-0.002172050764784217,-0.14578519761562347,0.41040530800819397,0.7934180498123169,1.383441686630249,0.7329747080802917,-0.5653103590011597,-0.2650871276855469
1749031004.0271552,-0.9628809134112757,-1.1913948220065613,-1.6099159717559814,4.262663050288818,-1.0540102163897913,3.256570339202881,0.09028685092926025,0.06482816487550735,0.01376805454492569,0.014776526018977165,-0.0027226798702031374,-0.15083657205104828,0.38563331961631775,0.7478758096694946,1.3871663808822632,0.734454870223999,-0.5549821853637695,-0.24504248797893524
1749031004.029127,-0.962717358266012,-1.191230909233429,-1.6098952293395996,4.262683554286621,-1.0539563337909144,3.256248712539673,0.09041160345077515,0.06268492341041565,0.013494194485247135,0.015028188936412334,-0.0033389658201485872,-0.15463294088840485,0.3776463568210602,0.7881520986557007,1.392806887626648,0.7436292171478271,-0.5453556776046753,-0.2138400673866272
1749031004.0703015,-0.962470833455221,-1.191104070549347,-1.6098599433898926,4.262738390559814,-1.0540078322040003,3.255949020385742,0.09126283973455429,0.06467774510383606,0.014314115978777409,0.015474786050617695,-0.003311454551294446,-0.15635038912296295,0.37864741683006287,0.775632917881012,1.385150671005249,0.7420365810394287,-0.5566577911376953,-0.20100702345371246
1749031004.0703619,-0.962470833455221,-1.191104070549347,-1.6098599433898926,4.262738390559814,-1.0540078322040003,3.255949020385742,0.09126283973455429,0.06467774510383606,0.014314115978777409,0.015474786050617695,-0.003311454551294446,-0.15635038912296295,0.37864741683006287,0.775632917881012,1.385150671005249,0.7420365810394287,-0.5566577911376953,-0.20100702345371246
1749031004.0704043,-0.9621027151690882,-1.1908674401095887,-1.6097962856292725,4.262793703670166,-1.0540393034564417,3.255368709564209,0.09197214245796204,0.06515352427959442,0.014693750999867916,0.016065239906311035,-0.002923602471128106,-0.15568982064723969,0.40494027733802795,0.7825901508331299,1.367977261543274,0.731502890586853,-0.5425258874893188,-0.19664622843265533
1749031004.0704432,-0.9619272390948694,-1.1907305878451844,-1.6097795963287354,4.262833757991455,-1.0540230909930628,3.2550220489501953,0.0929979458451271,0.0664258524775505,0.014781984500586987,0.016431346535682678,-0.0031428548973053694,-0.15442581474781036,0.3731423020362854,0.7991280555725098,1.3922443389892578,0.741947591304779,-0.5377546548843384,-0.21761205792427063
1749031004.0704806,-0.9617317358600062,-1.1905948978713532,-1.6097402572631836,4.262881441707275,-1.0540593306170862,3.254730224609375,0.0913538783788681,0.06684484332799911,0.01584787480533123,0.016546206548810005,-0.003242678940296173,-0.1522967666387558,0.40091124176979065,0.8083219528198242,1.3691587448120117,0.7296164035797119,-0.532410204410553,-0.24375924468040466
1749031004.070519,-0.961555306111471,-1.1904355150512238,-1.6097004413604736,4.262874289149902,-1.0540006796466272,3.254415273666382,0.09565914422273636,0.06782758980989456,0.016313057392835617,0.016889765858650208,-0.002909575356170535,-0.15385396778583527,0.37566420435905457,0.8289919495582581,1.3862136602401733,0.7479299306869507,-0.544646143913269,-0.2841009497642517
1749031004.0705564,-0.9613483587848108,-1.1902842980674286,-1.6096646785736084,4.262936754817627,-1.0540788809405726,3.2541351318359375,0.0952686294913292,0.07010196149349213,0.017226066440343857,0.017099175602197647,-0.002852907171472907,-0.15480679273605347,0.41520777344703674,0.7842369079589844,1.3646507263183594,0.7192350625991821,-0.5491002202033997,-0.28575944900512695
1749031004.070594,-0.9611476103412073,-1.1901163321784516,-1.6096402406692505,4.262976809138916,-1.0540507475482386,3.2537968158721924,0.09949276596307755,0.06990049034357071,0.01717737689614296,0.017046352848410606,-0.002863094909116626,-0.15521188080310822,0.3191539943218231,0.7702546119689941,1.3576133251190186,0.7427906394004822,-0.5419237017631531,-0.2975841462612152
1749031004.0706367,-0.9609411398517054,-1.1900081795505066,-1.6096045970916748,4.26298110067334,-1.0540507475482386,3.2534854412078857,0.09719222784042358,0.06954614818096161,0.015681467950344086,0.016523350030183792,-0.0029975471552461386,-0.1624092310667038,0.3898128867149353,0.7999176383018494,1.3720481395721436,0.7183408737182617,-0.5273541212081909,-0.2984673082828522
1749031004.0706785,-0.9607294241534632,-1.1899215143970032,-1.609557032585144,4.2630321222492675,-1.0540788809405726,3.2531192302703857,0.09900561720132828,0.06859144568443298,0.015753217041492462,0.016865476965904236,-0.0028113285079598427,-0.16402503848075867,0.39024966955184937,0.7981447577476501,1.3821334838867188,0.7257840037345886,-0.5333771109580994,-0.26944124698638916
1749031004.0707169,-0.9605534712420862,-1.1897466343692322,-1.6095253229141235,4.263064070338867,-1.0540631453143519,3.252786636352539,0.09993930160999298,0.070899598300457,0.015896495431661606,0.016528837382793427,-0.002759626368060708,-0.16884258389472961,0.35080915689468384,0.7798186540603638,1.3669885396957397,0.7354131937026978,-0.5286672711372375,-0.25819554924964905
1749031004.070754,-0.9603536764727991,-1.1895797115615387,-1.6095004081726074,4.26308457433667,-1.054094139729635,3.2524242401123047,0.09872057288885117,0.07464320957660675,0.016506925225257874,0.016850141808390617,-0.0023846528492867947,-0.17290979623794556,0.42390212416648865,0.7618520855903625,1.3606303930282593,0.7317540645599365,-0.5440219640731812,-0.24751892685890198
1749031004.0707915,-0.9602158705340784,-1.1894280475429078,-1.6094640493392944,4.263143702144287,-1.0541179815875452,3.252042293548584,0.10283466428518295,0.07211118936538696,0.016470331698656082,0.01723548024892807,-0.002298458479344845,-0.17522473633289337,0.3394034504890442,0.7969590425491333,1.3724439144134521,0.7361823320388794,-0.5357035994529724,-0.22279800474643707
1749031004.070828,-0.9599850813495081,-1.1892918211272736,-1.609471321105957,4.2631751733967285,-1.054079834614889,3.251718044281006,0.10262718796730042,0.07236896455287933,0.01685929112136364,0.017144080251455307,-0.0025841076858341694,-0.17431174218654633,0.4035190939903259,0.8212951421737671,1.3654359579086304,0.7566521167755127,-0.5436483025550842,-0.22104880213737488
1749031004.0708647,-0.9597275892840784,-1.1891281765750428,-1.6094014644622803,4.263199015254639,-1.0541146437274378,3.2513716220855713,0.10316241532564163,0.07817336916923523,0.016911989077925682,0.017047369852662086,-0.0025989096611738205,-0.17438368499279022,0.4104672074317932,0.7745436429977417,1.3766752481460571,0.7329383492469788,-0.532606303691864,-0.24105064570903778
1749031004.070902,-0.9595196882831019,-1.1890075367740174,-1.6093651056289673,4.263274355525635,-1.0541108290301722,3.2510440349578857,0.10499801486730576,0.07522716373205185,0.016550885513424873,0.017716344445943832,-0.0024461024440824986,-0.1710457056760788,0.41291794180870056,0.7802721261978149,1.3635658025741577,0.7442977428436279,-0.5236631035804749,-0.2535659968852997
1749031004.0709383,-0.9593542257892054,-1.1888317328742524,-1.6093604564666748,4.263298197383545,-1.0540521780597132,3.2507176399230957,0.1028863862156868,0.07738121598958969,0.016810446977615356,0.0182782169431448,-0.0020656692795455456,-0.17008839547634125,0.4031807780265808,0.7843613624572754,1.382140874862671,0.7216081023216248,-0.5346878170967102,-0.31893065571784973
1749031004.0709772,-0.9591434637652796,-1.1886795622161408,-1.609302043914795,4.263314886684082,-1.054091755543844,3.2503654956817627,0.1055355817079544,0.07890195399522781,0.01617651805281639,0.01770900748670101,-0.0017986329039558768,-0.17756883800029755,0.435832679271698,0.7828813791275024,1.391189694404602,0.7342573404312134,-0.5355578064918518,-0.28558945655822754
1749031004.0710142,-0.9589079062091272,-1.1885350805572052,-1.60928475856781,4.263319178218506,-1.0540950934039515,3.2500383853912354,0.10667432844638824,0.07924135029315948,0.016882121562957764,0.01687997579574585,-0.0015503785107284784,-0.17999206483364105,0.40667933225631714,0.7764602899551392,1.3804985284805298,0.7390580177307129,-0.5263695120811462,-0.30188634991645813
1749031004.0710506,-0.9586446920977991,-1.1883742970279236,-1.6092610359191895,4.263370676631592,-1.054086987172262,3.24963641166687,0.10930848866701126,0.0798608735203743,0.01654016226530075,0.01695125922560692,-0.0013304094318300486,-0.1857990175485611,0.39114245772361755,0.7607872486114502,1.3818531036376953,0.7541757225990295,-0.5452203750610352,-0.29208850860595703
1749031004.071154,-0.958468262349264,-1.1882031124881287,-1.6092216968536377,4.2633864122578125,-1.0541070143329065,3.249268054962158,0.110184445977211,0.07863129675388336,0.01600692793726921,0.016746049746870995,-0.0012503465404734015,-0.1930518001317978,0.4009288251399994,0.7777474522590637,1.3882192373275757,0.7635274529457092,-0.5586528182029724,-0.24835087358951569
1749031004.0731153,-0.958287541066305,-1.1880356532386322,-1.6092050075531006,4.263441248531006,-1.0541265646563929,3.248889207839966,0.11122434586286545,0.08144601434469223,0.01612658053636551,0.01750422827899456,-0.0014747821260243654,-0.19809329509735107,0.3965643644332886,0.7855541706085205,1.4032466411590576,0.763456404209137,-0.5414078831672668,-0.2035357654094696
1749031004.1143556,-0.9580252806292933,-1.1878715318492432,-1.6091461181640625,4.2634851175495605,-1.0541146437274378,3.2485058307647705,0.11225378513336182,0.08114659786224365,0.015657860785722733,0.0181095190346241,-0.0019124940736219287,-0.19851018488407135,0.40236425399780273,0.7711047530174255,1.417256236076355,0.7760393619537354,-0.5388843417167664,-0.21520812809467316
1749031004.1144261,-0.9577749411212366,-1.1877149206450959,-1.6091294288635254,4.263513727779053,-1.0540950934039515,3.248138427734375,0.11358416825532913,0.08503026515245438,0.016511565074324608,0.020049260929226875,-0.0021311610471457243,-0.19675789773464203,0.39265674352645874,0.7163436412811279,1.4112160205841064,0.7514749765396118,-0.536295473575592,-0.20676392316818237
1749031004.1144702,-0.9575937430011194,-1.1875543755343934,-1.6090586185455322,4.263561411494873,-1.0540831724749964,3.2477240562438965,0.1159316748380661,0.08130113780498505,0.016568021848797798,0.02066323347389698,-0.0023556300438940525,-0.19162651896476746,0.42857956886291504,0.7818094491958618,1.4235508441925049,0.7539259791374207,-0.5337056517601013,-0.2600497305393219
1749031004.1145098,-0.9573701063739222,-1.1873903435519715,-1.6090383529663086,4.263600988979004,-1.0541189352618616,3.2473018169403076,0.11440157890319824,0.08283770084381104,0.01798020675778389,0.020830616354942322,-0.0028294825460761786,-0.19103403389453888,0.41650548577308655,0.7845938205718994,1.4074029922485352,0.7440260052680969,-0.5473782420158386,-0.2323334664106369
1749031004.1145484,-0.9570754210101526,-1.1872271758368989,-1.608986496925354,4.263655825252197,-1.0541265646563929,3.2469348907470703,0.11838139593601227,0.08413241803646088,0.01848924346268177,0.020504740998148918,-0.003255235031247139,-0.18792274594306946,0.3901670575141907,0.748936116695404,1.3983607292175293,0.7591872215270996,-0.5488733649253845,-0.2754729092121124
1749031004.1145883,-0.9570754210101526,-1.1872271758368989,-1.608986496925354,4.263655825252197,-1.0541265646563929,3.2469348907470703,0.11838139593601227,0.08413241803646088,0.01848924346268177,0.020504740998148918,-0.003255235031247139,-0.18792274594306946,0.3901670575141907,0.748936116695404,1.3983607292175293,0.7591872215270996,-0.5488733649253845,-0.2754729092121124
1749031004.1146338,-0.9566267172442835,-1.1868628722480317,-1.6089262962341309,4.263723536128662,-1.0541933218585413,3.2461447715759277,0.11679041385650635,0.08524279296398163,0.018175244331359863,0.021524544805288315,-0.0036854862701147795,-0.19419275224208832,0.3865952789783478,0.790657639503479,1.4131829738616943,0.7575777173042297,-0.5367591977119446,-0.29986461997032166
1749031004.114672,-0.9563487211810511,-1.1867106717875977,-1.608905553817749,4.263771219844482,-1.0541308561908167,3.2457504272460938,0.11754081398248672,0.08684772998094559,0.0190691240131855,0.021914007142186165,-0.003447878174483776,-0.2007400542497635,0.432145893573761,0.7871870398521423,1.4086123704910278,0.743291974067688,-0.5210435390472412,-0.2830556333065033
1749031004.1147106,-0.9561284224139612,-1.186521754865982,-1.6088227033615112,4.263815565700195,-1.0541656653033655,3.2453737258911133,0.11914825439453125,0.08845885097980499,0.019987192004919052,0.02260553278028965,-0.003063702257350087,-0.20381148159503937,0.4345300793647766,0.7436091899871826,1.397733211517334,0.7497587203979492,-0.5391690135002136,-0.2711271047592163
1749031004.1147485,-0.9559200445758265,-1.186324105863907,-1.6088180541992188,4.263878508205078,-1.0542128721820276,3.2449238300323486,0.11937407404184341,0.08956639468669891,0.020292676985263824,0.02254554070532322,-0.0027948683127760887,-0.20777182281017303,0.45226526260375977,0.744047224521637,1.3943897485733032,0.724015474319458,-0.5449351072311401,-0.24900346994400024
1749031004.1147861,-0.9556496779071253,-1.186178670530655,-1.608766794204712,4.2639452654072265,-1.054131809865133,3.2445127964019775,0.1236029863357544,0.09088556468486786,0.019801972433924675,0.02232024073600769,-0.002882931148633361,-0.20699931681156158,0.39032161235809326,0.7305620908737183,1.406067967414856,0.7483118772506714,-0.5352484583854675,-0.2352226972579956
1749031004.1148226,-0.9554479757892054,-1.1859987837127228,-1.6087340116500854,4.263973875636719,-1.0541861693011683,3.244117021560669,0.12192507088184357,0.09174355119466782,0.018992777913808823,0.022426553070545197,-0.0030871606431901455,-0.20679029822349548,0.410434365272522,0.7256456017494202,1.4017335176467896,0.729478657245636,-0.5410725474357605,-0.23736318945884705
1749031004.1148596,-0.9551580587970179,-1.1858067077449341,-1.6086983680725098,4.263990564937256,-1.054194752370016,3.2436752319335938,0.12408238649368286,0.09089594334363937,0.019015513360500336,0.021969353780150414,-0.003237926634028554,-0.20412026345729828,0.3894089162349701,0.7494627833366394,1.396457552909851,0.761690616607666,-0.5290530323982239,-0.2723150849342346
1749031004.1149015,-0.9548943678485315,-1.1856227678111573,-1.608666181564331,4.264064474696777,-1.054159943257467,3.243291139602661,0.12404587864875793,0.09096706658601761,0.018893437460064888,0.021762946620583534,-0.0033787621650844812,-0.2083231806755066,0.44571390748023987,0.7732682228088379,1.4095114469528198,0.7510564923286438,-0.5292164087295532,-0.27432355284690857
1749031004.1149411,-0.954651180897848,-1.1854120653918763,-1.608595371246338,4.2640930849262695,-1.0542295614825647,3.2428479194641113,0.12439128011465073,0.09170036762952805,0.019437439739704132,0.022251419723033905,-0.0032437436748296022,-0.21090683341026306,0.41784772276878357,0.7804311513900757,1.4085049629211426,0.7482386827468872,-0.5384561419487,-0.27613961696624756
1749031004.114978,-0.954651180897848,-1.1854120653918763,-1.608595371246338,4.2640930849262695,-1.0542295614825647,3.2428479194641113,0.12439128011465073,0.09170036762952805,0.019437439739704132,0.022251419723033905,-0.0032437436748296022,-0.21090683341026306,0.41784772276878357,0.7804311513900757,1.4085049629211426,0.7482386827468872,-0.5384561419487,-0.27613961696624756
1749031004.1150193,-0.954144302998678,-1.1850741666606446,-1.6085424423217773,4.264176531428955,-1.0542343298541468,3.241995334625244,0.12801618874073029,0.09129538387060165,0.02004147134721279,0.02279764413833618,-0.0031039558816701174,-0.22186462581157684,0.42947185039520264,0.7816052436828613,1.4093899726867676,0.740355908870697,-0.5394721031188965,-0.22750604152679443
1749031004.1150577,-0.9539120833026331,-1.1848873359015961,-1.6084916591644287,4.264224215144775,-1.0542257467852991,3.2415413856506348,0.12826307117938995,0.09517577290534973,0.019787920638918877,0.022236909717321396,-0.002877403050661087,-0.22343909740447998,0.4290972948074341,0.7455242276191711,1.4073799848556519,0.7475168704986572,-0.5427405834197998,-0.21727511286735535
1749031004.115096,-0.9536364714251917,-1.1847333771041413,-1.6084553003311157,4.264271898860596,-1.0542224089251917,3.2411599159240723,0.1274385154247284,0.09213811904191971,0.020413586869835854,0.021203164011240005,-0.0027398155070841312,-0.2202267348766327,0.4452661871910095,0.7997764945030212,1.4137717485427856,0.7465214133262634,-0.5348737835884094,-0.2236303687095642
1749031004.115133,-0.9534276167498987,-1.1845391553691407,-1.6084041595458984,4.2643043237873535,-1.054171387349264,3.240666627883911,0.13299964368343353,0.09392162412405014,0.020710265263915062,0.02199733443558216,-0.0027212731074541807,-0.22135891020298004,0.44657692313194275,0.7868920564651489,1.4023452997207642,0.7532569169998169,-0.5507197380065918,-0.2423241138458252
1749031004.1152449,-0.9531520048724573,-1.1843733948520203,-1.608394742012024,4.264378233546875,-1.0542028586017054,3.24025297164917,0.13177567720413208,0.09497172385454178,0.02050371840596199,0.021959170699119568,-0.0030363609548658133,-0.2165823131799698,0.41862475872039795,0.791263222694397,1.4117205142974854,0.7483511567115784,-0.5434816479682922,-0.2863226532936096
1749031004.117115,-0.9528453985797327,-1.184158371095993,-1.6083393096923828,4.264387293452881,-1.0542305151568812,3.2398288249969482,0.13284189999103546,0.09597212076187134,0.020475443452596664,0.022511741146445274,-0.003424728522077203,-0.22091782093048096,0.42834901809692383,0.793541431427002,1.423183560371399,0.760305643081665,-0.5319847464561462,-0.2873937487602234
1749031004.1583273,-0.9526246229754847,-1.1840014618686219,-1.6083035469055176,4.2644545274921875,-1.0542267004596155,3.2393832206726074,0.133898064494133,0.09492146968841553,0.02063089795410633,0.02359321340918541,-0.0035916997585445642,-0.2224993258714676,0.4571599066257477,0.7723613977432251,1.411404013633728,0.7399031519889832,-0.5303389430046082,-0.302142858505249
1749031004.1583848,-0.9522560278521937,-1.1838295620730896,-1.6082637310028076,4.264505549068115,-1.054211441670553,3.238913059234619,0.13602109253406525,0.09886634349822998,0.02088323049247265,0.02376321703195572,-0.003480354556813836,-0.22717735171318054,0.40802881121635437,0.800139307975769,1.4227759838104248,0.7577541470527649,-0.530586302280426,-0.2890511155128479
1749031004.1584404,-0.9520228544818323,-1.18359790862117,-1.6082124710083008,4.264549894923828,-1.0542195479022425,3.23846173286438,0.13586053252220154,0.09904468059539795,0.020741993561387062,0.024178938940167427,-0.0031848768703639507,-0.2322240024805069,0.4131912589073181,0.6962974071502686,1.4120981693267822,0.7450774312019348,-0.5418049693107605,-0.24867552518844604
1749031004.1584811,-0.9517510573016565,-1.183370904331543,-1.6081678867340088,4.264597578639648,-1.0542267004596155,3.237988233566284,0.13632409274578094,0.0974971204996109,0.02104395627975464,0.023494673892855644,-0.0030149666126817465,-0.23442965745925903,0.4046339988708496,0.7898346781730652,1.4196006059646606,0.7487795948982239,-0.5471342206001282,-0.2466016709804535
1749031004.158519,-0.9514949957477015,-1.1832251113704224,-1.60813570022583,4.264645262355469,-1.054258171712057,3.2374815940856934,0.13756580650806427,0.10079538822174072,0.021635843440890312,0.02316058799624443,-0.0030288880225270987,-0.235304594039917,0.425790011882782,0.7588309645652771,1.4141615629196167,0.7588741779327393,-0.5597133040428162,-0.24701577425003052
1749031004.158562,-0.9511998335467737,-1.183017687206604,-1.6081149578094482,4.264677210445068,-1.0542505423175257,3.2370338439941406,0.13714003562927246,0.09898950904607773,0.021408675238490105,0.022483495995402336,-0.0032851253636181355,-0.23080019652843475,0.4317963123321533,0.8246325850486755,1.4143242835998535,0.7644001245498657,-0.5294143557548523,-0.27170366048812866
1749031004.1586072,-0.9509170691119593,-1.1827867192080994,-1.608060598373413,4.264721079463623,-1.0542624632464808,3.2365758419036865,0.14015790820121765,0.10039344429969788,0.021326743066310883,0.02232232131063938,-0.004051046445965767,-0.23379504680633545,0.39770567417144775,0.7790736556053162,1.4152214527130127,0.7776931524276733,-0.538672924041748,-0.2979201078414917
1749031004.1586454,-0.950667683278219,-1.1825936001590271,-1.6080087423324585,4.264760656947754,-1.0542157332049769,3.2361133098602295,0.14207230508327484,0.09975112974643707,0.021700093522667885,0.023274192586541176,-0.004108394496142864,-0.23201949894428253,0.44506752490997314,0.81413733959198,1.418245792388916,0.7757776379585266,-0.5289893746376038,-0.29537200927734375
1749031004.1586826,-0.9503381888019007,-1.1824016135982056,-1.6079732179641724,4.2648512560078125,-1.0543063322650355,3.235642671585083,0.1417940855026245,0.10041569173336029,0.022296961396932602,0.023327551782131195,-0.003909038379788399,-0.2365281879901886,0.41752129793167114,0.8106786608695984,1.4077578783035278,0.7736642360687256,-0.5508925914764404,-0.2954789698123932
1749031004.1587203,-0.9500888029681605,-1.182193712597229,-1.6079094409942627,4.264852686519287,-1.0542543570147913,3.2351644039154053,0.14348433911800385,0.10067260265350342,0.021948635578155518,0.02418098784983158,-0.003568964544683695,-0.2426905333995819,0.4038228988647461,0.8343689441680908,1.422271490097046,0.7903338670730591,-0.5473945736885071,-0.25992462038993835
1749031004.1587582,-0.9498055616961878,-1.1819657546332856,-1.607865333557129,4.264931364650391,-1.0543063322650355,3.2346582412719727,0.14478528499603271,0.10162869095802307,0.022405190393328667,0.024612383916974068,-0.003768247552216053,-0.24622127413749695,0.41952893137931824,0.8495951294898987,1.4392497539520264,0.7784081697463989,-0.5393614172935486,-0.2532714605331421
1749031004.1587956,-0.9494746367083948,-1.1817700427821656,-1.6078325510025024,4.264967127437256,-1.0543025175677698,3.2342188358306885,0.14453339576721191,0.10280930995941162,0.02346106246113777,0.025296064093708992,-0.004087168723344803,-0.2465493232011795,0.4158070981502533,0.8363494873046875,1.4159799814224243,0.7829058766365051,-0.5272927284240723,-0.23120896518230438
1749031004.1588328,-0.949202839528219,-1.1815725427917023,-1.6077849864959717,4.2650109964558105,-1.05432635942568,3.233696222305298,0.14570587873458862,0.10475689172744751,0.023996977135539055,0.02495196834206581,-0.0044987439177930355,-0.24910970032215118,0.40518632531166077,0.8070381283760071,1.3980247974395752,0.7653929591178894,-0.5209921598434448,-0.21804466843605042
1749031004.1588697,-0.948890511189596,-1.181361899977066,-1.607733130455017,4.265058680171631,-1.054310146962301,3.2331905364990234,0.14809416234493256,0.10522785037755966,0.024137195199728012,0.023853741586208344,-0.004680742044001818,-0.24393153190612793,0.43409493565559387,0.8079087734222412,1.4044408798217773,0.7799029350280762,-0.5256261825561523,-0.2586662173271179
1749031004.1589072,-0.9486034552203577,-1.1811303359321137,-1.6077011823654175,4.265122099513672,-1.054345432912008,3.232703924179077,0.14608654379844666,0.1092120036482811,0.024110058322548866,0.0252283476293087,-0.004270985722541809,-0.24525076150894165,0.4602915644645691,0.7564852237701416,1.39517343044281,0.7769052386283875,-0.5316280126571655,-0.2712474465370178
1749031004.1589448,-0.9483149687396448,-1.1808980268291016,-1.607633113861084,4.265177889461182,-1.0543573538409632,3.2322165966033936,0.1478782743215561,0.10750670731067657,0.024713585153222084,0.026378341019153595,-0.003963304217904806,-0.24566401541233063,0.4168110191822052,0.7847567200660706,1.3992637395858765,0.7809442281723022,-0.5153888463973999,-0.2884550094604492
1749031004.1589816,-0.9480240980731409,-1.180690513258316,-1.6075937747955322,4.2652293878742675,-1.0543234984027308,3.2317073345184326,0.14987240731716156,0.11181561648845673,0.024821791797876358,0.028002480044960976,-0.0036494270898401737,-0.24940279126167297,0.40732133388519287,0.7301048040390015,1.4017128944396973,0.7711169719696045,-0.5223640203475952,-0.28409135341644287
1749031004.1590185,-0.9477275053607386,-1.1805252891829987,-1.6075408458709717,4.265288515681885,-1.0543502012835901,3.231196641921997,0.15085197985172272,0.10928896069526672,0.024537816643714905,0.02857700176537037,-0.00338603463023901,-0.2507967948913574,0.4186408519744873,0.7977432608604431,1.407149076461792,0.7560550570487976,-0.5380197763442993,-0.2782597243785858
1749031004.159056,-0.9474437872516077,-1.180246726875641,-1.6074860095977783,4.26535622655835,-1.0543659369098108,3.230682849884033,0.1523456573486328,0.11006179451942444,0.02443971484899521,0.028742359951138496,-0.0035804491490125656,-0.2528735399246216,0.48005345463752747,0.8096498250961304,1.4074636697769165,0.7603579163551331,-0.5430507659912109,-0.296764612197876
1749031004.1590927,-0.9471476713763636,-1.1800407332232972,-1.6074378490447998,4.265411062831543,-1.0543201605426233,3.230184316635132,0.1542707085609436,0.11053021997213364,0.025100896134972572,0.027595723047852516,-0.0037948512472212315,-0.25160863995552063,0.4408329725265503,0.8066022992134094,1.3888418674468994,0.7584899663925171,-0.533616304397583,-0.29275059700012207
1749031004.1592004,-0.9468024412738245,-1.1797984403422852,-1.6073867082595825,4.265452070827148,-1.0543463865863245,3.2296648025512695,0.15744651854038239,0.11223279684782028,0.02533450536429882,0.027501529082655907,-0.0037986058741807938,-0.255870521068573,0.41588613390922546,0.8050317168235779,1.3952041864395142,0.7606177926063538,-0.5315919518470764,-0.2723959684371948
1749031004.1611195,-0.9465401808368128,-1.1795903903296967,-1.6073384284973145,4.265495939845703,-1.0543859640704554,3.229142904281616,0.15513509511947632,0.11524461954832077,0.025250110775232315,0.028020290657877922,-0.0034043483901768923,-0.25681209564208984,0.45350170135498047,0.7604784369468689,1.4046837091445923,0.7415236234664917,-0.5178401470184326,-0.29249346256256104
1749031004.2022917,-0.946228329335348,-1.1793381136706849,-1.6072901487350464,4.265594168300293,-1.0543821493731897,3.2286765575408936,0.15490785241127014,0.11024720966815948,0.024755237624049187,0.028530236333608627,-0.0030090210493654013,-0.2602497637271881,0.4347107410430908,0.8083211183547974,1.3983964920043945,0.7537641525268555,-0.522794246673584,-0.31275227665901184
1749031004.202337,-0.9458659330951136,-1.179121510391571,-1.607218861579895,4.265634222621582,-1.0544102827655237,3.228118896484375,0.1560470163822174,0.1150689646601677,0.024574732407927513,0.028479168191552162,-0.0027974024415016174,-0.2643161118030548,0.44846341013908386,0.7770897150039673,1.39267098903656,0.7531206011772156,-0.5179702043533325,-0.27590125799179077
1749031004.2023785,-0.9455822149859827,-1.1789007645896454,-1.6071710586547852,4.265693827266357,-1.0544212500201624,3.227558135986328,0.158101886510849,0.11370224505662918,0.024380914866924286,0.02776808850467205,-0.0026256919372826815,-0.2656031847000122,0.42859625816345215,0.8269778490066528,1.3883098363876343,0.7605852484703064,-0.5263714790344238,-0.2547750174999237
1749031004.2024298,-0.9452593962298792,-1.1786486369422455,-1.6071233749389648,4.265706701869629,-1.0544102827655237,3.22705340385437,0.16138681769371033,0.11524998396635056,0.02481723017990589,0.027463704347610474,-0.0025084272492676973,-0.2631637156009674,0.4428132176399231,0.7918475866317749,1.3886510133743286,0.7555271983146667,-0.5323468446731567,-0.2692461907863617
1749031004.2024698,-0.9449856917010706,-1.178424910908081,-1.6070823669433594,4.265778227443359,-1.0543940703021448,3.226515293121338,0.15871977806091309,0.11674576997756958,0.025805464014410973,0.027151260524988174,-0.0022594754118472338,-0.26411041617393494,0.47552210092544556,0.7769993543624878,1.3844629526138306,0.7655377984046936,-0.5362977981567383,-0.2660062909126282
1749031004.2025087,-0.9446070829974573,-1.1781111520579834,-1.6070185899734497,4.265856905574463,-1.0544217268573206,3.225965976715088,0.1610945463180542,0.11745632439851761,0.026498334482312202,0.028146596625447273,-0.0022169644944369793,-0.26312896609306335,0.40677788853645325,0.772400975227356,1.3854615688323975,0.7534350156784058,-0.5340718030929565,-0.3278011977672577
1749031004.202555,-0.944287125264303,-1.1779287618449708,-1.606971025466919,4.265932245845459,-1.0544174353228968,3.2254629135131836,0.1621706336736679,0.11788256466388702,0.026257099583745003,0.028225142508745193,-0.002574676414951682,-0.2646328806877136,0.4227025806903839,0.7595422863960266,1.3860257863998413,0.7654816508293152,-0.535301685333252,-0.3121309280395508
1749031004.2025952,-0.9439633528338831,-1.1777044099620362,-1.6069227457046509,4.265960379237793,-1.054417912160055,3.2249324321746826,0.16289199888706207,0.11920783668756485,0.026541735976934433,0.029247097671031952,-0.0034000270534306765,-0.26877251267433167,0.42331746220588684,0.7624654769897461,1.36002516746521,0.7378383874893188,-0.5363388061523438,-0.3287357687950134
1749031004.2026327,-0.94360858598818,-1.1774138373187562,-1.6068352460861206,4.2660438257404785,-1.0544846693622034,3.224365711212158,0.16307015717029572,0.12071242183446884,0.026594866067171097,0.03042379766702652,-0.003866943996399641,-0.27197688817977905,0.43199652433395386,0.7169431447982788,1.363621711730957,0.7375209331512451,-0.5216851234436035,-0.3339087665081024
1749031004.2026703,-0.9433277289019983,-1.1772324305823822,-1.6068103313446045,4.266091509456299,-1.0544217268573206,3.2238473892211914,0.1639573723077774,0.12127301096916199,0.026297954842448235,0.029927482828497887,-0.0038905551191419363,-0.2773508131504059,0.4566059708595276,0.7194329500198364,1.3807544708251953,0.7179339528083801,-0.5303994417190552,-0.31304237246513367
1749031004.2027113,-0.9430235067950647,-1.1769688588431855,-1.606731653213501,4.266151590938232,-1.054465119038717,3.223290205001831,0.1661265343427658,0.12333137542009354,0.02680891379714012,0.02941678836941719,-0.003997118212282658,-0.27495431900024414,0.4373571276664734,0.7206446528434753,1.3641376495361328,0.7451871633529663,-0.5258972644805908,-0.3032539486885071
1749031004.2027547,-0.9426491896258753,-1.176744059925415,-1.6066839694976807,4.266222639674805,-1.0544417540179651,3.22269606590271,0.17035850882530212,0.11973399668931961,0.02789243869483471,0.027829382568597794,-0.004409010987728834,-0.27912476658821106,0.4336920976638794,0.7390563488006592,1.3501911163330078,0.7255745530128479,-0.5273282527923584,-0.3051488399505615
1749031004.202792,-0.9423330465899866,-1.1764689844897767,-1.6065893173217773,4.266286059016846,-1.0544779936419886,3.222130060195923,0.16738460958003998,0.12335048615932465,0.027957074344158173,0.02769526094198227,-0.004900003783404827,-0.2825043201446533,0.458534836769104,0.6997361183166504,1.3468223810195923,0.734231173992157,-0.5270441770553589,-0.32542574405670166
1749031004.202829,-0.9419811407672327,-1.1762130123427887,-1.6065601110458374,4.266373320216797,-1.0544856230365198,3.221531629562378,0.16775822639465332,0.12238439917564392,0.027596749365329742,0.028185948729515076,-0.005671702325344086,-0.2848997712135315,0.4806031584739685,0.749343991279602,1.3536262512207031,0.7380310297012329,-0.5155414342880249,-0.29735642671585083
1749031004.2028656,-0.9419811407672327,-1.1762130123427887,-1.6065601110458374,4.266373320216797,-1.0544856230365198,3.221531629562378,0.16775822639465332,0.12238439917564392,0.027596749365329742,0.028185948729515076,-0.005671702325344086,-0.2848997712135315,0.4806031584739685,0.749343991279602,1.3536262512207031,0.7380310297012329,-0.5155414342880249,-0.29735642671585083
1749031004.2029028,-0.9413188139544886,-1.1757682126811524,-1.606447696685791,4.2664806085773925,-1.054521385823385,3.2204301357269287,0.16705280542373657,0.1259404569864273,0.027319546788930893,0.030672630295157433,-0.004877652507275343,-0.28733277320861816,0.46157336235046387,0.7065805196762085,1.3376153707504272,0.71489417552948,-0.508415699005127,-0.2687367796897888
1749031004.202939,-0.9409740606891077,-1.175495670442917,-1.6063874959945679,4.266536398524902,-1.05450946489443,3.2198097705841064,0.16860947012901306,0.1269369274377823,0.027940845116972923,0.03081582300364971,-0.0037530167028307915,-0.28689348697662354,0.48268622159957886,0.7115546464920044,1.335540771484375,0.7056328654289246,-0.5104199647903442,-0.2864344120025635
1749031004.2029767,-0.9406264464007776,-1.1752361220172425,-1.6063095331192017,4.266611738795898,-1.0545056501971644,3.2192819118499756,0.17156197130680084,0.12505120038986206,0.02825513668358326,0.030026275664567947,-0.0031272396445274353,-0.28544244170188904,0.427645206451416,0.7219493389129639,1.3240894079208374,0.7071731686592102,-0.5374969244003296,-0.2855791449546814
1749031004.2030141,-0.9402745405780237,-1.1749773484519501,-1.6062730550765991,4.266659422511719,-1.0545366446124476,3.2186570167541504,0.17354744672775269,0.12751546502113342,0.02789965644478798,0.028663933277130127,-0.0037552702706307173,-0.2883983254432678,0.43219202756881714,0.69185471534729,1.3056988716125488,0.703201413154602,-0.5280485153198242,-0.2920849919319153
1749031004.2030516,-0.9399278799640101,-1.1747321051410218,-1.6062445640563965,4.266664190883301,-1.0545294920550745,3.2181105613708496,0.17509150505065918,0.12448915094137192,0.027805550023913383,0.026372650638222694,-0.00446748360991478,-0.28902101516723633,0.4587193727493286,0.7658283114433289,1.3152892589569092,0.7374706864356995,-0.511681079864502,-0.312514066696167
1749031004.2031586,-0.9396308104144495,-1.1744568806937714,-1.6061654090881348,4.266739054317139,-1.0545256773578089,3.2175400257110596,0.17636075615882874,0.1252056211233139,0.02641236037015915,0.025476347655057907,-0.0047866180539131165,-0.29101496934890747,0.3408967852592468,0.6619430780410767,1.2758457660675049,0.716556966304779,-0.4933864176273346,-0.25788047909736633
1749031004.2051444,-0.9392793814288538,-1.1742272239974518,-1.6061052083969116,4.266833468074463,-1.0545604864703577,3.2169435024261475,0.17388765513896942,0.12259232252836227,0.023929469287395477,0.025150740519165993,-0.004395629279315472,-0.29363495111465454,0.4965702295303345,0.7904375195503235,1.3555420637130737,0.7558865547180176,-0.4936452805995941,-0.2973889112472534
1749031004.2464988,-0.9389036337481897,-1.17396433771167,-1.6060576438903809,4.266896410579346,-1.0545256773578089,3.2163443565368652,0.17683225870132446,0.12556706368923187,0.025044729933142662,0.02678525820374489,-0.003948415629565716,-0.2936580777168274,0.46307623386383057,0.7689882516860962,1.3608818054199219,0.7435579895973206,-0.5082125663757324,-0.30685025453567505
1749031004.2465534,-0.9385564962970179,-1.1737395983985444,-1.6060092449188232,4.2669336038776855,-1.054537598286764,3.2157232761383057,0.17859207093715668,0.12762267887592316,0.028228426352143288,0.0286746583878994,-0.003395931562408805,-0.2956407964229584,0.5034129619598389,0.7655105590820312,1.3399461507797241,0.7472478151321411,-0.5251142978668213,-0.30134084820747375
1749031004.2465966,-0.9382131735431116,-1.1734605890563508,-1.6059772968292236,4.266996546382568,-1.0545843283282679,3.2151718139648438,0.1774619072675705,0.13048113882541656,0.03021719865500927,0.03023599646985531,-0.0035240340512245893,-0.30021175742149353,0.5240039825439453,0.7395052909851074,1.308035969734192,0.7357019782066345,-0.5337667465209961,-0.3090737462043762
1749031004.2466419,-0.9378498236285608,-1.1732230943492432,-1.605905294418335,4.267056151027344,-1.0545619169818323,3.2145564556121826,0.17889294028282166,0.13068625330924988,0.028604960069060326,0.031977955251932144,-0.004135032184422016,-0.30434200167655945,0.4896742105484009,0.7008579969406128,1.2957837581634521,0.7149271965026855,-0.5159651041030884,-0.27329567074775696
1749031004.2467008,-0.9374659697162073,-1.172932581310608,-1.6058546304702759,4.267096682185791,-1.0545809904681605,3.213904857635498,0.18155130743980408,0.12975771725177765,0.027459120377898216,0.03151314705610275,-0.004668487701565027,-0.3051539957523346,0.4781150221824646,0.7161120772361755,1.3268049955368042,0.7223153710365295,-0.5255072116851807,-0.2709912061691284
1749031004.246744,-0.9371097723590296,-1.1727103155902405,-1.6057753562927246,4.26718728124585,-1.0545695463763636,3.2133212089538574,0.18593277037143707,0.13217070698738098,0.028062785044312477,0.030404921621084213,-0.004385854117572308,-0.3042185604572296,0.46265465021133423,0.7381234765052795,1.3441905975341797,0.726485550403595,-0.5147653818130493,-0.29328805208206177
1749031004.246798,-0.9367192427264612,-1.1724304121783753,-1.6057342290878296,4.267246885890625,-1.054558579121725,3.212684392929077,0.18609769642353058,0.12985390424728394,0.02825651690363884,0.030505945906043053,-0.0040428489446640015,-0.3048785924911499,0.48283064365386963,0.7834519743919373,1.2983514070510864,0.7255749106407166,-0.5327721834182739,-0.2944393754005432
1749031004.2468405,-0.9363635222064417,-1.1721397799304505,-1.6056938171386719,4.267283602351807,-1.054589573537008,3.2121002674102783,0.18658089637756348,0.13048328459262848,0.027111070230603218,0.03033943474292755,-0.003895809641107917,-0.3030453026294708,0.4596618711948395,0.7219164371490479,1.3131229877471924,0.7239614129066467,-0.5111599564552307,-0.2995597720146179
1749031004.2468784,-0.936014477406637,-1.1718793970397492,-1.6056110858917236,4.267347021693848,-1.0545733610736292,3.2114436626434326,0.18604378402233124,0.13032375276088715,0.026036201044917107,0.03018462285399437,-0.003900511423125863,-0.306083083152771,0.438373327255249,0.7721043825149536,1.3447836637496948,0.7339234948158264,-0.5065382719039917,-0.2907847762107849
1749031004.2469165,-0.935643498097555,-1.1716151696494599,-1.6055818796157837,4.267413778895996,-1.0545943419085901,3.2108218669891357,0.18565049767494202,0.13130372762680054,0.025885676965117455,0.02962188981473446,-0.003827672218903899,-0.30896687507629395,0.46075934171676636,0.7759137749671936,1.3440463542938232,0.7333381175994873,-0.5230227112770081,-0.29471176862716675
1749031004.2469547,-0.935279671345846,-1.1713389617255707,-1.6055152416229248,4.267458124751709,-1.0545905272113245,3.210236072540283,0.1867699772119522,0.1339796483516693,0.02653355710208416,0.030459757894277573,-0.00388087029568851,-0.31382331252098083,0.49248823523521423,0.7831291556358337,1.3440853357315063,0.7462702989578247,-0.5194377899169922,-0.2999017536640167
1749031004.246992,-0.9348729292498987,-1.171107069855072,-1.6054669618606567,4.267510576839111,-1.054629151021139,3.2096409797668457,0.1894446462392807,0.1327212154865265,0.027174316346645355,0.03155776113271713,-0.003937849774956703,-0.31299471855163574,0.46868041157722473,0.7845768928527832,1.3354215621948242,0.7370479702949524,-0.4954492449760437,-0.28908035159111023
1749031004.2470298,-0.9345234076129358,-1.170799271469452,-1.6054235696792603,4.267616434688232,-1.0546253363238733,3.2090001106262207,0.19014476239681244,0.13772530853748322,0.0267558041960001,0.03370043262839317,-0.004192856140434742,-0.31627678871154785,0.46770042181015015,0.6932976245880127,1.3455610275268555,0.7339916825294495,-0.5219551920890808,-0.2824755311012268
1749031004.2470672,-0.9341524283038538,-1.1705076855472107,-1.6053906679153442,4.267668886775635,-1.0546601454364222,3.208350658416748,0.19066494703292847,0.13675709068775177,0.026477402076125145,0.03458210825920105,-0.004104917868971825,-0.31984665989875793,0.46295228600502014,0.7331661581993103,1.341976284980774,0.7121467590332031,-0.5397753119468689,-0.29693785309791565
1749031004.2471042,-0.9337409178363245,-1.1702752274325867,-1.6053192615509033,4.267756147975586,-1.0546372572528284,3.2077043056488037,0.1929604709148407,0.13867945969104767,0.027338547632098198,0.035064518451690674,-0.004415029194205999,-0.32463401556015015,0.4366472363471985,0.7169286608695984,1.3338470458984375,0.7273088693618774,-0.5190691947937012,-0.2842618525028229
1749031004.247141,-0.9333179632769983,-1.1700027746013184,-1.6052436828613281,4.267815752620361,-1.0546372572528284,3.207085609436035,0.1925981342792511,0.13961778581142426,0.028080539777874947,0.03520362824201584,-0.004991075024008751,-0.32670652866363525,0.4232701361179352,0.6839486360549927,1.3424984216690063,0.7219903469085693,-0.5229888558387756,-0.2581444978713989
1749031004.2471786,-0.932953182850973,-1.1696913701346894,-1.6052026748657227,4.267866774196289,-1.0546539465533655,3.206381320953369,0.1942450851202011,0.13883519172668457,0.02789114974439144,0.034511227160692215,-0.005051894579082727,-0.3270355463027954,0.4349602460861206,0.7193893194198608,1.3339903354644775,0.7356378436088562,-0.5073346495628357,-0.26017943024635315
1749031004.2472153,-0.9325216452227991,-1.1693914097598572,-1.605126976966858,4.267934961909912,-1.0547011534320276,3.205734968185425,0.1969444751739502,0.1377994418144226,0.027508093044161797,0.03457669913768768,-0.005353194661438465,-0.3269977271556854,0.45106691122055054,0.7453209757804871,1.3358852863311768,0.7027068138122559,-0.5058867335319519,-0.2574411928653717
1749031004.247252,-0.9321258703814905,-1.1691464346698304,-1.6050794124603271,4.268030329341553,-1.054657284413473,3.2051172256469727,0.1962747871875763,0.13758091628551483,0.029002057388424873,0.03405327722430229,-0.005227695684880018,-0.32109761238098145,0.4917842447757721,0.7910723090171814,1.3358532190322876,0.7287930846214294,-0.5230653882026672,-0.2953154444694519
1749031004.2472901,-0.9317491690265101,-1.1688977938941498,-1.6050037145614624,4.268074198360107,-1.0546887556659144,3.2044126987457275,0.1982572227716446,0.13943666219711304,0.030520198866724968,0.03359587490558624,-0.004917146172374487,-0.32275715470314026,0.4533843696117401,0.782314658164978,1.3240437507629395,0.7216202616691589,-0.5251739621162415,-0.30533933639526367
1749031004.247424,-0.9313572088824671,-1.168590472345688,-1.604944109916687,4.268140478725098,-1.0547331015216272,3.203801393508911,0.19751399755477905,0.13970947265625,0.02981555089354515,0.03518087416887283,-0.006005896255373955,-0.32654428482055664,0.4181278944015503,0.7459235191345215,1.3169395923614502,0.7266684770584106,-0.49545449018478394,-0.2887607514858246
1749031004.2491333,-0.9309738318072718,-1.1683212679675599,-1.6048810482025146,4.268208666438721,-1.0547130743609827,3.2031521797180176,0.19615301489830017,0.13999128341674805,0.02716381661593914,0.035309452563524246,-0.0061363703571259975,-0.3310529589653015,0.4538152813911438,0.7419374585151672,1.336885929107666,0.7286667823791504,-0.5205288529396057,-0.29365646839141846
1749031004.2943618,-0.9305461088763636,-1.1680182081511994,-1.604836344718933,4.268288775081299,-1.0547402540790003,3.202462911605835,0.1958569437265396,0.14479276537895203,0.027297265827655792,0.03592662885785103,-0.005674485117197037,-0.3302276134490967,0.47830939292907715,0.7225901484489441,1.3676577806472778,0.7214871644973755,-0.5120722055435181,-0.2936866879463196
1749031004.29441,-0.9301818052874964,-1.1677031976035614,-1.6047887802124023,4.268364115352295,-1.0547140280352991,3.201815366744995,0.1966012865304947,0.14378102123737335,0.029102301225066185,0.03623448684811592,-0.005030161701142788,-0.331030935049057,0.4743794798851013,0.7396404147148132,1.3343242406845093,0.7126209139823914,-0.4963388442993164,-0.30255207419395447
1749031004.2944503,-0.9297903219806116,-1.1675007504275818,-1.6047167778015137,4.268419428462646,-1.0547688643084925,3.2011656761169434,0.19898390769958496,0.14411476254463196,0.02899138256907463,0.03602921590209007,-0.004229441285133362,-0.33475351333618164,0.4563800096511841,0.7364586591720581,1.3383818864822388,0.7110527753829956,-0.5182934403419495,-0.32231083512306213
1749031004.294491,-0.929328743611471,-1.1671463710120697,-1.6046684980392456,4.268490954036377,-1.054772679005758,3.200437307357788,0.20221708714962006,0.1477038860321045,0.02845967561006546,0.03620524704456329,-0.003905810881406069,-0.34092313051223755,0.4512467384338379,0.7014479637145996,1.3515722751617432,0.7091853022575378,-0.5110394954681396,-0.27639126777648926
1749031004.2945292,-0.9289358297931116,-1.166883872156479,-1.6046245098114014,4.26853529989209,-1.0547688643084925,3.199735164642334,0.20243693888187408,0.14576801657676697,0.029664047062397003,0.03583551198244095,-0.004819089081138372,-0.3439173102378845,0.43536999821662903,0.7756242156028748,1.3517675399780273,0.7078500986099243,-0.4965020418167114,-0.2541320323944092
1749031004.2945669,-0.9285615126239222,-1.166604445581772,-1.6045715808868408,4.268626375789307,-1.0547927061664026,3.199016571044922,0.2010699212551117,0.14533530175685883,0.030222147703170776,0.03553100675344467,-0.005627966020256281,-0.34163281321525574,0.44907668232917786,0.7561051249504089,1.3463366031646729,0.7193167209625244,-0.4852065443992615,-0.2418125420808792
1749031004.2946048,-0.9281395117389124,-1.1663284760764618,-1.604458212852478,4.268709345454834,-1.0548117796527308,3.1983237266540527,0.200588658452034,0.14640195667743683,0.029352109879255295,0.03607366234064102,-0.005910249426960945,-0.33675819635391235,0.4684891998767853,0.743597149848938,1.3521006107330322,0.7107479572296143,-0.48896557092666626,-0.25040528178215027
1749031004.2946486,-0.927716080342428,-1.165978656416275,-1.604445219039917,4.268749876613281,-1.054800812398092,3.1976635456085205,0.20138190686702728,0.14674173295497894,0.028740504756569862,0.03616616874933243,-0.005143074318766594,-0.3361172378063202,0.463951051235199,0.7611167430877686,1.3814222812652588,0.727594256401062,-0.4849039316177368,-0.2919519543647766
1749031004.2946854,-0.927716080342428,-1.165978656416275,-1.604445219039917,4.268749876613281,-1.054800812398092,3.1976635456085205,0.20138190686702728,0.14674173295497894,0.028740504756569862,0.03616616874933243,-0.005143074318766594,-0.3361172378063202,0.463951051235199,0.7611167430877686,1.3814222812652588,0.727594256401062,-0.4849039316177368,-0.2919519543647766
1749031004.2947233,-0.9268758932696741,-1.1654178363135834,-1.6043410301208496,4.268967314357422,-1.0547855536090296,3.1963050365448,0.20582398772239685,0.15005873143672943,0.030246054753661156,0.03799093887209892,-0.003186951857060194,-0.3366314768791199,0.4540235102176666,0.7102141976356506,1.350610613822937,0.7004435062408447,-0.49823033809661865,-0.3232758641242981
1749031004.2947602,-0.9264691511737269,-1.1651148062995453,-1.6042463779449463,4.26899163305249,-1.0548165480243128,3.1956238746643066,0.20693601667881012,0.14977024495601654,0.029953470453619957,0.0380881130695343,-0.0026608831249177456,-0.33634281158447266,0.42796024680137634,0.7401846051216125,1.3637311458587646,0.6912407875061035,-0.5072916746139526,-0.3217119574546814
1749031004.294797,-0.9260385672198694,-1.1648395222476502,-1.6042089462280273,4.269066973323486,-1.0548446814166468,3.1949777603149414,0.20597055554389954,0.15036354959011078,0.030347436666488647,0.03777023032307625,-0.003017198061570525,-0.33963602781295776,0.4300147294998169,0.7476760745048523,1.3577221632003784,0.7045608162879944,-0.5114532709121704,-0.3257283866405487
1749031004.2948341,-0.9255946318255823,-1.1645395916751404,-1.604129672050476,4.269134684199951,-1.0548127333270472,3.1942732334136963,0.2080877274274826,0.14992229640483856,0.030677003785967827,0.03742275759577751,-0.003899180330336094,-0.34205397963523865,0.4947783946990967,0.8337182998657227,1.3990763425827026,0.7010711431503296,-0.5108107924461365,-0.4057861566543579
1749031004.294871,-0.9252036253558558,-1.1642245215228577,-1.604082703590393,4.269210024470947,-1.054828945790426,3.1936049461364746,0.20946726202964783,0.15467627346515656,0.03231203556060791,0.03693126142024994,-0.00468185730278492,-0.353800892829895,0.4610835909843445,0.7464287281036377,1.3734402656555176,0.7124066352844238,-0.5178198218345642,-0.3628784120082855
1749031004.2949128,-0.9248016516314905,-1.1639120739749451,-1.6040105819702148,4.269308729762695,-1.0548718611346644,3.1928367614746094,0.20867830514907837,0.15565216541290283,0.03189574554562569,0.0375354140996933,-0.005012894980609417,-0.36142784357070923,0.4435717463493347,0.7588789463043213,1.354862093925476,0.6975948214530945,-0.49763262271881104,-0.26187315583229065
1749031004.294951,-0.9243229071246546,-1.1636242431453248,-1.6039628982543945,4.2694031435200195,-1.0548093954669397,3.192122220993042,0.20879025757312775,0.15166421234607697,0.02963094413280487,0.03699629008769989,-0.004743762314319611,-0.36206817626953125,0.43901553750038147,0.7552146315574646,1.3736861944198608,0.6834233403205872,-0.49495214223861694,-0.2535002827644348
1749031004.2949884,-0.9239233175860804,-1.1632625323585053,-1.6039063930511475,4.269436522121094,-1.0548647085772913,3.191366195678711,0.21181516349315643,0.15108533203601837,0.02819325216114521,0.03812641650438309,-0.004024541471153498,-0.35579267144203186,0.43770432472229004,0.7616955637931824,1.4049040079116821,0.6956160664558411,-0.5017653703689575,-0.2919856607913971
1749031004.2950256,-0.9234722296344202,-1.162982092504837,-1.6038426160812378,4.269523306483887,-1.0548718611346644,3.1906826496124268,0.21340639889240265,0.15285083651542664,0.029610643163323402,0.038671232759952545,-0.003517265897244215,-0.35374850034713745,0.4150893986225128,0.7390821576118469,1.4058952331542969,0.6811249256134033,-0.5190901160240173,-0.33882665634155273
1749031004.2950635,-0.9230607191668909,-1.1626929503730317,-1.6037741899490356,4.269610567683838,-1.0548766295062464,3.189929246902466,0.21354934573173523,0.15694798529148102,0.03045983426272869,0.03751622512936592,-0.003951655235141516,-0.3555239737033844,0.43606263399124146,0.7638369798660278,1.3840124607086182,0.7067274451255798,-0.4951571226119995,-0.3582853674888611
1749031004.2951012,-0.922652546559469,-1.1623733800700684,-1.6037111282348633,4.26966301977124,-1.0549152533160608,3.1892590522766113,0.21402303874492645,0.15426212549209595,0.030323373153805733,0.037518344819545746,-0.0055348072201013565,-0.3578930199146271,0.4591873288154602,0.7755553722381592,1.4058778285980225,0.6970231533050537,-0.4893872141838074,-0.33505454659461975
