nimar13/UR3e_dataset_trayectorias/data/trayectorias_completas_UR3e_QUINTIC_FUNC/trayectoria_165.csv
Punto,shoulder_pan_joint,shoulder_lift_joint,elbow_joint,wrist_1_joint,wrist_2_joint,wrist_3_joint,Posicion_X,Posicion_Y,Posicion_Z,Roll,Pitch,Yaw
0,4.252575231062241,6.2127647105556205,-1.9603383098862905,0.423656078670126,1.4862413297848365,2.2978798123059097,0.021102813107193957,-0.26835982589755636,0.46523377808759486,0.29948777115713143,-1.4794683162029443,-0.039415184170015216
1,4.252553674175133,6.212762780470148,-1.9603312559523822,0.42367309855100854,1.4862248178138604,2.297880491486814,0.021097023462362814,-0.2683636921755135,0.4652327897653733,0.29978451770090797,-1.479462398000962,-0.039732151094263805
2,4.2524045155741295,6.212749425626863,-1.9602824476570044,0.42379086423809814,1.486110566508541,2.2978851909442546,0.02105695934628751,-0.26839043960963704,0.4652259491591875,0.3018367456615966,-1.4794212294020577,-0.04192427995406102
3,4.252004905690332,6.212713646748965,-1.9601516856552632,0.42410636956073056,1.4858044765443355,2.2978977812315664,0.0209495909533044,-0.2684620596523784,0.46520760439217984,0.3073257154822789,-1.479309054054235,-0.04778797120382506
4,4.251237114912925,6.212644902972624,-1.959900445976159,0.42471256597068346,1.4852163703410046,2.2979219715904016,0.02074316438257552,-0.26859950799298293,0.46517228353010914,0.31783373651064295,-1.4790858698859526,-0.05901561121190178
5,4.249988462969063,6.2125331055240425,-1.959491856913982,0.42569841829910865,1.4842599379695887,2.297961312175716,0.020407078098710393,-0.2688225921404832,0.4651146333681908,0.3348112229042957,-1.4787015681446465,-0.07716241834175062
6,4.248151248303758,6.212368611396527,-1.9588906759197067,0.4271489605134634,1.4828526830593827,2.2980191962807592,0.01991172933607022,-0.2691498201000601,0.46502934104855115,0.3595252315700243,-1.4780887009753219,-0.10359468815697247
7,4.245622677459768,6.212142217027541,-1.958063266492386,0.4291453514744428,1.4809158687049113,2.2980988625620644,0.01922833784559933,-0.2695982152308217,0.4649110419632462,0.3929831283828367,-1.4771547586370992,-0.13941309893749884
8,4.242304794457488,6.211845151975772,-1.956977575070546,0.4317649306929111,1.4783744633729041,2.2982033972644333,0.018328754784170523,-0.2701831011727814,0.46475421732508837,0.43582675244451696,-1.4757751973534439,-0.1853464610947924
9,4.2381044101748335,6.2114690725981925,-1.9556031079235805,0.43508127408683395,1.47515708680927,2.2983357364459303,0.017185265024210812,-0.27091785958167275,0.46455308474298157,0.48820152876026784,-1.473788889042964,-0.24162037356477475
10,4.232933031727135,6.211006055727125,-1.953910908043146,0.4391642497382099,1.4711959559460739,2.298498668202866,0.015770391691036265,-0.27181366239183,0.46430148512075087,0.5496234800135011,-1.4709979665603319,-0.3078237493931584
11,4.226706791847022,6.210448592347301,-1.9518735320345557,0.4440800736500025,1.4664268308085093,2.2986948348947895,0.014056712302551658,-0.2728791795143602,0.4639927692118621,0.6188910202282875,-1.4671738158474412,-0.3828201036077003
12,4.219346378264314,6.209789581272925,-1.9494650270081737,0.44989136550307196,1.4607889604218767,2.298926735369476,0.01201669648192318,-0.2741202623402431,0.46361968721165564,0.6941030448651659,-1.4620697779437135,-0.4647651269072368
13,4.210776963085909,6.209022322824735,-1.9466609074708108,0.4566572044131072,1.4542250287185554,2.2991967271879146,0.009622575829715733,-0.2755396032211096,0.46317428485876766,0.7728284757738041,-1.4554389399383703,-0.5512757111368557
14,4.200928132175671,6.208140512507071,-1.9434381322171177,0.4644331846875573,1.446681100444981,2.2995070288492987,0.006846257163444721,-0.2771363713049016,0.4626478096523693,0.8524161275177666,-1.447053075008733,-0.6397392990325639
15,4.189733814534317,6.207138234684928,-1.9397750812209809,0.4732714715825637,1.4381065670686197,2.299859722016014,0.003659290934035335,-0.2789058257645138,0.4620306309736149,0.9303633591212788,-1.4367178514345538,-0.72768202651968
16,4.17713221167931,6.2060099562610285,-1.9356515325269155,0.483220857059892,1.428454092684943,2.300256753738627,3.2907168312517124e-05,-0.2808389086234001,0.46131217812701136,1.004628052483246,-1.424280801936495,-0.8130802011459188
17,4.163065727024743,6.204750520352877,-1.9310486391414619,0.49432681554386343,1.417679559924403,2.3006999386808733,-0.004061868298879064,-0.282921821092268,0.46048090058466545,1.073799084948193,-1.4096314971047237,-0.8945302844107645
18,4.147480895261232,6.203355139969826,-1.9259489059245782,0.5066315596782871,1.4057420158594085,2.301190961344648,-0.00865400433848362,-0.28513558961190855,0.45952425501267674,1.1371105275217752,-1.3926960366376169,-0.9712626075311629
19,4.1303283117357985,6.2018193916901385,-1.9203361664810366,0.5201740960833919,1.3926036179112986,2.3017313782949933,-0.013772148951764788,-0.2874556306569312,0.45842872396735207,1.1943435585776487,-1.3734290214368663,-1.0430428061867847
20,4.111562561831764,6.200139209338049,-1.9141955600518166,0.5349902811127576,1.3782295797573187,2.3023226203850866,-0.019444195374928724,-0.2898513267760368,0.45717987144557504,1.2456793702512867,-1.3518056567994772,-1.1100242446742117
21,4.091142150348637,6.198310877660829,-1.9075135084055002,0.5511128766102477,1.3625881172375958,2.3029659949812307,-0.025696718885958196,-0.2922856302738523,0.45576244072748,1.2915533394048822,-1.3278154576517442,-1.1726016920591862
22,4.069029430881997,6.1963310260058435,-1.9002776927296663,0.5685716056669405,1.3456503942621127,2.3036626881878415,-0.03255427543225972,-0.29471471527869036,0.4541605001217397,1.3325368762097816,-1.3014579757387137,-1.2312926515353122
23,4.045190535203392,6.19419662199762,-1.8924770305222856,0.5873932083780611,1.327390468717684,2.304413767072438,-0.04003855634793686,-0.2970877035334275,0.45235764226804015,1.3692538600342075,-1.2727403536095856,-1.286653238347864
24,4.019595302640215,6.191904965214908,-1.8841016524831145,0.6076014975999137,1.3077852383749307,2.3052201818906286,-0.04816739784412574,-0.2993464938662185,0.45033724251435336,1.4023278422950471,-1.2416762828701895,-1.339224769256609
25,3.992217209455605,6.189453680867739,-1.8751428794050897,0.6292174147068128,1.2868143867952557,2.3060827683111027,-0.056953649827344535,-0.30142572963582376,0.4480827815091478,1.4323524600088782,-1.2082859432715038,-1.3895034884764081
26,3.9630332982283276,6.1868407134744965,-1.865593199065724,0.6522590853480152,1.2644603292378187,2.307002249640618,-0.06640391607803196,-0.30325294210525167,0.4455782364671769,1.4598775985500723,-1.1725965894510744,-1.4379259480850095
27,3.9320241072326656,6.184064320538967,-1.855446243118499,0.6767418752046521,1.240708158566511,2.307979239048989,-0.07651718697790788,-0.304748910187349,0.44280854451671003,1.4854053971630332,-1.134643557143909,-1.4848641147954416
28,3.8991735998183077,6.181123066227413,-1.8446967639842609,0.702678445746661,1.215545591156931,2.3090142417940758,-0.08728339677147558,-0.30582827775068305,0.43976014005243624,1.5093919432498575,-1.0944715491909727,-1.5306260272092278
29,3.864469093790238,6.178015815045632,-1.8333406117426143,0.7300788099897169,1.1889629128033596,2.310107657446774,-0.09868194959082195,-0.30640046802795534,0.4364215660443497,1.5322519547481603,-1.052136126787545,-1.5754592819916344
30,3.8279011907886225,6.174741725516014,-1.821374711023318,0.7589503882521644,1.160952924625735,2.311259782116002,-0.11068027177412602,-0.3063709299492206,0.4327841567425804,1.554364800521816,-1.0077053761123373,-1.6195556809333775
31,3.7894637056686986,6.171300243854613,-1.8087970378976777,0.7892980639119505,1.131510888976627,2.3124708106736906,-0.12323246174084525,-0.30564274275710734,0.4288427861430808,1.576080908550802,-0.9612617502206169,-1.6630560763926214
32,3.7491535958806645,6.167691097648201,-1.7956065967699422,0.8211242391635544,1.1006344753482138,2.313740838979772,-0.13627812195734934,-0.3041185924598203,0.42459667293561376,1.5977280509416905,-0.9129041058076235,-1.7060549015158424
33,3.7069708908495675,6.163914289531335,-1.781803397268697,0.8544288907749213,1.0683237062792554,2.315069866107167,-0.14974146916133996,-0.3017031161167646,0.4200502284721855,1.6196172554111465,-0.8627499677108721,-1.7486041477317835
34,3.6629186213551894,6.15997009086342,-1.7673884311382595,0.8892096258443938,1.03458090326207,2.316457796566776,-0.1635308275665529,-0.2983055874802976,0.41521392963911735,1.6420482363108417,-0.8109380629726358,-1.7907167192172364
35,3.6170027489119407,6.155859035405768,-1.752363649130073,0.9254617375576426,0.9994106326495085,2.317904442532465,-0.17753861356952733,-0.293842890373207,0.4101051935042257,1.6653143058487405,-0.7576311718441169,-1.832369197233012
36,3.5692320951487444,6.151581912998663,-1.7367319378941009,0.9631782609445994,0.9628196515619298,2.319409526066057,-0.1916419177169671,-0.2882426951090255,0.4047492254092224,1.6897067436630653,-0.7030193450884081,-1.873504116896008
37,3.519618271188927,6.147139763238422,-1.7204970968702225,1.0023500286363891,0.9248168537941757,2.32097268134232,-0.20570377855099536,-0.2814467196176308,0.39917980700961164,1.7155185848941032,-0.6473235340195768,-1.9140319158295538
38,3.468175607030105,6.142533869154461,-1.7036638151796268,1.0429657266222594,0.885413215722546,2.3225934568739546,-0.21957522179953037,-0.2734139227665212,0.39343998590951346,1.7430477403503932,-0.5907996693071523,-1.9538327728354257
39,3.414921080924076,6.13776575088635,-1.6862376485162072,1.0850119500065163,0.8446217422117744,2.324271317736583,-0.2330981060070988,-0.26412344542740607,0.38758262432980184,1.7725992893844795,-0.5337432025005149,-1.9927586260589503
40,3.3598742487567064,6.132837159360885,-1.6682249960379556,1.1284732587654522,0.8024574125220025,2.3260056477937394,-0.2461087715841838,-0.2535770885529032,0.3816707610621736,1.8044866862643831,-0.47649408432550083,-2.030635752051333
41,3.303057173427818,6.127750069969142,-1.6496330772583572,1.1733322335042802,0.7589371262157557,2.3277957519218573,-0.25844243484340523,-0.24180110084701406,0.37577773920816704,1.8390314938444023,-0.41944208757112084,-2.067268404324042
42,3.244494354231078,6.122506676243545,-1.6304699089377857,1.219569531214065,0.7140796490649169,2.329640858235258,-0.26993820358957793,-0.22884704575296896,0.36998705230097084,1.8765611077435225,-0.36303227891372725,-2.102444151366207
43,3.184212656233889,6.117109383534925,-1.610744281974897,1.2671639410286548,0.6679055589577046,2.3315401203111406,-0.2804445194037491,-0.21479153255765351,0.3643918637654941,1.917403773189069,-0.30777029081181745,-2.1359417079116882
44,3.1222412396572743,6.111560802689583,-1.5904657382980234,1.316092439981614,0.620437191805644,2.3334926194145695,-0.28982475865280904,-0.19973463295148622,0.3590941596498808,1.9618800565223786,-0.25422683011514896,-2.167542189020999
45,3.058611489255771,6.105863743726357,-1.5696445477565706,1.3663302487631526,0.5716985874505467,2.3354973667234638,-0.29796265574947484,-0.18379686475780754,0.35420350244067644,2.010289874784658,-0.20304057947080517,-2.1970447742411463
46,2.9933569436973126,6.100021209513677,-1.548291685012409,1.4178508874770608,0.5217154355714815,2.337553305553586,-0.3047671558668269,-0.16711470935957684,0.349835364717606,2.0628943106964392,-0.15491831345238938,-2.2242876484844167
47,2.9265132249431227,6.094036389446634,-1.52641880643127,1.4706262313976393,0.4705150215917515,2.339659313583531,-0.3101762685927679,-0.14983473685240106,0.3461090354207841,2.1198918900098023,-0.11063070943005862,-2.24917464485582
48,2.858117967627601,6.087912653124036,-1.5040382269741404,1.5246265667266319,0.41812617258587004,2.3418142050797135,-0.314159487426163,-0.13210653856258153,0.3431451084123628,2.181389936494103,-0.07100208195686256,-2.2717070907813937
49,2.788210748438212,6.081653544025476,-1.481162897088657,1.579820646350157,0.36457920318653403,2.344016733121359,-0.3167183702818394,-0.11407480261534564,0.3410625824190303,2.24737315832776,-0.036892272622182046,-2.292018842529375
50,2.716833015495374,6.075262773188394,-1.4578063796005,1.6361757455956394,0.30990586149159993,2.3462655918254907,-0.31788494907740966,-0.09587100399998885,0.3399756227117248,2.3176736849319917,-0.00916940020261887,-2.310410460533281
51,2.6440280177323494,6.068744212885136,-1.4339828266047907,1.693657717988741,0.2541392749710596,2.3485594185719183,-0.3177177547210514,-0.07760530271694499,0.339990057150205,2.391948936456165,0.01132668238134492,-2.3273763612823637
52,2.569840734275128,6.062101890300017,-1.4097069563574816,1.7522310510102956,0.1973138963740142,2.350896796228228,-0.3162954059178705,-0.05935933702802676,0.3411997014098128,2.469675089838767,0.02382852106126191,-2.343617465597872
53,2.494317803822322,6.055339981206388,-1.3849940301667543,1.8118589218532375,0.1394654496356491,2.3532762553747704,-0.31370790963134143,-0.04118064806731214,0.3436826290500548,2.550163348947981,0.0276887848347539,-2.360032512274536
54,2.41750745402505,6.048462803643694,-1.3598598292844126,1.8725032531795356,0.08063087578421047,2.3556962765296494,-0.3100460457626444,-0.023079462894481165,0.3474975201873613,2.632602880440235,0.02242553275056956,-2.377684683006716
55,2.339459430866828,6.041474811594536,-1.3343206317972782,1.9341247688771237,0.02084827884797913,2.358155292373711,-0.3053894412992989,-0.00502848451399587,0.3526802364555862,2.7161284167477326,0.007758107737418209,-2.397746230892239
56,2.2602249280434545,6.034380588661737,-1.3083931895185832,1.996683049816834,-0.03984312823775471,2.360651689975531,-0.29979415801456116,0.013033816287315897,0.35924077827953277,2.7999040016043812,-0.01637220368534314,-2.4214305967473058
57,2.1798565163429044,6.027184841745401,-1.2820947048793676,2.0601365896093267,-0.10140307772371249,2.3631838130164065,-0.29328079808930974,0.031196139919493625,0.36716078200071395,2.883209986084102,-0.04979961045215683,-2.449926247107452
58,2.0984080730252144,6.019892394719977,-1.2554428078198707,2.1244428503620236,-0.16379030113965842,2.365749964015341,-0.28582424856076855,0.04956355213028251,0.37639170809316513,2.9655203972745574,-0.09214817232049353,-2.484347005552329
59,2.0159347112023696,6.012508182111325,-1.228455532680928,2.1895583184360397,-0.22696258338742026,2.3683484065540363,-0.277346215391888,0.06824329520654222,0.38685385697106245,3.046562367131131,-0.1428581904279216,-2.5257098820134063
60,1.9324927092181956,6.005037242773769,-1.2011512950953642,2.255438560203114,-0.2908768168339153,2.370977367501879,-0.26771162378197844,0.08732793491543513,0.39843632556235703,3.126356453755105,-0.20121754451502824,-2.5749454108294345
61,1.848139440028246,5.997484713567168,-1.1735488688793896,2.3220382778025437,-0.3554890554041743,2.3736350392409307,-0.2567297741719662,0.1068769047009269,0.41099798628041395,-3.0779416563895596,-0.26639048280222744,-2.6329401800073153
62,1.7629333005796894,5.989855823033978,-1.1456673629239915,2.389311364898113,-0.42075456867436767,2.376319581890916,-0.24416084526942122,0.1268978006450355,0.4243695312179036,-2.999275576859708,-0.33743722319703856,-2.700608626712344
63,1.6769336411912015,5.982155885076309,-1.1175261980863336,2.457210962435026,-0.4866278959648298,2.379029125534212,-0.22972794082165132,0.14732898499836766,0.43835657983397147,-2.919765449642328,-0.41331885558223525,-2.7789917066220235
64,1.590200694932848,5.97439029263299,-1.089145084081145,2.5256895143968396,-0.5530629004330843,2.3817617724408358,-0.21313441289627322,0.16802514022672763,0.4527438001517468,-2.8379086834668112,-0.49288250196031885,-2.8693826420182997
65,1.5027955070059793,5.966564511356636,-1.060543996372119,2.5946988235623945,-0.6200128231668685,2.3845155992934344,-0.19408569935219086,0.1887473559054202,0.4672999440055203,-2.7516725892945324,-0.5748208632376488,-2.973482239531086
66,1.4147798641231142,5.958684073290701,-1.0317431530633059,2.6641901072627476,-0.6874303372771569,2.387288659412272,-0.1723144333768901,0.2091591166046501,0.4817836489488492,-2.6583627780437835,-0.6575980027819681,-3.0935835198115353
67,1.326216223887831,5.95075457054655,-1.0027629917905068,2.7341140531381045,-0.7552676019911897,2.390078984980222,-0.1476071684393645,0.22882919494573098,0.49594981595450705,-2.554470295071358,-0.7393303568821102,3.0504186741196118
68,1.2371676441746553,5.9427816489805165,-0.9736241466126707,2.8044208748947455,-0.8234763167454955,2.392884589267751,-0.11983076093252706,0.2472419618626993,0.5095563358304149,-2.4355777784395256,-0.8176124993490883,2.888160901651355
69,1.14769771250895,5.934771001870964,-0.9443474249032864,2.875060368061966,-0.892007775278914,2.3957034688579113,-0.08895630564375265,0.2638150433559295,0.5223709108892276,-2.2965585765983754,-0.8892940204348234,2.6980991067708873
70,1.0578704754468,5.926728363595353,-0.9149537842417779,2.945981965749006,-0.9608129197256252,2.398533605871328,-0.05507855334865211,0.2779236303256259,0.534177703910077,-2.132590865855001,-0.9502790841178824,2.47576533065665
71,0.9677503679549067,5.918659503307297,-0.8854643093048999,3.0171347944019766,-1.0298423947081714,2.401372970191188,-0.01842896519134926,0.2889301443291904,0.5447835452302764,-1.9417350597344154,-0.9955790815614027,2.219519215416601
72,0.8774021427904688,5.910570218613632,-0.8559001887581317,3.088467729560798,-1.0990466014304836,2.40421952168823,0.020619034867176297,0.2962174382306069,0.5540234415220316,-1.7289959619224826,-1.0200446817230344,1.934602333468133
73,0.7868907998810779,5.902466329251474,-0.8262826921470703,3.1599294516161267,-1.168375751770907,2.40707121244573,0.061553490359164485,0.29922332268250174,0.5617651561913725,-1.5087316102861896,-1.0200050084408618,1.6355413421365863
74,0.696281515704603,5.89435367076528,-0.7966331467888279,3.231468501566293,-1.2377799223752186,2.409925988984494,0.10373624467232088,0.2974740015000324,0.5679126702410183,-1.3004514306868156,-0.9949733012334545,1.3419416370285504
75,0.6056395726690851,5.886238088183921,-0.766972914663425,3.3030333367742264,-1.3072091087496633,2.4127817944878442,0.14642369019509655,0.2906139982203496,0.5724083818855283,-1.1196848168257216,-0.9478263283906876,1.0693519543729735
76,0.5150302884926083,5.878125429697728,-0.7373233693051822,3.3745723867243935,-1.376613279353978,2.4156365710266083,0.1887947684852136,0.2784303684019844,0.5752339604960005,-0.9727897683599339,-0.8832781611536675,0.8240691403156926
77,0.42451894558321834,5.8700215403355696,-0.7077058726941212,3.446034108779723,-1.4459424296943988,2.4184882617841086,0.22998446537723144,0.26086940110359885,0.5764098323402363,-0.8587279231731605,-0.8061563843331719,0.604909252311657
78,0.3341707204187805,5.8619322556419045,-0.6781417521473525,3.5173670439385436,-1.5151466364167105,2.4213348132811503,0.26912060232312796,0.23804458124521358,0.5759933385093302,-0.7731727843126525,-0.7205195852297631,0.40731188763657333
79,0.24405061292688668,5.853863395353849,-0.6486522772104748,3.5885198725915144,-1.5841761113992576,2.4241741776010106,0.30536147271569913,0.210235258151108,0.5740756657475903,-0.7113276536979313,-0.629512146024517,0.22615467252199445
80,0.15422337586473667,5.845820757078236,-0.6192586365489663,3.659441470278554,-1.6529812558459689,2.427004314614427,0.3379318319125342,0.17787617976801096,0.5707777051777284,-0.6690980227053531,-0.535530371844072,0.05692352186384785
81,0.06475344419903184,5.837810109968685,-0.5899819148395817,3.7300809634457748,-1.7215127143793865,2.4298231942045874,0.3661549223200767,0.1415387388055351,0.5662450391092779,-0.6433500329285202,-0.4404412163079369,-0.10402824883170338
82,-0.024295135514145194,5.829837188402651,-0.5608430696617459,3.800387785202415,-1.7897214291336923,2.432628798492116,0.3894785785008964,0.10190537268944393,0.5606422898371988,-0.6318192452261855,-0.34576453469973534,-0.2595654152731739
83,-0.1128587757494266,5.8219076856585,-0.531862908388947,3.87031173107777,-1.857558693847725,2.4354191240600658,0.40749397127121223,0.05973901142490489,0.5541470849657668,-0.6329316026498439,-0.2528057300910266,-0.4119356465803053
84,-0.20087441863229216,5.814027247592566,-0.5030620650801338,3.939803014778125,-1.9249762079580135,2.438192184178904,0.41994615993601236,0.01584974063311108,0.5469439005919968,-0.6456278760744281,-0.16274735306415275,-0.5629175975459056
85,-0.2882796065591595,5.806201466316211,-0.4744609773711077,4.008812323943681,-1.9919261306917968,2.440946011031502,0.42673626688137833,-0.02893907456460916,0.5392180368128848,-0.6692118935915903,-0.07671004552776498,-0.7139259382224966
86,-0.37501255281751344,5.798435873872893,-0.4460798633659193,4.077290875905493,-2.058361135160052,2.443678657938126,0.4279157074703063,-0.07382307067117459,0.5311499604934575,-0.7032185902626106,0.004210143164538794,-0.8660704898638006
87,-0.4610122122060014,5.790735935915223,-0.41793869852826115,4.1451904734424065,-2.1242344624505147,2.446388201581422,0.42367344605944923,-0.11804571574946723,0.522910219803257,-0.7472923181328677,0.07892486417199819,-1.0201731853631382
88,-0.5462183516545593,5.7831070453820335,-0.3900571925728631,4.212463560537976,-2.189499975720708,2.4490727442314077,0.41431766362335054,-0.1609222379996706,0.5146550960377823,-0.801067864710022,0.1463567599706832,-1.1767489406751412
89,-0.630571620844508,5.775554516175433,-0.362454766356888,4.279063278137405,-2.2541122142909664,2.4517304159704594,0.4002534873544835,-0.20185768909677257,0.5065231134203727,-0.8640528261869329,0.2054642190531953,-1.3359600400543992
90,-0.7140136228286815,5.768083576837877,-0.33515052877132456,4.34494351990448,-2.3180264477374624,2.454359376918302,0.3819585383362185,-0.24035869363201368,0.49863247984163983,-0.9355192701700047,0.2552883094706218,-1.4975600519385501
91,-0.7964869846515246,5.760699364229224,-0.3081632536323824,4.410058987978495,-2.381198729985224,2.456957819456997,0.3599580071473426,-0.2760389311603061,0.49107948372154386,-1.014423021649203,0.29501932257982005,-1.6608513701199281
92,-0.8779354279692182,5.753406917203801,-0.2815113565728846,4.474365248731192,-2.44358595340117,2.4595239704559315,0.33480079028357007,-0.3086188307287166,0.48393782703605465,-1.0993757099678063,0.32407447146285473,-1.8246855769103376
93,-0.9583038396697665,5.746211170287465,-0.2552128719336695,4.537818788523685,-2.505145902887128,2.4620560934968068,0.30703794401832524,-0.33792029850160493,0.47725883431681543,-1.1886911988161073,0.3421716129496645,-1.9875311119648003
94,-1.037538342493142,5.739116947354666,-0.22928542965497511,4.600377069463394,-2.5658373099728617,2.464552491098627,0.2772043738849271,-0.363857529156949,0.47107244388815006,-1.2805100906452505,0.34938007313490943,-2.1476139734664623
95,-1.115586365651362,5.732128955305508,-0.2037462321678407,4.661998585160983,-2.625619906909093,2.4670115069426886,0.24580431551432497,-0.3864250660911642,0.46538886195833884,-1.3729784983063165,0.3461325187751306,-2.303109114836523
96,-1.1923967154486341,5.725251777742813,-0.17861203128549863,4.722642916487281,-2.6844544807605324,2.4694315280975676,0.2133008112169682,-0.4056842808973788,0.46020074304227676,-1.4644347459699358,0.33319198605495387,-2.4523372854731114
97,-1.2679196459014381,5.7184898686491845,-0.15389910509477112,4.782270787330222,-2.742302927498896,2.47181098724411,0.18010907531536757,-0.42174935521202433,0.4554857515969904,-1.5535547387666586,0.3115815001863397,-2.593918882124395
98,-1.3421069293586614,5.711847546064066,-0.1296232348474624,4.840844120351776,-2.799128306095941,2.47414836490042,0.1465933904043086,-0.4347736902889554,0.45120935922239364,-1.6394255400453936,0.2824936012970191,-2.7268550031105954
99,-1.4149119271216861,5.705328985760807,-0.10579968185175126,4.898326092744881,-2.8548948926164845,2.4764421916468478,0.11306699796421774,-0.4449374669881802,0.44732773841551066,-1.7215448629556254,0.24719929115166303,-2.8505339493164894
100,-1.486289660064525,5.698938214923725,-0.08244316436359478,4.954681191990363,-2.9095682343114184,2.4786910503509794,0.07979434287302847,-0.4524368565973824,0.44379062645053285,-1.7997659256061453,0.206971132402416,-2.9646830795264427
101,-1.5561968792539123,5.6926791058251665,-0.05956783447811187,5.009875271613886,-2.9631152037107515,2.4808935783926245,0.0469949976437685,-0.45747516373732516,0.44054405007563086,-1.8742148078190843,0.16302747978026913,-3.0692935581354743
102,-1.6245921365694347,5.6865553695025675,-0.03718725502098241,5.0638756069428785,-3.0155040527166337,2.4830484698888076,0.014848618270474897,-0.4602559847825231,0.437532821875256,-1.9452034678497379,0.11649801664274839,3.118643806277417
103,-1.6914358553236237,5.680570549435524,-0.015314376439843347,5.116650950863457,-3.0667044666963648,2.485154477918752,-0.01649964457159761,-0.46097830155038527,0.4347027408733321,-2.013152644086326,0.06840674519913574,3.0324652782131714
104,-1.7566904008820847,5.674728015222844,0.006038486304319024,5.168171589577366,-3.1166876185754306,2.4872104167488747,-0.046933753014384905,-0.4598333075942103,0.4320024518919775,-2.0785304352191574,0.019667228857513944,2.95499708438104
105,-1.8203201512835845,5.669030956259618,0.026859676845772285,5.218409398358907,-3.1654262229305274,2.489215164057769,-0.07636176477983331,-0.4570026851467924,0.4293849391586367,-2.141806764310739,-0.028914762410345903,2.8858480551986996
106,-1.882291567860202,5.663482375414277,0.047138220522644936,5.267337897311865,-3.212894590082586,2.491167663161198,-0.10471142856108343,-0.45265801211453904,0.4268086487267719,-2.2034212285742503,-0.07663496871389032,2.824614236252612
107,-1.9425732658573889,5.658085082705657,0.06686384748553342,5.314932307126454,-3.259068680189799,2.49306692523708,-0.13192651879897083,-0.44696097483889624,0.4242382507483498,-2.263761132605577,-0.12288329221090626,2.7708871849409578
108,-2.001136085054127,5.652841688980059,0.0860270158061045,5.361169604836238,-3.303926157340639,2.494912031550481,-0.15796394244329492,-0.4400640860010889,0.4216450660717439,-2.3231468709422347,-0.1671369426623862,2.724254751535156
109,-2.0579531603830157,5.647754599588317,0.10461893458570248,5.406028579575064,-3.347446443646887,2.496702135678599,-0.18279157670167134,-0.4321116496569882,0.4190071918375776,-2.3818226130958777,-0.20895486645312458,2.684297384432638
110,-2.112999992550389,5.642826008062851,0.12263158706395494,5.449489888334001,-3.3896107733366563,2.498436465735755,-0.2063867452615359,-0.4232407687774406,0.4163093677206631,-2.439951076282824,-0.24797369931692448,2.650582484870664
111,-2.1662545186564213,5.638057889794741,0.14005775372737528,5.491536111718259,-3.4304022468474313,2.500114326598384,-0.22873521012766437,-0.4135822476148738,0.41354262840629036,-2.4976118597898433,-0.2839050988997604,2.622658870381181
112,-2.2176971828152396,5.63345199571078,0.15689103541797067,5.5321518097041285,-3.46980588491906,2.5017351021300183,-0.24983054445495528,-0.40326129591502374,0.41070378911462657,-2.554803273001129,-0.31653405095036274,2.6000529813901445
113,-2.2673110067750573,5.62900984595054,0.17312587644184907,5.571323577395918,-3.5078086826868144,2.503298257406281,-0.26967375494109214,-0.3923979902637369,0.40779480990862754,-2.6114477818648965,-0.3457175789493286,2.582268028147455
114,-2.315081660538252,5.624732723543434,0.18875758767782136,5.6090401007828765,-3.544399663774392,2.5048033409398736,-0.2882730364049538,-0.3811074871417929,0.40482208159908745,-2.6674011287152966,-0.3713832159988959,2.5687867768236985
115,-2.3609975329814974,5.620621668085782,0.20378236968600838,5.645292212496123,-3.579569934386952,2.5062499869055626,-0.3056435620985778,-0.3695000114463205,0.40179567176899084,-2.722464891145208,-0.3935266230663469,2.5590781035143473
116,-2.4050498024758786,5.6166774694178665,0.2181973358164444,5.680072947565598,-3.613312737404139,2.5076379173651713,-0.3218072374837696,-0.35768066340126486,0.39872856423559633,-2.7764018248107396,-0.41220785909207636,2.5526068458198403
117,-2.447232507506973,5.612900661301,0.23200053531769127,5.713377599176963,-3.6456235064730995,2.5089669444925664,-0.336792369693447,-0.34574909686728184,0.395635919570569,-2.8289529056301994,-0.4275460121915359,2.5488459427492236
118,-2.487542617295013,5.609291515094589,0.24519097644542542,5.745203774428565,-3.6764999201015103,2.5102369727986473,-0.3506332274834457,-0.3337991245738126,0.3925343784687728,-2.8798546793341973,-0.439712155171834,2.5472894814434786
119,-2.5259801024149358,5.605850033433187,0.2577686495710658,5.775551450088352,-3.70594195575062,2.5114480013563365,-0.3633694857042644,-0.32191830250322506,0.3894414240931718,-2.9288554398896602,-0.44892084662145265,2.5474651464399636
120,-2.5625480054165477,5.602575943903569,0.26973455029036186,5.8044230283508025,-3.7339519439282416,2.5126001260255646,-0.3750455634072524,-0.31018753836486546,0.38637481425707176,-2.9757289275818555,-0.4554206118482006,2.5489447176897344
121,-2.597252511444619,5.599468692721788,0.28109070253200885,5.831823392593855,-3.760534622281817,2.5136935416782626,-0.3857098754343696,-0.29868075947664313,0.3833520895995312,-3.0202846219393225,-0.45948396804078645,2.5513516397247753
122,-2.630103018858973,5.596527438410235,0.2918401816662475,5.857759963135866,-3.7856971896913967,2.5147285444233494,-0.3954140239437973,-0.2874646648453811,0.3803901598676736,-3.062374206382476,-0.4613975889358549,2.554365183956632
123,-2.661112209854643,5.593751045474706,0.3019871376134722,5.882242752992501,-3.809449360362702,2.5157055338317202,-0.40421195930478165,-0.2765985759226553,0.3775049670896537,-3.1018942828273532,-0.4614531438653815,2.5577212286738806
124,-2.690296121081917,5.591138078081462,0.3115368179528386,5.905284423633702,-3.8318034179201375,2.5166250151612353,-0.4121591398292445,-0.2661343912099882,0.37471122180803934,-3.138785817133733,-0.45993922072704746,2.5612100868819776
125,-2.717674214266526,5.5886867937342934,0.32049559103086267,5.926900340740602,-3.8527742694998155,2.51748760158171,-0.4193117176305587,-0.2561166420977277,0.37202220661426316,3.1101542613674,-0.4571345866564013,2.5646720652936916
126,-2.7432694468297,5.586395136951582,0.3288709690700329,5.9471086299624565,-3.8723794998425713,2.5182940163999006,-0.42572577422640995,-0.24658264129124724,0.36944963992351537,3.078536642872585,-0.4533028861653445,2.567991531519579
127,-2.767108342508302,5.584260732943359,0.3366716312774143,5.965930232673578,-3.890639425386998,2.5190450952844965,-0.43145662497366327,-0.2375627109453001,0.3670035921819109,3.0494972304431935,-0.4486887472295274,2.5710902298576808
128,-2.7892210619749482,5.582280881288373,0.3439074469532475,5.983388961730269,-3.9075771483624777,2.5197417884911077,-0.4365582065708303,-0.22908047508249163,0.36469244642022747,3.022961944735123,-0.44351517279242153,2.5739204651956595
129,-2.8096414734580746,5.580452549611153,0.350589498599565,5.999511557227755,-3.923218610882203,2.520385163087252,-0.4410825570999175,-0.22115319980470352,0.3625228951740704,2.998837854671401,-0.4379820399515615,2.5764586158189102
130,-2.828407223362113,5.578772367259064,0.356730105028785,6.014327742257124,-3.9375926490361826,2.520976405177345,-0.44507939369527105,-0.2137921649528143,0.3604999661935812,2.977018461473094,-0.4322655065828353,2.578699275661745
131,-2.8455598068875414,5.577236618979376,0.36234284447232623,6.0278702786622285,-3.950731046984293,2.52151682212769,-0.44859578910408443,-0.20700305194754454,0.3586270699867048,2.957388256180451,-0.426518127080508,2.5806501873970773
132,-2.8611446386510497,5.575841238596325,0.36744257768921074,6.040175022796655,-3.9626685910492876,2.5220078447914647,-0.4516759452307154,-0.20078633427675072,0.3569060630062373,2.9398264747147396,-0.42086949656830774,2.582328019959412
133,-2.8752111233056157,5.574581802688174,0.37204547107466457,6.051280981280628,-3.973443123809827,2.5224510297337113,-0.45436105925024356,-0.1951376592328755,0.3553373211391434,2.9242100530436557,-0.415427268907381,2.583754968889072
134,-2.887812726160628,5.573453524264274,0.3761690197687271,6.06123036675795,-3.9830955981935103,2.5228480614563242,-0.4566892759981047,-0.19004821183332943,0.3539198190333917,2.910415834929335,-0.41027842250316005,2.584956111286446
135,-2.899007043801986,5.572451246442132,0.379832070764865,6.070068653652956,-3.9916701315698697,2.5232007546230397,-0.4586957190185426,-0.18550505420237912,0.3526512116590754,2.898322112248819,-0.40549067560478486,2.585957422968639
136,-2.9088558747122217,5.571569436124467,0.38305484601855744,6.077844633927405,-3.9992140598434425,2.523511056284424,-0.4604125917921516,-0.18149143592035225,0.3515279153122287,2.887809589394601,-0.40111397738561405,2.58678435718014
137,-2.917425289890623,5.570802177676278,0.3858589655559217,6.084610472837445,-4.00577799154676,2.5237810481028626,-0.4618693401615947,-0.17798707285646354,0.35054518600528795,2.878761864366193,-0.39718202163496746,2.5874608862981514
138,-2.9247857034733276,5.570143166601902,0.38826747058230415,6.090421764690512,-4.011415861933395,2.524012948577549,-0.4630928667372706,-0.1749683937290032,0.34969719382921916,2.8710655141983272,-0.39371374618042515,2.5880089159930484
139,-2.9310119433534387,5.569585703222077,0.39030484659089426,6.0953375886023045,-4.016184987070962,2.524209115269472,-0.464107788002934,-0.17240875504113323,0.3489770924067602,2.864609864442318,-0.3907147934332487,2.58844799209458
140,-2.936183321801143,5.56912268635101,0.39199704647132716,6.099420564253683,-4.020146117934158,2.524372047026408,-0.4649367248802556,-0.17027862610416006,0.3483770829780251,2.85928651357166,-0.38817891615998573,2.588795231880637
141,-2.940383706083792,5.5687466069734315,0.3933715136182929,6.102736907647605,-4.023363494497787,2.524504386207905,-0.465600617591626,-0.16854574658140445,0.34788847296749714,2.8549886746517315,-0.3860893182520682,2.5890654223791625
142,-2.9437015890860794,5.568449541921662,0.39445720504013515,6.105356486866071,-4.025904899829794,2.5246089209102736,-0.4661190557384901,-0.16717525937655936,0.34750172907819354,2.8516103890449918,-0.38441992340572034,2.5892712378857055
143,-2.9462301599300673,5.568223147552676,0.39528461446745355,6.107352877827044,-4.027841714184264,2.5246885871915783,-0.46651061455872334,-0.16612982177323893,0.34720652505114,2.849045660576069,-0.38313656570094057,2.5894235369865313
144,-2.9480673745953645,5.568058653425161,0.39588579546172964,6.108803420041402,-4.029248969094476,2.5247464712966217,-0.4667931883243082,-0.1653696975373536,0.34699178422586946,2.8471875534738826,-0.38219809548690226,2.5895317059346135
145,-2.949316026539231,5.567946855976579,0.3962943845239084,6.1097892723698255,-4.03020540146589,2.5247858118819364,-0.4669843117819282,-0.16485283225979466,0.34684571695291155,2.845927293425828,-0.3815573920938625,2.5896040203997055
146,-2.9500838173166413,5.567878112200237,0.3965456242030112,6.110395468779777,-4.03079350766922,2.5248100022407716,-0.46710146042294093,-0.16453491358759315,0.3467558527566559,2.8451534080486582,-0.3811622720076835,2.5896480016197874
147,-2.9504834272004494,5.567842333322339,0.39667638620475154,6.1107109741024095,-4.031099597633421,2.524822592528084,-0.4671623201963165,-0.16436941721870724,0.3467090669433945,2.8447509408268763,-0.3809562775443337,2.5896707460496953
148,-2.9506325858014426,5.5678289784790564,0.396725194500128,6.110828739789501,-4.03121384893875,2.5248272919855244,-0.4671850170487166,-0.16430763867699388,0.34669160111267183,2.844600770947644,-0.38087932701424637,2.5896792099385997
149,-2.9506541426885473,5.567827048393583,0.396732248434037,6.110845759670384,-4.0312303609097215,2.5248279711664283,-0.4671882963860256,-0.16429871000374574,0.34668907678007593,2.844579070392164,-0.38086820313438585,2.5896804320109337
