nimar13/UR3e_dataset_trayectorias/data/trayectorias_completas_UR3e_QUINTIC_FUNC/trayectoria_230.csv
Punto,shoulder_pan_joint,shoulder_lift_joint,elbow_joint,wrist_1_joint,wrist_2_joint,wrist_3_joint,Posicion_X,Posicion_Y,Posicion_Z,Roll,Pitch,Yaw
0,-2.8965048164166958,3.2585312222131404,0.245366368260564,-1.046696933990371,1.668802393744959,3.902610703588634,0.578606048378674,0.018783821108646948,0.2747181651625975,0.8346874441571687,0.6825995412078564,0.3651868763158602
1,-2.896508030887195,3.2585358746571447,0.24536520286434188,-1.0467067455979375,1.6687956577010543,3.9026069502271374,0.5786059691157895,0.01878128356201118,0.2747191594075614,0.8346792537238737,0.6826063123516071,0.3651756021734216
2,-2.896530272777698,3.2585680663198575,0.24535713913652987,-1.0467746350687583,1.668749048982452,3.902580979587355,0.5786054199558122,0.01876372541258122,0.2747260388921042,0.8346225778998998,0.6826531632931331,0.3650975907214388
3,-2.89658986088874,3.2586543108039794,0.24533553565330968,-1.0469565173294066,1.6686241798532215,3.9025114018072227,0.5786039425369414,0.01871668462923348,0.27474446971013466,0.83447070578043,0.6827786758158448,0.3648885712435357
4,-2.896704350554676,3.2588200167141586,0.24529402778313722,-1.0473059769598154,1.6683842624495406,3.9023777184824,0.5786010786873707,0.018626299295639706,0.2747798819161394,0.8341787742215322,0.6830198067173173,0.36448689183291083
5,-2.8968905441742536,3.2590895028983415,0.2452265238689179,-1.0478743003359896,1.667994086712494,3.9021603103703018,0.5785963504160367,0.018479296588198794,0.27483747289719995,0.833703637464306,0.6834118920984076,0.36383341983611134
6,-2.8971645017411762,3.259486013689128,0.24512720141018243,-1.0487105077727181,1.667419998320871,3.901840425094132,0.5785892339779064,0.018262980990880855,0.27492221079362555,0.8330037052782089,0.683988646011048,0.3628714230280658
7,-2.8975415513746747,3.260031734145123,0.2449905032452621,-1.0498613856662866,1.6666298766239656,3.901400164846911,0.5785791290914745,0.017965221957992664,0.275038837979875,0.8320387547441276,0.6847821540926585,0.361546434323038
8,-2.898036299850073,3.2607478052922874,0.24481113373346447,-1.0513715186371888,1.665593112574373,3.90082247409551,0.5785653243132909,0.01757444125386074,0.27519187462575145,0.830769720174974,0.6858228625912164,0.35980610231879573
9,-2.8986626431293576,3.2616543393652924,0.24458405493724886,-1.0532833216728403,1.6642805866607904,3.9000911272846825,0.5785469595044581,0.01707960021720544,0.2753856223661727,0.8291584650526271,0.6871395629564909,0.3576000294627491
10,-2.8994337768917444,3.262770435048871,0.24430448280440184,-1.055637072270289,1.662664646840813,3.899190716541092,0.5785229862573595,0.016470187215644624,0.2756241681155206,0.8271675392578532,0.6887593719481194,0.3548795991348884
11,-2.9003622070642465,3.264114192719171,0.2439678833502128,-1.0584709425789292,1.660719086473735,3.8981066393773496,0.5784921270877185,0.015736205570801364,0.2759113880692137,0.8247599242939833,0.6907077069953954,0.35159779247517325
12,-2.9014597603522447,3.2657027296851067,0.2435699688396495,-1.0618210315432124,1.6584191222533458,3.8968250863960385,0.5784528341376141,0.014868162245645586,0.27625095194024174,0.8218987686626645,0.6930082563406489,0.3477089953516399
13,-2.902737594770052,3.267552195429712,0.24310669396953352,-1.0657213970453605,1.6557413721407304,3.895333028993751,0.5784032480796402,0.013857057592112011,0.27664632748170553,0.8185471150462343,0.6956829433095585,0.343168795476915
14,-2.904206210171483,3.2696777868514935,0.24257425205071584,-1.070204088048078,1.652663833297067,3.893618207065117,0.5783411578610976,0.012694376457975234,0.2771007853475836,0.8146676204901505,0.6987518838781175,0.33793376934022196
15,-2.905875458780424,3.2720937635057807,0.24196907119025243,-1.0752991767372635,1.6491658600164252,3.8916691167068356,0.5782639618801253,0.011372080947015858,0.2776174043429071,0.8102222703644619,0.7022333365463425,0.3319612583342141
16,-2.9077545557213966,3.27481346284608,0.24128781047357967,-1.0810347906647229,1.645228141658565,3.8894749979217074,0.5781686311430286,0.009882605115390866,0.2781990771111071,0.8051720865197769,0.706143643381544,0.3252091332258053
17,-2.9098520895501294,3.2778493154654282,0.24052735614668988,-1.0874371448908815,1.640832680581736,3.8870258223226655,0.5780516749136668,0.00821885186971336,0.2788485163004795,0.7994768297464672,0.7104971609565626,0.31763554595367244
18,-2.9121760327841244,3.281212860337743,0.239684817798307,-1.094530574127496,1.6359627700754742,3.8843122808368062,0.5779091093314277,0.006374192308672184,0.2795682612435024,0.7930946964043383,0.7153061797780818,0.3091986676402972
19,-2.9147337524332255,3.2849147600591753,0.23875752454206195,-1.1023375648803664,1.6306029722934017,3.8813257714094216,0.5777364294437346,0.004342467720213761,0.28036068517222534,0.7859820089257851,0.7205808306739054,0.2998564116950346
20,-2.9175320205301856,3.288964816089464,0.23774302119866825,-1.1108787875920496,1.624739096186025,3.8780583867080307,0.577528585071749,0.0021179944105851967,0.2812280029802257,0.7780928998256438,0.726328976483116,0.28956614097284056
21,-2.9205770246612355,3.293371983993287,0.2366390644780975,-1.1201731287845704,1.618358175433534,3.8745029018264088,0.577279960903383,-0.00030442849979412864,0.28217227952689095,0.7693789888998499,0.7325560872670017,0.27828435816413294
22,-2.9238743784966514,3.298144388681612,0.23544361916175496,-1.1302377232021343,1.6114484463785992,3.8706527619886226,0.5769843611852474,-0.0029295082252282427,0.2831954384632181,0.7597890534953592,0.7392650971302164,0.2659663789562052
23,-2.9274291323213237,3.3032893396530523,0.23415485428465505,-1.1410879859538396,1.603999325959171,3.8665020702530586,0.5766349993639245,-0.00576144437132683,0.28429927154022727,0.7492686921304117,0.7464562406110355,0.2525659880687549
24,-2.931245783565323,3.308813346235217,0.23277113931759688,-1.1527376446563902,1.5960013896412788,3.8620455752164546,0.5762244930061355,-0.008803911917804986,0.28548544834170897,0.7377599823961055,0.7541268664697152,0.23803507908255028
25,-2.93532828733447,3.3147221328260636,0.23129104034933978,-1.165198771576807,1.5874463493518283,3.857278658717934,0.575744864306005,-0.0120600412053001,0.2867555263627513,0.7252011350549251,0.7622712265810186,0.22232328012661204
26,-2.9396800669409036,3.321020654135252,0.2297133162687789,-1.1784818157751413,1.578327031411401,3.8521973235430327,0.5751875464647054,-0.015532395066292967,0.28811096133466596,0.7115261476694305,0.7708802375327282,0.20537756906343405
27,-2.9443040244336465,3.327713110425494,0.2280369149471205,-1.1925956352471858,1.5686373544670522,3.8467981811277348,0.5745433962023825,-0.019222943304808796,0.28955311767598807,0.6966644630716964,0.7799412124649876,0.1871418839383704
28,-2.9492025511291766,3.334802962753909,0.22626096942005783,-1.2075475290671878,1.558372307425109,3.841078439262501,0.573802712633294,-0.02313303479559895,0.29108327892859936,0.6805406406804178,0.7894375606844929,0.16755673729543732
29,-2.954377538141991,3.3422929482133745,0.22438479406994644,-1.2233432695305613,1.5475279273839706,3.8350358897963015,0.5729552627017401,-0.027263367540122,0.29270265801819456,0.6630740522817096,0.7993484526951241,0.1465588466988357
30,-2.9598303869151783,3.350185095173879,0.22240788080797969,-1.239987134296599,1.5361012775669047,3.828668896340647,0.571990313337625,-0.031613957082813914,0.29441240715979966,0.6441786186425283,0.8096484485627157,0.12408079866663542
31,-2.9655620197509833,3.358480738523875,0.2203298952563644,-1.257481938531185,1.5240904252548473,3.821976381973619,0.5708966704457042,-0.03618410375578782,0.29621362721238453,0.6237626094853661,0.8203070880602293,0.10005076948130873
32,-2.9715728903413754,3.3671805349116304,0.21815067293049628,-1.275829067049507,1.5114944197192004,3.8149578169439047,0.5696627247910621,-0.04097235928209504,0.2981073762723087,0.6017285372022961,0.831288441934303,0.0743923342723734
33,-2.977862994298618,3.3762844779865815,0.2158702154211356,-1.2950285064587679,1.4983132701546318,3.8076132063748234,0.5682765047846977,-0.04597649332571235,0.30009467728401956,0.5779731844984979,0.8425506250457723,0.04702440564091838
34,-2.984431879685837,3.3857919136406855,0.21348868657658246,-1.315078877300899,1.4845479236118717,3.7999430779683614,0.5667257361070622,-0.05119346062920336,0.302176524438561,0.5523878181389473,0.8540452742597598,0.017861355122127383
35,-2.9912786575475843,3.3957015552497736,0.21100640868485263,-1.335977466195272,1.4702002429305134,3.7919484697092023,0.5649979080339412,-0.056619369426185284,0.30435388812664943,0.524858655179059,0.865716997037596,-0.013186614988594277
36,-2.998402012440412,3.4060114989149017,0.20842385865585283,-1.3577202579814107,1.4552729846718098,3.7836309175687592,0.5630803462485133,-0.06224945185385555,0.30662771821381424,0.49526766423768603,0.8775028010020061,-0.046212765740665365
37,-3.005800212963435,3.416719238703705,0.20574166420355638,-1.3803019678617046,1.4397697770514726,3.7749924432092037,0.5609602918362628,-0.06807803711956772,0.3089989454108514,0.4634938017406526,0.8893315206311967,-0.08131268050787936
38,-3.0134711222889035,3.427821681891748,0.20296060002817876,-1.4037160735441196,1.4236950978724718,3.7660355416875007,0.5586249860665043,-0.07409852819338769,0.3114684805240248,0.4294148000118611,0.9011232650104438,-0.11858257087479918
39,-3.021412208692767,3.4393151642038795,0.20008158399835307,-1.4279548473849113,1.4070542524578333,3.756763169159437,0.556061760466755,-0.08030338280441962,0.31403721138638446,0.3929096377743762,0.9127889204921952,-0.15811689783325739
40,-3.0296205560852445,3.4511954650555836,0.19710567333330556,-1.4530093885313369,1.3898533515834368,3.7471787305836544,0.5532581315955108,-0.08668409951133212,0.31670599729450694,0.3538618295266692,0.924229754274909,-0.20000517086282563
41,-3.0380928745413924,3.463457822794332,0.19403406078503116,-1.4788696550643678,1.3720992894108157,3.73728606742568,0.5502018998168279,-0.0932312095958731,0.3194756608039997,0.3121636617911388,0.9353371790505344,-0.2443277960256579
42,-3.046825510831672,3.4760969499409367,0.19086807082046903,-1.5055244961414018,1.3537997214199542,3.7270894453619574,0.5468812512785713,-0.09993427549150609,0.32234697677227575,0.26772147261102147,0.9459927541523646,-0.2911508759288776
43,-3.055814458952517,3.4891070484309035,0.18760915580367818,-1.5329616841389746,1.3349630423420873,3.7165935419838805,0.5432848621974228,-0.10678189640704618,0.32532065857819403,0.220462005428406,0.956068513347923,-0.340519929763646
44,-3.065055370656903,3.502481824855783,0.18425889217801272,-1.561167946795474,1.3155983640924978,3.705803434501821,0.5394020044602422,-0.11376172173713389,0.3283973414949029,0.1703397591012315,0.9654277206908861,-0.3924526111261952
45,-3.074543565984913,3.516214505704524,0.1808189766482978,-1.5901289993538494,1.295715493703316,3.694724587449164,0.5352226514656875,-0.12086047276765485,0.3315775632441144,0.11734509510124219,0.9739261594652493,-0.4469306621694645
46,-3.084274043794308,3.5302978526048245,0.17729122236300476,-1.6198295767043263,1.2753249112563179,3.6833628403863345,0.5307375830548074,-0.12806397308534187,0.3348617418163986,0.06151265229107857,0.9814140498384332,-0.5038915534093024
47,-3.0942414922910935,3.5447241775644867,0.17367755509642688,-1.6502534655271184,1.254437747815723,3.671724395604835,0.5259384883172599,-0.13535718798766644,0.33825015070210873,0.0029293759414256893,0.987738662558622,-0.5632205023797455
48,-3.104440299560088,3.5594853582127666,0.1699800094308548,-1.6813835364351384,1.2330657633609936,3.65981580583127,0.5208180650134783,-0.14272427306313643,0.3417428917401969,-0.0582587706444972,0.9927476441602436,-0.6247438027587177
49,-3.114864564095491,3.574572853041729,0.1662007249387522,-1.7132017761167124,1.211221324719633,3.647643961931384,0.5153701143249128,-0.150148631975031,0.34533986585626875,-0.121842514259806,0.9962929924259506,-0.6882245664448774
50,-3.12550810533145,3.589977716647598,0.162341942364931,-1.7456893194782899,1.1889173834999842,3.6352160806140867,0.5095896296365952,-0.15761298333564827,0.3490407420254569,-0.18754852709766276,0.9982355242342857,-0.7533620062552985
51,-3.1363644741726295,3.6056906149721097,0.15840599980872744,-1.7788264817871577,1.1661674540240283,3.6225396921354895,0.5034728780705034,-0.165099436405921,0.3528449248585765,-0.25504316281251527,0.9984495745123,-0.8197951931987596
52,-3.147426963524779,3.6217018405438672,0.15439532890617702,-1.8125927908141515,1.1429855912601825,3.6096226280029344,0.49701747352595294,-0.17258957519974907,0.3567515212700289,-0.3239411581194165,0.9968275757617564,-0.8871117735962062
53,-3.1586886188253,3.6380013277196888,0.15031245101219035,-1.8469670189763692,1.1193863687561003,3.5964730086790255,0.49022244004539206,-0.1800645504168372,0.3607593067414467,-0.3938191149240656,0.9932841173683856,-0.9548614616454324
54,-3.1701422485738155,3.6545786679259633,0.14615997338272868,-1.8819272154798812,1.0953848565714668,3.58309923128566,0.4830882644107874,-0.18750517847574116,0.36486669174444775,-0.4642328060748416,0.9877590938516898,-1.022573351233636
55,-3.1817804348627368,3.6714231249000027,0.14194058535697943,-1.9174507384624446,1.070996599210801,3.569509957308062,0.475616936987009,-0.19489204677376662,0.3690716889275155,-0.5347366572835084,0.9802196302148396,-1.0897754003593776
56,-3.193595543907832,3.688523649931393,0.13765705453953142,-1.9535142871362146,1.046237593556252,3.5557141002988106,0.4678119799631599,-0.20220562416603477,0.3733718817043842,-0.6049033393094979,0.9706606111300683,-1.1560140231713034
57,-3.205579736578792,3.7058688971033478,0.13331222298255097,-1.990093933930456,1.0211242668003977,3.5417208135818736,0.4596784622990368,-0.2094263755359457,0.3777643949029669,-0.6743413830513084,0.9591038116243684,-1.2208717032727057
58,-3.2177249789298026,3.7234472385340593,0.1289090033679568,-2.027165156634258,0.9956734543790434,3.527539477956637,0.4512230008594694,-0.21653487922684853,0.3822458681435784,-0.7427091122924203,0.9455957932282125,-1.2839809241342612
59,-3.2300230527301097,3.7412467796180535,0.12445037518959613,-2.0647028705392447,0.9699023779040217,3.5131796894019396,0.4424537474111308,-0.22351194602296928,0.3868124326119205,-0.8097238598723456,0.9302048566591464,-1.3450333835667232
60,-3.242465565994586,3.7592553742675396,0.1199393809354197,-2.1026814605822852,0.9438286230959881,3.4986512467801,0.4333803613609921,-0.2303387383092692,0.3914596918752804,-0.8751662056406188,0.9130174087210279,-1.4037842318763436
61,-3.2550439635143027,3.7774606401537643,0.11537912226965769,-2.1410748134882116,0.9174701177172232,3.4839641395409524,0.4240139683287375,-0.23699688800695395,0.396182707359153,-0.9388796613751704,0.8941341039279435,-1.4600517602311947
62,-3.2677495373870933,3.795849973948364,0.11077275621499502,-2.1798563499125247,0.8908451095044272,3.469128535425874,0.4143671048626979,-0.2434686118753518,0.4009759890559285,-1.0007667018848738,0.8736660727774533,-1.513713439884715
63,-3.280573437548126,3.8144105665647174,0.10612349133474702,-2.2189990565841127,0.8639721441015225,3.4541547681718194,0.40445364982532667,-0.24973682279264117,0.40583349197760965,-1.0607822603827914,0.851731469511472,-1.5646994318473817
64,-3.2935066823004675,3.833129418399295,0.10143458391503493,-2.2584755184479572,0.8368700429924486,3.439053325215351,0.3942887431850315,-0.2557852356774757,0.4107486187913771,-1.1189258002361722,0.8284524841846032,-1.6129846806918249
65,-3.3065401688456535,3.8519933545730187,0.09670933414696131,-2.2982579508078507,0.8095578814339627,3.4238348353966686,0.38388869315126567,-0.2615984667902218,0.4157142289911581,-1.1752329154375376,0.8039528835556289,-1.6585805464857424
66,-3.3196646838142563,3.8709890401726055,0.09195108230878568,-2.3383182314691062,0.7820549663884376,3.408510056663645,0.373270872774415,-0.2671621252548123,0.4207226548615652,-1.2297671773896555,0.778356082250458,-1.7015266941597775
67,-3.332870913796452,3.8901029954919255,0.08716320494809998,-2.378627932881269,0.7543808144566606,3.393089863775852,0.3624536072966603,-0.2724628957679004,0.4257657243843728,-1.2826127001489043,0.7517837027803018,-1.7418837142241195
68,-3.3461494558725895,3.909321611273354,0.08234911106400442,-2.4191583542808317,0.7265551298106319,3.3775852360085974,0.35145605368061106,-0.27748861160812843,0.43083479112406,-1.3338676810885102,0.7243545587447382,-1.7797267336057851
69,-3.3594908281437568,3.9286311639491216,0.07751223828928233,-2.459880553833944,0.6985977821263619,3.3620072448569513,0.34029807385568794,-0.28222831722141256,0.43592077101022486,-1.3836390078136724,0.6961839859758918,-1.8151401092712593
70,-3.372885480262351,3.9480178308826686,0.07265604907257639,-2.500765380779125,0.6705287845166713,3.3463670417397813,0.32900010330519386,-0.2866723198341175,0.4410141858133342,-1.4320379077426462,0.6673834469644571,-1.8482131828776922
71,-3.3863238039626453,3.9674677056099963,0.06778402686056376,-2.5417835075699777,0.6423682714639893,3.3306758457037815,0.31758301666790395,-0.2908122297304621,0.4461052129889591,-1.4791765474560898,0.638060340590842,-1.8790370053464727
72,-3.3997961435913573,3.986966813081021,0.06289967228013177,-2.5829054620178984,0.6141364767531512,3.3149449311275045,0.30606799204574686,-0.29464098901881824,0.4511837414471256,-1.525165454358066,0.6083179588295329,-1.9077019056130828
73,-3.4132928066382155,4.006501124900924,0.05800649932055324,-2.6241016594347926,0.5858537114041975,3.2991856154253942,0.29447637569365015,-0.2981528888989943,0.4562394326903652,-1.5701116228203627,0.5782555425516862,-1.9342957672995542
74,-3.4268040742665296,4.026056574571508,0.053108031515662374,-2.6653424347757815,0.5575403416051741,3.2834092467518152,0.28282954871966937,-0.301343575624496,0.4612617866591766,-1.614117171813395,0.5479683985135534,-1.95890288168464
75,-3.4403202118437566,4.045619072732543,0.048207798126030016,-2.7065980747819207,0.5292167666449266,3.2676271917050856,0.27114879734484415,-0.30421004552569414,0.4662402115293735,-1.6572784342577989,0.5175480484100546,-1.9816032582942777
76,-3.453831479472071,4.065174522403126,0.043309330321139095,-2.747838850122911,0.5009033968459025,3.2518508230315066,0.25945518816531055,-0.30675062961776217,0.47116409662447595,-1.6996853752553212,0.48708238824118383,-2.0024722909815575
77,-3.4673281425189293,4.08470883422303,0.03841615736156059,-2.7890350475398042,0.472620631496949,3.236091507329396,0.24776944972736953,-0.3089649684576066,0.4760228875398847,-1.7414212539915639,0.45665584218816596,-2.0215806945130144
78,-3.4808004821476413,4.104207941694054,0.033531802781128606,-2.8301570019877254,0.4443888367861113,3.2203605927531194,0.23611186157330727,-0.3108539780338909,0.4808061625256463,-1.7825624607352801,0.42634949986830845,-2.0389946427025905
79,-3.4942388058479357,4.123657816421383,0.028659780569115917,-2.871175128778578,0.416228323733429,3.2046693967171196,0.22450215174621863,-0.3124198075713896,0.48550370914243457,-1.8231784751473123,0.39624122943243095,-2.0547760531834895
80,-3.50763345796653,4.143044483354929,0.02380359135241003,-2.9120599557237594,0.3881593261237386,3.189029193599949,0.21295940356058476,-0.31366579020384505,0.4901056001916455,-1.8633319047662122,0.3664057616982963,-2.0689829756838773
81,-3.520974830237697,4.162354036030697,0.018966718577687947,-2.952782155276871,0.3602019784394688,3.1734512024483035,0.20150197225675662,-0.31459638751751623,0.494602267925616,-1.9030785730861732,0.33691474257488524,-2.0816700502030887
82,-3.534253372313834,4.181572651812125,0.014152624693592297,-2.9933125766764337,0.33237629379343936,3.1579465746810484,0.1901474119667722,-0.31521712899081966,0.4989845755676972,-1.9424676352814574,0.30783675259695387,-2.092889008972466
83,-3.54745960229603,4.200686607131445,0.009364747332906681,-3.033622278088597,0.3047021418616631,3.1425263817932563,0.17891241323070314,-0.31553454735468717,0.5032438852136817,-1.9815417066207255,0.27923729359856486,-2.102689201806786
84,-3.560584117264633,4.219682292731032,0.004606495494731022,-3.0736825587498515,0.2771992268161383,3.1272016030602323,0.1678127511215395,-0.3155561108750305,0.5073721212448074,-2.02033699422409,0.2511787435205974,-2.111118128706448
85,-3.573617603809819,4.238546228904755,-0.00011875427334259725,-3.113464991109746,0.24988706525765259,3.1119831132415503,0.1568632438663861,-0.31529015351514467,0.5113618284567545,-2.0588834272896874,0.22372028115649986,-2.118221966644739
86,-3.5865508485621604,4.257265080739334,-0.00480766169305466,-3.1529414529735904,0.2227849641485784,3.0968816702850814,0.1460777216959678,-0.314745803874646,0.5152062241969734,-2.0972047844608177,0.1969177833550493,-2.124046079632198
87,-3.599374748723193,4.275825673355686,-0.009456926573302632,-3.1920841596451774,0.19591199874567344,3.081907903031027,0.13546900551595653,-0.3139329137256139,0.5188992439020736,-2.13531881978049,0.17082369786062865,-2.128635502626615
88,-3.6120803225959843,4.294215007150286,-0.01406329262796538,-3.2308656960694915,0.16928699053287755,3.0670722989159485,0.12504889487453133,-0.31286198687930933,0.5224355795356554,-2.1732373908061913,0.14548689560467948,-2.132035390859601
89,-3.6246587201157006,4.312420273036511,-0.018623551293727475,-3.2692590489754183,0.14292848515411216,3.052385191676801,0.11482816460236889,-0.31154410902154117,0.5258107105422339,-2.210966594015139,0.12095250687517697,-2.134291426860004
90,-3.637101233380177,4.330428867685997,-0.023134545547903757,-3.3072376390184584,0.11685473034607985,3.0378567490549613,0.10481656942456753,-0.3099908790548789,0.5290209270522623,-2.2485069136695013,0.0972617463793509,-2.1354501780279365
91,-3.6493993071804836,4.348228408769991,-0.027593173726264547,-3.3447753529234445,0.09108365387105666,3.023496960500264,0.09502285578891857,-0.3082143423847231,0.5320633451940194,-2.285853390860218,0.07445173276217065,-2.135559398184848
92,-3.6615445495314947,4.3658067502007025,-0.031996393340858825,-3.3818465756272467,0.0656328414497036,3.0093156248750277,0.08545478012079362,-0.3062269264868366,0.5349359144877819,-2.3229958195219353,0.052555308623626895,-2.1346682672059933
93,-3.6735287422024547,4.383151997372657,-0.03634122489783917,-3.4184262224214885,0.04051951469384907,2.9953223381580907,0.0761191327005453,-0.30404137899900124,0.5376374174137467,-2.3599189758206305,0.03160086745909837,-2.13282756371752
94,-3.6853438512475494,4.400252522404049,-0.04062475571528715,-3.4544897710952585,0.01576050903929982,2.9815264811488387,0.06702176636301792,-0.30167070849138394,0.5401674613553977,-2.3966028864748354,0.011612194193018606,-2.130089766969795
95,-3.6969820375364706,4.417096979378088,-0.044844143741036485,-3.490013294077823,-0.008627748321365036,2.9679372071712407,0.05816762923852867,-0.2991281279908406,0.5425264632223844,-2.4330231403089413,-0.007391673950294754,-2.1265090854088595
96,-3.7084356672849865,4.433674319584362,-0.04899662137049807,-3.524973490581334,-0.032629260505999014,2.9545634297778762,0.04956080078806051,-0.2964270012652062,0.544715627149775,-2.469151245699704,-0.02539655962614917,-2.122141411154287
97,-3.7196973225855077,4.449973806760184,-0.05307949926448477,-3.55934771874355,-0.05622848301008143,2.9414138104539664,0.04120453043000155,-0.2935807918155464,0.5467369157523085,-2.5049550346351266,-0.04239322434905566,-2.117044201514985
98,-3.730759811937657,4.465985032331941,-0.05709017016703513,-3.593114027770545,-0.07941034577392703,2.9284967463214118,0.03310127810885867,-0.290603014477841,0.5485930154819898,-2.540399111952616,-0.0583774086295858,-2.1112762907634006
99,-3.7416161807788364,4.481697930656454,-0.06102611272323885,-3.6262511900794134,-0.10216027524988225,2.915820357842814,0.025252756215465768,-0.28750718950067333,0.550287296694211,-2.5754453460774807,-0.07334982847823375,-2.104897637543946
100,-3.7522597220147955,4.497102794262322,-0.06488489529705996,-3.658738733440991,-0.12446421646953154,2.903392476525517,0.01765997233078618,-0.28430679894182476,0.5518237690712242,-2.6100533953756413,-0.08731612456730056,-2.0979690153931134
101,-3.762683986550198,4.512190289091285,-0.06866417978916275,-3.690556973122564,-0.1463086551108912,2.8912206326256307,0.010323272329214867,-0.2810152452134812,0.5532070330821385,-2.6441812622055796,-0.10028676161811585,-2.0905516557663932
102,-3.772882793819193,4.526951469739564,-0.07236172545473499,-3.7216870440305847,-0.16768063956562007,2.8793120428520664,0.003242383440260878,-0.27764581160206847,0.5544422281759027,-2.677785865039303,-0.1122768770026456,-2.0827068545717737
103,-3.7828502423159787,4.541377794699226,-0.07597539272131273,-3.752110932853377,-0.18856780300621634,2.8676735980705663,-0.0035835430721304767,-0.27421162459327636,0.5555349784085513,-2.710823617739266,-0.12330607905278951,-2.074495554387145
104,-3.7925807201253736,4.555461141599528,-0.07950314700660585,-3.7818115102038554,-0.20895838545321355,2.856311851007738,-0.010155889896973191,-0.2707256178442834,0.5564913361990358,-2.743251004319025,-0.1333981970856501,-2.0659779152011253
105,-3.8020689154533835,4.569193822448268,-0.0829430625363207,-3.8107725627622298,-0.22884125584239512,2.8452330039550797,-0.016476532563482076,-0.2672004976620647,0.5573177248903354,-2.7750251373335084,-0.14258098660376642,-2.0572128866119326
106,-3.811309827157769,4.582568598873148,-0.08629332616198618,-3.838978825418728,-0.24820593409198421,2.8344428964730204,-0.02254779941596887,-0.26364870986750416,0.5580208807652891,-2.8061042884519103,-0.1508857944429617,-2.048257793936619
107,-3.8202987752786135,4.5955786973631145,-0.08955224117877722,-3.866416013416301,-0.2670426131698511,2.8239469930949435,-0.028372432825233104,-0.2600824079484507,0.5586077951311299,-2.836448380729739,-0.15834718975366205,-2.039167949656097
108,-3.8290314115688933,4.608217824509719,-0.09271823114333941,-3.8930708544933355,-0.2853421811607135,2.813750371031222,-0.033953551752892774,-0.2565134224294555,0.559085657044281,-2.8660194335441327,-0.16500256756352005,-2.029996300122407
109,-3.837503730025041,4.6204801822484685,-0.09578984369161367,-3.918931121026368,-0.3030962433333344,2.803857707873247,-0.039294615759128244,-0.25295323141059883,0.5594617971991125,-2.8947819529833754,-0.17089173224735926,-2.020793115588111
110,-3.8457120774175193,4.632360483100172,-0.09876575435666132,-3.943985662172792,-0.32029714420773003,2.794273269297465,-0.044399390524470714,-0.2494129322514544,0.5597436334523868,-2.922703262561149,-0.1760564685108222,-2.0116057295090664
111,-3.853653163821383,4.643853965412303,-0.10164477038648703,-3.9682244360135854,-0.3369379896223681,2.785000896769401,-0.04927191494206236,-0.24590321439802548,0.5599386184004803,-2.9497537713227016,-0.18054010748191607,-2.0024783308561758
112,-3.86132407314685,4.654956408600346,-0.10442583456186447,-3.9916385416959983,-0.3530126688013693,2.776043995247698,-0.0539164698275543,-0.24243433336977385,0.560054189370426,-2.9759071785911186,-0.1843870952226388,-1.9934518109801973
113,-3.8687222736698743,4.665664148389149,-0.10710802901416097,-4.014220251576294,-0.3685158764217069,2.7674055208881425,-0.058337548288808674,-0.23901608594012003,0.5600977211296009,-3.001140616648605,-0.18764257045748817,-1.984563664524033
114,-3.875845628562702,4.675974092054279,-0.10969057904316101,-4.035963043362432,-0.38344313468041036,2.759087968747699,-0.06253982779596022,-0.23565778655680839,0.5600764815636115,-3.0254347344626464,-0.19035195761386398,-1.9758479420643555
115,-3.8826924064244492,4.685883733663367,-0.11217285693489062,-4.056861632256804,-0.3977908153617691,2.7510933604885404,-0.06652814399339678,-0.2323682450581082,0.5599975905185255,-3.0487737270812296,-0.1925605804329166,-1.9673352506572144
116,-3.8892612918116676,4.69539116931747,-0.11455438577944385,-4.0769120030989345,-0.41155616190452693,2.743423232082079,-0.07030746629798272,-0.22915574574703376,0.5598679819529158,-3.0711453164926894,-0.1943133004918487,-1.9590527972997214
117,-3.895551395768911,4.704495112392421,-0.1168348432888047,-4.096111442508197,-0.4247373114690951,2.736078621512997,-0.0738828753315863,-0.2260280278887556,0.5596943694978795,-3.0925406905617487,-0.19565418403018434,-1.9510244695138999
118,-3.9015622663593024,4.713194908780176,-0.11901406561467279,-4.11445857102652,-0.43733331700474287,2.7290600564832816,-0.07725954224000835,-0.22299226769636565,0.5594832154797736,-3.1129544071233495,-0.19662619953800595,-1.943270946797312
119,-3.9072938991951074,4.721490552130173,-0.12109205116628804,-4.131953375261106,-0.44934416931679944,2.722367542116255,-0.08044270995404244,-0.22005506186750273,0.5592407034212615,-3.1323842704698186,-0.19727094768057518,-1.9358098365368146
120,-3.9127467479682942,4.729382699090677,-0.12306896442825485,-4.148597240027143,-0.4607708191338664,2.7160005486606007,-0.08343767645107436,-0.21722241272939505,0.558972714001558,3.132354119832406,-0.19762842432922756,-1.92865582810277
121,-3.9179217349811095,4.736872684550143,-0.12494513977836627,-4.164392980490514,-0.4716151991750033,2.709957999194401,-0.08624978007696202,-0.21449971504301604,0.5586848044266314,3.114886297946563,-0.1977368167622662,-1.921820859179556
122,-3.922820261676639,4.743962536878557,-0.12672108530542905,-4.179344874310519,-0.4818802462169469,2.7042382573291674,-0.08888438698741266,-0.2118917445086772,0.5583821911344491,3.09839094002505,-0.19763233250251977,-1.9153142888897425
123,-3.927444219169382,4.7506549931688,-0.12839748662708736,-4.1934586937825635,-0.4915699231612949,2.69883911491387,-0.09134688076560836,-0.20940264800583958,0.5580697357390504,3.0828588025079107,-0.1973490597735352,-1.9091430728822398
124,-3.9317959987758164,4.7569535144779875,-0.12997521070764848,-4.206741737980897,-0.5006892411017241,2.693757779738969,-0.09364265426804727,-0.20703593558957226,0.5577519340999451,3.068278193235256,-0.19691885818129287,-1.903311936230623
125,-3.9358785025449627,4.762862301068835,-0.13145530967590544,-4.219202864901312,-0.5092442813911726,2.6889908632404476,-0.0957771037435513,-0.20479447425515113,0.5574329083897965,3.054635128116361,-0.19637127795526907,-1.8978235406868909
126,-3.939695153788963,4.768386307650999,-0.13283902464296385,-4.230852523603866,-0.5172422177090639,2.6845343682038436,-0.09775562526096754,-0.20268048347103979,0.5571164020230558,3.0419134770939875,-0.19573350590064717,-1.8926786435242628
127,-3.943249907613634,4.77353125862244,-0.13412778952006368,-4.241702786355569,-0.5246913381284941,2.680383676468279,-0.09958361346941395,-0.20069553246903463,0.55680577730075,3.030095096676768,-0.19503033610969195,-1.8878762458559086
128,-3.9465472614490498,4.778303663310766,-0.1353232348364062,-4.251767380773136,-0.5316010671834259,2.6765335366304943,-0.10126646270103523,-0.1988405392687873,0.5565040156214096,3.019159946982897,-0.1942841634404743,-1.8834137289166022
129,-3.9495922655801,4.782710831214588,-0.13642719155697727,-4.261061721965655,-0.5379819879359198,2.6729780517488733,-0.10280957041026698,-0.19711577140228628,0.5562137201046646,3.0090861918545095,-0.1935149977816417,-1.879286977330453
130,-3.9523905336770593,4.786760887244877,-0.13744169490037075,-4.269602944677336,-0.5438458640432924,2.669710667047482,-0.10421834292582173,-0.1955208482920711,0.5559371204717087,2.999850281156723,-0.19274049716839603,-1.8754904888548551
131,-3.954948253326161,4.79046278696631,-0.13836898815661589,-4.277409935430208,-0.5492056618253656,2.666724157620096,-0.10549820347205216,-0.1940547452249798,0.5556760800251259,2.9914270148671367,-0.1919760178855415,-1.8720174704869474
132,-3.9572721965601554,4.793826331838623,-0.13921152650499888,-4.284503364666822,-0.5540755723316282,2.664010616134237,-0.10665460239541873,-0.19271579885083326,0.5554321045689136,2.9837895889909256,-0.19123467977609293,-1.8688599211474426
133,-3.9593697303888886,4.7968621844579715,-0.1399719808318888,-4.290905718892979,-0.5584710334084548,2.6615614405351957,-0.10769302950953047,-0.19150171412255898,0.5552063531073665,2.9769096237067996,-0.19052744505913483,-1.8660087014210547
134,-3.96124882732986,4.799581883798271,-0.1406532415485616,-4.296641332820441,-0.5624087517663152,2.6593673217500666,-0.10861902844896598,-0.19040957258061203,0.5549996501583753,2.9707571744645516,-0.1898632090394606,-1.8634535910397216
135,-3.962918075938802,4.801997860452559,-0.1412584224090249,-4.301736421509626,-0.5659067250469569,2.6574182313917865,-0.10943821289801017,-0.18943584186990983,0.5548124995121166,2.965300727020305,-0.18924890115695053,-1.8611833349503686
136,-3.9643866913402332,4.80412345187434,-0.14179086432784252,-4.306219112512344,-0.568984263890622,2.655703409463153,-0.11015628453567951,-0.1885763863617307,0.5546450992596951,2.9605071776160954,-0.18868959486990236,-1.8591856789195431
137,-3.9656645257580414,4.805972917618945,-0.14225413919795885,-4.3101194780144905,-0.5716620140032342,2.6542113520608663,-0.11077905251325058,-0.18782647873580868,0.5544973579077138,2.9563417996912507,-0.18818862488907512,-1.85744739569959
138,-3.9667620790460365,4.807561454584882,-0.14265205370852216,-4.313469566978775,-0.5739619782236243,2.652929799079555,-0.11131245425495809,-0.18718081235909567,0.5543689113836457,2.9527681986578407,-0.1877477102746722,-1.855954302819895
139,-3.967690509218541,4.808905212255182,-0.1429886531627109,-4.3163034372874165,-0.5759075385907042,2.651845721915811,-0.11176257734684894,-0.18663351427709918,0.5542591407231118,2.94974825638587,-0.18736708187465712,-1.8546912730777378
140,-3.968461642980926,4.810021307938761,-0.14326822529555835,-4.318657187884861,-0.5775234784106795,2.650945311172221,-0.1121356822529355,-0.1861781586112327,0.5541671902135241,2.947242067128607,-0.18704561251841886,-1.8536422387894465
141,-3.969087986260212,4.810927842011766,-0.14349530409177372,-4.320568990920515,-0.5788360043242624,2.6502139643613942,-0.11243822557192894,-0.18580778013115,0.5540919857489763,2.945207866677501,-0.18678094828438638,-1.8527901908281543
142,-3.9695827347356096,4.81164391315893,-0.14367467360357158,-4.322079123891418,-0.5798727683738523,2.6496362736099934,-0.11267688352188862,-0.18551488774445865,0.5540322531287468,2.943601956572295,-0.1865696390344179,-1.8521171734210053
143,-3.969959784369109,4.812189633614924,-0.1438113717684921,-4.323230001784986,-0.580662890070758,2.6491960133627708,-0.11285857531416786,-0.18529147761753118,0.5539865360063628,2.9423786252069197,-0.18640726625257326,-1.8516042756091562
144,-3.970233741936031,4.812586144405712,-0.1439106942272275,-4.324066209221712,-0.5812369784623808,2.6488761280866013,-0.11299048605187682,-0.18512904561040988,0.5539532131679968,2.9414900676690277,-0.18628856604345237,-1.8512316201899317
145,-3.970419935555608,4.812855630589894,-0.14397819814144672,-4.324634532597888,-0.58162715419943,2.648658719974505,-0.11308008876174967,-0.18501859867604764,0.5539305147882155,2.940886306132604,-0.18620754493781427,-1.850978350864288
146,-3.9705344252215458,4.813021336500073,-0.14401970601161926,-4.324983992228299,-0.5818670716031071,2.6485250366496826,-0.11313516514153125,-0.18495066483953043,0.553916537278007,2.940515112593563,-0.18615758592403084,-1.8508226182070342
147,-3.970594013332585,4.813107580984195,-0.14404130949483948,-4.325165874488943,-0.5819919407323397,2.648455458869549,-0.11316382457761547,-0.18491530133666895,0.5539092563048758,2.940321935701295,-0.18613154187627912,-1.850741564965136
148,-3.97061625522309,4.81313977264691,-0.14404937322265152,-4.325233763959766,-0.5820385494509399,2.648429488229767,-0.11317452095948535,-0.1849021004536048,0.5539065375279708,2.94024983340189,-0.18612181328834,-1.8507113110761806
149,-3.9706194696935873,4.813144425090913,-0.14405053861887376,-4.325243575567332,-0.5820452854948426,2.648425734868272,-0.1131760667880299,-0.18490019257027993,0.5539061445530545,2.940239413078051,-0.18612040694964857,-1.8507069386895372
