nimar13/UR3e_dataset_trayectorias/data/trayectorias_completas_UR3e_QUINTIC_FUNC/trayectoria_346.csv
Punto,shoulder_pan_joint,shoulder_lift_joint,elbow_joint,wrist_1_joint,wrist_2_joint,wrist_3_joint,Posicion_X,Posicion_Y,Posicion_Z,Roll,Pitch,Yaw
0,-2.2445839961903267,-1.4957789334499818,-1.5540659799179233,-4.082504730959341,4.110720059372678,-5.209762063610987,0.17441394554739434,0.09118377554598327,0.31151005505634094,1.6407913511795615,0.6689634383218831,1.696656910897269
1,-2.244567692690516,-1.495777433896749,-1.5540651653597566,-4.082475015770542,4.110694517059392,-5.209749434025704,0.1744124069507523,0.09118966291652819,0.3115110653753112,1.6407917395785474,0.668927413111088,1.6966826320860584
2,-2.2444548838600427,-1.4957670580358373,-1.554059529186223,-4.082269407420513,4.110517782093105,-5.209662046117482,0.17440175623452778,0.0912303963350376,0.31151805872987437,1.6407944116444064,0.6686781569822104,1.6968606215095432
3,-2.244152658421259,-1.4957392601311548,-1.5540444293486293,-4.081718563363851,4.110044292539934,-5.209427925714001,0.174373181477951,0.09133949849983815,0.3115368174171386,1.6408014378246172,0.6680104898778213,1.6973376162502125
4,-2.243571977327011,-1.495685850604234,-1.5540154172633058,-4.080660198684591,4.109134552999289,-5.208978098285091,0.17431811391812282,0.09154901361885753,0.3115729526414261,1.6408143954054895,0.666728131423113,1.698254680705152
5,-2.242627620350563,-1.4955989911217127,-1.5539682351431237,-4.078938988749595,4.107655050927552,-5.208246547568362,0.17422809361124786,0.09188944097112889,0.3116319802357732,1.6408339428019838,0.6646439494914077,1.699747753710598
6,-2.241238132675521,-1.4954711896828141,-1.5538988133290104,-4.07640647186193,4.105478172961753,-5.2071701741948235,0.17409459699298532,0.09238964095548084,0.31171941672789666,1.6408592606829535,0.6615803252707756,1.7019483356491105
7,-2.239325771485757,-1.495295295706829,-1.553803267621468,-4.072920951914267,4.102482121243252,-5.205688754314515,0.17390883430721044,0.09307671604760173,0.3118408900340296,1.6408873768631667,0.6573696231837145,1.7049842917894804
8,-2.236816452555334,-1.4950644951205958,-1.5536778966120897,-4.06834740104226,4.098550829741416,-5.203744898222131,0.17366152487454048,0.09397586781890593,0.3120022585275241,1.640912387622635,0.6518547592343746,1.7089807506899357
9,-2.233639696838429,-1.4947723054459825,-1.5535191790150762,-4.062557362277936,4.0935738805772965,-5.201284008982643,0.17334265829970327,0.09511022996981024,0.3122097316423227,1.640924584027971,0.6448898668120709,1.714061079274086
10,-2.2297285770592588,-1.4944125708873672,-1.553323770998754,-4.055428852203079,4.0874464203473115,-5.198254241056929,0.17294124999544638,0.09650067630738547,0.3124699845749851,1.6409094881951034,0.6363410645396632,1.7203479192102946
11,-2.2250196643020024,-1.4939794574191194,-1.55308850351709,-4.046846263602625,4.080069076446922,-5.194606458927395,0.17244509986200232,0.09816560186119527,0.3127902590760486,1.6408468014634883,0.6260873363640997,1.7279642724959994
12,-2.2194529746007277,-1.4934674478730805,-1.5528103796412114,-4.036700268118039,4.07134787339431,-5.190294195723606,0.17184056363534234,0.10012067498832605,0.3131784418027002,1.6407092643081793,0.6140215397450092,1.7370346275965896
13,-2.212971915529312,-1.4928713370260458,-1.55248657189092,-4.0248877189007075,4.06119414915406,-5.185273611847905,0.17111234732337063,0.10237855847556543,0.3136431112737404,1.6404614266094724,0.6000515635517962,1.747686120924723
14,-2.2055232327913705,-1.4921862266872448,-1.5521144195662104,-4.011311553265328,4.0495244714608365,-5.179503453601044,0.17024333628396024,0.10494859840973418,0.31419354416672796,1.6400583267210351,0.5841016632069813,1.7600497315291608
15,-2.197056956810177,-1.4914075207858224,-1.5516914260787866,-3.99588069534329,4.036260554143059,-5.172945011807807,0.169214471826666,0.1078364810613696,0.31483967158203224,1.6394440787524027,0.566114006801798,1.7742615090737794
16,-2.1875263493185906,-1.4905309204583201,-1.5512152562835795,-3.978509958736065,4.021329173446587,-5.165562080442634,0.1680046896616845,0.1110438603123622,0.3155919760431963,1.6385503698550792,0.5460504724327735,1.7904638358067477
17,-2.1768878499489785,-1.489552419136157,-1.5506837338102626,-3.959119949168595,4.0046620843583955,-5.157320915255251,0.16659093594139943,0.1145679613427212,0.316461320502545,1.6372948735481963,0.5238947438842891,1.808806721291107
18,-2.16510102282314,-1.488468297633111,-1.5500948383947701,-3.9376369671426774,3.9861959369302533,-5.14819019239629,0.1649482778442547,0.11840117043942279,0.3174587015921668,1.6355795920798168,0.4996547589164502,1.8294491229448615
19,-2.152128503142233,-1.4872751192327989,-1.5494467032108135,-3.913992910590353,3.965872192602403,-5.138140967042917,0.16305012636999452,0.12253062592426064,0.3185949209401915,1.6332891518517423,0.47336557150684566,1.8525602742919454
20,-2.137935943776695,-1.4859697247761592,-1.5487376122013976,-3.8881251775272925,3.9436370405272383,-5.127146632024461,0.16086858890923691,0.12693783127661304,0.31988017071257363,1.6302890930782457,0.445092695785468,1.878320984106181
21,-2.1224919618561695,-1.4845492277489314,-1.5479659974103392,-3.859976568706184,3.919441313892985,-5.115182876448034,0.15837496781059557,0.13159831841682712,0.321323532799083,1.626424220984715,0.41493600387640467,1.9069248404965276
22,-2.1057680853594296,-1.4830110093691387,-1.5471304363137823,-3.829495190270121,3.8932404062473767,-5.1022276443241585,0.15554041813310304,0.1364813965555584,0.32293239538843904,1.6215171248335158,0.3830342503201645,1.9385792107248194
23,-2.087738699704303,-1.481352713674567,-1.546229649151716,-3.7966343564059875,3.864994187821336,-5.088261093192393,0.15233677255200004,0.1415500295801142,0.3247117961939831,1.6153670277341707,0.34957028877391455,1.9735058655020639
24,-2.068380994337594,-1.4795722426102482,-1.5452624962594912,-3.7613524919978465,3.834666921852653,-5.073265552746958,0.14873753351072194,0.14676089201939385,0.32666370836888187,1.6077492101379542,0.3147770269271063,2.0119409702286015
25,-2.04767490932501,-1.4776677511159395,-1.5442279753993373,-3.7236130352803265,3.8022271809096613,-5.0572254834623624,0.1447190217896135,0.152064659358424,0.3287862931785248,1.598415358633843,0.2789441250248449,2.0541340696465777
26,-2.0256030819410857,-1.4756376422136055,-1.5431252190918794,-3.6833843404920095,3.7676477632149217,-5.040127435219025,0.14026165646416588,0.15740659177903132,0.331073152653034,1.587095332632762,0.2424253706478085,2.100345543022583
27,-2.002150793259106,-1.4734805620948985,-1.5419534919476552,-3.6406395805288163,3.7309056089688957,-5.021960005928907,0.1353513237898502,0.16272746997852308,0.3335126254498664,1.573501012322189,0.20564654217378306,2.150841826305748
28,-1.97730591474103,-1.47119539520864,-1.5407121879986316,-3.5953566495973948,3.6919817166736273,-5.002713800161128,0.12998077229796687,0.16796493608299887,0.33608717955545014,1.55733307663753,0.16911338702925902,2.2058875002755065
29,-1.9510588548274168,-1.468781259348302,-1.539400828029722,-3.5475180658685073,3.6508610594564215,-4.9823813877676,0.12415094924523506,0.17305528026932454,0.3387729655704446,1.5382917209156157,0.13341906933037626,2.265733167449812
30,-1.9234025055273496,-1.4662375007394874,-1.538019056910303,-3.497110874130417,3.607532501393522,-4.96095726250865,0.11787217107714668,0.1779356930626066,0.34153960324562277,1.5160923829380664,0.09925007246255617,2.330597961335157
31,-1.8943321890083578,-1.4635636891274113,-1.5365666409257315,-3.444126548442275,3.5619887138337907,-4.938437800678644,0.11116499999105464,0.18254697320668076,0.3443502805173786,1.490487373000531,0.06738908422165132,2.400645677443539
32,-1.863845604186344,-1.4607596128643823,-1.5350434651088614,-3.388560894787508,3.5142260917223855,-4.9148212197316115,0.10406068299220167,0.18683664091923163,0.34716224717135374,1.461293713009773,0.038712898079314724,2.475954068556815
33,-1.8319427733155063,-1.4578252739972835,-1.5334495305715607,-3.330413953727205,3.464244669924441,-4.890107536906877,0.09660100264864036,0.19076235656395157,0.3499277829170907,1.4284262735439393,0.014182959986893366,2.5564780100588225
34,-1.798625988578263,-1.454760883355053,-1.531784951836228,-3.2696899030535027,3.4120480395487447,-4.86429852785468,0.08883739414687547,0.19429548689930867,0.3525957104965282,1.3919333258245283,-0.005173902680977812,2.6420091381125608
35,-1.7638997586751777,-1.4515668556361654,-1.5300499541673105,-3.206396960442977,3.3576432642714176,-4.8373976852618,0.08082920540598482,0.19742459831235973,0.35511350695573396,1.3520290295883994,-0.01829651315558625,2.7321370512230025
36,-1.7277707554148822,-1.4482438044961132,-1.5282448709028196,-3.140547286110025,3.3010407966595925,-4.809410177477188,0.07264101967256985,0.20015859390433138,0.35743003911647325,1.3091147754468078,-0.024132660440685964,2.8262196099758343
37,-1.6902477603040018,-1.4447925376348874,-1.5263701407858483,-3.072156885460256,3.2422543944950917,-4.780342807137585,0.06433902581593594,0.20252915601839755,0.35949891180155596,1.2637798836890792,-0.02169282298881494,2.9233710518611553
38,-1.6513416111370787,-1.4412140518844578,-1.5244263052960887,-3.001245511743875,3.1813010370981063,-4.7502039697931515,0.05598651114102509,0.20459211665975532,0.36128236943171493,1.2167733789820492,-0.010109437412011285,3.022475067457845
39,-1.6110651485864969,-1.4375095282962562,-1.522414005981348,-2.927836568709075,3.1182008416508777,-4.719003612533093,0.04763866276110133,0.20642736544911958,0.3627556341459398,1.1689432440523642,0.011305774562803843,3.12222475995144
40,-1.5694331627924056,-1.4336803272286551,-1.5203339817890662,-2.851957013255417,3.052976979521371,-4.686753192611283,0.039336990579007455,0.2081369288994738,0.3639114987534153,1.1211468516170862,0.04301488288607184,-3.0620020359610076
41,-1.5264623399526445,-1.4297279834344498,-1.5181870663978325,-2.7736372580872226,2.985655592586957,-4.65346563607189,0.03110381760243642,0.2098409256449839,0.36476492416650835,1.0741433083114595,0.08522406612979169,-2.9653348217480073
42,-1.4821712089126677,-1.4256542011483402,-1.5159741855489024,-2.6929110743669598,2.9162657095580906,-4.619155296375004,0.022937407107014307,0.211671226900532,0.3653573235476463,1.0284814906872803,0.13787385180200612,-2.872469298022631
43,-1.4365800877554666,-1.4214608491744098,-1.5136963543777147,-2.6098154943686285,2.8448391623019904,-4.583837913022261,0.014808392508391457,0.213762832408943,0.3657601557156843,0.984394203586761,0.200646512576792,-2.784906905122945
44,-1.3897110303914961,-1.4171499559736092,-1.511354674745408,-2.5243907141311497,2.771410502166315,-4.5475305701824675,0.0066582234210302675,0.21624320532223218,0.36607740606462985,0.9416994538203783,0.2729827823403673,-2.704171246889261
45,-1.3415877731485981,-1.4127237047512353,-1.5089503325703384,-2.436679996111751,2.6960169163028453,-4.510251655317228,-0.0015996815903131338,0.2192200823509978,0.36644651271981227,0.8996965712442249,0.354096379655061,-2.631903144648188
46,-1.2922356813619253,-1.4081844285444132,-1.506484595159596,-2.3467295718393557,2.6186981439911587,-4.472020817806571,-0.01007549797951986,0.22276856612402132,0.3670373072652822,0.857029658444326,0.44297209092130263,-2.5700355684366314
47,-1.2416816959638657,-1.4035346053095767,-1.5039588085405213,-2.254588544567965,2.53949639296231,-4.432858927574568,-0.018894912278458454,0.2269185836345995,0.36804859057375844,0.811472961771132,0.5383292651045573,-2.5210762705555756
48,-1.1899542800739666,-1.3987768530099502,-1.501374394792223,-2.160308791930052,2.4584562557225125,-4.392788033714968,-0.02818735334816296,0.23164401867884848,0.3697020605057825,0.7595695144747708,0.638523698096735,-2.4885496776377507
49,-1.1370833655888595,-1.3939139247030292,-1.4987328493770942,-2.063944868589943,2.375624625876813,-4.351831323116819,-0.038070914012156995,0.23685495361568226,0.3722334518046644,0.6960282748843161,0.7413410505818325,-2.477680061245255
50,-1.083100299772183,-1.388948703628061,-1.4960357384723302,-1.9655539088972072,2.291050614452771,-4.310013079090092,-0.04863482138495849,0.24239444363738538,0.3758809374185896,0.6127972917686915,0.8435964011702495,-2.4963910811130647
51,-1.0280377918445098,-1.3838841982935264,-1.4932846963014443,-1.8651955295400455,2.204785466224142,-4.267358639991309,-0.05992081626697834,0.2480410595532856,0.3808710675935028,0.49799859070878805,0.9404013010369198,-2.5564332629062325
52,-0.9719298595732675,-1.3787235375646203,-1.4904814224657854,-1.7629317321986733,2.11688247603455,-4.223894357849166,-0.07190526188705695,0.25351805246036085,0.38740277560218456,0.33624629811336576,1.0239954413078936,-2.673118349550909
53,-0.9148117758626644,-1.3734699657507337,-1.4876276792760552,-1.6588268061987095,2.0273969051211687,-4.179647556990161,-0.08448414694302095,0.25850941769054225,0.395630238503159,0.11576690155984364,1.082690854767384,-2.8582439169807525
54,-0.8567200153436139,-1.3681268376929325,-1.4847252890838245,-1.5529472311645653,1.9363858974384023,-4.134646492664219,-0.09746330148070488,0.26268239648573954,0.4056456245998365,-0.1509326387304117,1.102696697671743,-3.0994656613459095
55,-0.7976922009636596,-1.362697613851442,-1.48177613161305,-1.445361579672829,1.8439083959815599,-4.088920309670314,-0.11055603914063941,0.2657151134437928,0.4174629597036344,-0.4135028163858474,1.0760594617584873,2.9364107335674214
56,-0.7377670505768954,-1.3571858553931238,-1.4787821412915918,-1.3361404199056537,1.7500250591105382,-4.042499000982103,-0.12339002917793165,0.2673271968269571,0.43100447424518806,-0.6195269180676035,1.0073754543497262,2.734871787397121
57,-0.6769843235338979,-1.351595219278961,-1.4757453045827302,-1.2253562183041455,1.6547981768735007,-3.9954133663735396,-0.13552447344430238,0.2673104807234784,0.4460908269249281,-0.7534404095031484,0.9087205279484248,2.5938428391945783
58,-0.6153847672716408,-1.3459294533515362,-1.4726676573166826,-1.113083242221748,1.558291587330551,-3.94769497104451,-0.14647764782964987,0.2655563662179818,0.4624365172926771,-0.8255201445806617,0.7914421805809806,2.501905691032592
59,-0.5530100639034257,-1.340192391422514,-1.46955128202212,-0.9993974625776336,1.4605705928774158,-3.8993761042464525,-0.15576364391065206,0.26207623951605885,0.47965158721502216,-0.8504284183260014,0.6636164381377498,2.442882767742709
60,-0.48990277680880445,-1.3343879483601215,-1.4663983052576843,-0.8843764565100853,1.361701876569125,-3.8504897379079854,-0.16293584119106955,0.2570115979109299,0.49725036885908236,-0.8392473799861451,0.5308029039333595,2.403746302724757
61,-0.4261062972235028,-1.3285201151766295,-1.4632108949435054,-0.7680993100298874,1.2617534184436847,-3.8010694852605322,-0.16763341678287147,0.2506312627208843,0.5146675773071651,-0.7989173410570598,0.39717973292026343,2.3751401602031477
62,-0.3616647908293451,-1.3225929541158339,-1.4599912576927174,-0.6506465206737122,1.1607944118457634,-3.7511495594639452,-0.16962623978719518,0.24331424283246,0.5312814962033889,-0.7333137999032951,0.266342164419506,2.3503140374306746
63,-0.29662314434418136,-1.3166105937405361,-1.4567416361429768,-0.5320999001575046,1.0588951797503632,-3.700764732232134,-0.16885297772700178,0.235518363600747,0.5464434053384533,-0.6442923471024369,0.14180338932652026,2.324207106720041
64,-0.2310269121118056,-1.3105772240200249,-1.4534643062879775,-0.41254247702987534,0.9561270910865054,-3.6499502924586897,-0.16544730285682774,0.22773653515287953,0.5595118010409872,-0.5325241048369413,0.02730018648165262,2.2929685622706315
65,-0.1649222626918836,-1.3044970914175562,-1.45016157480897,-0.2920583993254797,0.8525624770609035,-3.59874200484251,-0.15974780485959983,0.2204442881011409,0.569889421402429,-0.39826650981251205,-0.07306345203595958,2.253915137646748
66,-0.09835592544987737,-1.2983744939778354,-1.446835776406276,-0.1707328372184076,0.7482745474816439,-3.547176068513423,-0.1522885863926824,0.21404370985277646,0.5770606672488953,-0.24220846982533273,-0.15487484857982464,2.2058861357731763
67,-0.03137513714696816,-1.2922137764144983,-1.4434892711308076,-0.04865188567557599,0.6433373070818691,-3.4952890756578174,-0.14376943630818426,0.20880993169793083,0.5806267591782233,-0.06637376783209624,-0.21375497732222123,2.149857727079366
68,0.03597241147001551,-1.2860193251975909,-1.4401244417155823,0.07409753288988696,0.5378254718434468,-3.4431179701442645,-0.1350067465969478,0.20484664838031064,0.5803359313450898,0.1252167951929235,-0.2460209840159384,2.0894439840584393
69,0.10363862907868127,-1.279795563641052,-1.4367436909072409,0.1974277659652639,0.4318143853206604,-3.390700006149143,-0.12686869396349815,0.20205667875959382,0.576106156272431,0.32665103389455086,-0.24952544998688708,2.0307170929192346
70,0.17157507719114218,-1.2735469469901934,-1.4333494387975645,0.3212505282848488,0.32537993496387596,-3.338072706782267,-0.12020033599674236,0.20013228476464195,0.5680383216995019,0.5312920629511095,-0.22430514663377113,1.9810320672232515
71,0.23973302356409443,-1.2672779575091813,-1.4299441201549907,0.44547699917656125,0.21859846844322872,-3.2852738227125107,-0.11574586925570443,0.19856796065455767,0.5564184160296926,0.7335385132440441,-0.17266903194173236,1.9473140906965662
72,0.30806349560889457,-1.2609930995685164,-1.4265301817561313,0.5700179199085698,0.1115467099723011,-3.2323412907934337,-0.11407610728672993,0.19669590291369293,0.5417080757011625,0.9301908067348588,-0.09869340655376614,1.9347933079505362
73,0.37651733380163144,-1.2546968947325166,-1.4231100797172889,0.6947836910358935,0.004301676631799367,-3.179313192688904,-0.11552909978952551,0.193741678317845,0.52452373866481,1.1208309218060137,-0.007466567799415903,1.9467778620346592
74,0.4450452450932052,-1.2483938768467973,-1.4196862768259733,0.819684469747016,-0.10305940530677038,-3.1262277134987295,-0.12017069418787799,0.18889507646604814,0.5056055529113582,1.3074145051329704,0.09551927718034053,1.9852542833695528
75,0.513597856319405,-1.2420885871257512,-1.4162612398724197,0.944630267210508,-0.2104591840574157,-3.073123100384278,-0.1277798399480146,0.1813891119392235,0.48577802264375847,1.4936002680721505,0.2046402412824804,2.0517423788495828
76,0.582125767610981,-1.2357855692400317,-1.4128374369811039,1.069531045921634,-0.31782026599598545,-3.0200376211941027,-0.137860785267735,0.1705789212526052,0.46590505670050664,1.6841289164110405,0.3140975393557325,2.1479521373542605
77,0.6505796058037192,-1.229489364404032,-1.4094173349422614,1.1942968170489552,-0.42506529933648896,-2.9670095230895734,-0.14968134519384566,0.15601206792451175,0.44684254715837385,1.884194277426681,0.41768067767520367,2.275963224321311
78,0.7189100778485171,-1.2232045064633672,-1.406003396543402,1.3188377377809646,-0.5321170578074161,-2.9140769911704965,-0.16233351164786486,0.137482577020704,0.42939180481490563,2.0984452840097556,0.5085211263450302,2.437642680571497
79,0.7870680242214698,-1.2169355169823548,-1.4025980779008282,1.4430642086726762,-0.6388985243280638,-2.8612781071007403,-0.17481020671974518,0.11506277462967729,0.41425709308576675,2.3291511487780947,0.5791361032353124,2.6329798149931136
80,0.8550044723339294,-1.2106869003314964,-1.3992038257911519,1.5668869709922602,-0.7453329746848469,-2.808650807733864,-0.1860902678737823,0.08910948133436687,0.4020101420636263,2.5735849666322745,0.6221899234640689,2.8575121303457625
81,0.9226706899425965,-1.2044631387749574,-1.3958230749828104,1.6902172040676362,-0.8513440612076355,-2.7562328437387427,-0.19522300720997657,0.06024397652171522,0.3930639269380921,2.822288635152872,0.6321922675722708,3.100579397863483
82,0.9900182385595797,-1.1982686875580502,-1.3924582455675851,1.8129666226331018,-0.956855896446057,-2.7040617382251897,-0.20140398000077728,0.02930803739797262,0.38765721972181566,3.0610294039218573,0.6074298334755919,-2.9359283595660135
83,1.0569990268624885,-1.1921079699947128,-1.3891117402921167,1.9350475741759325,-1.0617931368458313,-2.6521747453695843,-0.20403485990446785,-0.002699105516940207,0.38585054652056555,-3.0067756083731245,0.5505961013661136,-2.6992347357068107
84,1.1235653641044947,-1.1859853725549923,-1.385785941889423,2.0563731362830007,-1.1660810664250905,-2.600608809040497,-0.20276235042238644,-0.034696174180357156,0.387533288202365,-2.822659837493837,0.4674924293825625,-2.480126856488831
85,1.1896700135244163,-1.1799052399525234,-1.3824832104104152,2.1768572139873985,-1.269645680450692,-2.5494005214243174,-0.19749357099862108,-0.06559987095655898,0.39244083231833066,-2.6718429794269367,0.3649662776015237,-2.279811209600637
86,1.255266245756793,-1.1738718702320121,-1.379205880555416,2.2964146371150322,-1.3724137691145497,-2.4985860816508723,-0.18838800131838931,-0.09440171564837867,0.40017999018983097,-2.552874710442776,0.2494624544503415,-2.095432848611205
87,1.320307892241956,-1.1678895098567144,-1.3759562590056753,2.4149612576312354,-1.47431300120995,-2.448201254419062,-0.17582851300572358,-0.1202346968715569,0.4102603894935971,-2.4632420461225144,0.12650583337596505,-1.922426330031487
88,1.384749398636115,-1.1619623487959188,-1.3727366217548873,2.5324140469874106,-1.5752720078078717,-2.398281328622474,-0.16037597996593284,-0.14242428859692305,0.4221292717149348,-2.400782136237197,0.0007684906707848239,-1.755852662831612
89,1.4485458782214153,-1.1560945156124267,-1.3695492114407084,2.6486911934676094,-1.675220465933311,-2.3488610759750204,-0.14271324045726624,-0.1605204089086306,0.43520707390824753,-2.3642437463053603,-0.12363965444248293,-1.590919946054783
90,1.5116531653160377,-1.1502900725500342,-1.3663962346762728,2.763712199535158,-1.7740891822416023,-2.299974709636554,-0.12358469597766725,-0.17430911804411295,0.44892134083632185,-2.353353305598354,-0.24284651912285676,-1.423132095454592
91,1.5740278686842526,-1.144553010621012,-1.3632798593817101,2.877397979179272,-1.871810176694737,-2.251655842838497,-0.10373759327918594,-0.18380498316454497,0.46273686286011284,-2.368564238574818,-0.3529407207741289,-1.2484161086698573
92,1.635627424946509,-1.1388872446935872,-1.3602022121156625,2.9896709552616674,-1.9683167662376864,-2.203937447509467,-0.08387015955871774,-0.18922683656040978,0.47618041888297236,-2.4104791017157705,-0.4498010200906602,-1.063489433692284
93,1.696410151989507,-1.1332966085794243,-1.357165375406801,3.100455156863175,-2.0635436484747256,-2.156851812900904,-0.06459042805276799,-0.19096095058692428,0.4888590663608243,-2.4788560347502395,-0.5291265527224763,-0.866652192259359
94,1.7563353023762711,-1.1277848501211063,-1.354171385085343,3.2096763166303512,-2.1574269853457464,-2.1104305042126916,-0.04638801738806154,-0.18951635943209108,0.5004715047000251,-2.571273167804566,-0.5867992618227769,-0.6589582635553153
95,1.8153631167562243,-1.1223556262796157,-1.3512222276145682,3.3172619681220876,-2.2499044868025866,-2.0647043212187883,-0.029619529523596484,-0.1854771726135445,0.5108125916968081,-2.682035087001416,-0.6196419065531278,-0.44518272191924124
96,1.8734548772752757,-1.1170124982218146,-1.3483198374223375,3.423141543156233,-2.3409154944853547,-2.019703256892847,-0.014506796263904592,-0.17945631886204147,0.5197715717365665,-2.802405266523945,-0.6263570151525242,-0.23349519982767022
97,1.9305729609858795,-1.1117589264079277,-1.3454660942326073,3.5272464691561964,-2.4304010653987387,-1.9754564560338408,-0.001146072616368364,-0.17205435572341377,0.5273249483718747,-2.9227191601182154,-0.6081000104292559,-0.033276523794554834
98,1.98668089325712,-1.1065982656790219,-1.3426628203969486,3.629510266497567,-2.5183040555883274,-1.9319921738916976,0.010474473190652204,-0.16382593222334327,0.5335251855002573,-3.0352414455018883,-0.5682283956224319,0.14779221407713788
99,2.0417434011847955,-1.1015337603444872,-1.3399117782260626,3.729868645854731,-2.6045692038169577,-1.889337734792914,0.020451968250977184,-0.15525535581111605,0.5384865470145361,-3.1358252721393476,-0.5113728725720447,0.3054324191404877
100,2.09572646700147,-1.0965685392695188,-1.3372146673212986,3.828259605547464,-2.6891432152410006,-1.8475194907661865,0.028943710873675383,-0.14674163040829372,0.5423693926836755,3.059469296918496,-0.442421310634553,0.4386108541167124
101,2.14859738148658,-1.0917056109625978,-1.33457312190617,3.9246235288875777,-2.771974845086702,-1.8065627801680368,0.036142355222994395,-0.1385924082436912,0.5453641555389481,2.982837665458544,-0.3658539567797956,0.5483762194286574
102,2.2003247973764766,-1.0869478586629713,-1.3319887081578716,4.018903281525489,-2.8530149823264983,-1.766491886308438,0.0422535106124271,-0.1310256036637149,0.5476760566565833,2.9150497300925067,-0.2854835644964557,0.6366986893327851
103,2.2508787827745382,-1.0822980354281349,-1.329462921538797,4.111044308796879,-2.9322167333553466,-1.7273299960764348,0.04747721692694304,-0.12417698157451777,0.5495113932438209,2.8535065163306568,-0.20445168260869803,0.7057306493648476
104,2.3002308745612106,-1.0777587592213127,-1.3269971841280543,4.200994733069271,-3.009535505667034,-1.6890991585657757,0.05199409608356734,-0.11811185031685127,0.5510659915233107,2.7958393515532074,-0.12532932094823743,0.7574679591337098
105,2.3483541318041063,-1.0733325079989389,-1.3245928419529849,4.288705451088671,-3.0849290915305048,-1.6518202437005387,0.05595637541170302,-0.11283902494747093,0.5525161707037826,2.7400887751692586,-0.050232099719556576,0.7936652060511807
106,2.395223189168077,-1.069021614798138,-1.3222511623206783,4.3741302313261485,-3.158357751666177,-1.6155129008607445,0.05948348441679446,-0.1083254310805293,0.5540123377050932,2.6847707466120587,0.019089010635755518,0.8158806938173329
107,2.4408143103252793,-1.064828262824208,-1.3199733311494906,4.457225811324477,-3.2297842989222776,-1.5801955175079998,0.06266156976765239,-0.10451003322281133,0.5556751384420817,2.6288979510900163,0.0811925926807753,0.825573838555979
108,2.485105441365255,-1.060754480538098,-1.3177604503005604,4.537951995044747,-3.2991741819511446,-1.5458851778111153,0.06554606086972233,-0.1013161377579914,0.5575939390572967,2.5719821083885086,0.13492583394377533,0.8242096196231722
109,2.528076264205017,-1.0568021367438927,-1.3156135349093268,4.61627175021294,-3.366495568885558,-1.512597621271722,0.06816633891888367,-0.09866148991311924,0.5598273030658002,2.5140179685420003,0.17942995989699553,0.8133406470168413
110,2.5697082499991084,-1.0529729356762916,-1.3135335107170447,4.692151305666597,-3.4317194310150674,-1.4803472013499137,0.07053159274805738,-0.09646591827702992,0.562405067067641,2.4554382285515266,0.2141602073114684,0.7946458604475773
111,2.6099847125496907,-1.04926841208809,-1.3115212114023043,4.765560248701398,-3.494819626462295,-1.4491468440898494,0.07263705559599658,-0.09465655492822678,0.5653315942270869,2.3970290642906242,0.23890590084671934,0.7699139592238194
112,2.6488908617166147,-1.0456899263376607,-1.3095773759125444,4.836471622417777,-3.5557729838592795,-1.419008006745417,0.07446997728617277,-0.09317086177313766,0.5685897945505958,2.3398062840488327,0.2537962937780267,0.7409732174555584
113,2.686413856827493,-1.0422386594764346,-1.3077026457955734,4.904862023067549,-3.6145593860237843,-1.3899406364058184,0.07601486784254997,-0.0919578228277383,0.572145536333833,2.2848671129630542,0.25928187712465733,0.7095852206228414
114,2.722542860087787,-1.0389156083363824,-1.3058975625310822,4.970711697400494,-3.6711618536356045,-1.3619531286212032,0.07725772797267977,-0.09097772449119144,0.5759521259249525,2.233244128373803,0.2560883808949318,0.6773315072099814
115,2.757269089990874,-1.0357215806174949,-1.3041625648621649,5.034004640011021,-3.725566628912933,-1.3350522860283234,0.078189142110986,-0.0902009531151152,0.5799545955624806,2.1857889902844057,0.24514903523158157,0.6455228483652544
116,2.7905858747281154,-1.0326571899752641,-1.3024979861268324,5.094728690684724,-3.777763259288635,-1.3092432769761286,0.07880624031530223,-0.08960620557833743,0.5840936048757059,2.1431036488396242,0.22752641479500335,0.6151505095865831
117,2.8224887055989556,-1.0297228511081653,-1.3009040515895316,5.152875631745028,-3.8277446810865774,-1.2845295941513921,0.07911363158330267,-0.08917844857316543,0.5883088253668062,2.105521523671031,0.2043363801752416,0.5868832678665187
118,2.8529752904209684,-1.0269187748451363,-1.2993808757726615,5.208441285399797,-3.8755073031979768,-1.2609130132043567,0.07912347316992546,-0.08890688894266617,0.5925417349282031,2.073128440436416,0.17668376078880513,0.5611009333046774
119,2.8820456069399625,-1.0242449632330604,-1.2979284597880902,5.261425611087935,-3.9210510907577163,-1.2383935513743527,0.07885487170135205,-0.08878314134556306,0.5967377986703536,2.045807284807131,0.14561466812005208,0.5379490512743146
120,2.909701956240029,-1.021701204624245,-1.2965466886686712,5.311832802826025,-3.9643796488206124,-1.2169694261154018,0.0783328178147198,-0.0887997086213728,0.6008480517666938,2.0232911044180004,0.1120859050942253,0.5174000406080916
121,2.9359490161536406,-1.0192870687639075,-1.2952353286997613,5.359671386554911,-4.005500306037815,-1.1966370137218734,0.07758684311733598,-0.08894882953847819,0.6048301294106144,2.0052138002395994,0.0769490559648923,0.4993102890952446
122,2.9607938946717174,-1.0170019018776493,-1.2939940247507378,5.404954317486331,-4.044424198333084,-1.1773908079540956,0.07664956284189776,-0.08922170070289884,0.6086488088518086,1.9911526005920903,0.04094563214778266,0.48346767032639354
123,2.984246183353694,-1.014844821758942,-1.2928222976065136,5.447699077449526,-4.081166352579114,-1.15922337866398,0.0755552354008856,-0.08960804486144938,0.6122761399000425,1.9806604753877133,0.004709644879581901,0.4696278298905349
124,3.0063180107376195,-1.0128147128566078,-1.2917195412990556,5.487927772237844,-4.115745770273842,-1.1421253304206394,0.07433843580532151,-0.09009597578223773,0.6156912446316946,1.973289060454504,-0.031225406557995817,0.4575399439292226
125,3.0270240957502073,-1.0109102213622991,-1.2906850204389018,5.5256672289553705,-4.148185511216845,-1.1260852611360423,0.07303290711960013,-0.09067209855967481,0.6188798658130098,1.9686037695920233,-0.06641734219312752,0.4469637227888235
126,3.046381801116913,-1.0091297502979804,-1.2897178675466772,5.560949093363504,-4.17851277718553,-1.11108972069061,0.07167062512190553,-0.09132178134028843,0.6218337382494927,1.9661930346532883,-0.10050537872452368,0.4376796733887923
127,3.06441118677204,-1.0074714546034083,-1.2888170803846108,5.593809927227635,-4.20675899561156,-1.097123169558846,0.07028108744607649,-0.0920295377777948,0.6245498492459179,1.9656734359413297,-0.1332003740420889,0.42949444805750275
128,3.0811350632687815,-1.005933236223616,-1.287981519288054,5.624291305663702,-4.232959903257173,-1.0841679374349704,0.06889082017767914,-0.09277946684006384,0.6270296447908926,1.966692136883909,-0.16427572827947173,0.42224276300218816
129,3.096579045189302,-1.0045127391963882,-1.2872099044969953,5.652439914484807,-4.257155629891429,-1.0722041818585382,0.0675230820261501,-0.09355570606224244,0.6292782279192649,1.968927667373135,-0.1935591650544793,0.4157870127885506
130,3.110771604554848,-1.0032073447397483,-1.2865008134875797,5.678307647547863,-4.279390781966585,-1.061209846840086,0.06619773824368623,-0.09434286451329221,0.6313035856848557,1.9720897764225034,-0.22092545604949687,0.4100154023187505
131,3.1237441242357504,-1.0020141663394364,-1.2858526783036233,5.701951704100187,-4.2997145262944425,-1.0511606214867104,0.064931272622086,-0.09512641156092871,0.6331158718127671,1.9759188177576272,-0.24629006332717193,0.404839182240538
132,3.1355309513615874,-1.0009300448363905,-1.2852637828881306,5.72343468612611,-4.318180673722589,-1.0420298986277459,0.06373690529043397,-0.09589300629363826,0.6347267637253335,1.9801849404118503,-0.26960363078129557,0.40018940257861885
133,3.1461694507312052,-0.9999515435142267,-1.2847322604148137,5.742824695693578,-4.334847762810771,-1.0337887334403675,0.06262478578963866,-0.09663075981075593,0.6361489054235968,1.984687220824488,-0.29084724041577614,0.3960134794586607
134,3.155700058222783,-0.9990749431867241,-1.2842560906196065,5.760195432300799,-4.349779143507245,-1.0264058020751934,0.06160223422454536,-0.09732942838925479,0.6373954417104696,1.989252782210486,-0.31002834835969695,0.3922717867580769
135,3.164166334203983,-0.9982962372853019,-1.283833097132183,5.775626290222837,-4.36304306082503,-1.019847360281954,0.060674007518279116,-0.09798053982283396,0.6384796444268642,1.9937358910306398,-0.32717732179439385,0.38893442598257355
136,3.1716150169419186,-0.9976111269465013,-1.2834609448074732,5.789202455858224,-4.374712738518248,-1.0140772020350965,0.059842572377084416,-0.09857745816421004,0.6394146276432511,1.998016990919752,-0.3423445065601028,0.38597828422886526
137,3.1780960760133365,-0.9970150160994664,-1.2831371370571818,5.801015005075543,-4.384866462758499,-1.0090566181593967,0.059108371108812806,-0.09911539390811394,0.6402131459768833,2.0020016246746493,-0.35559776352066824,0.3833844553450081
138,3.1836627657146175,-0.9965030065534268,-1.2828590131813031,5.811161000560125,-4.3935876658111095,-1.0047443549556077,0.058470070634645405,-0.09959136757709287,0.6408874682455324,2.00561919930642,-0.36702041860145584,0.38113606951540496
139,3.188371678471865,-0.9960698930851799,-1.2826237456996392,5.819743589160582,-4.400965009711504,-1.001096572826068,0.05792478870393862,-0.10000413495547304,0.6414493173785087,2.008821563033014,-0.3767095764908667,0.3792165496727397
140,3.192282798251036,-0.9957101585265642,-1.282428337683317,5.826872099235445,-4.407092469941482,-0.9980668049003567,0.0574682943599257,-0.1003540820743708,0.6419098667521929,2.011581382429418,-0.38477475157556185,0.37760828897507953
141,3.1954595539679445,-0.9954179688519507,-1.2822696200863035,5.83266213799976,-4.412069419105613,-0.995605915660871,0.05709518206758894,-0.10064309766198265,0.6422797827840074,2.0138903294076855,-0.3913367723155389,0.3762917225242562
142,3.1979688728983633,-0.9951871682657174,-1.2821442490769253,5.837235688871763,-4.416000710607445,-0.9936620595684822,0.05679902060938722,-0.10087443027710001,0.6425693036086811,2.015757108579687,-0.39652691760608977,0.37524474933456015
143,3.199881234088131,-0.9950112742897322,-1.282048703369383,5.840721208819431,-4.418996762325941,-0.9921806396881747,0.056572478919422416,-0.10105253683880022,0.6427883438955269,2.0172053738991784,-0.4004862463180072,0.37444244804146404
144,3.2012707217631697,-0.9948834728508333,-1.2819792815552697,5.843253725707104,-4.421173640291741,-0.9911042663146414,0.05640743152564916,-0.10118292881379891,0.642946616283372,2.018271598066844,-0.4033650846122897,0.3738570224328115
145,3.202215078739617,-0.9947966133683125,-1.2819320994350878,5.844974935642094,-4.422653142363478,-0.9903727155979087,0.05629504628361734,-0.1012720219580524,0.6430537604610643,2.0190029685167143,-0.4053226400505208,0.37345791060915734
146,3.202795759833869,-0.9947432038413915,-1.2819030873497645,5.84603330032134,-4.423562881904118,-0.9899228881689943,0.05622585670568563,-0.10132699524139785,0.643119471563724,2.0194553900221823,-0.40652671701411097,0.3732119939878462
147,3.203097985272653,-0.9947154059367092,-1.2818879875121705,5.846584144378005,-4.424036371457294,-0.9896887677655206,0.056189820516706734,-0.10135566440996777,0.6431536202474176,2.019691676707281,-0.40715351434638175,0.37308384857964233
148,3.2032107941031236,-0.9947050300757968,-1.281882351338637,5.846789752728048,-4.424213106423585,-0.9896013798572927,0.05617636520569476,-0.10136637555134748,0.6431663575033405,2.0197800165117568,-0.40738749310529576,0.3730359897745538
149,3.2032270976029342,-0.9947035305225645,-1.2818815367804703,5.8468194679168395,-4.424238648736868,-0.9895887502720075,0.05617442040166866,-0.10136792401331837,0.6431681979236713,2.0197927901133554,-0.4074213093774861,0.37302907183852707
