nimar13/UR3e_dataset_trayectorias/data/trayectorias_completas_UR3e_QUINTIC_FUNC/trayectoria_041.csv
Punto,shoulder_pan_joint,shoulder_lift_joint,elbow_joint,wrist_1_joint,wrist_2_joint,wrist_3_joint,Posicion_X,Posicion_Y,Posicion_Z,Roll,Pitch,Yaw
0,-3.818506287421477,5.4973102737919834,-0.4254597717169726,-3.020873999525509,-4.265943069101978,-4.127937195568917,-0.16166610598864092,0.012428717605573498,0.4995577055229512,-0.28967348875327914,0.9264512144628696,0.1268032721993655
1,-3.818508947777124,5.497307439005089,-0.42545551084977906,-3.0208653572199125,-4.265912090894395,-4.127910068156537,-0.16166447578382967,0.0124311548614956,0.49956033558950286,-0.2896268954788179,0.9264243753130522,0.12683045617212002
2,-3.8185273555799064,5.497287824259918,-0.4254260286250735,-3.0208055585019538,-4.265697743336615,-4.127722365411738,-0.1616531977099178,0.012448019103733884,0.4995785354764003,-0.2893045627035378,0.9262386604231048,0.12701850117844235
3,-3.8185766718102894,5.497235274517659,-0.42534704297952997,-3.0206453521271692,-4.265123486122616,-4.1272194921511085,-0.16162299823914797,0.012493201141283505,0.4996273090012246,-0.2884415203836214,0.9257410550431378,0.12752186907255403
4,-3.8186714255899132,5.497134308027346,-0.42519528384479705,-3.0203375394778114,-4.264020136554338,-4.126253296200081,-0.16156503805838524,0.012580016380864593,0.4997210785342778,-0.2867854235896957,0.9247847454536327,0.12848729399589706
5,-3.818825522896884,5.496970107039128,-0.4249484791889465,-3.0198369462507553,-4.262225768057437,-4.1246819795238405,-0.16147095679663395,0.012721216449119464,0.49987373918170236,-0.2840980311287723,0.9232288518226508,0.13005254560895724
6,-3.81905225528107,5.496728508517543,-0.42458534105792206,-3.0191003941454064,-4.259585608697037,-4.122370009358241,-0.16133293332986076,0.012929001814848464,0.5000987260752439,-0.2801571242482812,0.9209381184154986,0.13234484566712662
7,-3.8193643085793965,5.496395994854786,-0.4240855516169875,-3.0180866725516067,-4.255951939693484,-4.119188029340715,-0.1611437596318135,0.013215035096067015,0.5004090915597252,-0.2747587154983387,0.9177825846587601,0.13547907349167002
8,-3.819773771631137,5.495959684583982,-0.42342974919217613,-3.016756510237544,-4.251183993938095,-4.115012770641183,-0.16089692662346855,0.013590454697108605,0.5008175889071153,-0.2677193807543619,0.9136372650920547,0.13955591515941312
9,-3.82029214499321,5.495407323092457,-0.4225995143117385,-3.0150725470376587,-4.245147854508909,-4.109726963092975,-0.16058672093900056,0.014065888378338753,0.5013367589986627,-0.25887853480054396,0.9083818697453947,0.14466012607974013
10,-3.820930349655473,5.494727273335009,-0.42157735574759164,-3.012999305540549,-4.237716353186449,-4.103219246323734,-0.1602083319420329,0.014651466317641307,0.5019790162183891,-0.2481004668810038,0.9019005980691257,0.15085908287770075
11,-3.8216987357560157,5.493908506547176,-0.4203466965567676,-3.0105031627768812,-4.22876896896946,-4.095384080886332,-0.15975796866424555,0.015356833180015565,0.5027567296024981,-0.23527596066252524,0.8940820385361257,0.15820179472157164
12,-3.8226070912964536,5.492940592958514,-0.4188918601228619,-3.0075523219072964,-4.218191726590671,-4.0861216593897876,-0.15923298657383894,0.01619115866974195,0.5036822950973394,-0.22032334530820344,0.8848192020821983,0.16671852423522965
13,-3.8236646508572245,5.491813692505862,-0.4171980561974822,-3.004116783910317,-4.205877095032548,-4.0753378176301664,-0.1586320241912679,0.01716314599796568,0.5047681945998551,-0.20318886128783312,0.874009710732102,0.17642113347873106
14,-3.8248801043128795,5.490518545546613,-0.415251366941697,-3.0001683192702537,-4.191723886043037,-4.062943945721507,-0.1579551495347212,0.01828103765560129,0.5060270372957334,-0.18384627451688335,0.8615561536312195,0.1873042228134
15,-3.8262616055473804,5.4890464635719916,-0.41303873296748433,-2.9956804396651147,-4.175637152651326,-4.048856899226725,-0.1572040161818839,0.019552617834602732,0.5074715786808975,-0.1622957316282433,0.8473666122592788,0.19934707360343543
16,-3.8278167811693913,5.487389319920317,-0.4105479393791802,-2.990628369654512,-4.157528087683594,-4.0329989102885255,-0.1563820283653239,0.02098521078643156,0.5091147125640152,-0.13856191198811976,0.8313553461439368,0.21251634531469618
17,-3.8295527392275743,5.485539540490279,-0.40776760181492727,-2.984989018367568,-4.137313922278757,-4.015297498760322,-0.1554945139683828,0.02258567434090128,0.5109694313187763,-0.11269159166915306,0.8134436213270637,0.22676942046579862
18,-3.8314760779258834,5.4834900944542095,-0.4046871524881236,-2.978740951190824,-4.114917824404233,-3.9956853833371433,-0.15454890355374232,0.024360387726854015,0.5130487497077334,-0.08475078408703642,0.7935606574415787,0.24205824397253542
19,-3.8335928943388575,5.48123448497135,-0.4012968262288712,-2.9718643614561486,-4.0902687973716825,-3.9741003926865472,-0.15355491264091234,0.02631523273377561,0.5153655877635256,-0.05482165557913275,0.7716446664529178,0.25833347250174515
20,-3.8359087931269165,5.478766739901125,-0.3975876465254246,-2.964341042128641,-4.063301578352766,-3.950485376579534,-0.15252472336198647,0.02845556712638166,0.5179326085234137,-0.022999428200315468,0.7476439573182008,0.2755487381288407
21,-3.838428895251653,5.476081402516412,-0.3935514115656396,-2.9561543574945444,-4.0339565368948955,-3.924788117021458,-0.15147316038596612,0.03078618906957233,0.5207620069097612,0.010610524392418622,0.7215180858708774,0.29366483961896667
22,-3.84115784669113,5.4731735222168165,-0.3891806802784217,-2.947289214849147,-4.002179573436987,-3.896961239382941,-0.15041785463983426,0.03331129113838206,0.5238652467771628,0.04589520681069761,0.6932390375106242,0.31265370179664426
23,-3.844099827155171,5.470038645241937,-0.384468758375175,-2.9377320361846944,-3.967922017825213,-3.8669621235307847,-0.14937938691027297,0.036034402279293734,0.5272527441532573,0.08273601496038557,0.6627924407966413,0.3325019840303451
24,-3.8472585588006565,5.466672805384641,-0.3794096843912506,-2.9274707298782947,-3.9311405278287532,-3.834752814958883,-0.14838140193779067,0.038958315862868624,0.5309334960312454,0.12101013616129938,0.6301788217094957,0.35321426661603755
25,-3.8506373149468187,5.463072514704332,-0.37399821572739533,-2.9164946623798254,-3.891796987655548,-3.800299935919133,-0.14745068218401036,0.04208500173624918,0.5349146557698745,0.16059128879487078,0.5954149201350589,0.374815792200071
26,-3.854238928790534,5.459234754240225,-0.36822981469120036,-2.904794629899843,-3.849858406468049,-3.763574596552351,-0.14661716914736297,0.04541549996829558,0.5392010582544049,0.20134979928356417,0.5585351012168056,0.3973547823898724
27,-3.858065802121618,5.455156964724616,-0.36210063453854985,-2.892362830097487,-3.805296816898976,-3.724552306019181,-0.1459139190219936,0.0489497938089854,0.5437947004891337,0.2431520531407343,0.519592904069219,0.42090438274172365
28,-3.8621199140381193,5.450837037296149,-0.3556075055150695,-2.8791928337683914,-3.758089173567062,-3.683212883631011,-0.14537697875298458,0.05268665929684581,0.5486941862273718,0.2858593882013599,0.4786627786222356,0.4455643093122434
29,-3.866402829661614,5.4462733042130935,-0.34874792089757517,-2.8652795565325886,-3.708217251592812,-3.639540369980883,-0.1450451682629011,0.05662348899209377,0.5538941465708697,0.3293265230525213,0.4358420678561481,0.47146227515100025
30,-3.8709157088525004,5.441464529566613,-0.34152002303552176,-2.8506192305224185,-3.655667545114251,-3.5935229380744063,-0.14495975494198457,0.060756087546906264,0.5593846521267901,0.37339963525535547,0.39125329707688056,0.498755264481626
31,-3.875659314925292,5.436409899994033,-0.3339225893924514,-2.8352093760704347,-3.6004311658026773,-3.5451528044606695,-0.14516400753932346,0.06507843731408877,0.5651506361962693,0.4179142270568343,0.3450468335052662,0.5276306948562965
32,-3.8806340233639114,5.43110901539212,-0.3259550185874425,-2.8190487733973137,-3.5425037413784173,-3.4944261403631547,-0.1457026184894219,0.0695824330130803,0.5711713524396874,0.4626929472910633,0.2974039769502517,0.5583074614920025
33,-3.8858398305369866,5.42556187963034,-0.31761731643655816,-2.8021374342997607,-3.481885314126574,-3.4413429828106485,-0.14662098656382033,0.0742575856905961,0.577419894327145,0.5075435847462364,0.248540533222802,0.5910367901037042
34,-3.8912763624131435,5.4197688912641455,-0.30891008199429476,-2.784476573838418,-3.4185802394127807,-3.385907145768154,-0.14796435562655824,0.0790906979003306,0.5838628071965177,0.5522575192368808,0.19871090207619968,0.6261027298571886
35,-3.8969428832763,5.413730834248232,-0.2998344935950308,-2.7660685820257704,-3.3525970841989534,-3.328126131267806,-0.1497768102272144,0.08406551423726133,0.5904598266176796,0.5966090214290326,0.14821267434581226,0.6638219900325023
36,-3.90283830444096,5.407448868649818,-0.29039229489447504,-2.7469169955140558,-3.283948525559044,-3.2680110405397804,-0.1521001347606852,0.08916235413023925,0.597163778672352,0.6403559398624874,0.09739166905595317,0.704542655825119
37,-3.908961192967509,5.400924521361914,-0.28058578091111597,-2.72702646928317,-3.2126512491947894,-3.205576485143208,-0.1549725498627192,0.09435773712132287,0.6039206783494935,0.6832425084208701,0.046647237367210895,0.7486411066753652
38,-3.9153097803775077,5.394159676816591,-0.2704177840676696,-2.7064027483285744,-3.138725847951468,-3.1408404980970883,-0.1584273474170254,0.09962401469635998,0.6106700611613398,0.725005244065417,-0.0035625003649904603,0.796516210624965
39,-3.9218819713689843,5.387156567698256,-0.2598916602325285,-2.685052639349205,-3.0621967203336493,-3.0738244450112004,-0.16249145375673602,0.1049290269764734,0.6173455799540858,0.765383155095452,-0.05271605378124003,0.8485796081485506
40,-3.928675352531731,5.379917765656918,-0.24901127476121043,-2.6629839824353776,-2.9830919690209443,-3.004552935217016,-0.16718395899168806,0.11023580706512749,0.6238758934115691,0.8041336760891957,-0.10022549224955704,0.9052406965429634
41,-3.9356872010625983,5.372446172021465,-0.23778098853780685,-2.640205622756697,-2.901443299383763,-2.9330537328986117,-0.17251465843768787,0.11550236032650044,0.6301858646984636,0.8410557546428268,-0.14543621174675112,0.9668849127204268
42,-3.942914493480786,5.364745008512928,-0.22620564401643148,-2.6167273822499624,-2.817285917999062,-2.8593576682235815,-0.17848265934393295,0.12068155002643433,0.6361980779429105,0.8760211219550675,-0.18763130581837012,1.0338443019954728
43,-3.9503539143431414,5.3568178079577615,-0.2142905512626692,-2.592560031307077,-2.7306584311660984,-2.7834985484739514,-0.18507511193601486,0.1257211242013896,0.641834666849092,0.909013697243325,-0.22604270898544848,1.1063604384710517
44,-3.958001864959451,5.348668405001104,-0.20204147399502428,-2.5677152604629545,-2.6416027434221814,-2.7055130691770857,-0.1922661276178594,0.13056392087455507,0.6470194338751379,0.9401750318040787,-0.2598714202975036,1.184541799786623
45,-3.9658544721077345,5.340300926820057,-0.18946461562636965,-2.542205652083426,-2.5501639560584266,-2.6254407252366097,-0.2000159484272177,0.13514828930997874,0.6516802205417652,0.9698506435129557,-0.28831869239368985,1.2683207408833461
46,-3.9739075967495414,5.331719783836953,-0.17656660530539475,-2.516044652053147,-2.456390265635507,-2.543323722063314,-0.2082704300007665,0.1394087633717864,0.6557514702148567,0.9986285332255953,-0.3106287674462948,1.357418747067242
47,-3.982156842745242,5.322929660432626,-0.16335448395805452,-2.4892465414635057,-2.360332862499402,-2.4592068867060686,-0.21696089497722534,0.1432770187516534,0.6591769050288825,1.027358458019339,-0.32614140861471813,1.451331322439142
48,-3.9905975655693235,5.3139355056596855,-0.14983569032901844,-2.461826408300531,-2.2620458292971546,-2.373137578982738,-0.22600440471892183,0.14668313843732117,0.6619122196060346,1.0571407036885048,-0.3343494192932305,1.5493436352942584
49,-3.9992248810256834,5.304742523955784,-0.1360180470231181,-2.4338001191327985,-2.1615860394926227,-2.285165602611089,-0.23530448444941632,0.14955720004588935,0.663927677180474,1.0892779090171203,-0.3349535054989678,1.650583125700469
50,-4.008033673962926,5.295356165856889,-0.12190974654679698,-2.4051842907993377,-2.0590130558822266,-2.19534311633971,-0.24475232062825644,0.15183118445786858,0.6652104800842515,1.1251927939847468,-0.3279056014643784,1.754105817431968
51,-4.01701860698965,5.285782118710558,-0.10751933734955854,-2.3759962620975412,-1.9543890291107102,-2.1037245450789195,-0.2542284301348982,0.15344118772904042,0.6657667777584058,1.166325301751429,-0.3134332496716605,1.8590021750386525
52,-4.026174129189752,5.276026297389204,-0.09285570986541469,-2.34625406547107,-1.8477785961868824,-2.0103664910316765,-0.2636047794179191,0.15432989798817495,0.665623172923782,1.2140296156956785,-0.29204175306780567,1.9645010437746082
53,-4.035494484837714,5.266094835003369,-0.07792808255433453,-2.3159763986977624,-1.7392487789993782,-1.9153276448244982,-0.2727473092530806,0.1544492767343783,0.6648275915037636,1.2694909075356833,-0.264496106435377,2.070050328281508
54,-4.044973722113898,5.255994073614997,-0.0627459879436933,-2.28518259657754,-1.6288688828324056,-1.8186686966383663,-0.2815187984332572,0.15376336074365274,0.6634493952487226,1.3336737029720225,-0.23178897678064214,2.175360397552991
55,-4.0546057018198445,5.245730554950702,-0.047319258669720865,-2.253892602620317,-1.5167103948815015,-1.7204522473396486,-0.2897819790191992,0.15225107810413463,0.6615786382489713,1.4073025114782074,-0.19510263706618272,2.280406676829405
56,-4.06438410609356,5.235311011115041,-0.031658013518949424,-2.2221269407339057,-1.4028468827692797,-1.6207427196109991,-0.29740279819644794,0.14990895140055296,0.6593243995735839,1.4908658971710176,-0.15577154499750073,2.385396568081111
57,-4.074302447124818,5.224742355303782,-0.01577264346966417,-2.1899066869119244,-1.2873538930611894,-1.519606269082284,-0.30425370872950885,0.14675354460047227,0.6568121634413793,1.584630462895971,-0.11524915763348496,2.4907099998732707
58,-4.084354075870449,5.214031672517183,0.00032620226665003305,-2.1572534409217052,-1.17030884978126,-1.417110695461484,-0.3102168627101048,0.1428234996365536,0.654180264247555,1.6886514499192742,-0.07507891875954972,2.5968228886287816
59,-4.094532190769636,5.203186210273252,0.01662763020385949,-2.124189297992202,-1.0517909529278584,-1.3133253536656113,-0.3151870826817001,0.13818100579673043,0.6515754643942905,1.8027703791569882,-0.03686620626396459,2.7042208587224246
60,-4.104829846459207,5.192213369321028,0.03312051653973219,-2.090736820501895,-0.9318810769894403,-1.2083210649516216,-0.31907449078812744,0.132912551312909,0.6491477855568102,1.92659587626433,-0.0022460098649206067,2.813309241786213
61,-4.115239962488932,5.181120694353845,0.04979352111449048,-2.0569190096667023,-0.8106616694602997,-1.1021700280473254,-0.32180669033934434,0.12712882300928038,0.6470447656218692,2.0594706331547736,0.02715936515778664,2.924326306836745
62,-4.125755332036816,5.169915864722607,0.0666351013693614,-2.0227592772278835,-0.6882166493563258,-0.9949457302823022,-0.32333041456579137,0.12096364694951504,0.6454053606208933,2.2004346485031085,0.04979680769840069,3.037270045639298
63,-4.136368630624391,5.158606685149058,0.08363352630512866,-1.9882814171399492,-0.5646313057307526,-0.8867228587188132,-0.32361258325406517,0.11457190037889511,0.6443537500254443,2.348200974938002,0.06425367136462014,-3.1313322895970828
64,-4.147072424832013,5.147201076439056,0.1007768904406835,-1.9535095772585684,-0.43999219618990937,-0.7775772112827126,-0.32264073783890357,0.10812637173707691,0.6439933314459478,2.5011623692567135,0.0693387446120568,-3.015683922122616
65,-4.157859181014156,5.135707066195836,0.11805312777157662,-1.9184682310284749,-0.31438704540897655,-0.6675856078943587,-0.3204228573992932,0.10181359911861315,0.6444012042096409,2.6574422632911348,0.06416183832756138,-2.899775743344328
66,-4.168721274014703,5.124132779533292,0.13545002572856946,-1.883182149171374,-0.1879046436477365,-0.5568258015995293,-0.31698658965810295,0.09582877549149778,0.64562343836058,2.8149903726290644,0.04819717913514168,-2.784535803698809
67,-4.1796509958822465,5.112486429789237,0.15295523913618514,-1.8476763713738522,-0.06063474526632184,-0.4453763897003338,-0.31237796024167924,0.09036986780404126,0.6476714051647466,2.971706009796883,0.02131705486663397,-2.670868063500212
68,-4.190640564585374,5.100776309238683,0.17055630417126033,-1.8119761779752834,0.06733203275902255,-0.33331672488612574,-0.30665964798075274,0.08563115292783002,0.6505194072043732,3.1255590456219413,-0.016210924269145825,-2.55949807004928
69,-4.201682132727971,5.0890107798071105,0.18824065232149578,-1.776107061655735,0.19590431232020045,-0.22072682636441376,-0.29990893211921893,0.08179642213844607,0.6541037918353292,-3.008508459724233,-0.0637594853240709,-2.4508409768698267
70,-4.212767796264506,5.077198263783733,0.20599562434400953,-1.7400946991238784,0.3249900556614991,-0.10768729099177321,-0.29221542763785696,0.07903214361035543,0.6583236636236235,-2.865809192008471,-0.1203979051497307,-2.3449103960246687
71,-4.223889603215335,5.0653472345347765,0.22380848422388588,-1.7039649228048916,0.4544966668638475,0.00572079559523786,-0.28367872682380707,0.0774808957618085,0.6630432329645388,-2.731050473432231,-0.18495211657751948,-2.241269379780159
72,-4.235039562381987,5.053466207216745,0.2416664331327283,-1.6677436925283726,0.5843310933290571,0.11941594784916543,-0.2744060587585484,0.07725539059291613,0.6680957539323407,-2.6056720620199867,-0.25605284222923547,-2.1390108116242015
73,-4.246209652062462,5.041563729489697,0.25955662338721086,-1.6314570672162414,0.7143999272640729,0.2333163691807547,-0.26451006430594626,0.07843339385264339,0.6732889196420561,-2.491145678509504,-0.3321597041400229,-2.0367489934721426
74,-4.257391828766526,5.029648372230508,0.27746617240762916,-1.59513117657065,0.8446095071652193,0.3473400408280263,-0.254106763857419,0.08105381765796422,0.678411503414393,-2.389106664584952,-0.4115534611535359,-1.9326081746830104
75,-4.268578035931001,5.017728720246152,0.2953821766764505,-1.5587921927618906,0.9748660193024499,0.461404810725373,-0.2433137704566214,0.08511421215202442,0.6832409640593688,-2.3014818155718286,-0.4922917360963959,-1.8242069668686836
76,-4.279760212635065,5.005813362986962,0.31329172569686903,-1.5224663021162987,1.1050755992035972,0.5754284823726454,-0.23224877424722942,0.09056981836380484,0.6875516783195218,-2.2305774848409863,-0.5721267108804025,-1.7086630455085334
77,-4.290930302315539,4.993910885259913,0.3311819159513514,-1.4861796768041668,1.235144433138612,0.6893289037042338,-0.22102829785836936,0.09733426827466471,0.6911234267018183,-2.179054078273498,-0.6483904116772283,-1.5826888237292103
78,-4.302080261482192,4.982029857941883,0.3490398648601939,-1.4499584465276487,1.3649788596038217,0.8030240559581605,-0.2097666986574347,0.10528193483385656,0.693749743114428,-2.1496424540613392,-0.7178731960278995,-1.4429243053981367
79,-4.313202068433021,4.970178828692926,0.36685272474007025,-1.4138286702086618,1.4944854708061701,0.9164321425451725,-0.19857537473927944,0.11425184955428815,0.6952457450142888,-2.1443786451127624,-0.7767667859470498,-1.286734578037441
80,-4.324287731969556,4.958366312669549,0.3846076967625839,-1.377816307676805,1.6235712141474696,1.0294716779178135,-0.18756211856773328,0.12405302384939845,0.6954550887460844,-2.163184679466229,-0.8208163906378778,-1.1136484644350064
81,-4.335329300112152,4.946600783237976,0.4022920449128198,-1.341947191357256,1.7521434937086466,1.1420615764395237,-0.17683055619970464,0.13447093773071284,0.6942557425085323,-2.2021098802181087,-0.8458671267107453,-0.9271277924265259
82,-4.346318868815279,4.9348906626874225,0.41989310994789464,-1.3062469979586881,1.8801102717339937,1.254121241253734,-0.1664796111764111,0.14527490054751532,0.6915643336846781,-2.2525305444486383,-0.8488326876913453,-0.7353724656539895
83,-4.357248590682823,4.923244312943368,0.4373983233555103,-1.2707412201611659,2.0073801701154057,1.3655706531529281,-0.1566029399540017,0.15622594681089003,0.6873389038159058,-2.3028995873291183,-0.8286772201302084,-0.5495720689486325
84,-4.368110683683371,4.911670026280823,0.4547952213125027,-1.2354551383040657,2.133862571876646,1.4763304594477562,-0.14728829905663918,0.16708490824355965,0.6815799882562241,-2.3426345969588604,-0.7867129459257411,-0.3800172457769849
85,-4.378897439865513,4.900176016037603,0.4720714586433963,-1.200413792073971,2.25946772265758,1.5863220628361114,-0.13861682138750359,0.17762030204873153,0.6743300231535603,-2.365288590902778,-0.7259671664408477,-0.23292776398320542
86,-4.389601234073136,4.8887704073276,0.4892148227789508,-1.1656419521925916,2.3841068321984196,1.6954677102722124,-0.13066219844822347,0.18761569453922514,0.6656711645817324,-2.369016160777486,-0.6501336706089497,-0.10998546924552703
87,-4.40021453266071,4.877461227754052,0.5062132477147183,-1.1311640921046566,2.5076921758239923,1.8036905818357,-0.12348978461365753,0.1968762368639851,0.6557216785619554,-2.3551141071549226,-0.5627487530811537,-0.009793723202406155
88,-4.410729902208594,4.866256398122815,0.5230548279695891,-1.0970043596658374,2.6301371959279676,1.9109148796007256,-0.1171556571975727,0.20523412256292864,0.6446311223253341,-2.326313951725567,-0.4668044693776788,0.07041343011681211
89,-4.42114001823832,4.8551637231556315,0.5397278325443473,-1.0631865488306442,2.7513566034571095,2.017065916505021,-0.1117056802032179,0.2125527811041835,0.6325745834744713,-2.285652631021966,-0.3646804058664455,0.1336380007670511
90,-4.43143767392789,4.8441908822034065,0.5562207188802203,-1.029734071340338,2.8712664793955263,2.1220702052190106,-0.10717462916261684,0.21872969286548874,0.6197462728906568,-2.235939050705887,-0.25822120670317084,0.18257753559885206
91,-4.441615788827077,4.833345419959476,0.5725221468174299,-0.9966699284108342,2.9897843762489265,2.225855547014884,-0.10358543860423769,0.22369778446480612,0.6063527787314017,-2.179586688985326,-0.1488515955850773,0.2194463863666216
92,-4.4516674175727085,4.822634737172876,0.5886209925537438,-0.964016682420616,3.1068294195288564,2.3283511206356833,-0.1009486322527663,0.22742543433436288,0.5926062832904611,-2.1186199170776128,-0.03768278669832157,0.24596475237426071
93,-4.461585758603967,4.8120660813616185,0.6045063626030285,-0.9317964285986342,3.2223224092369467,2.4294875711643984,-0.09926198936852806,0.22991518286369828,0.5787180235204599,-2.0547468296767195,0.07440238571299412,0.2634057480066994
94,-4.471364162877682,4.801646537525957,0.6201676077538001,-0.9000307667122232,3.336185921349167,2.52919709889305,-0.09851048943268863,0.23120129595512645,0.5648922421633317,-1.9894508877304247,0.18668489583129658,0.2726488439341027
95,-4.480996142583628,4.791383018861662,0.6355943370277732,-0.8687407727549994,3.4483444093000726,2.6274135481917673,-0.09866656277418037,0.231346373013323,0.5513208328044227,-1.9240854958622688,0.2985608456407587,0.27421751144998646
96,-4.490475379859813,4.78128225747329,0.6507764316384139,-0.837946970634778,3.558724305467047,2.7240724963778984,-0.09969065802839605,0.230437218825031,0.5381788321891816,-1.8599713378738036,0.40950353657181854,0.2682906384008196
97,-4.499795735507774,4.771350795087455,0.6657040589494942,-0.80766930386147,3.6672541226545485,2.819111342585077,-0.10153211991206385,0.22858021309545468,0.5256208602927351,-1.7985051178101472,0.5190314929995923,0.25467923687140054
98,-4.508951257707876,4.761594973766101,0.6803676864336381,-0.7779271072349991,3.7738645555783803,2.912469396632318,-0.10413035404443888,0.2258964121633649,0.513778556193742,-1.741296181375977,0.6266776543735737,0.23275558176778888
99,-4.517936190734601,4.752020926619769,0.6947580956308761,-0.7487390785332018,3.8784885823498945,3.0040879678931143,-0.10741624063713087,0.22251660599243664,0.5027590086601995,-1.6903588234727849,0.7319539663289343,0.2013111110609105
100,-4.5267449836718425,4.7426345685208755,0.7088663961071977,-0.7201232501997419,3.9810615659602933,3.0939104541644875,-0.11131374676739683,0.2185765319266242,0.492644136848214,-1.6484081328982554,0.834302695059956,0.15829888610103035
101,-4.535372299128203,4.733441586816973,0.7226840394130973,-0.6920969610320089,4.081521355764825,3.1818824305361364,-0.11574167830093479,0.21421241730480645,0.483490940354299,-1.6193434451637545,0.9330190881821889,0.10037946594420824
102,-4.5438130219522845,4.724447432044032,0.736202833042134,-0.6646768278690343,4.179808388967072,3.2679517382594705,-0.1206155076803866,0.20955698844871196,0.475332510092181,-1.6090629496123312,1.0271154875228024,0.022128892529930683
103,-4.552062267947985,4.715657308639706,0.7494149543894739,-0.6378787172793934,4.275865792103175,3.352068573616717,-0.12584921277477737,0.20473604635202702,0.4681796724881148,-1.626812493486902,1.1150670872533421,-0.08529257237377265
104,-4.5601153925897915,4.707076165656602,0.762312964710449,-0.6117177172491144,4.369639482526096,3.434185576790008,-0.13135706454567975,0.19986567200777072,0.4620231291266056,-1.6871014819307666,1.1943282440949967,-0.2360426064610214
105,-4.567967999738076,4.698708687475555,0.7748898230791035,-0.5862081088695854,4.461078269889845,3.514257920730487,-0.13705530695516896,0.19505008879620678,0.456835951570668,-1.8106097300234716,1.2604924315216335,-0.45049281272583036
106,-4.5756159503543845,4.690559284518897,0.7871389003467482,-0.5613633380254623,4.5501339576337605,3.592243400027354,-0.14286368068427574,0.19038017738638396,0.45257629559888196,-2.015885879983389,1.3064285611517072,-0.7469184605281164
107,-4.58305537121674,4.68263208396373,0.799053993100511,-0.537195987082578,4.636761444466724,3.6681025197769808,-0.14870675212042733,0.18593261139082531,0.4491902092726652,-2.287280283820442,1.3237899078770905,-1.1094243760907203
108,-4.5902826636349285,4.674930920455194,0.810629337621886,-0.5137177465758436,4.7209188258514265,3.7417985844520096,-0.1545150199523141,0.18176956029775249,0.44661442367384446,-2.5530206947179375,1.309819320303879,-1.4660149515851848
109,-4.597294512165795,4.66745932681974,0.8218596238452893,-0.49093938689716365,4.802567495488609,3.813297786770417,-0.1602257828549313,0.17793889029096155,0.4447790324212795,-2.7486076970807756,1.2714161626623763,-1.751984926644693
110,-4.604087893328542,4.660220524778403,0.8327400093166075,-0.46887072998333545,4.8816722468013145,3.882569296564597,-0.1657837625081266,0.17447478336947772,0.4436099848473892,-2.8670561952252736,1.2186232256786658,-1.9601570593927775
111,-4.610660084320019,4.653217415660067,0.8432661331517488,-0.44752062100396506,4.958201374419132,3.9495853496504942,-0.17114148603183912,0.17139869029692537,0.4430313367969744,-2.9287055189079796,1.1587556470240234,-2.1106890972633425
112,-4.617008671730018,4.646452571114744,0.8534341299951957,-0.42689690004936987,5.032126775662454,4.014321336696607,-0.17625944043471875,0.16872053270817883,0.442967221399831,-2.953275952280148,1.0960407439568383,-2.2231277476543094
113,-4.623131560256566,4.63992822382684,0.863240643978554,-0.4070063738184846,5.103424052026706,4.076755892093182,-0.18110601859246836,0.166440073388675,0.44334351908109904,-2.954161866935018,1.0328134337494481,-2.3106997536033167
114,-4.629026981421227,4.633646258228426,0.8726828426791096,-0.3878547873067695,5.172072610666619,4.136870982821209,-0.18565728146441757,0.16454838045352063,0.44408922094909126,-2.939797898353466,0.9703936486051004,-2.3816764613459744
115,-4.634693502284383,4.627608201212512,0.8817584310783735,-0.36944679549412207,5.238055765880444,4.194651997321557,-0.18989656470834887,0.16302932001375417,0.4451374921942121,-2.9155041106088375,0.9095577046337104,-2.441217788760388
116,-4.640130034160539,4.621815212846317,0.8904656655206371,-0.35178593503277833,5.301360840594241,4.250087834364049,-0.19381395965252748,0.16186102209602762,0.4464264520923358,-2.8847236216689405,0.8507786635722011,-2.49260904242924
117,-4.645335841333615,4.616268077084539,0.8988033676715219,-0.33487459593522617,5.361979267846086,4.3031709919165575,-0.19740569889620968,0.1610172753363073,0.44789969464303125,-2.8497577721002583,0.7943512368635182,-2.537995648242378
118,-4.650310549772235,4.610967192482624,0.9067709384765297,-0.3187139932621066,5.419906692270337,4.353897656014073,-0.20067347585581982,0.16046881666815177,0.4495065789283479,-2.8121954603605257,0.7404593463049716,-2.578812403685736
119,-4.655054155845026,4.605912562910046,0.914368372119601,-0.3033041388101223,5.475143071581912,4.402267789627809,-0.2036237256042182,0.16018449236933216,0.45120232118720655,-2.773167574183614,0.6892143572245093,-2.6160381658196217
120,-4.659567035035913,4.601103788263564,0.9215962699816533,-0.28864381279995177,5.527692778060476,4.44828522153429,-0.20626689162601225,0.16013227604485014,0.4529479216608428,-2.733501538185288,0.6406777187119151,-2.650350976400555
121,-4.663849950659408,4.596540055180508,0.9284558545991479,-0.27473053556414895,5.5775647000347215,4.491957735184412,-0.20861669988619314,0.16028013716200767,0.45470995880470044,-2.693817734669079,0.5948749814760269,-2.6822253572106742
122,-4.667904062575908,4.592220127752041,0.9349489836226283,-0.2615605392350542,5.62477234336663,4.533297157572582,-0.21068945811527087,0.1605967604779361,0.4564602818164662,-2.6545912199108344,0.5518048704466394,-2.71199516736521
123,-4.671730935906992,4.588142338236432,0.9410781637752785,-0.2491287394326971,5.6693339329357135,4.572319448105754,-0.21250339465430368,0.16105212207105402,0.4581756299195585,-2.6161921513546185,0.5114454254193066,-2.739895400352549
124,-4.675332549750708,4.5843045777723255,0.9468465648114741,-0.23742870695271412,5.711272514123201,4.609044787472529,-0.21407804774484407,0.16161793174085448,0.4598372037593651,-2.5789128084384436,0.4737583493547273,-2.7660907588974895
125,-4.6787113058968695,4.580704287092016,0.952258033475329,-0.22645263945424476,5.7506160542964055,4.643497666512291,-0.21543371292108385,0.16226795436829627,0.46143021087099073,-2.542985964344097,0.4386922275884271,-2.7906957143475104
126,-4.681870037542355,4.5773384472347205,0.9573171074592537,-0.21619133314784555,5.7873975442928645,4.675706975084191,-0.21659095325643385,0.1629782245643457,0.4629434036747463,-2.5085975567288767,0.40618501219146846,-2.8137889437275683
127,-4.684812018006397,4.574203570259842,0.9620290293624993,-0.20663415448339428,5.82165509990464,4.705706090936342,-0.2175701746919264,0.1637271697328991,0.4643686250176694,-2.475895531545896,0.37616600891185975,-2.835423961497159
128,-4.687540969445873,4.571295689960246,0.966399760649717,-0.19776901183799644,5.853432063362551,4.733532968574872,-0.21839126655604568,0.16449565670209296,0.46570037303180156,-2.444996080486926,0.3485575102446381,-2.8556371097635296
129,-4.690061071570609,4.568610352575534,0.970435995609503,-0.18958232720389967,5.882777104820424,4.759230228132939,-0.21907330567651104,0.16526697649973324,0.4669353941100534,-2.4159880849467625,0.323276160858171,-2.874453665886383
130,-4.692376970358668,4.5661426075053075,0.9741451753129486,-0.18205900787639218,5.909744323839337,4.782845244239951,-0.21963432116537474,0.16602678082008007,0.46807231016134593,-2.3889363189047965,0.30023410628361674,-2.891892571082405
131,-4.694493786771643,4.563886998022447,0.9775355015722014,-0.17518241814171542,5.934393350871894,4.804430234890551,-0.22009111599596992,0.16676298239184062,0.4691112840233173,-2.3638837925642058,0.2793399541455961,-2.9079701202575676
132,-4.696417125469951,4.561837551986377,0.9806159508990049,-0.16893435096497322,5.956789448746416,4.824042350313732,-0.22045914084008641,0.16746562993449854,0.47005372498586123,-2.3408535042103042,0.26049956436620875,-2.9227028475862413
133,-4.698153083528134,4.55998777255634,0.9833962884632577,-0.1632949996780284,5.97700361415125,4.841743761841926,-0.22075241524703226,0.16812676678644864,0.4709020347979219,-2.3198497892349947,0.24361667769396295,-2.936109773419521
134,-4.699708259150146,4.558330628904666,0.9858870820515628,-0.15824292966742748,5.995112679118987,4.857601750780134,-0.22098349107158893,0.1687402806888951,0.4716593932676939,-2.300859400183931,0.22859338865719933,-2.9482141329089036
135,-4.7010897603846455,4.556858546930043,0.9880997160257732,-0.1537550500622893,6.0111994125107,4.871688797274912,-0.22116345304518448,0.1693017506810857,0.47232958158995314,-2.283852412268352,0.2153304683141869,-2.959044676985726
136,-4.702305213840301,4.555563399970795,0.9900464052815596,-0.1498065854222248,6.025352621500201,4.88408266918357,-0.22130195148695428,0.169808295655524,0.47291684080770935,-2.2687830201220813,0.20372754305652746,-2.96863661667738
137,-4.703362773401072,4.554436499518143,0.9917402092069392,-0.14637104742524665,6.037667253058319,4.894866510943203,-0.22140726232691485,0.1702584278720416,0.47342576230250044,-2.2555902704821724,0.193683137556606,-2.977032268655651
138,-4.704271128941509,4.553468585929481,0.9931950456408443,-0.14342020655566223,6.0482444954371095,4.9041289324397415,-0.22148636982644998,0.17065191366050336,0.47386120687398864,-2.2441987597957374,0.18509459224582964,-2.9842814510841076
139,-4.705039515042053,4.552649819141648,0.9944257048316691,-0.1409240637919953,6.057191879654096,4.911964097877146,-0.2215450676026249,0.17098964266612401,0.47422824878428566,-2.2345193140442734,0.17785786810929233,-2.990441672730503
140,-4.705677719704316,4.551969769384199,0.9954478633958146,-0.138850822294883,6.0646233809765535,4.918471814646386,-0.221588073770134,0.1712735063132829,0.4745321410786194,-2.2264496592903797,0.17186725382627588,-2.995578153929759
141,-4.706196093066389,4.551417407892675,0.996278098276252,-0.1371668590949997,6.070659520405736,4.923757622194593,-0.22161915619215553,0.17150628568040052,0.4747782985293543,-2.2198750848310156,0.16701499219854407,-2.9997637146662224
142,-4.70660555611813,4.550981097621872,0.9969339007010647,-0.1358366967809368,6.075427466161126,4.927932880894115,-0.2216412639692656,0.1716915486811718,0.4749722946667982,-2.214669095821436,0.1631908442814909,-3.0030785623659386
143,-4.706917609416456,4.550648583959113,0.9974336901419985,-0.13482297518713704,6.07906113516468,4.9311148609116575,-0.22165666138914625,0.17183355632269298,0.47511986954291224,-2.2106940483825435,0.1602816106168497,-3.005610009680383
144,-4.707144341800642,4.5504069854375295,0.9977968282730232,-0.13408642308178953,6.0817012945250815,4.933426831077243,-0.2216670606086731,0.1719371778410349,0.4752269451109217,-2.2078017571951944,0.1581706294570978,-3.0074521504355936
145,-4.707298439107611,4.55024278444931,0.9980436329288738,-0.13358582985473166,6.083495663021986,4.93499814775349,-0.2216737493465858,0.17200781467832157,0.475299645383924,-2.205834063166537,0.15673727190955428,-3.0087055199185415
146,-4.707393192887237,4.550141817958998,0.9981953920636071,-0.13327801720537202,6.084599012590261,4.935964343704512,-0.22167770983348264,0.17205133353810922,0.475344318847883,-2.2046233467386793,0.1558564535848241,-3.0094767637328226
147,-4.707442509117619,4.550089268216738,0.9982743777091498,-0.1331178108305875,6.0851732698042555,4.936467216965143,-0.2216797252009075,0.17207400911044463,0.4753675609362818,-2.2039929706532115,0.15539818171171052,-3.009878337579102
148,-4.707460916920402,4.550069653471567,0.9983038599338543,-0.13305801211262835,6.085387617362044,4.936654919709953,-0.221680469396352,0.17208247746518068,0.4753762347093504,-2.203757634385821,0.15522715590604955,-3.01002825854675
149,-4.70746357727605,4.550066818684671,0.998308120801048,-0.13304936980703408,6.085418595569625,4.936682047122325,-0.22168057658741988,0.17208370153976188,0.4753774882000987,-2.2037236209445306,0.15520244000364958,-3.0100499269314294
