nimar13/UR3e_dataset_trayectorias/data/trayectorias_completas_UR3e_QUINTIC_FUNC/trayectoria_092.csv
Punto,shoulder_pan_joint,shoulder_lift_joint,elbow_joint,wrist_1_joint,wrist_2_joint,wrist_3_joint,Posicion_X,Posicion_Y,Posicion_Z,Roll,Pitch,Yaw
0,-0.38188455433690066,-0.31714618939897493,-0.23218552064206432,-3.5102455552613305,-2.7726413642497296,1.9510385341728893,0.35679392187471576,-0.09409720916458472,0.4273589133104763,-0.30797364413083916,-0.29429155048542,-1.7215338274169552
1,-0.3818728503331338,-0.31714546731285703,-0.23219247106285357,-3.5102384786883642,-2.7726226852337637,1.9510478159462707,0.3567956315174494,-0.09409260102881917,0.42736119055584953,-0.30796884605633934,-0.2943057691250661,-1.7215095127970053
2,-0.3817918668024722,-0.31714047098130804,-0.23224056311975205,-3.51018951374652,-2.772493439490825,1.9511120393346264,0.3568074594341288,-0.09406071432573908,0.4273769470806964,-0.3079356523408758,-0.29440415043190454,-1.7213412689649155
3,-0.38157490432723223,-0.31712708534041123,-0.23236940625142138,-3.5100583320742,-2.772147178021694,1.9512840998164562,0.3568391336043066,-0.09397527288644908,0.42741915664968955,-0.30784677157183515,-0.29466770812531295,-1.7208904965436096
4,-0.3811580432977966,-0.3171013668283149,-0.23261695910794178,-3.509806286060687,-2.7714818882644856,1.951614688364091,0.3568999338308935,-0.09381105282111132,0.4275002411562741,-0.30767619795528456,-0.2951740333211371,-1.7200242760684499
5,-0.380480105570434,-0.31705954101968675,-0.23301955232030988,-3.5093963856633685,-2.770399932902407,1.9521523218506731,0.35699865253148105,-0.0935438227791996,0.42763206637867335,-0.3073993506784793,-0.29599729259388563,-1.7186151870793698
6,-0.37948261612511913,-0.316998000260168,-0.23361191126993625,-3.508793275224972,-2.76880798867152,1.952943373457138,0.35714354167367474,-0.09315027099459045,0.42782593412349434,-0.306993260575885,-0.2972082108804485,-1.7165410955291873
7,-0.3781097647233522,-0.3169133013008276,-0.23442717885814315,-3.50796321029079,-2.7666169851685027,1.9540321030791967,0.3573422477763336,-0.09260792178245357,0.4280925712676506,-0.3064367966321887,-0.29887404110285043,-1.713684913368008
8,-0.37630836756597913,-0.31680216293261687,-0.23549693827566218,-3.50687403442591,-2.7637420436584086,1.955460687734317,0.3576017365018207,-0.0918950440993941,0.4284421161097914,-0.3057109258942856,-0.3010585218554841,-1.709934333036626
9,-0.3740278289510107,-0.3166614636208234,-0.23685123577213202,-3.5054951560324454,-2.7601024158824297,1.9572692519687052,0.35792820797148794,-0.0909905547404192,0.4288841023442576,-0.30479900142019517,-0.303821823956016,-1.7051815384579314
10,-0.37122010293144303,-0.31648823913952545,-0.23851860342559594,-3.5037975251667635,-2.755621422865655,1.959495898264287,0.3583270035647076,-0.08987391872469264,0.429427440878127,-0.3036870739529824,-0.30722048611313185,-1.6993228929940203
11,-0.36783965497307675,-0.3162796802060463,-0.2405260819119997,-3.5017536103567144,-2.750226393724834,1.9621767374456907,0.3588025046249781,-0.08852504941719354,0.43008039962870775,-0.3023642240660904,-0.3113073394269202,-1.6922586037666831
12,-0.36384342361233707,-0.3160331301154084,-0.242899243274689,-3.4993373754188615,-2.7438486044761357,1.9653459190872273,0.3593580232071013,-0.08692421094710794,0.43085058136789955,-0.3008229125828703,-0.31613141991182786,-1.6838923607386116
13,-0.3591907821140936,-0.3157460823747878,-0.24566221369390734,-3.4965242562757095,-2.73642321684291,1.9690356619198737,0.3599956847672557,-0.08505192551842031,0.43174489962352813,-0.2990593481304895,-0.3217378677159077,-1.6741309480329853
14,-0.35384350012947996,-0.31541617833796826,-0.24883769625629354,-3.493291137772935,-2.727889217063449,1.9732762842382523,0.36071630253167875,-0.0828888882660084,0.43276955260789735,-0.29707387175135164,-0.3281678111972551,-1.6628838241338622
15,-0.34776570535371365,-0.31504120483979564,-0.25244699372437956,-3.489616330496615,-2.7181893546987475,1.9780962343076152,0.36151924318718764,-0.08041589239314587,0.4339299951217473,-0.29487135956692817,-0.3354582334990186,-1.6500626668591236
16,-0.3409238451839158,-0.31461909183063214,-0.256510031306088,-3.4854795475904545,-2.7072700814402646,1.9835221207708231,0.3624022835246553,-0.07761376743385595,0.4352309083783752,-0.2924616455697764,-0.34364181872426713,-1.6355808783284944
17,-0.3332866483769309,-0.31414791001081055,-0.26104537942423,-3.4808618815730195,-2.695081489917684,1.9895787430553298,0.3633614577410072,-0.0744633336144019,0.43667616770833606,-0.28985996770360967,-0.35274677423435863,-1.6193530445594349
18,-0.32482508670714677,-0.3136258684650885,-0.2660702764860027,-3.4757457811549632,-2.6815772525066746,1.996289121780161,0.36439089527202245,-0.07094537543823062,0.4382688081398173,-0.28708744146397647,-0.36279662495878107,-1.6012943438146097
19,-0.315512336624314,-0.3130513122971029,-0.271600651652487,-3.470115028056257,-2.666714560136653,2.0036745291628986,0.3654826492925419,-0.06704063778112118,0.4400109879031985,-0.28417156628538,-0.3738099748878547,-1.5813198974066058
20,-0.3053237409113661,-0.31242272026382406,-0.2776511476081452,-3.463954713823418,-2.6504540610985425,2.0117545194266597,0.36662651638729415,-0.06272984794810467,0.44190394997959104,-0.2811467709282615,-0.38580023009654213,-1.559344056363494
21,-0.29423677034223894,-0.31173870241000995,-0.28423514333031885,-3.4572512166467395,-2.6327597998525345,2.0205469592070817,0.3678098483683893,-0.057993767297560506,0.44394798190126433,-0.27805500486812423,-0.39877527669104923,-1.535279617222097
22,-0.28223098533969065,-0.3109979977026605,-0.2913647768587262,-3.449992178177521,-2.6135991558358516,2.0300680579593,0.36901735779709804,-0.052813276163833855,0.44614237411525093,-0.27494638320890247,-0.41273710595267205,-1.5090369603302265
23,-0.2692879976331216,-0.31019947166547207,-0.2990509680649599,-3.4421664803452954,-2.5929427822705042,2.040332398364932,0.3702309194585425,-0.04716949588724373,0.4484853773382411,-0.27187989272910673,-0.42768137765057473,-1.4805231045444804
24,-0.2553914319163939,-0.30934211401329137,-0.30730344142198474,-3.43376422217506,-2.5707645449710568,2.051352966739059,0.37142937083625327,-0.041043951765520253,0.45097415945886227,-0.2689241660818133,-0.44359691098797666,-1.4496406733248248
25,-0.24052688750565104,-0.3084250362865701,-0.3161307487736354,-3.424776696604505,-2.5470414611523835,2.063141183437207,0.37258831553355237,-0.03441878064635742,0.45360476267993805,-0.26615832955869523,-0.4604650909285504,-1.4162867692807983
26,-0.22468189999713833,-0.30744746948581886,-0.32554029210411395,-3.415196367301242,-2.5217536382374335,2.075706933262328,0.37367993458001764,-0.027276986657176462,0.45637206173528166,-0.2636729266913123,-0.4782591757382009,-1.3803517577042514
27,-0.20784590292502192,-0.3064087617060618,-0.3355383463074877,-3.4050168454800365,-2.4948842126649886,2.089058595871783,0.3746728116278708,-0.019602748183744863,0.45926972415949946,-0.26157091458375725,-0.4969434895279758,-1.3417179652353202
28,-0.19001018941920883,-0.30530837577129055,-0.3461300819571867,-3.3942328667200323,-2.4664192886974265,2.1032030761843217,0.3755317791620954,-0.011381778631618485,0.4622901737312884,-0.2599687212411089,-0.5164724815169378,-1.3002583085547617
29,-0.17116787386316715,-0.30414588686891886,-0.35731958807550146,-3.3828402677819844,-2.4363478772284806,2.1181458347870663,0.37621779398882726,-0.002601742701804577,0.46542455834647706,-0.2589973388795248,-0.5367896318728812,-1.2558348812750613
30,-0.15131385355174515,-0.3029209801842364,-0.3691098949030808,-3.3708359634254874,-2.4046618345910007,2.1338909183424914,0.3766878513897595,0.006747271144756057,0.4686627237019021,-0.25880340837482946,-0.557826182717224,-1.2082975469208603
31,-0.13044477034899132,-0.3016334485348636,-0.3815029966684294,-3.3582179232262033,-2.3713558013647154,2.1504409899954076,0.376894948387602,0.01667222269502676,0.4719931942801097,-0.2595502211128942,-0.5794996728248087,-1.1574826145695818
32,-0.10855897234597439,-0.3002831900052054,-0.3944998743574052,-3.3449851483930937,-2.336427141183991,2.16779735977994,0.376788107501268,0.027176538757698827,0.47540316321254,-0.261418523353452,-0.6017122566954498,-1.103211714571774
33,-0.08565647551860289,-0.2988702055809059,-0.4081005184827175,-3.331137648585646,-2.299875879545594,2.1859600150265135,0.37631247311285865,0.03825948293414127,0.47887849265982435,-0.2646069510008812,-0.6243487945209492,-1.045291048611003
34,-0.061738925385444454,-0.29739459678330243,-0.4223039518534246,-3.316676418731104,-2.2617046426164507,2.2049276507688322,0.37540949304718396,0.049915482855694734,0.4824037263766473,-0.2693318453259211,-0.6472747113215668,-0.9835112652769684
35,-0.03680955866554675,-0.2958565633038799,-0.4371082523444312,-3.3016034158416985,-2.22191859604141,2.2246977001508617,0.37401719809790857,0.062133423875462154,0.4859621161198653,-0.27582609931744234,-0.6703336442861421,-0.9176483127135028
36,-0.010873164936256341,-0.29425640063872505,-0.45251057566598607,-3.2859215358318736,-2.1805253837510024,2.2452663648338103,0.3720705919384064,0.07489592096455523,0.48953566350720623,-0.28433655923144585,-0.6933449312748042,-0.8474657445138547
37,0.016063951708961632,-0.2925944977229808,-0.4685071781331802,-3.269634590335518,-2.1375350667692015,2.266628645403111,0.3695021630461239,0.08817858350881277,0.4931051788352925,-0.2951193621058752,-0.7161010456711706,-0.7727190983235765
38,0.04399401100270317,-0.29087133456530045,-0.4850934394354439,-3.2527472835231945,-2.0929600620211866,2.288778371775404,0.36624252886717135,0.10194929075114283,0.49665035821610315,-0.3084324453936434,-0.7383651588664254,-0.6931631107205353
39,0.0729077948458054,-0.2890874798823019,-0.5022638854060446,-3.235265188919368,-2.0468150811411006,2.311708233605516,0.3622212203833936,0.11616749867218747,0.5001498801874583,-0.3245243583595026,-0.7598691160862858,-0.608562637955473
40,0.10279468564952787,-0.287243588733022,-0.5200122107915852,-3.2171947262196356,-1.9991170692798135,2.335409810693445,0.3573676124633766,0.1307836020198275,0.5035815226940313,-0.3436185069208457,-0.7803122442562677,-0.5187081496308215
41,0.13364270467773182,-0.28534040015337103,-0.5383313020215004,-3.198543138107955,-1.9498851439126812,2.35987360339134,0.35161200185019154,0.14573837783620536,0.5069223010206083,-0.3658921839076338,-0.7993615627258027,-0.42343644165548205
42,0.16543855038906036,-0.2833787347905865,-0.5572132599775557,-3.179318467073876,-1.8991405336473095,2.385089063010482,0.34488683035947504,0.1609625390207931,0.5101486268903386,-0.3914503190639781,-0.8166541122381898,-0.322656632048952
43,0.19816763677912003,-0.2813594925376878,-0.5766494227633443,-3.159529532229766,-1.8469065170313113,2.4110446222282667,0.33712804586457223,0.17637642802731004,0.5132364885209862,-0.4202949694452607,-0.8318022025495251,-0.21638041644672065
44,0.23181413172265936,-0.2792836501679304,-0.5966303884737856,-3.1391859061280427,-1.7932083613600698,2.4377277254951877,0.3282765880048742,0.19188988153207953,0.5161616509671645,-0.4522932143925231,-0.8444023244173307,-0.10475391626442224
45,0.26636099531574936,-0.27715225896926,-0.6171460379646211,-3.118297891578402,-1.7380732614844998,2.4651248594418145,0.31827997938903463,0.20740229664499507,0.5188998755737976,-0.4871481432153474,-0.8540481812430925,0.011913571820152234
46,0.3017900182179651,-0.274966442378767,-0.6381855576219142,-3.096876498465047,-1.681530278618807,2.493221583285778,0.3070939965447528,0.2228029277877937,0.5214271568353804,-0.524379475093869,-0.8603476960138863,0.13313046812578272
47,0.33808185999456447,-0.2727273936171407,-0.6597374621315465,-3.0749334205639176,-1.6236102791482503,2.5220025592387487,0.2946843882084994,0.2379714405887785,0.5237199744088408,-0.5633210822033421,-0.8629429554736092,0.25822071885497494
48,0.3752160874586688,-0.2704363733231234,-0.6817896172487161,-3.05248101235992,-1.5643458734369011,2.551451582913421,0.2810286020155676,0.25277874492731456,0.5257555574786987,-0.603141245387063,-0.8615310370811285,0.3863443551633844
49,0.413171213013444,-0.268094707187965,-0.7043292625674352,-3.0295322658641552,-1.503771354635406,2.5815516137304937,0.26611747454736906,0.2670881235450424,0.5275121581372855,-0.6428873457064902,-0.8558828637367725,0.5165425103293236
50,0.4519247329942793,-0.26570378358987695,-0.7273430342900274,-3.0061007874311496,-1.4419226374887468,2.6122848053256518,0.24995683435419874,0.28075666542695155,0.5289693299366811,-0.6815506237530697,-0.8458570455738195,0.6478025318846472
51,0.49145316601096806,-0.2632650512284867,-0.7508169879966254,-2.9822007745760826,-1.3788371971440025,2.643632535956548,0.23256896335126975,0.29363700452179503,0.5301082073105042,-0.7181407407057178,-0.8314063425740325,0.7791329280914793
52,0.5317320912898884,-0.26078001675929213,-0.7747366214146695,-2.9578469927920175,-1.3145540079581082,2.6755754389097843,0.2139938592385578,0.30557935447791235,0.5309117811705253,-0.7517567444393402,-0.8125758094726787,0.9096347579377556
53,0.5727361870161836,-0.2582502424281154,-0.799086897188404,-2.9330547523671293,-1.2491134823056176,2.7080934329078943,0.1942902406582177,0.3164338191649182,0.5313651656729661,-0.7816422008688342,-0.7894933947622346,1.0385572312194111
54,0.614439268675941,-0.2556773437055576,-0.8238522656483762,-2.9078398852019345,-1.1825574093864635,2.7411657525163236,0.17353623797480094,0.32605294716868144,0.5314558509387768,-0.8072171232222355,-0.7623551527429575,1.165330158352268
55,0.6568143273983735,-0.25306298692145296,-0.8490166875809328,-2.882218721626521,-1.114928894033719,2.7747709785504138,0.1518297160793283,0.33429448660348615,0.5311739364160748,-0.8280856467121843,-0.7314078699224135,1.2895722049443485
56,0.6998335682980004,-0.2504088868993229,-0.874563656997719,-2.8562080672177768,-1.046272295521357,2.8088870684823815,0.12928818163029038,0.34102428496883225,0.5305123396036172,-0.8440236339945176,-0.6969317491112245,1.4110791447250906
57,0.7434684488168242,-0.2477168045908306,-0.9004762239051742,-2.8298251796166185,-0.9766331663720145,2.843491386848301,0.10604823570049168,0.3461192679302917,0.5294669750209384,-0.8549531171196113,-0.659225091073294,1.5297990254004432
58,0.7876897170665151,-0.2449885447102351,-0.9267370170740318,-2.803087745345223,-0.9060581911647498,2.8785607356550864,0.08226454382476929,0.34947042139590234,0.5280368986191475,-0.8609106690894911,-0.6185920286788774,1.6458013500333428
59,0.8324674501705895,-0.24222595336884556,-0.9533282668088155,-2.7760138566242536,-0.8345951253428054,2.914071384787473,0.058108308733988215,0.35098569366605403,0.5262244132775036,-0.8620153441649868,-0.575333591819563,1.759245923103028
60,0.8777710926065885,-0.23943091570947578,-0.9802318277173377,-2.7486219881900915,-0.7622927340213677,2.9499991024149983,0.03376524627192366,0.35059272930070545,0.5240351316214008,-0.8584397885472271,-0.5297418521025848,1.8703549731942397
61,0.9235694945482618,-0.23660535354089807,-1.0074292014801962,-2.720930974112064,-0.6892007307953296,2.986319185398984,0.009433081646182168,0.3482413441547175,0.5214779931188839,-0.8503862556756392,-0.48209662397681263,1.9793902968394592
62,0.9698309502077442,-0.2337512229722978,-1.0349015596202735,-2.692959984609673,-0.6153697165470495,3.0230064896995197,-0.01468139933759565,0.34390565216462177,0.5185652332520981,-0.8380679048788688,-0.4326641230330293,2.0866358118889035
63,1.0165232361777377,-0.2308705120477278,-1.0626297662722326,-2.664728502869829,-0.5408511182541158,3.0600354607824407,-0.038365691768740884,0.337585759183607,0.5153123034990683,-0.8216949550894179,-0.3816970256947792,2.1923851001772445
64,1.0636136497736917,-0.22796523838056226,-1.0905944009520159,-2.6362563018640732,-0.4656971277971027,3.097380164026311,-0.061405236553314604,0.32930894755520373,0.5117377418775647,-0.8014648928907336,-0.3294354731996153,2.296933143805844
65,1.1110690473759837,-0.2250374467879513,-1.1187757813263426,-2.6075634211658114,-0.3899606407673346,3.135014315129408,-0.08358732389774988,0.3191302871130378,0.507862994870331,-0.7775558465604648,-0.2761086743818827,2.4005713666199604
66,1.1588558827720978,-0.222089206925275,-1.1471539859822069,-2.5786701437675426,-0.31369519527464496,3.1729113105166995,-0.1047051371620548,0.307132623629832,0.5037121926404434,-0.7501223074943264,-0.22193686359136489,2.503585153937999
67,1.2069402454988065,-0.21912261092059804,-1.1757088771963735,-2.5495969728980863,-0.23695491075514186,3.211044257746831,-0.12456182855805306,0.2934259139615311,0.4993118805257886,-0.7192925194691608,-0.16713345289861076,2.606253149946542
68,1.2552878991843501,-0.21613977100912365,-1.204420123704879,-2.5203646088398157,-0.1597944267789626,3.2493860059190998,-0.14297451148124501,0.2781458976135598,0.49469071084037247,-0.685167012923383,-0.11190728003627211,2.7088477698340734
69,1.3038643198906175,-0.21314281716764794,-1.2332672234725255,-2.4909939257458826,-0.08226884185803574,3.2879091760804426,-0.1597780517338035,0.26145211641383076,0.4898790999753249,-0.6478179103975334,-0.05646489735108597,2.811636484789452
70,1.3526347344553258,-0.2101338947490144,-1.2622295264623808,-2.4615059484574497,-0.004433652253848841,3.326586191632416,-0.17482854185253888,0.24352531650983028,0.48490885665348943,-0.6072887616267356,-0.0010128754801964324,2.9148835302968137
71,1.401564158834201,-0.20711516211656777,-1.291286257405277,-2.4319218293209177,0.07365530921479868,3.3653893087381763,-0.18800634932297078,0.22456428903774578,0.47981278792028337,-0.5635947829034459,0.054239888678132724,3.0188517479730734
72,1.4506174364431585,-0.20408878827860877,-1.3204165385693045,-2.402262825005157,0.15194193436403047,3.4042906467294634,-0.1992186405372071,0.2047822265377817,0.4746242900258341,-0.5167234801612544,0.10907986494056662,3.1238042985102803
73,1.4997592765004826,-0.201056950522848,-1.349599412529313,-2.3725502733187334,0.2303699008371365,3.4432622185135813,-0.20840129760743084,0.18440269053894562,0.4693769317496663,-0.4666357353651422,0.16328659367682444,-3.053179327839703
74,1.548954292369006,-0.1980218320508605,-1.378813864936408,-2.342805570027142,0.30888273329680604,3.4822759609803775,-0.21552016402616156,0.1636553008210352,0.4641040379254229,-0.413267537642341,0.21663042529884524,-2.9454614601386786
75,1.5981670398982935,-0.19498561961253974,-1.4080388472874472,-2.313050145670034,0.387423864617368,3.5213037654092316,-0.22057157691966509,0.14277126793107714,0.45883828093143053,-0.3565326487530612,0.2688703466509545,-2.8359585234813482
76,1.647362055766818,-0.19195050114055218,-1.4372532996945422,-2.2833054423784422,0.4659366970770371,3.5603175078760296,-0.22358216736149253,0.12197889701854864,0.4536112877220426,-0.2963266076876644,0.3197519857892787,-2.7244017438203634
77,1.696503895824141,-0.1889186633847914,-1.466436173654551,-2.253592890692019,0.5443646635501445,3.5992890796601467,-0.22460793487475572,0.10149919260915097,0.44845326958997117,-0.23253259502543866,0.36900594309692575,-2.610526427009314
78,1.7455571734330984,-0.18589228954683243,-1.495566454818578,-2.223933886376258,0.6226512886993767,3.638190417651434,-0.2237326267709003,0.0815416904524524,0.4433926812829822,-0.16502977610108174,0.41634667095615346,-2.494078592125742
79,1.7944865978119742,-0.1828735569143858,-1.5246231857614738,-2.1943497672397267,0.7007402501680242,3.6769935347571945,-0.22106547626619177,0.062300634195692345,0.43845591536718764,-0.0937047871320939,0.46147221505373515,-2.3748249260385093
80,1.8432570123766818,-0.1798646344957522,-1.55358548875133,-2.164861789951293,0.7785754397722102,3.715670550309168,-0.21673837436153207,0.04395160173833165,0.43366703685676733,-0.018466960774109885,0.5040652305746565,-2.2525666463957896
81,1.8918334330829492,-0.17686768065427655,-1.5824325885189765,-2.1354911068573603,0.8561010246931358,3.7541937204705107,-0.21090256835940122,0.026648669314776947,0.4290475621437843,0.060732377531254725,0.5437957783754419,-2.1271575925377655
82,1.9401810867684937,-0.17388484074280217,-1.6111438350274816,-2.1062587427990893,0.9332615086693159,3.7925354686427792,-0.20372499388151757,0.01052218142770491,0.4246162851925942,0.1438767724214556,0.580326456967581,-1.9985263014265342
83,1.9882654494952012,-0.17091824473812517,-1.6396987262416483,-2.0771855719296335,1.010001793188819,3.8306684158729096,-0.19538435680368443,-0.004322827356164714,0.42038915284413675,0.23085882659866083,0.6133203856557682,-1.866700889703503
84,2.0360522848913156,-0.16797000487544897,-1.668076930897512,-2.0482922945313646,1.086267238681509,3.868565411260203,-0.18606708633076835,-0.017807536012618766,0.4163791899398467,0.32145417991533365,0.6424523601458129,-1.731834263410604
85,2.083507682493608,-0.16504221328283797,-1.6962583112718392,-2.0195994138331024,1.1620037257112763,3.9061995623633,-0.17596328042590964,-0.029879566727141264,0.4125964738564959,0.41529921670723,0.6674230990471628,-1.5942257065610532
86,2.130598096089562,-0.16213693961567238,-1.7242229459516216,-1.9911272128273467,1.2371577161682894,3.9435442656071698,-0.16526276015193186,-0.040512563770641705,0.4090481569736364,0.5118776293455652,0.687975876385874,-1.4543337098880333
87,2.177290382059556,-0.15925622869110245,-1.7519511526035814,-1.962895731087503,1.311676314461224,3.9805732366900903,-0.15415134056719004,-0.04970516537857777,0.40573853460359105,0.6105211996294893,0.7039140699873668,-1.3127746684562889
88,2.223551837719039,-0.1564020981225021,-1.779423510743659,-1.934924741585112,1.385507328709504,4.017260540990627,-0.14280741322019,-0.05747943042377646,0.40266915502543726,0.7104287711472882,0.7151174453155817,-1.170303466288788
89,2.2693502396607124,-0.15357653595392445,-1.8066208845065175,-1.9072337275070843,1.4585993319355413,4.053580623974613,-0.13139891973465473,-0.0638787963752717,0.3998389675001013,0.8107041554106191,0.7215546242325374,-1.027775197384543
90,2.3146538820967106,-0.1507814982945546,-1.8335244454150397,-1.8798418590729216,1.5309017232569793,4.089508341602138,-0.12008077830009496,-0.06896565599489347,0.39724450351949525,0.9104092751060114,0.7232894192393758,-0.8860917127635353
91,2.3594316152007857,-0.14801890695316505,-1.8601156951498226,-1.8527679703519524,1.6023647890789232,4.1250189907345245,-0.10899280596631901,-0.07281864719689117,0.39488008606914266,1.0086246852130654,0.7204796248458758,-0.7461408464552877
92,2.403652883450476,-0.1452906470725696,-1.8863764883186813,-1.8260305360805573,1.6729397642861898,4.160088339541311,-0.0982581603706367,-0.07552975344602358,0.3927380613662331,1.1045074424684136,0.7133682432076381,-0.6087383441839215
93,2.4472877639692996,-0.14259856476407728,-1.9122890552261356,-1.799647648479399,1.7425788934355322,4.19469265790723,-0.08798230574659852,-0.0772013111529232,0.3908090473733976,1.197337096084846,0.7022685443756925,-0.47458171651657516
94,2.490307004868927,-0.1399444647419472,-1.9378360246429218,-1.7736369940706547,1.8112354919478935,4.228808747839197,-0.07825249053045405,-0.07794301607036908,0.38908219337767147,1.2865439794794011,0.6875453587822982,-0.34422183172288734
95,2.532682063591359,-0.13733010795784256,-1.963000446575478,-1.7480158304952405,1.878864007300638,4.2624139738732865,-0.0691377082353024,-0.0778690131698398,0.3875454450546754,1.371718511792178,0.6695953062438078,-0.21805353477528702
96,2.5743851452511177,-0.13475720923528473,-1.9877658150354507,-1.7228009633300465,1.9454200802197925,4.2954862934817175,-0.06068910000026305,-0.07709514445883343,0.38618580969660715,1.4526041620250898,0.648828313565808,-0.09632263497373818
97,2.6153892409774118,-0.13222743490410804,-2.0121160908091844,-1.6980087229051575,2.0108606058722835,4.328004287479827,-0.05294074668485624,-0.07573641732632208,0.38498961665292747,1.5290790114486852,0.6256520158381778,0.020855678139461042
98,2.655668166256333,-0.12974240043491342,-2.0360357242272284,-1.6736549411210921,2.075143795058177,4.359947190433063,-0.045910790750297956,-0.07390474294360298,0.38394276849595427,1.6011313208773914,0.6004597872893536,0.13347240195090754
99,2.6951965992730216,-0.12730366807352314,-2.059509677933827,-1.6497549282660253,2.1382292354029206,4.3912949210639605,-0.039602823480288624,-0.07170698065768255,0.3830309789599486,1.6688336821301355,0.5736224401069887,0.24159885529288744
100,2.7339501192538576,-0.12491274447543518,-2.0825234496564193,-1.6263234498330195,2.2000779525495777,4.4220281126591185,-0.03400747123607586,-0.06924331080852651,0.38223999429100847,1.732318922569893,0.545483168019183,0.3453625543707198
101,2.771905244808633,-0.12257107834027675,-2.1050630949751383,-1.603374703337255,2.2606524713510754,4.452128143476191,-0.029104115187949815,-0.06660594552476852,0.38155579526571526,1.7917595115244744,0.5163550917574828,0.4449265843464859
102,2.809039472272737,-0.12028005804625946,-2.1271152500923076,-1.580922295133257,2.319916877062424,4.481577167150864,-0.024862681997976702,-0.0638781752603676,0.3809647777693642,1.8473510981379733,0.4865207248602425,0.540473101865417
103,2.845331314049337,-0.11804100928463315,-2.1486671546019402,-1.558979217232129,2.377836876532981,4.510358143103835,-0.02124544786026858,-0.061133738480764276,0.38045391045156246,1.8993000766706258,0.4562327474171536,0.6321908705684604
104,2.8807603369515515,-0.11585519269414005,-2.1697066742592326,-1.5375578241187724,2.4343798593986734,4.538454866947798,-0.018208804709664905,-0.05843649323766743,0.3800108685817568,1.9478146805277041,0.4257155919610069,0.7202663371530846
105,2.915307200544643,-0.11372380149546968,-2.190222323750069,-1.5166698095691318,2.489514959274246,4.565852000894424,-0.015704944848560352,-0.05584036252672823,0.3796241437958763,1.9930989547043896,0.3951674700730467,0.8048776041419632
106,2.9489536954881816,-0.11164795912571226,-2.2102032894605093,-1.496326183467409,2.543213114945487,4.592535104161345,-0.013683428286222817,-0.05338952034279129,0.3792831299463201,2.0353489534745757,0.36476257919598953,0.886190652753273
107,2.981682781878243,-0.10962871687281353,-2.2296394522462983,-1.4765372486232975,2.595447131561484,4.618490663379131,-0.012092605336784024,-0.05111878218569599,0.3789781857321358,2.0747505835554056,0.33465331840956547,0.9643572426322542
108,3.0134786275895693,-0.10766705151002903,-2.248521410202353,-1.45731257758922,2.646191741826853,4.643706122998273,-0.010880875128114767,-0.049054162304684915,0.37870067518830725,2.111478615156493,0.30497240881672855,1.039514017179118
109,3.0443266466177725,-0.10576386293037804,-2.2668405014322683,-1.438660989477539,2.6954236671939857,4.668169915696168,-0.009997768336948345,-0.047213560022909926,0.3784429874489109,2.1456964871401354,0.2758348615922607,1.1117824466327884
110,3.074213537421496,-0.1039199717810981,-2.284588826817809,-1.4205905267778065,2.7431216790552724,4.691871492784098,-0.00939484945127813,-0.04560753883656597,0.37819853746729243,2.1775566248193345,0.2473397686998551,1.1812693327631767
111,3.103127321264599,-0.10213611709809955,-2.3017592727884106,-1.4031084321739784,2.7892666599353624,4.7148013546142105,-0.009026439998627234,-0.044240164393190826,0.37796174957820144,2.207201065016812,0.21957191173535068,1.2480676742871049
112,3.1310573805583415,-0.10041295394041919,-2.3183455340906725,-1.386221125361657,2.833841664683375,4.736951080986502,-0.008850169360262995,-0.043109870669475366,0.37772802592467536,2.2347622427634644,0.19260319663119885,1.3122577508142692
113,3.1579944972035605,-0.09875105102467502,-2.334342136557867,-1.3699341798653006,2.876831981665178,4.758313361555804,-0.008827363966434477,-0.04221032744388516,0.3774937018506101,2.2603638393726704,0.16649392864284224,1.3739083272054518
114,3.1839308909328525,-0.0971508883595201,-2.3497444598794224,-1.3542522998554745,2.918225193955585,4.778882026238751,-0.008923288836613525,-0.04153128626241065,0.3772559903837509,2.284121625210283,0.14129394503133832,1.433077912332693
115,3.208860257652749,-0.09561285488009758,-2.3645487603704285,-1.3391792969660696,2.958011240530625,4.798652075620782,-0.009107257634288709,-0.041059386319313856,0.3770129179095044,2.3061442548755027,0.11704362350012223,1.4898160289975082
116,3.232777807785905,-0.09413724608249421,-2.378752193741135,-1.3247180671115273,2.9961824774597683,4.8176197113631,-0.009352628723980624,-0.040778905840635385,0.37676325307025943,2.326533989957302,0.09377478365942743,1.5441644674839818
117,3.2556803046132785,-0.09272426165819458,-2.3923528378664476,-1.3108705673040806,3.032733739098162,4.835782366609673,-0.009636705248721223,-0.04067244852066265,0.37650643082479235,2.3453873368443503,0.07151149719585093,1.5961585057740268
118,3.2775661026162948,-0.0913740031285363,-2.405349715555425,-1.29763779247097,3.06766239927889,4.8531387363942065,-0.009940557104273724,-0.040721558208084575,0.37624247347478473,2.362795595636448,0.05027082042218632,1.6458280862995007
119,3.298435185819051,-0.0900864714791636,-2.417742817320773,-1.285019752271686,3.100968432505176,4.869688808047123,-0.010248781994077671,-0.04090725828920685,0.37597191031719895,2.378845322072071,0.030063460734768274,1.6931989433670234
120,3.318289206130471,-0.0888615647944811,-2.429533124148351,-1.2730154479151898,3.132654475142657,4.885433891602548,-0.010549221628847567,-0.041210515020550106,0.375695697418541,2.393618708305377,0.010894386377611866,1.7382936778989426
121,3.337131521686513,-0.0876990758921094,-2.440722630266666,-1.2616228489771397,3.162725886611599,4.900376650205295,-0.010832647704144424,-0.04161262639934895,0.3754151388356293,2.407193890878075,-0.007236613091626931,1.7811327774984893
122,3.354967235192325,-0.08659868995733824,-2.4513143659163643,-1.250838870217137,3.1911908105791595,4.914521130517831,-0.011092430655906867,-0.04209554002765072,0.3751318104324224,2.419645195719439,-0.02433441005690128,1.8217355805089401
123,3.371803232264442,-0.08555998217758098,-2.461312420119738,-1.2406593483959298,3.2180602361516093,4.927872793127288,-0.011324202453036121,-0.04264210484204124,0.37484748726810835,2.431043330740937,-0.04040806183745517,1.8601211830069093
124,3.387648219772956,-0.08458241537682992,-2.4707219634502167,-1.2310790190926695,3.2433480590665558,4.940438542952408,-0.011525522918724804,-0.04323626257878832,0.37456407536164416,2.441455536762249,-0.05547037078833054,1.8963092877623473
125,3.4025127641837,-0.0836653376501085,-2.479549270801867,-1.2220914935221119,3.267071142885229,4.952226759650557,-0.01169555734417002,-0.043863185465679355,0.37428354847510287,2.4509457072518797,-0.06953747997626109,1.9303209942530917
126,3.416409329900427,-0.08280797999792774,-2.487801744158893,-1.2136892353518767,3.289249380184676,4.963247328024683,-0.011834771520653774,-0.044509366925549756,0.37400789040469673,2.459574486792635,-0.08262850374995999,1.9621795289250132
127,3.4293523176069987,-0.0820094539607395,-2.4954879353651247,-1.2058635375196536,3.3099057537500243,4.973511668430316,-0.011944648805701969,-0.04516267209407748,0.37373904312578393,2.467399357372109,-0.09476519313345942,1.9919109150854721
128,3.4413581026095446,-0.08126874925338975,-2.5026175688935344,-1.1986044990504325,3.3290663977667045,4.983032767182534,-0.012027432480156934,-0.04581235474772698,0.37347886100734234,2.474474720618765,-0.10597163635379012,2.0195445821223243
129,3.4524450731786716,-0.08058473139957589,-2.509201564615707,-1.1919010018737546,3.3467606590127166,4.9918252069629565,-0.012085895458634258,-0.046449046857016243,0.3732290711928835,2.4808519830122355,-0.1162739949900004,2.0451139141490136
130,3.4626336688916206,-0.0799561393662972,-2.515252060571364,-1.1857406876409158,3.363021158050825,4.999905197226719,-0.012123138389524564,-0.04706472647235753,0.3729912401383975,2.486579649941733,-0.12570027622245897,2.068656738668897
131,3.4719464189744556,-0.07938158319831129,-2.5207824357378508,-1.1801099345422075,3.3778838504208486,5.007290604609455,-0.012142416318753286,-0.04765266905718657,0.3727667462035684,2.491703433311063,-0.13428014149696182,2.0902157564046124
132,3.480407980644239,-0.07885954165258921,-2.5258073327996207,-1.1749938341241544,3.3913880878318534,5.014000983334286,-0.012146993384417982,-0.04820738674337896,0.37255675810933225,2.49626637622783,-0.14204475162566954,2.1098389140211413
133,3.48804517745122,-0.07838835983276754,-2.5303426809177636,-1.1703761681067153,3.4035766793544338,5.0200576056187955,-0.01214002444397134,-0.048724559329386394,0.3723622190023428,2.5003089971959116,-0.14902664795733223,2.1275797220581376
134,3.4948870376210226,-0.0779662468236042,-2.5344057184994737,-1.1662393852005577,3.4144959526129175,5.025483492082,-0.01212446209606794,-0.0492009601990447,0.37218383580407427,2.503869455174931,-0.15525966879181188,2.1434975209520073
135,3.5009648323967846,-0.07759127332543189,-2.5380150159675563,-1.1625645779242353,3.424195814977621,5.030303442151364,-0.012102987228885457,-0.04963437973056538,0.37202207346829863,2.506983735891554,-0.16077889971841974,2.15765769855218
136,3.5063121143814,-0.07726136928861163,-2.5411904985299443,-1.159331459421462,3.4327298147570837,5.034544064469745,-0.012077960988924174,-0.05002354820801527,0.3718771537246277,2.5096858588923827,-0.16562065605063084,2.1701318630028807
137,3.5109647558796464,-0.07697432154799133,-2.5439534689491627,-1.1565183402783092,3.4401552023903084,5.0382338073023885,-0.012051395903373516,-0.05036805975449277,0.37174905784700524,2.5120081040177737,-0.1698224950359525,2.180997975261164
138,3.514960987240386,-0.07672777145735338,-2.5463266303118495,-1.154102105340458,3.4465329916390055,5.041402988943927,-0.01202494379063151,-0.05066829838622594,0.3716375329535539,2.513981255247622,-0.17342325506032805,2.1903404458486717
139,3.518341435198748,-0.07651921252387422,-2.548334108798255,-1.1520581905304108,3.4519280207798224,5.044083828125332,-0.01199989804537693,-0.05092536694547316,0.37154210131766036,2.5156348592162447,-0.1764631186584005,2.198250200684975
140,3.521149161218318,-0.0763459880425762,-2.5500014764517176,-1.150360559664724,3.4564090137966033,5.046310474420913,-0.01197720787625512,-0.0511410194098664,0.37146207214888044,2.5169974951063296,-0.17898369579809423,2.204824721025687
141,3.523429699833287,-0.07620528873078275,-2.5513557739481874,-1.1489816812712617,3.4600486415725755,5.0481190386553,-0.011957502097551347,-0.051317596896404846,0.3713965552857927,2.51809705210048,-0.18102812363879994,2.210168062630488
142,3.5252310969906633,-0.076094150362572,-2.5524255333657058,-1.1478925054063809,3.4629235830826732,5.04954762331042,-0.011941120124873517,-0.05145796757703766,0.37134447623098865,2.518961010082995,-0.182641178772336,2.214390859319688
143,3.526603948392427,-0.07600945140323198,-2.5532408009539145,-1.1470624404721979,3.465114586585687,5.0506363529324805,-0.011928147893685681,-0.05156547069468993,0.3713045919503542,2.5196167188349494,-0.18386939784462128,2.217610316046508
144,3.5276014378377485,-0.07594791064371284,-2.553833159903538,-1.146459330033804,3.4667065308165745,5.0514274045389485,-0.01191845650482777,-0.051643864907019596,0.37127550685446187,2.52009167054121,-0.18476120242067948,2.2199501965253456
145,3.528279375565107,-0.07590608483508465,-2.5542357531159054,-1.146049429636482,3.467788486178659,5.051965038025526,-0.011911741499045244,-0.05169728128141324,0.3712556883783695,2.5204137600219014,-0.1853670239870635,2.2215408103193814
146,3.5286962365945422,-0.07588036632298834,-2.5544833059724286,-1.1457973836229738,3.4684537759358673,5.052295626573165,-0.011907560769362939,-0.05173018140879536,0.37124348157687903,2.520611526703381,-0.1857394250728661,2.222519004118299
147,3.528913199069775,-0.07586698068209158,-2.554612149104096,-1.1456662019506472,3.468800037404994,5.052467687054993,-0.01190536923083051,-0.05174732128417219,0.37123712215403176,2.520714371947941,-0.18593321259578408,2.2230281617401317
148,3.5289941826004396,-0.07586198435054256,-2.5546602411609944,-1.145617237008806,3.4689292831479324,5.052531910443346,-0.011904548475093455,-0.051753721805887824,0.3712347473469615,2.5207527449607,-0.1860055396830443,2.2232182171914556
149,3.529005886604211,-0.07586126226442469,-2.554667191581786,-1.1456101604358402,3.4689479621638974,5.05254119221673,-0.011904429733519335,-0.05175464695970611,0.3712344040832925,2.520758290076509,-0.18601599235288427,2.223245684939594
