nimar13/UR3e_dataset_trayectorias/data/trayectorias_completas_UR3e_QUINTIC_FUNC/trayectoria_471.csv
Punto,shoulder_pan_joint,shoulder_lift_joint,elbow_joint,wrist_1_joint,wrist_2_joint,wrist_3_joint,Posicion_X,Posicion_Y,Posicion_Z,Roll,Pitch,Yaw
0,3.9069747596016398,4.407439733052976,2.396402573616178,5.46612023555034,-3.7619871976757584,3.5962732564516755,-0.09675076133101392,-0.17038846350480993,0.22209369048203764,-2.4465793529422015,-0.17685155225903362,2.9390601734406276
1,3.906966249355318,4.40743856871081,2.3963949512083413,5.466097406678778,-3.7619572117498254,3.5962757582708673,-0.09675375331489447,-0.17038690641404347,0.22209698466630956,-2.446545191351581,-0.1768622747782407,2.9390175342763163
2,3.9069073643952916,4.407430512276329,2.396342209470469,5.465939446833844,-3.7617497300879448,3.5962930691121184,-0.096774452074582,-0.17037613089473846,0.22211977602439414,-2.4463087909475223,-0.17693641748194255,2.9387224949128927
3,3.9067496060637237,4.407408928332627,2.3962009094073116,5.465516257591964,-3.7611938672531102,3.596339446479661,-0.09682987431879295,-0.17034724903478174,0.22218081815045673,-2.44567522786344,-0.1771346251475057,2.9379320041585477
4,3.9064464969642043,4.407367458004724,2.395929422415277,5.4647031625956,-3.7601258597402993,3.5964285536727596,-0.09693623049929248,-0.1702917029475456,0.22229802758683434,-2.444457016287495,-0.17751370298264704,2.9364129806310473
5,3.905953553082284,4.407300015145194,2.3954879053115135,5.463380832766135,-3.7583889677429325,3.596573467981642,-0.09710883358253514,-0.17020121833378185,0.2224884363122998,-2.44247328896741,-0.17812527743901782,2.9339420136597827
6,3.9052282559060076,4.407200782519795,2.3948382753629875,5.461435211516749,-3.7558333769193246,3.596786688883432,-0.09736197828729912,-0.17006774766405763,0.22276812582174915,-2.4395487858772893,-0.1790140347799788,2.930305034309189
7,3.904230024546442,4.4070642079930975,2.3939441853155663,5.458757439965308,-3.7523161001591427,3.5970801462380764,-0.09770879731639537,-0.1698834078069553,0.22315214484559642,-2.435512716069903,-0.18021560019893357,2.925296988618451
8,3.9029201878582116,4.406885000714112,2.392770998423098,5.455243782147242,-3.747700879349861,3.5974652084842793,-0.09816110124535524,-0.1696404179107166,0.22365441210800366,-2.430197567725898,-0.18175411070761877,2.918721556201155
9,3.90126195656003,4.406658127301918,2.3912857634764912,5.45079555022843,-3.741858087143216,3.59795269083543,-0.09872920896546039,-0.16933104434411259,0.2242876049693498,-2.423437952849297,-0.18363952684117038,2.9103909702525703
10,3.899220395355231,4.406378808031293,2.3894571898327963,5.44531902971808,-3.7346646287216614,3.5985528634755344,-0.09942177592220347,-0.1689475604300695,0.2250630344274542,-2.4150695856654063,-0.18586472262776346,2.900126009838696
11,3.8967623950523005,4.40604251301834,2.387255622444287,5.4387254046816125,-3.726003843564824,3.599275459755146,-0.10024562785905318,-0.1684822294850057,0.2259905068519049,-2.4049285072916793,-0.18840239154014146,2.887756252171624
12,3.89385664468541,4.4056449584061195,2.384653016887538,5.430930682953541,-3.71576540721596,3.6001296843872956,-0.10120560838497172,-0.16792732023326434,0.22707817308171294,-2.3928506831954155,-0.19120180970779752,2.87312069124232
13,3.890473603634946,4.405182102550273,2.3816229143925094,5.421855621350359,-3.703845233048408,3.6011242216434236,-0.10230444943802948,-0.16727516392277,0.22833236620746333,-2.3786721133069246,-0.19418550805312057,2.856068848922646
14,3.8865854737480463,4.404650142204655,2.3781404168716245,5.411425650883414,-3.690145374032047,3.602267243549308,-0.10354267460430565,-0.16651826234185058,0.2297574305533324,-2.3622296054512986,-0.1972459237893911,2.8364625236764955
15,3.8821661714591267,4.404045508706961,2.3741821619488515,5.3995708019718,-3.6745739244997493,3.6035664180809976,-0.1049185462316234,-0.16564945533435807,0.23135554612389045,-2.343362367568696,-0.20024213031835053,2.8141783370208437
16,3.8771912999104168,4.403364864164357,2.3697262979887834,5.386225629655231,-3.657044921913838,3.60502891736074,-0.1064280682762177,-0.1646621552251055,0.23312655511468774,-2.3219145675976436,-0.20299678397052495,2.7891112434966576
17,3.8716381210724915,4.402605097639104,2.364752459125719,5.371329138806927,-3.637478248632542,3.606661425852915,-0.10806505771752054,-0.16355065368357508,0.23506780000244276,-2.297738984083213,-0.2052934762245684,2.761179158378066
18,3.8654855278648017,4.401763321334194,2.359241740292744,5.354824709346498,-3.6157995336764497,3.6084701485599626,-0.1098212980008885,-0.16231050384840442,0.23717398618725158,-2.270701815315246,-0.20687473919376081,2.7303288185375743
19,3.8587140162762075,4.400836866778969,2.353176672250811,5.336660021452823,-3.591940054494965,3.6104608192183147,-0.11168678809320462,-0.16093897689000686,0.2394370860597554,-2.2406886183185684,-0.20744101557386274,2.6965429142550734
20,3.851305657485509,4.399823281014759,2.346541196617819,5.316786980776932,-3.5658366387327662,3.6126387084943263,-0.1136501000775389,-0.15943558750515527,0.24184630554825834,-2.2076112003029107,-0.20665096316850948,2.659848402808594
21,3.8432440699819805,4.3987203227805045,2.339320640897697,5.295161643654892,-3.5374315659962545,3.6150086321802055,-0.1156988564331835,-0.15780267705821616,0.24438813842162052,-2.171415078391423,-0.20412350492243825,2.620325733488834
22,3.8345143916859,4.397525958698389,2.3315016935094808,5.271744142320687,-3.506672469620016,3.617574959389943,-0.11782033486795321,-0.1560460362208878,0.24704653754638184,-2.1320868644378375,-0.19944203975558306,2.578118485609915
23,3.8251032520690824,4.3962383594594625,2.3230723788163963,5.246498610119098,-3.4735122384332735,3.6203416207552443,-0.12000220339275683,-0.15417554112993798,0.2498032354792736,-2.089660645672261,-0.19216117649882064,2.5334426736654794
24,3.8149987442754125,4.394855896009275,2.314022032154939,5.21939310671859,-3.4379089185263427,3.62331211662146,-0.12223338087094926,-0.1522057685335701,0.2526382486670046,-2.04422216890861,-0.1818162244965193,2.4865947606537935
25,3.8041903972413746,4.3933771357335045,2.304341274863955,5.1903995433241885,-3.3998256150170874,3.626489525243515,-0.12450500821702251,-0.15015654656004723,0.2555305994653914,-1.9959094698118836,-0.16793546227013675,2.4379573206143133
26,3.792669147816587,4.391800838643583,2.294021989313722,5.15949360789037,-3.359230393817375,3.6298765109818416,-0.12681150256891613,-0.14805338925303851,0.25845928743096064,-1.9449086024496967,-0.15005492285530792,2.3880013951474615
27,3.7804273128843326,4.390125953562325,2.2830572939350273,5.126654690333935,-3.3160961833995324,3.6334753324983073,-0.1291516511317774,-0.14592775574097833,0.26140453507584194,-1.8914433813818856,-0.12773512209400717,2.337284969984298
28,3.7674585614820915,4.388351614309562,2.2714415182482517,5.091865807746896,-3.2704006765628004,3.6372878509521476,-0.13152968330555773,-0.143817069936284,0.2643493227066894,-1.8357585535297563,-0.10057888383892107,2.2864476761028656
29,3.7537578869220716,4.3864771358877634,2.2591701778924493,5.055113529609359,-3.22212623219979,3.641315538195894,-0.1339562398826898,-0.1417644352901255,0.2672812113669672,-1.7780964840101858,-0.0682492701586094,2.236202730485293
30,3.7393215789117433,4.384502010667669,2.246239949654426,5.0163879030024034,-3.1712597770629367,3.6455594849713084,-0.13644913775108916,-0.1398179827904407,0.27019443173359975,-1.7186680893298392,-0.0304866856158508,2.1873281239908935
31,3.72414719567437,4.382425904573918,2.232648646497822,4.975682377820967,-3.117792707530958,3.65002040910531,-0.1390338094539072,-0.13802980053702657,0.27309218986897915,-1.6576191495583934,0.012875459380336912,2.1406599444901757
32,3.7082335360695384,4.380248653270675,2.218395192592193,4.932993731986729,-3.061720791375305,3.654698663705908,-0.14174328154925983,-0.1364544111633389,0.2759891082563231,-1.5949930667864254,0.06189657040257185,2.0970913317163746
33,3.691580611713695,4.377970258347261,2.2034795983420876,4.888321996660985,-3.003044069526622,3.659594245358131,-0.14461754698376933,-0.1351467900378808,0.27891368344520706,-1.530690499421346,0.11651543654295024,2.0575808421238
34,3.674189619100672,4.375590883503785,2.1879029354161315,4.841670381457541,-2.9417667578411986,3.6647068023199587,-0.14770218813103847,-0.13415995287184435,0.28191060159127057,-1.4644251282179803,0.17653585996203539,2.0231740341852484
35,3.6560629117222265,4.373110850736762,2.1716673117761065,4.793045199655585,-2.8778971488674276,3.6700356427182514,-0.15104612249905752,-0.13354218545892688,0.28504271279417914,-1.395673297996025,0.24160857754470152,1.9950420132686886
36,3.637203972188566,4.370530636524754,2.1547758467060305,4.742455793412576,-2.8114475136122588,3.6755797427446812,-0.15469837603201106,-0.1333340389367578,0.28839242801119735,-1.3236138160502229,0.31120542403983514,1.9745405437309393
37,3.6176173843488835,4.367850868013991,2.137232645841239,4.689914458977122,-2.742434003307654,3.6813377548516635,-0.15870384248126798,-0.13356526789364825,0.29206227300295473,-1.247053534231983,0.3845800862181921,1.9632927435831236
38,3.5973088054118905,4.3650723192040015,2.1190427761974653,4.635436371901866,-2.670876551177044,3.6873080159482843,-0.16309806333552937,-0.13425194097705728,0.2961743176194579,-1.164336223785233,0.46070777058592766,1.9632957863708431
39,3.5762849380663466,4.362195907133243,2.1002122411999213,4.579039512256364,-2.596798774201783,3.6934885555962347,-0.16790116117786566,-0.13539399798954943,0.30086820163343236,-1.0732408356137084,0.5381938838837861,1.9770432887192733
40,3.5545535026015926,4.359222688064726,2.0807479557123774,4.520744589839973,-2.520227874887603,3.69987710420574,-0.17311117728964226,-0.13697355614346204,0.3062975061778791,-0.9709001072523392,0.6151409214962636,2.007630458381017
41,3.5321232090280836,4.356153853671648,2.060657721066244,4.4605749693947265,-2.441194543031073,3.706471101231488,-0.17869719571091133,-0.1389542728917459,0.3126242779151766,-0.8538306680088709,0.6889684062600276,2.0587494117560596
42,3.5090037291979184,4.352990727223018,2.039950200089652,4.3985565958182224,-2.359732857486047,3.7132677033685644,-0.18459277085663112,-0.14128204551294102,0.3200116051723492,-0.718286568241521,0.7562067880200443,2.1343619238034917
43,3.4852056689253743,4.34973475976929,2.0186348921365322,4.334717919376501,-2.27588018793013,3.720263792748378,-0.1906903003583916,-0.1438872618085794,0.3286142728563049,-0.5613133580536777,0.8123594019811542,2.2376722972785896
44,3.460740540107437,4.346387526327983,1.9967221081156972,4.26908982091693,-2.1896770966311205,3.727455985134596,-0.19683708179335682,-0.14668870815451238,0.33856768412051613,-0.3828617974225804,0.852065421865592,2.3690416415240874
45,3.4356207328443347,4.34295072206932,1.9742229455199216,4.201705537081088,-2.1011672402134796,3.7348406381190715,-0.20283384177953828,-0.14959909139481695,0.34997542542382304,-0.18849494935091388,0.8699053142614648,2.5233106581517526
46,3.4098594875600683,4.3394261585018485,1.9511492634550223,4.132600585517643,-2.010397271424775,3.7424138593177743,-0.20843650845996398,-0.152531946075358,0.3628960569700364,0.009617525849117074,0.8619249660832387,2.68883835352792
47,3.3834708671229436,4.3358157596580735,1.9275136576689391,4.061812690095236,-1.917416740902142,3.7501715145667234,-0.21336189561093175,-0.15540949136038265,0.3773299167716595,0.1960318955411367,0.8271249524977031,2.8508722206819157
48,3.3564697289661045,4.332121558280084,1.9033294355808157,3.9893817061153642,-1.8222779989387374,3.758109236117916,-0.21729776558433397,-0.15817079264146763,0.39320691343582787,0.3580827641645802,0.7677217022496046,2.9976445859498915
49,3.328871697208064,4.3283456920051835,1.8786105913100795,3.9153495455252623,-1.7250360972501975,3.766222430835258,-0.21991743464362826,-0.16077939744783476,0.41037642649463274,0.4894484031959908,0.6880217873839298,3.12398952462642
50,3.300693134773236,4.324490399551516,1.853371780705523,3.8397601021307857,-1.6257486907410863,3.774506288390496,-0.2208986852937763,-0.16322948407094445,0.42860050841719616,0.5893256479752038,0.5929758752341436,-3.052608020220689
51,3.27195111551247,4.320558016903697,1.827628296374384,3.7626591768092936,-1.5244759392713632,3.782955789459146,-0.2199462773868084,-0.16554951551431565,0.4475515651318345,0.6597197180785282,0.48729708597532817,-2.9619162201298908
52,3.242663396323578,4.316550973498441,1.8013960427114268,3.684094402722528,-1.4212804094228235,3.791565713916425,-0.21681683973788146,-0.16780245873004085,0.46681556198936874,0.7032544889653457,0.3752200212536637,-2.8821963194537608
53,3.2128483892718713,4.312471788410191,1.7746915109280208,3.6041151705294983,-1.316226976265566,3.800330649033182,-0.21134442760598934,-0.1700818288624237,0.48590154738197106,0.7220602006201565,0.2606195590945489,-2.8085371244529282
54,3.1825251337106906,4.308323066536744,1.747531754081224,3.522772553599362,-1.2093827251244411,3.8092449976718274,-0.2034646105220808,-0.17250315599371951,0.5042579055594589,0.717419210096773,0.147256306198902,-2.736428820187843
55,3.1517132684019376,4.304107494784885,1.7199343621028609,3.4401192332243107,-1.1008168533455112,3.8183029864822653,-0.19323467652930656,-0.1751909352641855,0.5212952562537743,0.6898274558326691,0.03903104396789838,-2.6618919910934355
56,3.1204330036366077,4.299827838256011,1.6919174368286043,3.356209423832447,-0.9906005720624984,3.8274986740978214,-0.18084746685880398,-0.17826167714429075,0.5364153396344323,0.639318238789674,-0.059814148932276545,-2.5816362287593826
57,3.0887050933553235,4.295486936431761,1.6634995670270567,3.271098798200673,-0.8788070079632524,3.836825959331176,-0.1666365406341413,-0.18180426933206267,0.5490446042826435,0.5660307711351689,-0.14461464700878596,-2.4934254873470576
58,3.056550807268862,4.291087699359646,1.6346998034288294,3.1848444126675646,-0.7655111050561927,3.846278589370294,-0.15107084089450107,-0.18585942413590995,0.5586706098699479,0.4710150723177746,-0.21042129976952184,-2.3967120429028865
59,3.0239919029786915,4.286633103838676,1.605537633755623,3.097504632346262,-0.6507895264367733,3.855850167974355,-0.13473778800637842,-0.19040043368939957,0.5648788304879557,0.35709767899678097,-0.2524642295025257,-2.2933827436928063
60,2.9910505980975035,4.282126189604987,1.5760329577493093,3.0091390563373457,-0.5347205560539319,3.865534163669684,-0.1183147238431575,-0.19531770791816078,0.5673870670252619,0.2293314238936318,-0.2669467759487654,-2.188143146009996
61,2.957749542369741,4.277570055517475,1.5462060622010119,2.919808442941722,-0.4173840004765479,3.875323917945682,-0.10252979043336431,-0.20040955670623872,0.5660745101616752,0.09444435867465754,-0.25193116882313205,-2.087954405915945
62,2.924111789792132,4.272967855743419,1.516077595980184,2.829574634873505,-0.2988610906599001,3.8852126534507563,-0.08811453581764686,-0.20538135281815265,0.561002588003547,-0.04077652038420798,-0.20787087003731053,-2.000461815233141
63,2.8901607707342256,4.268322795944113,1.4856685450636937,2.738500484472898,-0.1792343837121182,3.895193482188253,-0.07575165878604513,-0.2098545666119963,0.5524251104897705,-0.1713496038129307,-0.13747633445918003,-1.9322417359383521
64,2.855920264058919,4.2636381294604915,1.4550002075648991,2.6466497789190764,-0.05858766466064136,3.9052594137123835,-0.06602218536417062,-0.21338623205910898,0.5407858840690901,-0.29518921286489613,-0.04504458956711692,-1.8879066049538313
65,2.8214143692429885,4.258917153498762,1.4240941687627346,2.5540871654430686,0.0629941517813295,3.91540336332416,-0.059356876540309696,-0.2154982665262293,0.5267028798797359,-0.4131530586353333,0.0643052457668325,-1.8703633028074682
66,2.7866674784976277,4.254163205316032,1.3929722761307854,2.46087807654064,0.18542511944837692,3.925618160267322,-0.05599669359136405,-0.21571484544392733,0.5109391293438195,-0.5285304714487588,0.18512002909733957,-1.8817676467552031
67,2.7517042488889745,4.249379658405935,1.361656614366374,2.3670886551851744,0.30861835895640644,3.93589655592427,-0.05596663988302895,-0.21360487716166235,0.49436169712983263,-0.6465361715363491,0.3116986524534835,-1.9246034897782902
68,2.7165495744586456,4.244569918684264,1.3301694804196367,2.2727856800405575,0.4324861559361941,3.9462312320119923,-0.05906626584794402,-0.20882569269816145,0.47789122763109615,-0.7740112560298154,0.43781050394131843,-2.0025302465249113
69,2.6812285583442668,4.2397374206745955,1.2985333585226055,2.1780364906740566,0.5569400592669331,3.956614808778,-0.06487864638490934,-0.2011635068184409,0.46244555475125276,-0.9190481796024451,0.5561373155757872,-2.1206625065933515
70,2.645766484900004,4.23488562369392,1.2667708952182892,2.082908912769205,0.6818909793097752,3.967039853196255,-0.07279786180398039,-0.19056613204554992,0.4488815900157833,-1.0896076192116384,0.6576444202630708,-2.284493665068012
71,2.610188791817101,4.2300180080382725,1.2349048743897524,1.9874711833386822,0.8072492861413765,3.977498887163101,-0.08207312970997607,-0.1771638908488069,0.437940066579526,-1.2895219944294287,0.7314992873037004,-2.4960118058360035
72,2.5745210422444043,4.225138071168357,1.2029581922891983,1.8917918759372,0.9329249077874437,3.987984395693193,-0.09186596763563926,-0.16127565882913242,0.4301976570594911,-1.5116026907063844,0.7668091897707542,-2.7468312619605335
73,2.5387888969088985,4.22024932389518,1.1709538325670477,1.7959398258743806,1.0588274284562789,3.9984888351154306,-0.10131533382606106,-0.14339839553924805,0.4260304860692481,-1.7340984256365704,0.7568593955255399,-3.014648789175166
74,2.50301808623624,4.215355286565673,1.1389148413010197,1.6999840554276413,1.1848661867723167,4.009004641268886,-0.10960478170949858,-0.12418022618112161,0.4255921572992424,-1.9298920671139443,0.7029715894822098,3.0107417714764426
75,2.467234382471287,4.210459485248329,1.106864302025213,1.6039936990550774,1.3109503740096797,4.019524237698735,-0.11602539652394542,-0.10437892579633475,0.4288081903101011,-2.0815230626354224,0.6135464266168154,2.7796629334176766
76,2.431463571798628,4.205565447918823,1.0748253107591843,1.5080379286083376,1.4369891323257202,4.030040043852191,-0.12002870399539349,-0.08480930571298259,0.43538733318161027,-2.185220684346995,0.4995282919873843,2.577586811506378
77,2.395731426463123,4.200676700645645,1.0428209510370336,1.412185878545519,1.5628916529945536,4.040544483274428,-0.12126480599027976,-0.06628429806518292,0.44484872878004594,-2.2448438464805442,0.37098253649987745,2.3983963358546716
78,2.3600636768904253,4.19579676377573,1.01087426893648,1.3165065711440374,1.6885672746406208,4.051029991804521,-0.1196025782330219,-0.04955530714139853,0.4565625184150729,-2.265794977654679,0.236173603406992,2.2336186577522987
79,2.3244859838075227,4.190929148120082,0.9790082481079432,1.2210688417135156,1.813925581472223,4.061489025771366,-0.11513066595920333,-0.03525754134527711,0.46980031119580135,-2.252289511004949,0.10196772503052204,2.0752119816295638
80,2.2890239103632606,4.186077351139407,0.9472457848036266,1.125941263808663,1.938876501515065,4.071914070189621,-0.10814000145876038,-0.023865533872686563,0.48379114773534854,-2.2068600872688817,-0.02547993556301353,1.9163614917301228
81,2.253702894248881,4.181244853129738,0.9156096629065955,1.0311920744421617,2.063330404845803,4.082297646955629,-0.0990904035395605,-0.015662966600436083,0.49777821958496793,-2.1308849310812077,-0.1401753733376928,1.7517448171000538
82,2.218548219818551,4.176435113408067,0.8841225289598582,0.9368890992975434,2.187198201825591,4.092632323043352,-0.08856529072690533,-0.010729369257531717,0.5110716983186991,-2.025672270866847,-0.23604161344880595,1.5780268583930923
83,2.1835849902098996,4.17165156649797,0.852806867195447,0.8430996779420799,2.310391441333621,4.102910718700299,-0.0772194903796468,-0.008944469671451766,0.5230935566791506,-1.8939165992424312,-0.30713064646553856,1.3947914313066272
84,2.1488380994645384,4.16689761831524,0.8216849745634982,0.7498905890396514,2.4328224090006656,4.113125515643461,-0.06572547187441666,-0.010009143270598184,0.5334111579260078,-1.7410510927449527,-0.34840255917736535,1.205511941798833
85,2.1143322046486075,4.162176642353511,0.7907789357613333,0.6573279755636436,2.55440422544264,4.1232694652552375,-0.054723072085181276,-0.01348026969852512,0.541757541086379,-1.575488767373684,-0.35690614499540735,1.0175412866143818
86,2.080091697973301,4.15749197586989,0.7601105982625389,0.5654772700098238,2.675050944494116,4.133335396779369,-0.044776990656888685,-0.018815536450369052,0.5480376093405492,-1.4069587015064424,-0.332739810165971,0.8402993194652726
87,2.046140678915395,4.152846916070583,0.7297015473460482,0.47440311960921466,2.7946776514418974,4.143316225516865,-0.03634514713890055,-0.02542346214632408,0.552320700300174,-1.2436678137059587,-0.27908606662072744,0.6823649434378276
88,2.0125029263377856,4.148244716296528,0.6995730811252201,0.3841693115409974,2.9132005612585474,4.15320496102194,-0.029759585869721012,-0.03271370308281014,0.5548211543733772,-1.0902290954294005,-0.20126108884277785,0.5493976511057472
89,1.9792018706100223,4.143688582209015,0.669746185576922,0.294838698145373,3.030537116835928,4.162994715297938,-0.025220172830067798,-0.040143040345205855,0.555869398314797,-0.9474240759686514,-0.10544013747086735,0.4439448163288476
90,1.9462605657288339,4.139181667975327,0.6402415095706089,0.2064731221364573,3.1466060872187698,4.172678710993266,-0.02280002231974347,-0.0472532397531266,0.5558766563729789,-0.8132083360594003,0.002274168126879916,0.366530627297177
91,1.9137016614386637,4.134727072454356,0.6110793398974028,0.11913334181515456,3.261327665838192,4.182250289597327,-0.022460555599109817,-0.05369810272780759,0.5552966603905456,-0.6839016745769978,0.11624041626361818,0.31694225537614756
92,1.881547375352202,4.130327835382241,0.582279576299175,0.03287895628204662,3.374623568745253,4.1917029196364455,-0.024073414671246643,-0.059258324705550466,0.5545876600925428,-0.5550363570392781,0.23126027650767378,0.29512475532468824
93,1.8498194650709174,4.125986933557992,0.5538617064976274,-0.052231669349730225,3.486417132844497,4.2010302048698005,-0.0274461637814957,-0.06384408646758152,0.554177676296636,-0.42188450377386555,0.3423567956003281,0.3015665779842628
94,1.8185392003055871,4.121707277029118,0.5258447812233715,-0.13614147874159155,3.596633414127511,4.210225892485356,-0.032348789065916816,-0.0674864770534606,0.5544353587866986,-0.27993809150920973,0.4445106184019996,0.33717631754844346
95,1.7877273349968346,4.117491705277258,0.4982473892450081,-0.2187947991166448,3.705199285906438,4.219283881295794,-0.03853839130868332,-0.07031977236448601,0.5556480880281314,-0.12568408197512934,0.532499293358765,0.4025747433215265
96,1.7574040794356538,4.113342983403812,0.4710876323982103,-0.3001374160467787,3.812043537047565,4.228198229934439,-0.04578006832888208,-0.07255720184388871,0.5580081810388672,0.04207871740229683,0.6010234634442879,0.4967222022264848
97,1.7275890723839473,4.1092637983155615,0.4443831006148049,-0.3801166482398095,3.91709697020482,4.236963165051197,-0.05386270029555842,-0.07446310333189789,0.5616073064025139,0.22061338517145518,0.6453186074221975,0.6151987535409362
98,1.6983013531950548,4.105256754910306,0.4181508469518478,-0.45868142232657494,4.020292500053358,4.245573089508476,-0.06260908413611854,-0.07632431215861954,0.56643854821903,0.4024642612804968,0.662248476854056,0.7493293776610005
99,1.6695593339342873,4.101324372262487,0.3924073626207081,-0.5357823476480705,4.121565251523084,4.254022590577126,-0.07188052775479982,-0.07842330719691923,0.572405031931919,0.5770159955741799,0.6513759530491037,0.8876616899990465
100,1.6413807714994606,4.0974690798088185,0.3671685520161523,-0.6113717910425454,4.220852658032195,4.262306448132364,-0.08157654934975272,-0.08101511842022982,0.579333663947273,0.7341438788985339,0.6152010579726508,1.0195503905539167
101,1.6137827397414193,4.093693213533918,0.34244970774541583,-0.6854039516326456,4.318094559720739,4.270419642849705,-0.09163069635407009,-0.08430937151011864,0.5869923489540967,0.8673742054638393,0.5583004813123998,1.138265378866525
102,1.5867816015845797,4.089999012155928,0.31826548565729285,-0.7578349356125171,4.413233301684139,4.2783573644008985,-0.10200369284391012,-0.0884581872627301,0.5951090233172509,0.9745522787518055,0.48599683963353435,1.2416176489641961
103,1.560392981147455,4.086388613312154,0.2946298798712097,-0.8286228310349255,4.506213832206779,4.286115019649847,-0.11267515605923334,-0.09355003778566826,0.603390955646644,1.056575929474278,0.40333103948156174,1.330656679749323
104,1.5346317358631891,4.082864049744683,0.27155619780631035,-0.8977277825983698,4.596983800995478,4.29368824084855,-0.12363502049580453,-0.09960914129728247,0.6115429836509645,1.1157695838289188,0.31459288551665426,1.4080097844399768
105,1.5095119286000869,4.07942724548602,0.24905703521053368,-0.965112066434215,4.685493657413119,4.301072893833026,-0.13487560977874774,-0.10659958618170554,0.6192836427672685,1.154763017082585,0.22325602396372377,1.4767224884627117
106,1.4850467997821486,4.076080012044713,0.2271442511896984,-1.030740164893781,4.771696748712127,4.308265086219244,-0.14638504305436856,-0.11443312635274891,0.6263584604170602,1.175948657832977,0.132094654777441,1.5396681727616792
107,1.461248739509604,4.072824044590984,0.20582894323657897,-1.0945788413355038,4.855549418268048,4.315261175599057,-0.15814239223523277,-0.12297948010283674,0.6325500076411819,1.1813149262231242,0.04334106835005087,1.5993184803174625
108,1.4381292596794397,4.069660918142355,0.18512142225998618,-1.1565972149120096,4.937011103813074,4.322057777736133,-0.17011475094094847,-0.13207797630146342,0.6376845912032878,1.1724698807694436,-0.04117726059116419,1.6576832470198475
109,1.4156989661059298,4.066592083749277,0.1650311876138537,-1.216766835357256,5.016044435669603,4.328651774761882,-0.1822561585415813,-0.14154949930037092,0.6416357154614114,1.1507462426804353,-0.11993932706039885,1.7163078379509416
110,1.3939675306411754,4.06361886468076,0.14556690212630885,-1.2750617577736474,5.092615334983783,4.335040323371387,-0.1945081571382524,-0.1512078574894375,0.6443246335524907,1.117334229007623,-0.19167208002914898,1.7762765981572022
111,1.3729436632956311,4.06074245261,0.1267363671287658,-1.33145861741915,5.166693111959043,4.341220863019338,-0.20680165070062523,-0.16086991050004767,0.6457184379685975,1.0734153105974298,-0.2553272210827028,1.8382073406605628
112,1.3526350843586368,4.057963903800012,0.1085464974849919,-1.3859367044944078,5.2382505640896575,4.347191124115959,-0.21905968182078112,-0.17036401009701527,0.645826213562868,1.0202781200827142,-0.3100865855057042,1.9022427251904361
113,1.3330484965189542,4.055284135289249,0.09100329662020101,-1.438478038929862,5.307264074394258,4.352949136222941,-0.2312007353239079,-0.17953651849443017,0.644693797917251,0.9593976618046153,-0.35538700207775104,1.9680562779329938
114,1.314189556985295,4.05270392107724,0.07411183155012413,-1.489067445172866,5.373713709649431,4.3584932362493705,-0.2431422088655513,-0.18825634989541157,0.6423976741290044,0.8924594044729601,-0.3909524402206017,2.034894414048088
115,1.2960628496068471,4.050223888310218,0.057876207910099176,-1.5376926269748221,5.437583318623197,4.363822076647663,-0.25480374700245434,-0.196417627310914,0.6390384700330479,0.8213172765070278,-0.4168188962405205,2.101669222359597
116,1.278671856993825,4.047844513466741,0.0422995449841439,-1.584344242178271,5.498860630308622,4.3689346336094905,-0.2661102057506062,-0.20394065345628357,0.6347344663431972,0.7478908097324514,-0.4333382106232382,2.1671002178794208
117,1.2620189326379814,4.045566118543328,0.027383950734036322,-1.6290159775040083,5.557537352157304,4.373830215261714,-0.27699408948142834,-0.21077146249428372,0.6296154339610686,0.6740262810920713,-0.44115234166952016,2.229883016923311
118,1.2461052730331503,4.043388867240085,0.013130496828407168,-1.6717046233382549,5.613609268312958,4.378508469862313,-0.2873973733801606,-0.21688025254626603,0.6238170360619352,0.6013592547886357,-0.44113846730321027,2.2888496915343124
119,1.2309308897957756,4.041312761146334,-0.00046080632819567313,-1.7124101485196892,5.667076337844936,4.382969393996314,-0.2972726871471284,-0.22225900318179928,0.6174759499920423,0.531213540393584,-0.43433403938625537,2.343087404498585
120,1.2164945817854456,4.039337635926239,-0.01339103456622004,-1.7511357751266443,5.717942792981788,4.387213340771728,-0.30658388595614267,-0.22691856438413502,0.6107257920714477,0.46455560912749616,-0.42185571607241956,2.3919974762287723
121,1.2027939072254261,4.03746315750444,-0.02566237492202239,-1.787888053264182,5.766217237344799,4.391241028015474,-0.31530607163954105,-0.23088547067151452,0.603693867874192,0.4020034057421801,-0.4048254621562557,2.4352968220407183
122,1.1898251558231863,4.0356888182516775,-0.03727815060879669,-1.8226769358512165,5.81191274418153,4.395053546469314,-0.3234251509278436,-0.23419869243460087,0.5964987226931386,0.34387414303319996,-0.38431252850235215,2.4729778169693617
123,1.1775833208909297,4.03401393317042,-0.04824284598749262,-1.8555158534076588,5.855046954599379,4.39865236798578,-0.33093702969728167,-0.23690649144217468,0.5892484316957215,0.29025107978244535,-0.36129437925055674,2.505247066434832
124,1.1660620714661434,4.032437636080498,-0.058562131537725826,-1.8864217888414734,5.895642175799084,4.402039353724106,-0.3378465445844306,-0.23906350301275395,0.5820395458418601,0.2410523869134604,-0.3366352166080227,2.532460342911723
125,1.155253724432106,4.0309588758047274,-0.06824288882871077,-1.9154153522358754,5.933725479308345,4.405216762346162,-0.3441662283069083,-0.24072812649841357,0.5749565964807407,0.1960915453818337,-0.31107840303698886,2.555064534102274
126,1.145149216638433,4.02957641235454,-0.07729323549016787,-1.9425208556363875,5.969328799215271,4.4081872582123784,-0.34991499486637956,-0.24196027033094128,0.5680720568709353,0.15512474826153622,-0.2852485139231454,2.5735513714601512
127,1.1357380770216157,4.028288813115614,-0.08572255018325148,-1.9677663878379716,6.002489030402021,4.410953919577679,-0.3551168175783224,-0.24281946886105618,0.5614466607889114,0.11788492623627415,-0.2596592514778796,2.588423533456594
128,1.1270083987255348,4.027094449033498,-0.09354149757146901,-1.9911838891721771,6.033248126778263,4.413520246787416,-0.35979945831323484,-0.24336336576748754,0.5551299850903213,0.08410419016161297,-0.23472436083519602,2.600171529008798
129,1.118946811222008,4.025991490799244,-0.10076205329159116,-2.0128092262942197,6.061653199514769,4.415890170473295,-0.36399329180262674,-0.24364654258292828,0.5491612129371631,0.05352723661062944,-0.21076960661700864,2.609259007181138
130,1.111538452431307,4.024977905035034,-0.1073975289245821,-2.0326822669701015,6.087756615276964,4.418068059749308,-0.3677302553296153,-0.24371966019097255,0.5435700060222247,0.02591821052264308,-0.18804461274027673,2.6161141866931388
131,1.1047669408427123,4.024051450479809,-0.11346259696651373,-2.0508469548637906,6.111616094458444,4.42005873040766,-0.3710429422044234,-0.24362887511601433,0.5383774264038031,0.001063118185373288,-0.166733901156622,2.6211254942265003
132,1.0986143476350234,4.023209674174899,-0.11897331579948789,-2.0673513843242084,6.1332948094145365,4.421867453114707,-0.3739638474374731,-0.24341549011380503,0.5335968606724325,-0.021230600769325324,-0.14696681386605914,2.6246399759054526
133,1.0930611687970981,4.022449907649646,-0.12394715466255413,-2.0822478751725138,6.1528614826958385,4.423499961606882,-0.37652476604989515,-0.2431157990542115,0.5292349105175376,-0.041136176209225425,-0.12882621399230426,2.6269634744052475
134,1.0880862972483856,4.021769263107042,-0.1284030186226235,-2.0955930474890847,6.170390485281745,4.424962460886624,-0.3787563384155218,-0.24276108853068115,0.5252922239678146,-0.05881047632803112,-0.11235598061268015,2.6283619012546646
135,1.0836669949594682,4.0211646296093475,-0.1323612735453965,-2.107447896400692,6.185961934814053,4.426261635418315,-0.38068773270984096,-0.2423777623097358,0.5217642504380343,-0.07439730307602442,-0.0975673730791458,2.6290631779991984
136,1.0797788650725688,4.02063266926373,-0.13584377106628276,-2.117877866867648,6.199661793830408,4.427404657324199,-0.38234645168747017,-0.24198755905316283,0.5186419101521594,-0.08803066986866079,-0.08444436782134908,2.629259585652326
137,1.0763958240220997,4.020169813407883,-0.13887387356130843,-2.126952928470823,6.211581967997962,4.428399194580328,-0.38375824933500297,-0.24160783823956142,0.5159121745468592,-0.09983785478573241,-0.07294807950375296,2.6291103679458008
138,1.073490073655209,4.019772258795663,-0.14147647911805672,-2.1347476501989027,6.221820404346824,4.429253419212476,-0.38494714217107245,-0.2412519135333634,0.5135585589720219,-0.10994211769943552,-0.06302037810099864,2.6287444974142873
139,1.071032073352281,4.01943596378271,-0.1436780465065679,-2.1413412752353747,6.230481189503664,4.4299760154920875,-0.38593549983652303,-0.24092941675685783,0.511561532512787,-0.11846503461377841,-0.054586808992352506,2.628263548069753
140,1.0689905121474794,4.019156644512085,-0.14550662015026283,-2.1468177957457106,6.237674647925209,4.430576188132193,-0.3867441999185946,-0.2406466789611649,0.5098988521945701,-0.12552844569498137,-0.04755891701756239,2.6277446345857296
141,1.0673322808492993,4.0189297710998915,-0.14699185509686918,-2.1512660276645255,6.243517440131859,4.431063670483343,-0.38739283251082235,-0.2404071177845197,0.508545830335355,-0.13125604116607795,-0.04183606854476903,2.627243382764442
142,1.066022444161066,4.018750563820905,-0.14816504198933833,-2.154779685482602,6.248132660941144,4.431448732729546,-0.3878999406946642,-0.24021162230728255,0.5074755445095819,-0.13577462569122067,-0.03730685816343794,2.626796894492265
143,1.0650242128015028,4.018613989294208,-0.14905913203675913,-2.157457457034033,6.251649937701325,4.43174219008419,-0.38828328384885447,-0.24005892798280248,0.506658999607659,-0.13921511004628861,-0.033850178484059974,2.6264266655492263
144,1.0642989156252218,4.01851475666881,-0.1497087619852837,-2.159403078283428,6.254205528524938,4.431955410985981,-0.38856011139077,-0.2399459749938227,0.5060652509283521,-0.14171328086715373,-0.03133602249422041,2.6261414084333707
145,1.063805971743304,4.01844731380928,-0.15015027908905143,-2.1607254081128833,6.2559424205222935,4.432100325294864,-0.3887474351983506,-0.23986824363086784,0.5056614962347888,-0.1434103966521934,-0.029626077861321834,2.6259397258499018
146,1.0635028626437864,4.018405843481377,-0.15042176608108315,-2.1615385031092593,6.257010428035118,4.432189432487961,-0.3888622895360748,-0.2398200601011071,0.505413143343165,-0.14445365221381468,-0.02857416152178828,2.625812574196641
147,1.063345104312213,4.018384259537674,-0.15056306614423942,-2.1619616923511273,6.257566290869942,4.432235809855504,-0.3889219678058304,-0.2397948656508921,0.5052838582038692,-0.1449965454872669,-0.028026531081935153,2.625745450406011
148,1.0632862193521908,4.018376203103194,-0.15061580788211204,-2.162119652196072,6.257773772531824,4.432253120696755,-0.38894422585421534,-0.2397854411202449,0.505235596692438,-0.14519917100706595,-0.027822097401224582,2.6257202298372184
149,1.0632777091058663,4.018375038761027,-0.15062343028994807,-2.1621424810676357,6.257803758457749,4.432255622515947,-0.38894744187311997,-0.23978407813765368,0.5052286215810031,-0.14522845443072277,-0.02779255086551369,2.625716577419302
