nimar13/UR3e_dataset_trayectorias/data/trayectorias_completas_UR3e_QUINTIC_FUNC/trayectoria_170.csv
Punto,shoulder_pan_joint,shoulder_lift_joint,elbow_joint,wrist_1_joint,wrist_2_joint,wrist_3_joint,Posicion_X,Posicion_Y,Posicion_Z,Roll,Pitch,Yaw
0,-3.053201434281848,0.41489400097343543,-1.038393500379618,3.201846490120923,0.7197076652978512,-3.4239132261699594,-0.2809193134633655,-0.22610969815670845,0.22707416745367873,-0.7232026264875111,0.36446639889159305,-0.8461409970071097
1,-3.053208624029546,0.4148900749231427,-1.0383851652693907,3.201842455761657,0.7197009134518877,-3.4239109154300884,-0.2809222384208998,-0.2261082048650277,0.22707456100265794,-0.7232023055485449,0.36446330359050083,-0.8461545842564405
2,-3.0532583720614808,0.4148629093975165,-1.0383274921288046,3.20181454081359,0.7196541953940755,-3.4238949267242647,-0.2809424767838455,-0.22609787140160803,0.22707728409471065,-0.7232000841938807,0.36444188598832633,-0.8462485981663749
3,-3.05339165170561,0.4147901304061227,-1.0381729803751902,3.201739754049178,0.7195290333348455,-3.423852091481555,-0.2809966946716134,-0.22607017909139906,0.2270845795827582,-0.7231941271099673,0.36438450380579707,-0.8465004671106706
4,-3.053647728658977,0.414650296431422,-1.03787610909088,3.2015960624381457,0.71928855310987,-3.4237697899529036,-0.28110085568124066,-0.22601693978288312,0.22709859705647548,-0.723182657485207,0.3642742426256728,-0.8469843828843179
5,-3.054064184541242,0.41442288556707463,-1.0373933097174843,3.2013623779309697,0.718897462061095,-3.4236359436411776,-0.2812702221491185,-0.22593026537365102,0.22712139435113435,-0.7231639371800279,0.3640948980307712,-0.8477713351779813
6,-3.0546769404482115,0.4140882826562454,-1.0366829387501681,3.2010185442423675,0.7183220269177699,-3.423439007731208,-0.28151935383221544,-0.2258025296793954,0.22715493911966278,-0.7231362412745159,0.36383095546103034,-0.8489291430703613
7,-3.055520280505367,0.4136277664299087,-1.0357052504319255,3.200545323634782,0.7175300516774802,-3.4231679635198327,-0.2818621043558398,-0.22562632406635585,0.22720111045255376,-0.7230978280330793,0.36346756825638155,-0.8505224841235737
8,-3.0566268754213963,0.4130234966451531,-1.0344223694478567,3.199924383701868,0.7164908554871776,-3.422812310845942,-0.2823116156967661,-0.22539440818367085,0.2272617005295657,-0.7230469052625593,0.3629905343436143,-0.8526129216460386
9,-3.0580278060417223,0.41225850122348634,-1.032798263619443,3.1991382841519758,0.7151752505242115,-3.4223620605205176,-0.2828803108927271,-0.22509965705265442,0.22733841628641158,-0.7229815939798223,0.36238627201794843,-0.8552589306686323
10,-3.0597525869020337,0.4113166633891405,-1.0307987165988233,3.1981704635916417,0.7135555198773601,-3.42180772675668,-0.28357988509512283,-0.22473500569445334,0.2274328810789397,-0.7228998902465859,0.36164179526229817,-0.8585159231616016
11,-3.061829189781814,0.4101827088073767,-1.0283913005630687,3.19700522630907,0.7116053954278615,-3.4211403195997288,-0.28442129501396485,-0.22429339240563173,0.22754663632673255,-0.7227996259727887,0.36074468903793105,-0.8624362730014186
12,-3.0642840672578724,0.40884219272278965,-1.0255453489084607,3.1956277290576214,0.7093000357304451,-3.4203513373571863,-0.28541474674463946,-0.22376770172301205,0.2276811431176733,-0.7226784294349283,0.35968308496851364,-0.8670693411775436
13,-3.0671421762578728,0.4072814870976134,-1.0222319289447643,3.1940239678392968,0.7066160038943623,-3.4194327590288403,-0.28656968191668003,-0.2231507080545831,0.22783778375487782,-0.7225336862022594,0.35844563782463035,-0.8724615017085713
14,-3.070427001613863,0.4054877677500254,-1.0184238145895057,3.1921807646882248,0.7035312454644181,-3.4183770367367887,-0.2878947620665134,-0.2224350208926163,0.22801786322752363,-0.7223625011113491,0.3570215031972124,-0.8786561687150416
15,-3.0741605796158065,0.4034490014924517,-1.0140954590622473,3.1900857544541483,0.7000250663020019,-3.4171770881554804,-0.28939785110991784,-0.22161303246832928,0.2282226105875074,-0.7221616618781199,0.3554003167256453,-0.885693825072141
16,-3.0783635215651106,0.40115393326987225,-1.009222967578864,3.1877273715859076,0.6960781104661187,-3.4158262889417603,-0.29108599577612365,-0.220676868654578,0.22845318021459296,-0.7219276048859441,0.3535721752194236,-0.893612053039213
17,-3.0830550373281578,0.3985920732981251,-1.0037840700458183,3.18509483691493,0.6916723380944206,-3.4143184651649108,-0.2929654038642889,-0.21961834387401274,0.22871065295372334,-0.7216563836384984,0.35152761998109044,-0.9024455672345608
18,-3.088252958889833,0.3957536842022118,-0.9977580937544372,3.182178144438713,0.6867910032842375,-3.4126478857366958,-0.295041420194398,-0.21842892072475253,0.22899603710948843,-0.7213436403166892,0.3492576226030584,-0.9122262502930825
19,-3.0939737639070573,0.392629768154602,-0.9911259360751872,3.1789680481043114,0.6814186319736084,-3.410809254841403,-0.2973185001481697,-0.21709967499354957,0.22931026928434978,-0.7209845808298936,0.34675357347192115,-0.9229831915109267
20,-3.1002325992623136,0.38921205401353864,-0.98387003715195,3.175456048591823,0.6755409998223126,-3.408797704365888,-0.2998001807308391,-0.21562126668715803,0.22965421504909808,-0.7205739537028143,0.3440072731715584,-0.9347427287454839
21,-3.1070433046171795,0.38549298446134267,-0.9759743525962994,3.1716343800978746,0.6691451100929009,-3.406608786329617,-0.30248904913105495,-0.21398391767555625,0.2300286694361444,-0.7201060330901939,0.3410109269311053,-0.947528493800506
22,-3.1144184359658564,0.38146570314271794,-0.9674243261817758,3.167495997119109,0.6622191715317265,-3.404238465314709,-0.3053867088128399,-0.21217739650498527,0.2304343572486065,-0.7195746061623932,0.3377571422163779,-0.9613614614851567
23,-3.122369289188698,0.37712404180305614,-0.9582068625381631,3.1630345612356683,0.6547525762499764,-3.4016831108959793,-0.3084937432396524,-0.2101910109035545,0.23087193318070345,-0.7189729650551573,0.3342389295142385,-0.9762600024921348
24,-3.130905923605742,0.3724625074267417,-0.948310299845764,3.158244427894683,0.6467358776047024,-3.3989394900709833,-0.3118096774050801,-0.20801360846634626,0.23134198174769657,-0.7182939035267487,0.3304497063093908,-0.9922399401939632
25,-3.1400371855302387,0.36747626937545674,-0.9377243825296756,3.1531206331937556,0.6381607680798523,-3.3960047596900593,-0.315332937426395,-0.2056335859693765,0.23184501702649585,-0.717529718414994,0.32638330420297745,-1.00931461140813
26,-3.149770731822182,0.36216114652648584,-0.926440233954066,3.1476588806644483,0.6290200571673012,-3.392876458886371,-0.31906080854487473,-0.2030389077211981,0.23238148221102273,-0.7166722159357009,0.3220339790729065,-1.02749493113132
27,-3.160113053441838,0.35651359441102115,-0.9144503291164495,3.1418555280557676,0.6193076492478823,-3.3895525015059493,-0.32298939196905135,-0.20021713331608565,0.23295174898948015,-0.7157127228125227,0.31739642412787844,-1.0467894611907154
28,-3.1710694990032753,0.35053069235246703,-0.9017484673419627,3.1357075741176508,0.6090185214724182,-3.3860311685377398,-0.32711356109238177,-0.19715545510232377,0.2335561167537961,-0.7146421021769929,0.31246578566134375,-1.067204482706844
29,-3.1826442983278946,0.3442101306047452,-0.88832974497764,3.129212645384452,0.5981487016427522,-3.3823111005436406,-0.3314269177136372,-0.19384074562187412,0.23419481165460138,-0.7134507741264473,0.30723768126896284,-1.0887440722081314
30,-3.1948405859979596,0.3375501974905994,-0.8741905280866898,3.122368982958428,0.5866952460927792,-3.3783912900885484,-0.33592174898480986,-0.19025961521243517,0.23486798551820867,-0.712128740777486,0.3017082202541289,-1.1114101811828954
31,-3.207660424910126,0.3305497665399004,-0.8593284251427705,3.1151754292932243,0.5746562175694773,-3.3742710741704007,-0.34058898590566955,-0.1863984798885628,0.23557571464507043,-0.7106656156040453,0.2958740259115769,-1.1352027188007494
32,-3.221104829828971,0.3232082836279512,-0.8437422597242658,3.107631414977362,0.5620306631139381,-3.36995012665022,-0.34541816427427147,-0.1822436395341649,0.23631799851212845,-0.709050656802843,0.28973225934939234,-1.1601196374830682
33,-3.235173790940524,0.31552575411379113,-0.8274320432085605,3.0997369455177206,0.5488185919423987,-3.365428450682154,-0.35039738908659734,-0.17778136634364833,0.2370947584042525,-0.707272804385651,0.28328064448552565,-1.1861570209522296
34,-3.2498662974057955,0.3075027299785018,-0.8103989474663169,3.0914925881230286,0.5350209533272724,-3.360706371143522,-0.3555133034539011,-0.17299800334279486,0.23790583600258,-0.7053207206584545,0.27651749383636753,-1.2133091743427855
35,-3.265180360914308,0.2991402969635112,-0.7926452775557508,3.0828994584873453,0.5206396144781802,-3.355784527064856,-0.36075106317093525,-0.16788007270297062,0.23875099195997782,-0.7031828337128505,0.26944173470244626,-1.241568715915319
36,-3.281113039237626,0.2904400617088987,-0.7741744444169056,3.07395920757355,0.5056773384229811,-3.350663864059945,-0.3660943181196847,-0.16241439343367672,0.23962990449599234,-0.7008473835259205,0.2620529353498232,-1.270926669876625
37,-3.297660459782883,0.28140413889170046,-0.7549909375659307,3.0646740083968247,0.4901377618888044,-3.3453456267558748,-0.3715252017292257,-0.15658820789933267,0.24054216804553058,-0.698302470242006,0.25435133078533534,-1.3013725597787185
38,-3.3148178431463156,0.27203513836421367,-0.7351002977893554,3.055046542808143,0.4740253731830802,-3.3398313512230766,-0.37702432973046895,-0.15038931645749629,0.24148729199705227,-0.6955361041939845,0.24633784772927084,-1.3328945019447898
39,-3.33257952666679,0.2623361522923021,-0.7145090898383654,3.045079988277755,0.4573454900745704,-3.334122857405365,-0.3825708094426304,-0.14380621935889137,0.24246469955724462,-0.6925362572133588,0.23801412840001232,-1.3654792983532862
40,-3.3509389879793345,0.25231074229370054,-0.6932248751230785,3.0347780046786728,0.44010423767440043,-3.3282222415499843,-0.38814226080419006,-0.13682826488647432,0.24347372677995227,-0.6892909147780616,0.2293825527413104,-1.3991125284021175
41,-3.3698888685686663,0.24196292657631943,-0.6712561844068208,3.0241447210701566,0.42230852631708976,-3.322131868637649,-0.3937148503129379,-0.12944580254363897,0.24451362179750702,-0.685788128554444,0.2204462587434708,-1.433778638973892
42,-3.3894209973227243,0.2312971670765508,-0.648612490500402,3.0131847224812014,0.4039660294415832,-3.3158543648125893,-0.3992633389658642,-0.12165033993327698,0.2455835442925418,-0.6820160689055793,0.21120916053441655,-1.4694610322301767
43,-3.409526414086196,0.22031835659757207,-0.6253041809563915,3.001903036694022,0.3850851614722827,-3.3093926098125923,-0.40476114518887524,-0.11343470180294916,0.2466825652478305,-0.6779630769612852,0.201675963944432,-1.5061421505777355
44,-3.4301953932140514,0.20903180594765136,-0.6013425307633943,2.9903051210275393,0.3656750557000773,-3.302749729399046,-0.41018042361775275,-0.10479318957042694,0.24780966701067655,-0.6736177158758451,0.19185217927876974,-1.5438035582724055
45,-3.451417467125068,0.19744323107845302,-0.5767396750403267,2.978396849120867,0.34574554216337566,-3.2959290877869827,-0.41549216043514375,-0.09572173949223733,0.24896374370684066,-0.6689688209364498,0.18174413106441065,-1.5824260191559303
46,-3.473181449855365,0.18555874022334135,-0.5515085817306924,2.966184497716797,0.32530712552913593,-3.2889342800751202,-0.42066628578389287,-0.08621807749969691,0.2501436020369757,-0.6640055482281225,0.1713589645702862,-1.6219895700572609
47,-3.495475460611929,0.17338482103568625,-0.5256630242968576,2.953674733445284,0.3043709629738978,-3.2817691246759075,-0.4256718035656364,-0.07628186860664497,0.251347962485982,-0.6587174216081416,0.16070464893351225,-1.6624735894314537
48,-3.518286947326149,0.16092832772716803,-0.4992175544143277,2.940874599606934,0.28294884206481324,-3.2744376557455652,-0.43047693869686077,-0.06591485869501848,0.2525754609726625,-0.653094377793634,0.14978997675686093,-1.7038568608556146
49,-3.54160271020734,0.1481964682060823,-0.4721874746660225,2.927791502956489,0.2610531586406776,-3.2669441156141312,-0.43504930163490857,-0.05512100641300002,0.25382465096352297,-0.6471268094188168,0.13862456007425072,-1.74611763105134
50,-3.5654089252962797,0.13519679121564454,-0.4445888112365527,2.914433200486312,0.23869689469296074,-3.2592929472155014,-0.4393560697068204,-0.04390660287988096,0.2550940060705591,-0.6408056059718286,0.127218822610814,-1.7892336621557172
51,-3.589691168018731,0.12193717347229571,-0.41643828660649485,2.900807786209875,0.21589359624683857,-3.2514887865174744,-0.44336418447822873,-0.03228037688599811,0.2563819231484371,-0.6341221925740103,0.11558398829174142,-1.8331822780173075
52,-3.614434436738979,0.10842580680400632,-0.3877532922466681,2.886923677945244,0.19265735124222416,-3.2435364549517938,-0.44704056409243353,-0.020253583308579137,0.2576867259016499,-0.6270685666154621,0.10373206597916844,-1.8779404043487853
53,-3.6396231763133553,0.09467118528858193,-0.3585518613124091,2.872789604098563,0.1690027674147978,-3.2354409518441907,-0.4503523291964999,-0.007840072538041906,0.2590066690070217,-0.6196373323083177,0.09167583043868498,-1.9234846026230812
54,-3.6652413016437704,0.08068209239196789,-0.32885264133784864,2.8584145904475444,0.1449449501770399,-3.227207446844428,-0.4532670407577086,0.004943661173561018,0.2603399427514715,-0.6118217332624311,0.07942879955648184,-1.969791097654597
55,-3.6912722212312437,0.06646758810655395,-0.2986748669301873,2.843807946924951,0.12049948049926118,-3.218841272356343,-0.45575294776633934,0.01807845436830599,0.2616846781791999,-0.6036156832257311,0.0670052078447136,-2.0168357988605865
56,-3.717698860729433,0.05203699608947959,-0.26803833246397024,2.8289792544020833,0.09568239279063251,-3.21034791596789,-0.4577792425264553,0.031542473761484044,0.2630389527365816,-0.5950137951625273,0.05441997628643958,-2.0645943152499404
57,-3.7445036864981627,0.037399890800938806,-0.2369633647753655,2.8139383514722662,0.07051015278021977,-3.2017330128811845,-0.4593163209621461,0.04531124181128625,0.26440079639704533,-0.5860114088666255,0.041688678582836335,-2.113041964237164
58,-3.771668729156957,0.022566084642484774,-0.20547079585643668,2.7986953212343333,0.04499963539801044,-3.193002338342544,-0.46033604511978504,0.05935768965164308,0.2657681982422196,-0.57660461732152,0.02882750387443807,-2.1621537744283246
59,-3.799175607138567,0.007545615095334968,-0.17358193554942136,2.783260478076115,0.01916810265594837,-3.1841618000725345,-0.46081200483430695,0.07365223822608821,0.2671391134696718,-0.5667902920266863,0.015853216015569247,-2.2119044825732215
60,-3.8270055502425,-0.00765126814132383,-0.14131854424100565,2.7676443544579223,-0.006966818471037195,-3.175217430696009,-0.460719775356119,0.0881629080900463,0.2685114707917782,-0.5565661075065941,0.002783109487152626,-2.262268524924485
61,-3.855139423188554,-0.023014116012031127,-0.10870280555660006,2.7518576876960346,-0.03338715816399962,-3.166175380172156,-0.46003716761124913,0.10285545794788402,0.2698831801846963,-0.5459305652074017,-0.010365037961469961,-2.3132200232898588
62,-3.8835577491703406,-0.03853229296674732,-0.07575729905461526,2.735911406746184,-0.06007462587894419,-3.1570419082245373,-0.4587444676962824,0.11769355156588868,0.2712521409411816,-0.5348830169651562,-0.023573015845844866,-2.3647327661092463
63,-3.912240733408821,-0.05419498982254861,-0.04250497292073918,2.719816618987043,-0.08701063246579532,-3.1478233767711346,-0.45682466219612977,0.13263895226038638,0.27261624997614486,-0.5234236881989418,-0.03682223455313376,-2.416780184933498
64,-3.9411682867058317,-0.06999123662532308,-0.008969116662211452,2.7035845970037093,-0.11417631228736858,-3.138526242354392,-0.45426364596025126,0.14765174370978598,0.27397341032951705,-0.5115537009429498,-0.050093781913586224,-2.4693353267279763
65,-3.9703200489976185,-0.08590991551146465,0.02482666619790086,2.687226765371191,-0.1415525453383365,-3.129157048571256,-0.4510504090838265,0.162690575389372,0.2753215398071766,-0.4992750967833834,-0.06336848261930209,-2.522370822470892
66,-3.99967541290836,-0.10193977356956885,0.05885848542642602,2.6707546874378956,-0.1691199793641992,-3.119722418503224,-0.44717720001537287,0.17771293048763018,0.2766585796975622,-0.48659085971011157,-0.07662696036164877,-2.57585885256467
67,-4.029213547303705,-0.11806943570212824,0.0931021913858141,2.6541800521091123,-0.19685905198025255,-3.1102290471463827,-0.44263966195075855,0.19267541374249417,0.2779825034990977,-0.4735049388298432,-0.08984970254455324,-2.6297711096281864
68,-4.058913420844297,-0.13428741748722617,0.127533402339858,2.6375146606304996,-0.22475001279055695,-3.100683693841453,-0.4374369399731785,0.2075340562447965,0.2792913255918431,-0.46002227081839625,-0.10301712741335314,-2.684078759288452
69,-4.088753825539305,-0.15058213804023313,0.1621275317594204,2.6207704133715723,-0.25277294550690643,-3.0910931747038335,-0.431571756755604,0.2222446339038986,0.2805831097858182,-0.4461488019157347,-0.11610965341748278,-2.7387523996420353
70,-4.118713400299955,-0.16694193287550174,0.19685981562815624,2.603959296609186,-0.28090779006779776,-3.0814643550536416,-0.4250504550510918,0.23676299596576467,0.2818559776783072,-0.4318915091902897,-0.12910777059985415,-2.7937620201082574
71,-4.148770654493059,-0.18335506676806135,0.23170533974823848,2.5870933693110234,-0.30913436475739886,-3.0718041418457593,-0.41788300565024944,0.2510453997247633,0.28310811675311875,-0.41725842072061986,-0.14199211377613563,-2.849076960447251
72,-4.178903991494543,-0.19980974661531314,0.26663906704608054,2.5701847499190804,-0.3374323883245175,-3.0621194760998742,-0.4100829799759297,0.2650488473841804,0.2843377881562779,-0.4022586342646289,-0.15474353723334594,-2.9046658707648008
73,-4.209091732242983,-0.2162941342987259,0.3016358648780617,2.5532456031331514,-0.36578150210157123,-3.0524173253305236,-0.4016674870034572,0.2787314209025333,0.2855433340849377,-0.38690233391183054,-0.16734319063950873,-2.9604966733710127
74,-4.239312138793124,-0.23279635954553002,0.3366705323362502,2.5362881266943176,-0.39416129212355455,-3.0427046759771366,-0.39265707473015055,0.2920526106174251,0.2867231847293875,-0.3712008041449607,-0.17977259581493685,-3.0165365273991425
75,-4.26954343786942,-0.24930453279041365,0.37171782755412797,2.51932453816843,-0.42255131124700906,-3.0329885258340776,-0.3830755969595678,0.304973633468488,0.28787586471190146,-0.35516644067643577,-0.19201372397179356,-3.072751797122236
76,-4.299763844419561,-0.2658067580372181,0.4067524950123167,2.5023670617295957,-0.45093110126899305,-3.0232758764806906,-0.3729500467024675,0.31745773674657213,0.2889999989706952,-0.3388127573755211,-0.20404907298273725,-3.129108024926075
77,-4.329951585168001,-0.28229114572063063,0.44174929284429765,2.485427914943667,-0.4792802150460468,-3.01357372571134,-0.36231035801649764,0.3294704834767841,0.2900943180424738,-0.32215438856660067,-0.2158617441928667,3.097615397274903
78,-4.360084922169486,-0.2987458255678822,0.4766830201421399,2.4685192955517237,-0.5075782386131654,-3.003889059965455,-0.3511891785989101,0.3409800157952682,0.2911576627027842,-0.3052070859604494,-0.22743551824322353,3.041084014142824
79,-4.390142176362589,-0.3151589594604419,0.5115285442622224,2.451653368253561,-0.5358048133027663,-2.9942288467575726,-0.3396216159005167,0.3519572929991204,0.2921889879296466,-0.28798770948150026,-0.2387549293302871,2.9845201573041886
80,-4.42010175112324,-0.33151875429571076,0.546260828130958,2.4348422514911747,-0.5639396578636579,-2.9846000271073807,-0.3276449599348227,0.3623763013291569,0.29318736616254976,-0.2705142112771763,-0.24980533728600296,2.9279617155425597
81,-4.449942155818247,-0.3478134748487177,0.58085495755052,2.4180980042322475,-0.5919625905800069,-2.975009507969761,-0.31529838630518864,0.3722142329785418,0.29415198983585344,-0.25280561224216236,-0.2605729968287662,2.8714474316724474
82,-4.479642029358839,-0.3640314566338154,0.6152861685045639,2.401432612753635,-0.6198535513903117,-2.9654641546648315,-0.3026226432575574,0.3814516322974174,0.2950821731727564,-0.2348819704622085,-0.2710451233093217,2.815016882291067
83,-4.509180163754184,-0.3801611187663746,0.6495298744639515,2.3848579774248515,-0.6475926240063649,-2.9559707833079902,-0.2896597267811348,0.39007250767438756,0.2959773532332269,-0.21676434107902684,-0.28120995425868556,2.7587104469771857
84,-4.5385355276649255,-0.3961909768244788,0.6835616936924767,2.368385899491556,-0.6751600580322278,-2.946536153239958,-0.2764525479202578,0.3980644081091107,0.2968370902165189,-0.1984747271994537,-0.2910568060397612,2.702569266465119
85,-4.567687289956712,-0.41210965571062075,0.7173574765525894,2.3520280678590377,-0.7025362910831957,-2.9371669594568224,-0.2630445965254181,0.4054184640348712,0.2976610670260146,-0.18003602161666987,-0.3005761249118403,2.6466351894820113
86,-4.5966148432537235,-0.4279059025133951,0.7508933328111174,2.335796045875704,-0.7297019709047688,-2.9278698250400796,-0.2494796056596183,0.41212939249431935,0.2984490881110453,-0.16147193927612774,-0.30975953183910765,2.5909507081155088
87,-4.625297827492203,-0.44356859936919657,0.7841456589449933,2.319701258116563,-0.7566379774916202,-2.918651293586677,-0.2358012207894076,0.4181954673042024,0.2992010776069685,-0.14280694060006058,-0.3185998604114004,2.535558881773083
88,-4.65371615347399,-0.45908677632391304,0.8170911654469786,2.3037549771667125,-0.7833254452065644,-2.9095178216390583,-0.22205267773134638,0.42361845535492776,0.2999170768009943,-0.12406614597720178,-0.3270911872984179,2.4805032499989186
89,-4.681850026420044,-0.4744496241946202,0.8497069041313845,2.2879683104048247,-0.8097457848995272,-2.9004757711152047,-0.20827649309917276,0.4284035206681847,0.30059724095704876,-0.10527524192275561,-0.3352288547271569,2.425827734623719
90,-4.709679969523979,-0.48964650743127913,0.8819702954397997,2.272352186786632,-0.8358807060265129,-2.8915314017386797,-0.1945141707109221,0.43255909827137495,0.3012418355381732,-0.08646037961129305,-0.34300948455596675,2.371576531930623
91,-4.737186847505587,-0.5046669769784289,0.9138591557468159,2.2569173436284133,-0.8617122387685748,-2.8826908634686697,-0.1808059270763746,0.436096740333554,0.301851231869639,-0.06764806667518676,-0.35043098361602076,2.3177939957200637
92,-4.764351890164381,-0.5195007831368829,0.9453517246657439,2.241674313390481,-0.8872227561507838,-2.8739601889300297,-0.16719043870201225,0.4390309373374309,0.30242590228994565,-0.04886505333639516,-0.35749254010029186,2.2645245123406887
93,-4.791156715933112,-0.5341378884254234,0.9764266923543492,2.2266334104606633,-0.9123949961611969,-2.8653452858433237,-0.15370461353268886,0.44137891733090273,0.30296641484023246,-0.030138214093079096,-0.36419461089890903,2.211812368916039
94,-4.8175833554312995,-0.548568480442498,1.0070632268205657,2.211804717937796,-0.9372120838698256,-2.856851929454871,-0.14038338840609968,0.4431604265063165,0.3034734275452813,-0.011494426308571584,-0.37053889990520306,2.1597016161311413
95,-4.8436142750187745,-0.562782984727912,1.0372410012282274,2.1971980744152018,-0.9616575535476041,-2.8484857549667866,-0.12725955393812396,0.44439749449455734,0.30394768234122616,0.007039552856733062,-0.3765283274455223,2.1082359270446656
96,-4.86923240034919,-0.576772077624526,1.0669402212027876,2.182823060764184,-0.9857153707853624,-2.8402522499670235,-0.11436360779402571,0.44511418783411033,0.3043899987063452,0.025437209673808827,-0.3821669911145693,2.0574584534567912
97,-4.894421139923565,-0.5905266991399505,1.0961416521370466,2.1686889869175032,-1.0093699546127888,-2.8321567468594204,-0.10172363684188426,0.44533635508404495,0.30480126705184624,0.043672395720251285,-0.38746011842304373,2.007411681387803
98,-4.919164408643813,-0.6040380658082405,1.1248266464968737,2.1548048786528717,-1.0326061996174025,-2.82420441529374,-0.08936522823965029,0.44509136699731344,0.3051824419294572,0.06171944691249309,-0.39241401178216934,1.958137287207187
99,-4.943446651366266,-0.6172976835515891,1.1529771711269323,2.1411794643764344,-1.0554094980635251,-2.8164002545957127,-0.07731140908388233,0.44440785506109837,0.3055345351118776,0.07955329826817449,-0.3970359864571934,1.9096759958980971
100,-4.967252866455205,-0.630297360542027,1.1805758345564017,2.127821161906258,-1.0777657620112424,-2.808749086197083,-0.06558261385387253,0.44331545154955315,0.30585860860080916,0.09714959307215858,-0.4013343022160727,1.8620674428500856
101,-4.990568629336395,-0.6430292200631129,1.2076059143047069,2.1147380652558123,-1.0996614454353786,-2.801255546065649,-0.0541966785256123,0.4418445340272791,0.306155767615398,0.11448478525314022,-0.4053180894781295,1.8153500404478498
102,-5.013380116050614,-0.6554857133716312,1.234051384187237,2.1019379314174627,-1.1210835663444625,-2.793924077135307,-0.04316885991078837,0.44002597699625684,0.30642715361156136,0.13153623393927724,-0.4089972708285676,1.7695608505704963
103,-5.03567412680718,-0.6676596325592856,1.259896941621072,2.0894281671459494,-1.1420197288997014,-2.786758921736094,-0.03251187850044042,0.43789091310195966,0.3066739373798639,0.14828228934475574,-0.41238247880738793,1.7247354639405397
104,-5.057438109537475,-0.6795441234143975,1.2851280349307068,2.077215815741879,-1.1624581455339404,-2.779764114024232,-0.022235982863497563,0.4354705060136474,0.30689731226646366,0.16470236933781743,-0.4154849709048682,1.680907887071299
105,-5.078660183448493,-0.6911326982835966,1.3097308906537746,2.065307543835207,-1.1823876590706415,-2.772943472412168,-0.012349033468303948,0.4327957367769273,0.3070984875581925,0.18077702624767203,-0.41831654270076246,1.638110437362235
106,-5.099329162576348,-0.7024192489335173,1.3336925408467717,2.053709628168724,-1.2017977648428477,-2.766300591998622,-0.0028566036605702024,0.4298972051110357,0.3072786820691628,0.19648800367575925,-0.4208894400714696,1.5963736466913712
107,-5.119434579339819,-0.713398059412496,1.3570008503907818,2.042427942381545,-1.2206786328121475,-2.7598388369986253,0.00623790455723542,0.4268049467959828,0.30743911796245915,0.21181828327982358,-0.42321627136009304,1.555726173657939
108,-5.138966708093879,-0.7240638189122641,1.3796445442972007,2.0314679437925895,-1.239021129687655,-2.7535613331735656,0.014933132344049967,0.4235482679723369,0.30758101483653333,0.22675212169106068,-0.4253099203603414,1.5161947244433385
109,-5.157916588683209,-0.7344116346296456,1.4016132350134594,2.0208346601840734,-1.2568168410449654,-2.74747096026123,0.023229625837464837,0.4201555968649327,0.30770558410197996,0.24127507790046204,-0.4271834609089507,1.4778039820886273
110,-5.176276049995754,-0.7444370446282476,1.4228974497287459,2.0105326765849902,-1.2740580934451349,-2.7415703444058495,0.031129690336169302,0.4166543531464461,0.3078140236704197,0.25537403160648386,-0.42885007381489043,1.4405765438360025
111,-5.194037733516229,-0.7541360307001592,1.4434886576797348,2.000566122054603,-1.2907379765536455,-2.735861850588137,0.03863723914422181,0.413070834882058,0.30790751297338526,0.2690371931493233,-0.430322966779867,1.4045328660532603
112,-5.2111951168796615,-0.7635050312276457,1.4633792974563111,1.9909386564659215,-1.3068503652593697,-2.73034757505534,0.045757639274905865,0.4094301227459377,0.30798720832537213,0.28225410576584775,-0.43161529788579583,1.3696912161547903
113,-5.227742537424919,-0.7725409540448445,1.482562804307286,1.9816534572891955,-1.322389941793546,-2.7250293377512698,0.05249755608804183,0.40575600097691,0.30805423864169046,0.2950156409828276,-0.43274010314352007,1.336067630851849
114,-5.243675215748235,-0.7812411892994569,1.5010336374461313,1.9727132063754003,-1.3373522178487462,-2.7199086747463577,0.05886479879064159,0.40207089434631105,0.30810970151839817,0.30731398802467236,-0.43371022851528906,1.3036758800075736
115,-5.258989279256749,-0.7896036223144476,1.5187873073566964,1.9641200767397167,-1.3517335566978388,-2.7149868306676925,0.06486816857128629,0.39839582024699294,0.3081546596785334,0.319142638146684,-0.4345382667433569,1.272527435337773
116,-5.273681785722021,-0.7976266464497375,1.5358204030989409,1.955875719345025,-1.3655311953129652,-2.7102647511290607,0.07051731096810218,0.3947503548790894,0.30819013778600446,0.33049636481732564,-0.43523649924006974,1.2426314431850032
117,-5.287750746833572,-0.8053091759638968,1.552130619614646,1.9479812498853835,-1.3787432664845025,-2.7057430751609948,0.07582257389297502,0.3911526124053011,0.30821711962596504,0.3413712006654405,-0.435816843222606,1.2139947005987093
118,-5.301195151752418,-0.8126506588758466,1.5677167850331506,1.9404372355695216,-1.3913688209400417,-2.701422127640814,0.08079487255448133,0.3876192358752778,0.30823654564822356,0.35176441208330367,-0.43629080420873995,1.186621633975666
119,-5.314014990664583,-0.8196510898265448,1.5825788879770706,1.9332436819043166,-1.403407849463346,-2.697301911722666,0.08544556234247071,0.3841653986738134,0.3082493108682602,0.36167447233632155,-0.4366694339297987,1.1605142795500833
120,-5.326211278334649,-0.8263110229406911,1.5967181048680195,1.926400019478293,-1.4148613050133192,-2.693382101267574,0.08978632056126575,0.3808048152291617,0.3082562631187375,0.37110103397798444,-0.43696329366335784,1.135672265068508
121,-5.337786077659269,-0.8326315846884138,1.6101368272323426,1.9199050907450943,-1.4257311248429856,-2.689662033273475,0.09382903772851886,0.37754975972376936,0.30825820164294226,0.3800449013069065,-0.4371824229415502,1.1120927920389378
122,-5.348742523220704,-0.8386144867469683,1.6228386890068311,1.9137571368069772,-1.4360202526184476,-2.6861407003052653,0.09758571899497588,0.3744110915775397,0.3082558760204549,0.38850800353382775,-0.4373363135509949,1.0897706180034783
123,-5.359084844840361,-0.8442620388624322,1.6348285938444456,1.9079537841982965,-1.4457326605378662,-2.6828167429248433,0.10106839608811828,0.371398286520821,0.308249985414375,0.3964933692528497,-0.43743388870683697,1.068698038347362
124,-5.368818391132303,-0.8495771617114036,1.6461127424200581,1.9024920316689886,-1.4548733714504198,-2.6796884421211553,0.10428905004098932,0.36851947213782293,0.30824117812869817,0.4040051027346057,-0.4374834872558849,1.0488648672225012
125,-5.3779496530568025,-0.8545633997626891,1.656698659736146,1.8973682369680616,-1.4634484809752686,-2.6767537117402314,0.10725954483704339,0.36578146683824575,0.3082300514638928,0.4110483624816294,-0.43749285274167465,1.030258417228711
126,-5.386486287473845,-0.8592249341390037,1.6665952224285447,1.8925781036270763,-1.4714651796205431,-2.6740100909152353,0.10999157198254457,0.3631898213026976,0.3082171518582559,0.41762934240908284,-0.4374691271464977,1.0128634775597758
127,-5.394437140696686,-0.8635665954786651,1.6758126860721585,1.8881166677436356,-1.478931774902294,-2.6714547364965058,0.11249660590999849,0.36074886154308816,0.3082029753023332,0.42375525593860175,-0.43741884911169937,0.9966622903827712
128,-5.4018122720453645,-0.8675938767972899,1.6843627124866825,1.88397828476487,-1.4858577134634672,-2.6690844154815982,0.11478587001841732,0.3584617328198762,0.30818796801338055,0.4294343232203212,-0.43734795642644236,0.981634525277214
129,-5.408622977400228,-0.8713129463494851,1.6922583970423333,1.8801566162709213,-1.4922536031928781,-2.6668954974453265,0.1168703130684487,0.3563304437610891,0.308172527356594,0.43467576162876576,-0.4372617925661794,0.9677572516147915
130,-5.414881812755485,-0.8747306604905494,1.6995142959655694,1.8766446167584319,-1.4981312353441743,-2.6648839469698125,0.11876059557134772,0.3543559101308617,0.30815700299954335,0.43948977961291325,-0.43716511705432237,0.9550049088103973
131,-5.420602617772709,-0.8778545765381598,1.7061464536448205,1.8734345204240308,-1.5035036066548053,-2.6630453160745193,0.12046708573939247,0.3525379977954872,0.3081416982858697,0.44388757391985795,-0.4370621194130382,0.9433492744206922
132,-5.425800539334382,-0.8806929656340727,1.7121724299362018,1.8705178279478134,-1.5083849414649873,-2.6613747366463043,0.1219998645005361,0.3508755645302644,0.3081268718138396,0.447881330155134,-0.436956436461192,0.932759430107087
133,-5.430492055097432,-0.8832548256058215,1.7176113274692473,1.8678852932768364,-1.512790713836687,-2.6598669128694548,0.12336873902047012,0.3493665003987913,0.3081127392046924,0.45148422659154724,-0.43685117270811036,0.9232017255163315
134,-5.4346949970467335,-0.885549893828401,1.7224838189526308,1.8655269104085956,-1.5167376696725698,-2.6585161136557347,0.12458326411981421,0.348007766515794,0.3080994750448896,0.4547104410919349,-0.4367489235807794,0.914639740163497
135,-5.438428575048679,-0.8875886600859746,1.72681217447989,1.8634319001745174,-1.5202438488349852,-2.6573161650744264,0.12565277092170776,0.34679543207338825,0.3080872149853066,0.4575751609702397,-0.43665180120826075,0.9070342434289601
136,-5.4417134004046686,-0.8893823794335622,1.730620288835149,1.861588697023447,-1.5233286072649315,-2.656260442782375,0.12658640201450588,0.3457247095674223,0.30807605797904775,0.4600945955792616,-0.4365614624702353,0.9003431528040045
137,-5.444571509404669,-0.8909430850587385,1.7339337087988451,1.8599849358051228,-1.5260126391010136,-2.655341864454029,0.12739315236498047,0.3447899882038047,0.3080660686379387,0.4622859913827892,-0.4364791389961554,0.8945214905376827
138,-5.447026386880728,-0.8922836011433246,1.736779660453455,1.8586074385536746,-1.5283179987984292,-2.6545528822114863,0.1280819151683517,0.34398486549362783,0.30805727968577284,0.4641676492443618,-0.43640566877698106,0.8895213388519962
139,-5.449102989760506,-0.8934175557250896,1.739187076489208,1.8574422012711018,-1.5302681232479274,-2.653885475054535,0.12866153177230955,0.34330217705949445,0.3080496944840846,0.46575894364471015,-0.4363415290228817,0.8852917939025142
140,-5.45082777062082,-0.8943593935594361,1.741186623509828,1.8564743807107662,-1.5318878538947778,-2.653331141290698,0.12914084476235432,0.3427340246734009,0.30804328960352106,0.4670803435249855,-0.4362868698669854,0.8817789186677715
141,-5.452228701241145,-0.8951243889811022,1.742810729338241,1.8556882811608748,-1.5332034588577441,-2.6528808909652737,0.1295287532450295,0.3422718025285527,0.3080380174108836,0.4681534344430073,-0.4362415484777678,0.8789256949532426
142,-5.453335296157176,-0.8957286587658597,1.7440936103223115,1.8550673412279608,-1.5342426550480468,-2.652525238291383,0.12983426931380956,0.34190622171381946,0.3080338086384524,0.4690009417248958,-0.43620516310020635,0.8766719746943974
143,-5.454178636214333,-0.8961891749921942,1.7450712986405514,1.8545941206203758,-1.5350346302883389,-2.652254194080008,0.1300665746292435,0.34162733281074364,0.3080305748984505,0.46964675429428576,-0.43617708649919856,0.8749544307388492
144,-5.4547913921213,-0.8965237779030253,1.7457816696078676,1.8542502869317734,-1.5356100654316638,-2.6520572581700375,0.13023507599050607,0.3414245464700315,0.30802821110137746,0.4701159488654269,-0.4361564982277262,0.873706507279743
145,-5.455207848003566,-0.8967511887673718,1.7462644689812625,1.8540166024245972,-1.5360011564804394,-2.6519234118583124,0.13034945871941592,0.3412866517488412,0.3080265977324632,0.4704348141943903,-0.4361424150870927,0.8728583701020909
146,-5.45546392495693,-0.8968910227420728,1.7465613402655753,1.8538729108135632,-1.5362416367054124,-2.651841110329661,0.13041973661994946,0.34120183190378695,0.30802560293576126,0.47063087509344737,-0.4361337190878868,0.8723368567912207
147,-5.4555972046010615,-0.8969638017334656,1.7467158520191906,1.8537981240491521,-1.536366798764643,-2.651798275086951,0.13045629721590588,0.34115767724002416,0.3080250843503477,0.4707329159265007,-0.4361291821581528,0.8720654270381286
148,-5.4556469526329945,-0.8969909672590932,1.7467735251597765,1.8537702091010853,-1.536413516822452,-2.651782286381127,0.13046994090554812,0.3411411945171293,0.3080248906378871,0.47077100331691785,-0.4361274867805011,0.8719641131621583
149,-5.455654142380691,-0.8969948933093863,1.746781860270003,1.8537661747418188,-1.5364202686684196,-2.6517799756412566,0.13047191260393368,0.3411388123115617,0.30802486263541284,0.47077650781154307,-0.4361272416726412,0.8719494709569394
