nimar13/UR3e_dataset_trayectorias/data/trayectorias_completas_UR3e_QUINTIC_FUNC/trayectoria_271.csv
Punto,shoulder_pan_joint,shoulder_lift_joint,elbow_joint,wrist_1_joint,wrist_2_joint,wrist_3_joint,Posicion_X,Posicion_Y,Posicion_Z,Roll,Pitch,Yaw
0,-3.1479905703080204,3.306927471566453,2.291534680447352,-2.178563248509263,0.971297894331801,0.5056078930555337,0.12294362001128152,-0.18423225838068136,0.43901368920845246,-2.4724591846001696,-0.22469175233043887,-0.6281202362776027
1,-3.1479747397553592,3.3069336404977974,2.2915304600075994,-2.178571054807938,0.9712915716593962,0.5055996063779152,0.12294631151751267,-0.18423079142234447,0.4390144653979257,-2.4724695151026013,-0.22468594718082563,-0.6281099883562177
2,-3.147865203388799,3.306976325193618,2.291501257512543,-2.178625068941962,0.9712478231828267,0.5055422683571523,0.12296493404409818,-0.18422063996533936,0.4390198360127758,-2.4725409966190974,-0.22464578047001132,-0.6280390801236626
3,-3.14757174518781,3.3070906814977272,2.2914230212889706,-2.1787697778737676,0.9711306169103051,0.5053886544209798,0.12301481850681592,-0.18419343352981,0.43903422375541423,-2.4727325165650376,-0.22453817757350733,-0.6278491122569053
4,-3.1470079090330767,3.3073104000762537,2.291272702056755,-2.179047814498369,0.9709054225426356,0.5050935081589464,0.12311063530189148,-0.18414112066861676,0.4390618650478297,-2.4731005518412728,-0.2243314652833918,-0.6274841252785455
5,-3.146090946845793,3.3076677266269927,2.2910282391027468,-2.1794999832167092,0.9705391907602131,0.5046135141753558,0.12326638053286926,-0.18405593309157323,0.4391068105325097,-2.4736992483010134,-0.22399537683411352,-0.6268905722496412
6,-3.1447417667269537,3.308193482088751,2.290668546454658,-2.180165285509002,0.9700003325100218,0.5039072709422068,0.12349535532168593,-0.18393034063565722,0.43917292496484023,-2.474580513845797,-0.22350106426196822,-0.6260172934469181
7,-3.142884881096651,3.3089170828506953,2.2901734990549554,-2.181080945508075,0.9692586982926339,0.5029352636521338,0.1238101392622894,-0.1837569989903382,0.43926388661360594,-2.4757941225858198,-0.22282111693894682,-0.6248154928149982
8,-3.140448354833365,3.3098665609617,2.2895239189347465,-2.1822824355727155,0.9682855574492084,0.5016598370713473,0.12422255891678902,-0.1835286920679906,0.43938318628090645,-2.477387827636371,-0.22192958527853462,-0.6232387160647236
9,-3.1373637534132586,3.3110685843396936,2.2887015613876676,-2.183803501861012,0.96705357744849,0.5000451683925744,0.12474365210109695,-0.18323827089726644,0.43953412604778713,-2.479407480252979,-0.2208020087660664,-0.6212428303672102
10,-3.1335660910494716,3.3125484769810063,2.2876891011437728,-2.1856761899036994,0.9655368031738075,0.4980572400879996,0.12538362856658739,-0.18287859090661343,0.43971981784693587,-2.4818971531359355,-0.2194154476148632,-0.6187860056647092
11,-3.1289937788314135,3.314330239169718,2.286470118543424,-2.187930870177501,0.9637106362100728,0.4956638127622048,0.12615182756288632,-0.1824424494514807,0.4399431819588022,-2.484899265862395,-0.21774851748799473,-0.615828697679419
12,-3.123588572864058,3.3164365676870036,2.285029085711176,-2.1905962636784735,0.9615518141307795,0.49283439800511,0.12705667267009563,-0.18192252541873055,0.4402069455222917,-2.4884547105328347,-0.21578142685132376,-0.612333632746159
13,-3.1172955224072356,3.3188888760204844,2.2833513527296687,-2.193699467495352,0.9590383897850014,0.48954023124491386,0.12810562422116656,-0.181311322712689,0.44051364114571234,-2.4926029758497696,-0.21349601663453657,-0.6082657946214463
14,-3.1100629180149277,3.3217073145735707,2.281423133813512,-2.197265980382889,0.956149710584392,0.4857542446010343,0.12930512960043028,-0.18060111938695,0.44086560569779004,-2.497382267980719,-0.21087580197156716,-0.6035924134275844
15,-3.1018422396745593,3.3249107908748123,2.279231493483178,-2.201319728335204,0.9528663977901825,0.4814510397370486,0.13066057170493436,-0.1797839241324684,0.4412649793522805,-2.502829626694716,-0.20790601586950522,-0.598282956874415
16,-3.0925881049462944,3.328516989787245,2.2767643327388853,-2.205883090159122,0.9491703258001805,0.47660686071363434,0.1321762158925616,-0.17885144176371437,0.44171370495291556,-2.5089810354016313,-0.20457365471531647,-0.5923091238627476
17,-3.0822582171023276,3.3325423937177376,2.2740103752344916,-2.2109769230475216,0.9450446014357692,0.4711995668415096,0.1338551558150281,-0.1777950492586099,0.44221352775814143,-2.51587152386507,-0.20086752557252882,-0.5856448405119367
18,-3.0708133132661803,3.337002302826339,2.2709591534513787,-2.2166205881526744,0.9404735432289062,0.4652086055343735,0.1356992586434925,-0.17660578380225944,0.44276599561724705,-2.5235352625009972,-0.196778295245961,-0.5782662585706821
19,-3.0582171125519904,3.3419108552356263,2.2676009948723426,-2.222831976159592,0.9354426607091215,0.4586149851618468,0.13770911033713662,-0.17527434415647258,0.44337245962111693,-2.53200564731325,-0.19229854110209493,-0.5701517560658821
20,-3.0444362642038096,3.3472810472400525,2.2639270081554828,-2.2296275328593684,0.9299386336905171,0.45140124790241243,0.13988396177668744,-0.17379110652378627,0.44403407526188987,-2.5413153746511075,-0.18742280362679656,-0.5612819399215655
21,-3.029440295734895,3.353124753515292,2.2599290693080882,-2.237022284722524,0.9239492915587648,0.4435514425963557,0.14222167678010755,-0.17214615589294854,0.44475180412635196,-2.5514965051000447,-0.18214764068155798,-0.5516396501407701
22,-3.0132015610670035,3.3594527473275906,2.255599807860528,-2.2450298644723476,0.9174635925581061,0.4350510975987051,0.14471868322977186,-0.17032933363937247,0.44552641613793426,-2.5625805159314523,-0.17647168338533264,-0.5412099649906709
23,-2.9956951886696843,3.3662747207431094,2.2509325930401394,-2.253662536658243,0.9104716030783498,0.4258871936321727,0.14736992876123847,-0.16833030190577958,0.44635849235173564,-2.5745983416372233,-0.17039569350207537,-0.5299802064683178
24,-2.976899029699574,3.373599304837276,2.2459215199451155,-2.262931223229071,0.9029644769418714,0.41604813664009455,0.15016884268365432,-0.16613862500244175,0.44724842829618044,-2.587580402157387,-0.16392262215521697,-0.5179399451543752
25,-2.9567936061396893,3.381434089904129,2.2405613957183936,-2.272845529106492,0.8949344346906118,0.40552373063937125,0.15310730601022074,-0.16374386774111868,0.4481964378437485,-2.6015566184706516,-0.15705766961984766,-0.5050810033885008
26,-2.93536205893872,3.3897856456656665,2.2348477257215453,-2.283413767758313,0.8863747428730756,0.39430515057340854,0.15617563166208195,-0.16113571025111112,0.4492025575818129,-2.6165564152563316,-0.14980834586175895,-0.49139745552597386
27,-2.9125900961503253,3.398659541481193,2.2287766997086624,-2.2946429867718265,0.8772796933313304,0.3823849151650575,0.15936255705779293,-0.1583040784204732,0.4502666516431022,-2.632608710350055,-0.1421845313997292,-0.4768856238641901
28,-2.8884659410724227,3.4080603665566676,2.2223451780002486,-2.306538993427159,0.8676445824880048,0.36975685976955547,0.16265525139986542,-0.15523928866284165,0.4513884169437967,-2.649741890704218,-0.13419853796315123,-0.4615440686631064
29,-2.8629802803864863,3.4179917501540493,2.215550677657104,-2.319106380270612,0.8574656906332884,0.3564161092274662,0.16603934000620588,-0.15193220523540407,0.45256738876593705,-2.66798377452775,-0.12586516830088817,-0.4453735705291334
30,-2.8361262122968376,3.4284563818006477,2.208391358654218,-2.3323485506880055,0.8467402612119288,0.34235905071762046,0.16949894799428894,-0.1483744078336416,0.4538029466098617,-2.687361559220268,-0.11720177436818374,-0.42837710329101936
31,-2.8078991946699396,3.4394560314984672,2.200866010054653,-2.3462677444780233,0.835466480110232,0.32758330661005647,0.17301676549716472,-0.14455836667398386,0.45509432023200336,-2.707901754636631,-0.1082283129756711,-0.4105597953730154
32,-2.778296993173692,3.450991569933555,2.192974036183437,-2.3608650634255555,0.8236434549430598,0.3120877073189606,0.1765741363617979,-0.1404776217597791,0.45644059577379964,-2.7296301011243806,-0.09896739782706843,-0.39192887756973727
33,-2.7473196294167215,3.463062988685351,2.1847154428014504,-2.3761404968750415,0.8112711943408296,0.29587226415560763,0.18015117194298957,-0.13612696252545733,0.4578407218789783,-2.752571471676099,-0.08944434669908038,-0.37249361505419504
34,-2.7149693290876784,3.4756694204360308,2.1760908232793126,-2.3920929473038157,0.7983505872365124,0.2789381421813013,0.1837268911542323,-0.13150260358788143,0.4592935156893175,-2.7767497574406397,-0.07968722232791917,-0.3522652214122457
35,-2.6812504700945294,3.4888091591798567,2.167101344771274,-2.40872025589545,0.7848833821526319,0.261287633060315,0.1872793873682119,-0.12660235192466127,0.460797668603469,-2.8021877357534875,-0.06972686536182557,-0.33125675250147796
36,-2.64616953070385,3.5024796804325233,2.1577487343891026,-2.426019228113097,0.7708721664882628,0.24292412791283174,0.19078602207662243,-0.12142576047076234,0.46235175167984066,-2.828906919791601,-0.05959691751897702,-0.309482977990321
37,-2.6097350376801205,3.516677661440505,2.148035265375971,-2.443985659272834,0.7563203458060304,0.2238520901678856,0.19422364442918266,-0.11597426290253939,0.4639542205631777,-2.856927388948603,-0.049333832857698094,-0.2869602285561426
38,-2.571957514425016,3.531399001390405,2.1379637432803484,-2.462614360117008,0.7412321231191081,0.204077028416301,0.19756883488874608,-0.1102512842880517,0.4656034198156141,-2.8862675990815863,-0.03897687482502247,-0.2637062169233283
39,-2.532849429116704,3.546638841618299,2.127537492129886,-2.481899182387577,0.7256124781782177,0.18360546926363425,0.20079817028304664,-0.10426232234906098,0.4672975865368821,-2.91694417192204,-0.028568096506646247,-0.23973983122008596
40,-2.492425142849135,3.562391585819086,2.1167603406053064,-2.501833044399456,0.7094671467586267,0.16244493018311357,0.20388850653021637,-0.09801499432594861,0.4690348531652729,-2.948971663193297,-0.018152301265410606,-0.21508089954367662
41,-2.4507008577713365,3.5786509202558348,2.105636608214292,-2.5224079566138586,0.6928025999471472,0.1406038923685794,0.20681727429750446,-0.09151904488055686,0.47081324936101504,-2.982362309358406,-0.007776980738543505,-0.18974992516642009
42,-2.407694565226709,3.59540983396913,2.0941710914653746,-2.543615047211643,0.6756260234291358,0.11809177358742551,0.20956278185917435,-0.08478631112678603,0.47263070288714704,-3.017125753457742,0.002507773017987171,-0.1637677925072606
43,-2.3634259938923172,3.6126606389864206,2.0823690500418217,-2.5654445876666525,0.6579452967754911,0.09491890103353845,0.21210451849400908,-0.07783064175059393,0.47448503941970316,-3.0532687512040737,0.012649384577335113,-0.137155444851421
44,-2.317916557918183,3.6303949905313675,2.0702361929755266,-2.5878860183190624,0.6397689727296528,0.0710964841802395,0.2144234509524809,-0.07066776826716101,0.476373981239155,-3.090794859398166,0.022592944771192322,-0.1099335358347567
45,-2.271189305066581,3.6486039072331895,2.057778664820897,-2.6109279739487223,0.621106256494601,0.04663658763322398,0.21650230487773103,-0.06331512775061117,0.4782951447783886,-3.1297041098154397,0.03228139623599977,-0.08212205792253348
46,-2.2232688648513332,3.667277791336012,2.0450030318287413,-2.634558309348499,0.6019669850198542,0.021552103983502158,0.21832582263208325,-0.05579163783713213,0.48024603702888496,3.1131926341927865,0.04165575802370565,-0.05373995249608168
47,-2.1741813966770973,3.6864064489082145,2.03191626812016,-2.6587641248976217,0.582361606288468,-0.004143273339660247,0.21988098880828327,-0.0481174264103,0.48222405083586406,3.0715327894483173,0.050655392073637576,-0.0248047076906685
48,-2.123954537978667,3.7059791100517763,2.018525741860432,-2.683531792135024,0.5623011586040345,-0.030435077215801742,0.2211572148329207,-0.04031352008113984,0.4842264591445673,3.028514233328369,0.059218313797753976,0.004668048239519148
49,-2.0726173523602593,3.7259844491116247,2.0048392014329037,-2.7088469793326895,0.5417972498776804,-0.05730809398032444,0.2221464745312288,-0.032401497317293054,0.48625040829301974,2.9841544001734706,0.06728154826853965,0.03466494858504471
50,-2.0202002777348147,3.746410604884983,1.9908647616128785,-2.7346946770689944,0.5208620369150658,-0.08474639057155331,0.22284338333914305,-0.02440311378858761,0.4882929104809551,2.938475890833921,0.07478153249876818,0.06517527381647563
51,-1.9667350744632839,3.767245200830718,1.9766108897415027,-2.7610592238020497,0.4995082047033838,-0.1127333416777957,0.22324521502788686,-0.016339909105919637,0.49035083557932974,2.891506740288903,0.08165456305843262,0.0961913086934605
52,-1.9122547734939268,3.7884753652786847,1.9620863918996567,-2.787924331443049,0.477748945698358,-0.14125165688440178,0.22335185134020913,-0.008232805557858814,0.49242090247921594,2.84328063741851,0.08783728679527225,0.127708657219065
53,-1.8567936245016028,3.8100877516390774,1.947300399081842,-2.8152731109296063,0.4555979391112419,-0.17028340782082263,0.22316566179984174,-0.00010171061499074764,0.4944996702119531,2.793837083168886,0.09326723074019468,0.159726501142455
54,-1.8003870440270662,3.832068558611774,1.9322623533700694,-2.8430880977991064,0.4330693301958175,-0.19981005530767093,0.22269131310254678,0.00803486420101674,0.49658352910332904,2.7432214732972358,0.09788336543961472,0.19224778766226558
55,-1.7430715636162597,3.8544035503956864,1.9169819941077488,-2.871351277762043,0.4101777095353938,-0.22981247650378,0.2219355098656271,0.016160155067547755,0.4986686922522904,2.691485092581448,0.10162669403978687,0.22527933269236852
56,-1.684884777959605,3.877078076898104,1.9014693440735764,-2.9000441122753653,0.38693809232980636,-0.260270992053263,0.22090667102330488,0.024259455260543787,0.5007511876482907,2.638685008939798,0.10444085755449824,0.258831827631241
57,-1.6258652930313027,3.9000770939440432,1.8857346956554233,-2.92914756411582,0.363365897682415,-0.29116539323257284,0.2196145487132987,0.03232036978631,0.5028268512599354,2.5848838583891287,0.10627274499754921,0.2929197400833524
58,-1.5660526742286187,3.923385183485596,1.869788597024225,-2.9586421229532958,0.33947692788710326,-0.32247496909756146,0.2180697989993109,0.040333003909024945,0.5048913214401953,2.530149515161255,0.10707309558901423,0.32756110240086544
59,-1.5054873945111833,3.946986573811275,1.8536418383078686,-2.9885078309241693,0.31528734771527644,-0.35417853363053986,0.21628351610194432,0.04829007584351125,0.5069400349993659,2.474554645497006,0.10679707918484235,0.362777186144701
60,-1.4442107825402806,3.970865159755362,1.8373054377650817,-3.018724308204644,0.2908136637028612,-0.3862544528873364,0.21426674385212463,0.05618694598746832,0.5089682252954323,2.418176148451807,0.10540484055757918,0.3985920654110757
61,-1.382264970818146,3.9950045229072546,1.8207906279593207,-3.049270778584098,0.2660727034373034,-0.4186806721443582,0.21202997972589144,0.06402155761714695,0.5109709226820665,2.3610944921945967,0.10286199327042528,0.43503207715019643
62,-1.3196928438272568,4.019387951820814,1.8041088419326599,-3.080126095038425,0.24108159484456737,-0.45143474304564857,0.2095826879673153,0.07179428688658082,0.5129429576367858,2.303392959412753,0.09914004969672008,0.47212519176643447
63,-1.256537986169626,4.043998462223713,1.7872716993796796,-3.1112687653033797,0.21585774547613534,-0.484493850749948,0.2069328388736084,0.07950770315085637,0.5148789668656297,2.245156820160248,0.09421677525017903,0.5099003120437708
64,-1.1928446307061005,4.068818817226782,1.7702909928213542,-3.142676977447921,0.19041882179600433,-0.5178348410777529,0.20408649124172323,0.08716624395664925,0.5167734026461902,2.18647245441772,0.08807645705896039,0.5483865223988498
65,-1.1286576066956453,4.093831547533356,1.7531786737789403,-3.1743286254475556,0.16478272846768638,-0.5514342476583758,0.2010474342242333,0.09477581237198367,0.518620545628162,2.1274264494313306,0.08071008003261558,0.5876123132858382
66,-1.0640222879346477,4.119018971648625,1.735946838947867,-3.206201334757681,0.13896758764120687,-0.5852683190770038,0.19781690340993652,0.10234330751703005,0.5204145212603384,2.0681046983110587,0.07211540637937103,0.6276048070103225
67,-0.998984540896203,4.14436321608898,1.7186077163716216,-3.2382724878869302,0.1129917182401029,-0.6193130460217593,0.19439338385972954,0.10987610206285267,0.5221493199558481,2.008591526268879,0.06229695793981655,0.6683890111238273
68,-0.9335906728694137,4.169846235591354,1.7011736516156413,-3.2705192499705156,0.08687361524842296,-0.653544188430758,0.19077251015197758,0.11738148294574662,0.523818821044392,1.9489688692720708,0.05126590400243169,0.7099871239742427
69,-0.8678873800986762,4.1954498333225825,1.6836570939411986,-3.3029185943435713,0.06063192899772407,-0.6879373026391709,0.1869470703160341,0.12486607347582519,0.5254168204924416,1.8893155269234991,0.03903986035017627,0.7524179140268848
70,-0.8019216959229833,4.221155681088738,1.6660705824792914,-3.335447328114497,0.034285444454072556,-0.7224677685262804,0.18290711697753306,0.1323352562958121,0.5269370623011526,1.829706507323834,0.025642607972910635,0.7956961905101958
71,-0.735740938915209,4.246945339544484,1.648426732404531,-3.368082117738304,0.007853060505041198,-0.7571108166625429,0.1786401852467592,0.13979261719314298,0.5283732734185727,1.770212476869567,0.011103742025195911,0.8398323781277733
72,-0.6693926610214089,4.272800278402422,1.6307382211090315,-3.4007995145899548,-0.018646230753291304,-0.7918415554566463,0.17413161300954355,0.14723942954177935,0.5297192019292367,1.710899322785648,-0.004541736878331611,0.884832203404108
73,-0.6029245957001086,4.298701896642436,1.6130177743762957,-3.433575980537711,-0.0451933647293431,-0.8266349983025709,0.1693649554942456,0.15467419814157335,0.5309686582120519,1.6518278310699477,-0.02125387609300768,0.9306964950819465
74,-0.5363846060616049,4.324631542721044,1.5952781525551076,-3.466387913516474,-0.07176922504902683,-0.8614660907266469,0.16432248245331812,0.16209227946168303,0.5321155586881874,1.5930534777830612,-0.038988255968404543,0.9774210962078912
75,-0.46982063300724697,4.350570534780741,1.5775321367334163,-3.4992116731011293,-0.09835466426875417,-0.8963097375346174,0.1589857431690348,0.16948559284567616,0.5331539717161963,1.5346263275233256,-0.057696493729306124,1.0249968814014878
76,-0.4032806433687415,4.376500180859349,1.5597925149122276,-3.5320236060798926,-0.12493052458843856,-0.9311408299586938,0.15333618190814283,0.17684243419800028,0.5340781651333388,1.4765910296666953,-0.0773267543614303,1.0734098694834056
77,-0.336812578047442,4.402401799099364,1.5420720681794924,-3.5648000720276487,-0.1514776585644898,-0.9659342728046179,0.14735578452229375,0.18414740017129377,0.5348826548915957,1.418986900614295,-0.09782425791079372,1.1226414192300334
78,-0.270464300153642,4.428256737957302,1.5243835568839925,-3.5975174688792997,-0.1779769498228222,-1.0006650115987223,0.14102773570234484,0.19138142706008637,0.5355622541954198,1.3618480788821619,-0.11913177411873486,1.1726684945282344
79,-0.2042835431458676,4.454046396413047,1.5067397068092325,-3.6301522585031067,-0.20440933377185388,-1.0353080597349844,0.13433706599209058,0.1985219446415322,0.5361121225170199,1.3052037393224944,-0.14119009696080814,1.2234639845590154
80,-0.1383178589701748,4.479752244179203,1.489153195347325,-3.662680992274032,-0.23075581831550507,-1.0698385256220937,0.1272712680608195,0.20554314125614284,0.5365278138447639,1.249078352968115,-0.16393849333149324,1.2749970647255626
81,-0.07261456619943774,4.505355841910431,1.4716366376728827,-3.6950803366470875,-0.25699750456620396,-1.1042316398305063,0.11982086289715868,0.21241633265611207,0.5368053235117708,1.1934919797967538,-0.18731512173089265,1.3272335847131396
82,-0.0072206981726483654,4.530838861412805,1.4542025729169024,-3.7273270987306732,-0.2831156075578841,-1.1384627822395057,0.11197989845691839,0.21911042371933787,0.5369411329552285,1.1384605829629915,-0.21125741829862463,1.3801364711686832
83,0.057817048865796306,4.55618310585316,1.436863450340657,-3.7593982518599214,-0.309091476958988,-1.1725075091842607,0.10374636578181372,0.22559244916813012,0.5369322517725202,1.0839963545920137,-0.23570244885987404,1.4336661338642274
84,0.12245236762679479,4.58137052996843,1.4196316155095832,-3.7912709611700475,-0.33490661778546726,-1.2063415806028885,0.09512252058540567,0.2318281770519423,0.5367762564675705,1.0301080449345237,-0.2605872267743691,1.4877808657238685
85,0.18663939163724663,4.606383260275003,1.4025192964671696,-3.8229226091696824,-0.3605427111137852,-1.2399409871835114,0.08611510164007308,0.23778275703246843,0.5364713253194294,0.9768012884326457,-0.2858489973030264,1.5424372286350454
86,0.2503327471007757,4.631203615278073,1.3855385899088444,-3.8543308213142233,-0.38598163479391656,-1.2732819775113167,0.07673544084599189,0.24342139449335745,0.5360162688541765,0.9240789219529412,-0.3114254899341481,1.5975904184427845
87,0.313487604758405,4.655814125680971,1.3687014473558636,-3.8854734915791784,-0.41120548416234814,-1.3063410852156154,0.06699946346857256,0.2487100311982685,0.5354105554596914,0.8719412920405012,-0.33725514065574413,1.653194603877206
88,0.3760597317492951,4.680197554594531,1.3520196613292028,-3.916328808033506,-0.4361965927550845,-1.3390951561169062,0.05692758054766301,0.25361601361995356,0.5346543317494435,0.8203865494948998,-0.36327728654314334,1.709203235350786
89,0.4380055434714287,4.704336917746423,1.3355048515234418,-3.946875278412959,-0.46093755302064243,-1.3715213753739286,0.04654447877480313,0.25810873110943827,0.5337484373547564,0.769410930840363,-0.38943233527498156,1.7655693205626257
90,0.499282155442331,4.72821550369051,1.319168450980655,-3.9770917556934346,-0.4854112370330578,-1.4035972946307254,0.035878816086050105,0.2621602076925095,0.532694413903399,0.7190090273495298,-0.4156619123199946,1.8222456646600333
91,0.5598474351597664,4.75181689401619,1.3030216922642985,-4.006957463664307,-0.5096008172048846,-1.4353008591637035,0.02496283373177986,0.2657456333743314,0.5314945080241995,0.6691740431824251,-0.4419089885751095,1.8791850733424753
92,0.6196600539624515,4.775124983557742,1.2870755936331002,-4.036452022501783,-0.5334897870001963,-1.4666104350286924,0.013831897591008897,0.2688438232916509,0.5301516683009427,0.6198980449264189,-0.46811799120311093,1.9363405177692015
93,0.6786795388907536,4.798124000603682,1.2713409452149473,-4.065555474342238,-0.5570619816475878,-1.4975048362080023,0.002523982952666405,0.2714375957571146,0.5286695361823486,0.5711722053780168,-0.49423490033396383,1.9936652604755827
94,0.736866324547405,4.820798527106098,1.2558282951807747,-4.09424830885556,-0.5803015988531747,-1.5279633517574853,-0.008920882126897612,0.27351406307150883,0.527052430936854,0.5229870448021526,-0.5202073341726446,2.0511129417457723
95,0.7941818049582139,4.843133518890011,1.2405479359184544,-4.122511488818496,-0.603193219513598,-1.5579657729535936,-0.020461199453262344,0.2750648318211494,0.5253053288195333,0.47533267314639766,-0.5459846249097153,2.108637626064659
96,0.8505883854327498,4.865114325862708,1.2255098902066817,-4.150326475687997,-0.6257218284290232,-1.5874924204404424,-0.032054594073509524,0.2760861121223098,0.5234338366924618,0.4281990367786475,-0.571517887667313,2.166193808417204
97,0.9060495344250752,4.8867267122231,1.2107238973888668,-4.177675255174554,-0.6478728350161392,-1.6165241713768628,-0.04365840384671403,0.27657873782915376,0.5214441604077892,0.38157617325635756,-0.596760084537922,2.2237363803559727
98,0.9605298353944312,4.907956876671068,1.1961993995470208,-4.204540362815553,-0.669632094021165,-1.645042486583469,-0.05523025173474978,0.27654810200903207,0.5193430683236501,0.3354544774157059,-0.6216660855887601,2.2812205559572205
99,1.0139950386659615,4.928791472616802,1.1819455276756448,-4.230904909548609,-0.6909859262328474,-1.6730294376897124,-0.06672858876669523,0.27600401395072477,0.5171378503759372,0.2898249816792352,-0.6461927285106559,2.3386017580720524
100,1.0664121132914044,4.94921762839016,1.1679710878556195,-4.256752607284913,-0.7119211391954622,-1.7004677342809404,-0.0781131973069491,0.2749604855676576,0.5148362731731794,0.24467965290411042,-0.6702988783847799,2.3958354656908485
101,1.1177492989098132,4.969222967450008,1.1542845474280914,-4.282067794482579,-0.7324250479218161,-1.7273407510454637,-0.08934564610338584,0.27343545626859733,0.5124465316168904,0.20001170731229204,-0.6939454888193061,2.4528770238141946
102,1.1679761576082441,4.9887956285935715,1.1408940211683636,-4.306835461719983,-0.7524854956062493,-1.7536325549216054,-0.10038969052604474,0.2714504661898023,0.509977197575533,0.1558159440401611,-0.7170956654656643,2.5096814179953406
103,1.2170636257824796,5.007924286165773,1.1278072574597822,-4.3310412772691045,-0.7720908743376355,-1.7793279322447682,-0.11121161335350407,0.2690302881275194,0.5074371661567072,0.1120890966028669,-0.7397147326543217,2.5662030167157597
104,1.2649840659977274,5.0265981702685965,1.1150316244676266,-4.354671612668881,-0.7912301458123817,-1.8044124158944903,-0.12178050335584228,0.2662025286040155,0.5048356001294895,0.06883020008049376,-0.7617703035867596,2.6223952859931057
105,1.311711318849329,5.044807086970418,1.1025740963129964,-4.377713568298541,-0.8098928620474352,-1.8288723124415054,-0.13206847070304445,0.26299720828008,0.5021818730474629,0.026040970102678557,-0.7832323541778291,2.6782104821032378
106,1.3572207548234614,5.062541438515365,1.0904412392467013,-4.400154998950951,-0.8280691860932728,-1.852694729294804,-0.1420507998500556,0.25944633143603124,0.4994855116133992,-0.016273812241324636,-0.8040733002574251,2.7335993300067982
107,1.4014893261578534,5.079792243532655,1.0786391978231487,-4.42198453940596,-0.8457499127469178,-1.875867601848692,-0.1517060419805695,0.25558345352996925,0.49675613780953787,-0.05810591756293933,-0.8242680774114122,2.788510696963577
108,1.444495618702482,5.09655115724595,1.0671736810742316,-4.443191630003743,-0.8629264892649294,-1.8983797206298452,-0.161016050308677,0.25144325495683967,0.4940034112937229,-0.09944329762029543,-0.8437942222723097,2.842891272820489
109,1.4862199037802784,5.112810491682698,1.0560499486832167,-4.4637665422181465,-0.8795910360764082,-1.9202207584443787,-0.16996596252922264,0.2470611281247042,0.49123697253228316,-0.1402697394720664,-0.8626319535693721,2.8966852704632258
110,1.526644190047846,5.128563235883487,1.0452727971586364,-4.483700404230024,-0.8957363674959996,-1.9413812975248994,-0.17854413547236206,0.24247278388310903,0.48846638710635737,-0.18056455880954958,-0.8807642507305831,2.949834161782943
111,1.5657522753561617,5.14380307611138,1.0348465460081742,-4.502985226500595,-0.911356012436889,-1.9618528566775668,-0.1867420375619848,0.2377138822261666,0.48570109159044755,-0.22030234865015882,-0.8981769273187283,3.002276466050261
112,1.6035297986112642,5.15852441606128,1.0247750239125517,-4.521613927344767,-0.9264442351238115,-1.981627918429152,-0.1945541050147927,0.23281969108851933,0.48295034136128173,-0.25945280074868676,-0.914858696110497,3.053947608606183
113,1.6399642916349917,5.172722397069263,1.0150615548994202,-4.539580358504506,-0.9409960558060454,-2.000699956174098,-0.20197756786551993,0.22782477598821205,0.4802231606525633,-0.2979806175041355,-0.9308012222287919,3.1047798680601004
114,1.6750452310256723,5.186392918321928,1.0057089445172485,-4.556879330722152,-0.9550072714704135,-2.019063461321581,-0.2090122518861509,0.22276272227339103,0.47752829512783723,-0.33584553160419695,-0.9459991604568472,-3.1284828776561686
115,1.7087640900188203,5.199532657065754,0.9967194660092107,-4.573506639313786,-0.9684744765542942,-2.036713970442568,-0.21566036230759272,0.21766589081964177,0.4748741672003347,-0.37300244899070256,-0.9604501727427682,-3.079543747542373
116,1.7411143903478639,5.212139088816434,0.9880948464870729,-4.58945908974256,-0.9813950836586128,-2.053648092416875,-0.22192625497611,0.21256520721612582,0.4722688342860907,-0.40940172784421947,-0.9741549219874899,-3.0316643910098566
117,1.7720917541048342,5.22421050756823,0.9798362531050859,-4.604734523192047,-0.9937673442608416,-2.069863535580227,-0.2278162002089268,0.20748998378026093,0.46971995013551443,-0.4449896021680593,-0.987117038533007,-2.984923306422086
118,1.8016939556010785,5.235746046003317,0.97194427923387,-4.619331842139578,-1.0055903694280137,-2.0853591348713225,-0.2333381441775289,0.20246777315623907,0.46723472934956645,-0.47970875331090146,-0.9993430563532422,-2.9394005491276984
119,1.8299209732279769,5.246745695701138,0.9644189306343052,-4.633251035929594,-1.0168641505297114,-2.100134878978886,-0.23850147216514542,0.19752425178207003,0.46481991515012855,-0.5134990266420042,-1.0108423168005602,-2.8951769888306
120,1.8567750413176247,5.257210327347737,0.9572596116314183,-4.646493206346989,-1.0275895799510693,-2.114191937488732,-0.2433167775362042,0.19268313114910626,0.46248175044056544,-0.5462982839478103,-1.0216268388580974,-2.8523334330905814
121,1.8822607020035607,5.2671417109451175,0.9504651112882729,-4.659060593190443,-1.037768471805785,-2.127532688030822,-0.2477956397371705,0.18796609452073096,0.4602259521618963,-0.5780433754168353,-1.0317111561475951,-2.8109496333051474
122,1.906384857081461,5.276542536020592,0.9440335895798602,-4.670956599845773,-1.0474035826491113,-2.140160743426322,-0.2519504141340147,0.1833927566144271,0.45805768892274895,-0.6086712088449037,-1.0411121223771977,-2.7711031957823073
123,1.9291568198698608,5.285416431836118,0.9379625635669768,-4.682185818859288,-1.056498632190857,-2.152080978834678,-0.25579403599310163,0.17898064367380628,0.455981561857244,-0.63811988844731,-1.0498486883964464,-2.7328684257729443
124,1.9505883670708277,5.293767987597657,0.9322488935701283,-4.692754057511108,-1.065058324008394,-2.16329955890064,-0.2593398404380587,0.17474519135358832,0.45400158864412427,-0.6663298918698674,-1.0579416554570424,-2.6963151361294515
125,1.97069379063071,5.301602772664511,0.9268887693434071,-4.702668363388531,-1.073088366259654,-2.173823964901363,-0.2626013997714195,0.17069975789950897,0.45212119060263084,-0.6932452519869171,-1.0654134105556747,-2.6615074542552257
126,1.9894899496008192,5.3089273567586766,0.921877696248383,-4.711937049959358,-1.0805954923961312,-2.183663021893442,-0.2655923791404803,0.1668556502158431,0.45034318276553614,-0.7188147100285495,-1.0722876507648318,-2.628502661040281
127,2.00699632199814,5.315749330174196,0.9172104814279938,-4.720569722145251,-1.0875874818758877,-2.192826925859973,-0.2683264111539854,0.16322216056424224,0.4486697668171136,-0.7429928084747597,-1.078589104162556,-2.5973500935593985
128,2.0232350566660298,5.322077323986493,0.9128812199804346,-4.7285773018950765,-1.0940731808765465,-2.2013272708576235,-0.2708169897203885,0.15980661181889047,0.4471025267732099,-0.7657408957799587,-1.0843432553016723,-2.5680901396521736
129,2.0382310251349445,5.327921030261731,0.9088832811330403,-4.735972053758232,-1.100062523008297,-2.2091770761636793,-0.2730773830787474,0.15661440940460045,0.4456424272715781,-0.7870280199858749,-1.089576083093092,-2.540753347471028
130,2.0520118734831225,5.3332912222661575,0.9052092944161798,-4.742767610458008,-1.1055665500269019,-2.2163908134231134,-0.2751205657279694,0.15364909825754952,0.44428981433277165,-0.8068316941760706,-1.0943138185270982,-2.515359667143009
131,2.0646080741973103,5.338199774675447,0.9018511358371437,-4.748978998464923,-1.110597432546688,-2.2229844337956397,-0.27695916872671217,0.15091242336474078,0.44304441844472187,-0.8251385230101203,-1.098582728860802,-2.4919178353547156
132,2.0760529780334593,5.342659683784046,0.8987999140540313,-4.7546226635700775,-1.1151684907535517,-2.2289753951027764,-0.2786054476317178,0.14840439265080654,0.4419053598170817,-0.8419446857622486,-1.1024089338207794,-2.470424907426216
133,2.086382865877427,5.346685087714542,0.896045956549637,-4.759716496458479,-1.1192942151179626,-2.234382688974901,-0.28007126716366826,0.14612334118297204,0.44087115564411694,-0.8572562769616159,-1.1058182580834033,-2.450865935705292
134,2.095637000605694,5.350291286626972,0.893578795805344,-4.7642798582823955,-1.122990287107966,-2.239226867998318,-0.28136810153351927,0.1440659958513791,0.4399397292068382,-0.8710895105865759,-1.1088361228836998,-2.4332137881917735
135,2.1038576789460564,5.353494762928214,0.8913871554750092,-4.768333606234711,-1.1262735999021753,-2.2435300728623027,-0.28250704922571873,0.14222753984794625,0.4391084206357382,-0.8834707976247046,-1.1114874781469968,-2.4174290973714974
136,2.1110902833383625,5.3563132014813,0.889458936558853,-4.771900119122245,-1.1291622791027836,-2.247316059506182,-0.28349886091484505,0.14060167640829735,0.4383739991446959,-0.8944367096259607,-1.113796775108138,-2.4034603263494874
137,2.1173833337951855,5.358765509814778,0.887781203577346,-4.775003322939125,-1.1316757034485594,-2.250610226266378,-0.28435397908659343,0.13918069139532863,0.4377326765336878,-0.9040338427023316,-1.1157879780404372,-2.3912439374680394
138,2.122788539762543,5.360871838332067,0.886340170745098,-4.7776687164401,-1.1338345255278552,-2.2534396410234727,-0.2850825878405458,0.1379555143868508,0.43718012174296594,-0.9123185974035903,-1.117484612506259,-2.380704647537841
139,2.1273608519805984,5.362653600520777,0.8851211881447492,-4.779923396713899,-1.1356606924915882,-2.2558330683492684,-0.2856946712689942,0.13691577798219987,0.4367114762238059,-0.9193568902110726,-1.1189098464936122,-2.371755753413804
140,2.1311585143443796,5.364133493162093,0.8841087279008542,-4.781796084756585,-1.137177466766273,-2.2578209966538427,-0.2862000787319551,0.13604987506267655,0.4363213698707671,-0.9252238122431655,-1.1200865999358725,-2.3642995117079493
141,2.1342431157644874,5.365335516540085,0.883286370353775,-4.783317151044882,-1.1384094467669903,-2.2594356653326138,-0.2866085952821923,0.13534501372801616,0.4360039372375798,-0.9300032503554133,-1.1210376774293924,-2.358227556752184
142,2.136679642027773,5.36628499465109,0.8826367902335663,-4.784518641109525,-1.1393825876104162,-2.2607110919134,-0.28693001543474533,0.1347872695866112,0.43575283373305107,-0.9337874853115146,-1.121785918463148,-2.3534213413367335
143,2.138536527658075,5.367008595413035,0.8821417428338636,-4.785434301108592,-1.1401242218278065,-2.2616830992034735,-0.2871742184222413,0.13436163500207832,0.43556125146509056,-0.9366767812305214,-1.1223543591427332,-2.349752585124091
144,2.1398857077769113,5.3675343508747915,0.8817820501857754,-4.786099603400887,-1.1406630800779958,-2.2623893424366255,-0.28735124302919846,0.13405206479556647,0.4354219343698741,-0.9387789801666202,-1.1227663992113768,-2.347083715887323
145,2.1408026699642004,5.367891677425527,0.8815375872317674,-4.786551772119228,-1.141029311860418,-2.2628693364202137,-0.2874713600544844,0.13384151777467243,0.43532719222972177,-0.9402091154983783,-1.1230459681196692,-2.345268288797265
146,2.1413665061189304,5.368111396004059,0.8813872679995498,-4.786829808743828,-1.141254506228087,-2.2631644826822503,-0.2875451404092881,0.133711993310107,0.43526891314743676,-0.9410890578101585,-1.1232176839467438,-2.344151368870579
147,2.141659964319916,5.368225752308169,0.8813090317759782,-4.786974517675634,-1.1413717125006055,-2.2633180966184216,-0.2875835168161616,0.13364456201500655,0.43523857400707255,-0.9415472071287411,-1.1233069990976272,-2.343569861399438
148,2.1417695006864763,5.368268437003987,0.8812798292809219,-4.787028531809654,-1.1414154609771812,-2.263375434639184,-0.28759783702952935,0.13361938940486662,0.43522724841146754,-0.9417182457165821,-1.1233403268584148,-2.343352774732101
149,2.1417853312391335,5.368274605935331,0.8812756088411693,-4.787036338108332,-1.1414217836495832,-2.263383721316803,-0.28759990644525535,0.1336157512347841,0.4352256115459048,-0.9417429660982668,-1.1233451430425478,-2.3433213991813475
