nimar13/UR3e_dataset_trayectorias/data/trayectorias_completas_UR3e_TRAPEZOIDAL_FUNC/trayectoria_298.csv
Punto,shoulder_pan_joint,shoulder_lift_joint,elbow_joint,wrist_1_joint,wrist_2_joint,wrist_3_joint,Posicion_X,Posicion_Y,Posicion_Z,Roll,Pitch,Yaw
0,0.22192161338870964,4.753872459879457,1.3656685452788655,-0.7814111107078077,-0.31407423033739423,-0.5823314952785523,0.2185608736528265,0.27295291422557405,0.3658804319458016,-1.5018123778778334,0.2586383261477324,1.9817589852262232
1,0.2221468258410367,4.754006092626155,1.3653765254926047,-0.7817519915747939,-0.3141661741641164,-0.5822276526862712,0.21855742255443583,0.2730126801609172,0.3659321838646414,-1.5022009194628483,0.25880517047877105,1.9819142784934016
2,0.22282246319801788,4.75440699086625,1.364500466133822,-0.7827746341757528,-0.314442005644283,-0.581916124909428,0.21854690532275595,0.27319203172820117,0.36608749055273726,-1.503366716752452,0.25930566340758027,1.9823794141521653
3,0.22394852545965316,4.7550751545997425,1.3630403672025175,-0.7844790385106841,-0.3149017247778939,-0.5813969119480226,0.21852882957463488,0.2734911294171226,0.3663465046713411,-1.5053102898627109,0.2601396800940079,1.9831521581714227
4,0.22552501262594257,4.756010583826631,1.3609962286986914,-0.7868652045795881,-0.31554533156494924,-0.5806700138020551,0.21850237276411508,0.2739102380581883,0.3667094802090304,-1.5080325140238198,0.26130699696120396,1.9842287818489088
5,0.2275519246968861,4.757213278546917,1.3583680506223434,-0.7899331323824645,-0.3163728260054489,-0.5797354304715253,0.21846637933798269,0.2744497228252728,0.36717677180465086,-1.5115346321179726,0.26280726836385204,1.9856040539253221
6,0.23002926167248372,4.758683238760599,1.3551558329734739,-0.7936828219193136,-0.31738420809939294,-0.5785931619564334,0.21841935678696903,0.2751100436013958,0.3677488337858279,-1.5158182721940212,0.264639993790319,1.9872712297260329
7,0.23295702355273548,4.760420464467678,1.3513595757520824,-0.7981142731901352,-0.31857947784678137,-0.5772432082567794,0.21835947062659106,0.27589174767022334,0.36842621890934657,-1.5208854699111654,0.26680447546631875,1.9892220375177847
8,0.23633521033764135,4.762424955668155,1.3469792789581692,-0.8032274861949292,-0.31995863524761414,-0.5756855693725632,0.2182845383520827,0.2767954606855132,0.369209576785664,-1.5267386958367957,0.2692997661912764,1.9914466623295413
9,0.24016382202720132,4.764696712362028,1.3420149425917343,-0.809022460933696,-0.3215216803018913,-0.5739202453037848,0.21819202242294009,0.27782187586079365,0.37009965196569433,-1.533380887485795,0.27212460720339904,1.9939337275549585
10,0.24444285862141543,4.767235734549297,1.3364665666527777,-0.8154991974064352,-0.3232686130096129,-0.5719472360504443,0.21807902234435916,0.27897174131207236,0.37109728166377215,-1.5408154859374252,0.2752773558359281,1.9966702747310434
11,0.24917232012028367,4.770042022229965,1.3303341511412992,-0.8226576956131469,-0.3251994333707788,-0.5697665416125417,0.21794226592543048,0.28024584547741604,0.372203393086342,-1.5490464767981578,0.2787559026957243,1.999641741975781
12,0.25435220652380597,4.773115575404027,1.323617696057299,-0.8304979555538313,-0.32731414138538906,-0.5673781619900768,0.21777809980748733,0.2816450005289501,0.3734190003314282,-1.558078435191116,0.2825575780669759,2.002831941669637
13,0.25998251783198245,4.776456394071488,1.3163172014007771,-0.8390199772284882,-0.32961273705344374,-0.5647820971830498,0.2175824793706084,0.28317002368533234,0.37474520081928925,-1.5679165743411272,0.2866790472183429,2.0062230380854396
14,0.266063254044813,4.780064478232345,1.3084326671717332,-0.8482237606371176,-0.33209522037494277,-0.5619783471914607,0.21735095814202818,0.284821716326195,0.37618317120986416,-1.5785667971847672,0.29111619427257496,2.0097955258118465
15,0.27259441516229765,4.7839398278865986,1.2999640933701677,-0.8581093057797196,-0.3347615913498862,-0.5589669120153093,0.217078676847266,0.286600840804604,0.3777341627576411,-1.5900357502620834,0.2958639942851373,2.0135282099822054
16,0.2795760011844365,4.7880824430342495,1.2909114799960806,-0.8686766126562941,-0.337611849978274,-0.5557477916545959,0.2167603522631915,0.2885080948494423,0.3793994960494516,-1.6023308789361024,0.3009163731748975,2.017398189518002
17,0.2870080121112294,4.792492323675297,1.2812748270494716,-0.8799256812668412,-0.3406459962601061,-0.5523209861093202,0.21639026605210848,0.29054408344698907,0.38118055506538734,-1.6154604827317458,0.3062660551581198,2.021380844830278
18,0.29489044794267644,4.797169469809742,1.2710541345303408,-0.8918565116113608,-0.34386403019538264,-0.5486864953794824,0.2159622537773304,0.2927092880900895,0.38307878049759336,-1.6294337692817065,0.3119043973605726,2.0254498316994543
19,0.30322330867877756,4.802113881437583,1.2602494024386883,-0.904469103689853,-0.3472659517841035,-0.5448443194650825,0.21546969432366908,0.29500403328444275,0.38509566225609443,-1.6442609050067052,0.31782121132585744,2.029577083380892
20,0.31200659431953287,4.80732555855882,1.248860630774514,-0.9177634575023177,-0.3508517610262688,-0.5407944583661204,0.21490549997080735,0.2974284502049846,0.3872327310851156,-1.6599530602354848,0.32400457120692383,2.033732823366848
21,0.3212403048649422,4.8128045011734555,1.2368878195378181,-0.931739573048755,-0.35462145792187844,-0.5365369120825961,0.21426210739367602,0.29998243740141267,0.38949154920755813,-1.6765224459800854,0.3304406085290868,2.037885591681963
22,0.33092444031500573,4.818550709281487,1.2243309687286001,-0.9463974503291649,-0.35857504247093247,-0.5320716806145096,0.2135314698916463,0.3026656184609756,0.39187369990948945,-1.6939823390201276,0.337113293555382,2.0420022881046074
23,0.34105900066972333,4.8245641828829156,1.2111900783468608,-0.9617370893435473,-0.36271251467343085,-0.527398763961861,0.21270505117756092,0.30547729654906836,0.3943807759706612,-1.7123470913134753,0.3440042034792741,2.0460482362939056
24,0.35164398592909507,4.830844921977741,1.1974651483925993,-0.9777584900919022,-0.36703387452937364,-0.5225181621246503,0.21177382108817056,0.3084164057644095,0.39701436684137176,-1.7316321190410173,0.35109227792785525,2.0499872734626483
25,0.36267939609312094,4.837392926565963,1.1831561788658163,-0.9944616525742297,-0.37153912203876077,-0.5174298751028774,0.21072825360932038,0.31148145926601656,0.39977604446040005,-1.7518538658163343,0.35835356259528506,2.053781870965027
26,0.3741652311618009,4.844208196647582,1.1682631697665116,-1.0118465767905298,-0.37622825720159225,-0.5121339028965423,0.20955832764194604,0.314670494154354,0.4026673476034352,-1.7730297337605818,0.36576094225773365,2.057393291953301
27,0.3861014911351349,4.851290732222598,1.152786121094685,-1.0299132627408023,-0.38110128001786814,-0.5066302455056451,0.20825353096832844,0.3179810131193739,0.4056897646464962,-1.7951779752829826,0.3732838649655433,2.060781793076926
28,0.39848817601312314,4.85864053329101,1.1367250328503367,-1.0486617104250473,-0.3861581904875884,-0.5009189029301857,0.20680286791171332,0.3214099229042439,0.4088447146244064,-1.8183175375560148,0.38088805988498536,2.0639068780152003
29,0.41132528579576544,4.866257599852819,1.1200799050334667,-1.068091919843265,-0.39139898861075306,-0.49499987517016414,0.20519487121584043,0.32495346967584904,0.41213352646063356,-1.842467850888256,0.38853525208991063,2.0667276113954784
30,0.4246128204830618,4.874141931908025,1.1028507376440748,-1.0882038909954552,-0.39682367438736205,-0.4888731622255804,0.2034176187035875,0.32860717144223395,0.4155574162418829,-1.8676485515565955,0.3961828786000578,2.0692030022756867
31,0.4383507800750124,4.8822935294566285,1.0850375306821611,-1.1089976238816182,-0.4024322478174154,-0.48253876409643454,0.2014587553050952,0.3323657477135243,0.4191174624089647,-1.8938791292707648,0.4037838111405795,2.071292466756498
32,0.452539164571617,4.890712392498628,1.0666402841477258,-1.1304731185017536,-0.40822470890091317,-0.4759966807827265,0.19930552107458716,0.3362230466670278,0.422814578734855,-1.9211784894474024,0.41128609246126446,2.0729563792963863
33,0.4671779739728758,4.899398521034025,1.0476589980407687,-1.1526303748558613,-0.41420105763785525,-0.4692469122844563,0.19694478584067276,0.34017197014964123,0.4266494849617911,-1.9495644210433365,0.418632694595513,2.0741567217582952
34,0.4822672082787887,4.908351915062818,1.02809367236129,-1.175469392943942,-0.4203612940282418,-0.46228945860162396,0.1943630911561033,0.34420439693179566,0.43062267497198453,-1.9790529620488904,0.4257613091311314,2.0748578379111944
35,0.4978068674893557,4.917572574585009,1.0079443071092893,-1.1989901727659946,-0.42670541807207263,-0.45512431973422945,0.1915467002284924,0.3483111047172576,0.43473438237136336,-2.009657657110236,0.43260418135352485,2.075027298806181
36,0.5137969516045768,4.9270604996005956,0.9872109022847668,-1.2231927143220203,-0.43323342976934787,-0.4477514956822728,0.1884816565219496,0.35248169151243114,0.4389845433730831,-2.041388705388532,0.439088001918759,2.074636880893511
37,0.530237460624452,4.936815690109579,0.9658934578877227,-1.2480770176120184,-0.43994532912006745,-0.4401709864457539,0.18515385171935844,0.3567044970674122,0.4433727568776295,-2.0742520019137993,0.4451338713889515,2.0736636537041813
38,0.5471283945489814,4.94683814611196,0.9439919739181568,-1.273643082635989,-0.4468411161242315,-0.4323827920246729,0.18154910372432168,0.36096652521888845,0.4478982416596728,-2.1082480825438115,0.4506573543370255,2.072091167198855
39,0.5644697533781649,4.957127867607738,0.921506450376069,-1.2998909093939321,-0.45392079078183983,-0.42438691241902976,0.1776532453587326,0.3652533680917071,0.45255979058875445,-2.1433709912751877,0.45556864057327506,2.069910720407153
40,0.5822615371120026,4.967684854596913,0.8984368872614596,-1.326820497885848,-0.4611843530928926,-0.4161833476288245,0.17345222437433738,0.3695491332510315,0.4573557218318688,-2.1796070989813603,0.45977283108792466,2.067122682838174
41,0.6005037457504941,4.978509107079484,0.8747832845743286,-1.3544318481117363,-0.4686318030573896,-0.407772097654057,0.1689322153423548,0.3738363750396001,0.4622838270114675,-2.216933914318938,0.4631703652369955,2.063737828692333
42,0.6191963792936399,4.989600625055452,0.8505456423146757,-1.382724960071597,-0.47626314067533115,-0.3991531624947274,0.1640797439117888,0.3780960314834673,0.46734131632284287,-2.25531893986752,0.4656576032156737,2.0597786318316595
43,0.6383394377414399,5.000959408524817,0.8257239604825011,-1.4116998337654305,-0.48407836594671694,-0.3903265421508356,0.15888182383209346,0.3823073683031565,0.4725247606506662,-2.294718638480501,0.4671275736978164,2.0552804578427972
44,0.657932921093894,5.012585457487578,0.8003182390778044,-1.4413564691932366,-0.49207747887154724,-0.38129223662238154,0.1533261070167952,0.3864479317233117,0.47783003076616665,-2.3350775848712693,0.46747089050524937,2.0502925798145846
45,0.6779768293510022,5.024478771943737,0.7743284781005862,-1.4716948663550151,-0.5002604794498218,-0.3720502459093655,0.1474010467790349,0.39049351193010007,0.48325223373443205,-2.376327883875066,0.46657683430666025,2.044878938423383
46,0.6984711625127644,5.036639351893292,0.7477546775508463,-1.502715025250766,-0.5086273676815407,-0.36260057001178725,0.1410960741953591,0.39441811917868125,0.48878564671603797,-2.418388937715834,0.4643345858682153,2.0391185664797935
47,0.7194159205791808,5.049067197336244,0.7205968374285846,-1.5344169458804895,-0.5171781435667041,-0.3529432089296468,0.1344017873481312,0.39819397469924095,0.4944236484090113,-2.4611676382343752,0.4606345868070082,2.0331056049881204
48,0.7408111035502513,5.061762308272593,0.6928549577338012,-1.5668006282441858,-0.5259128071053119,-0.3430781626629442,0.1273101529576725,0.4017915186849912,0.5001586484463448,-2.504559045204063,0.4553699929545045,2.0269488532159925
49,0.7626567114259758,5.074724684702339,0.6645290384664961,-1.5998660723418543,-0.5348313582973638,-0.3330054312116795,0.11981471964095064,0.40517943776408094,0.5059820151411194,-2.5484475883262294,0.448438175400521,2.020770819533787
50,0.7849277206005405,5.0879394785425145,0.6356515262695865,-1.6335754025216083,-0.5439235811621135,-0.32273655264166157,0.11191985173723613,0.4083213669815017,0.5118774045192035,-2.592659460830116,0.4397528915091013,2.014712894510987
51,0.8072988241983616,5.101213664714557,0.606644227501006,-1.6674362353089116,-0.5530566679498506,-0.31242152180840765,0.10374438512619498,0.4111452833232994,0.5177490971026545,-2.6364344574374607,0.4293925996186786,2.0089984620975336
52,0.8296699277961828,5.114487850886598,0.5776369287324254,-1.7012970680962147,-0.5621897547375878,-0.30210649097515374,0.09533684415698802,0.413621802775429,0.5235620895035482,-2.6794837589149383,0.4174103886415673,2.0037759055163247
53,0.8520410313940037,5.12776203705864,0.5486296299638449,-1.735157900883518,-0.571322841525325,-0.2917914601418997,0.08671174879336341,0.41573712506007376,0.5293078104532,-2.721727965615847,0.40383190508260186,1.9991568992294648
54,0.8744121349918248,5.1410362232306825,0.5196223311952644,-1.7690187336708214,-0.5804559283130621,-0.2814764293086458,0.07788449227665348,0.41747825346101625,0.534977539149495,-2.7630983186508056,0.38868993834713594,1.9952431743042935
55,0.8967832385896459,5.154310409402725,0.4906150324266836,-1.8028795664581247,-0.5895890151007993,-0.2711613984753919,0.0688713006124673,0.4188330561266986,0.5405624208678366,-2.803537527841278,0.3720235761145049,1.9921258089096072
56,0.919154342187467,5.167584595574767,0.4616077336581028,-1.8367403992454283,-0.5987221018885366,-0.26084636764213787,0.059689187659388424,0.41979032524113924,0.546053483480241,-2.843000226109844,0.35387731575397485,1.9898849064183206
57,0.9415254457852882,5.180858781746808,0.43260043488952227,-1.8706012320327314,-0.6078551886762737,-0.25053133680888395,0.0503559059146959,0.42033983372292594,0.5514416548525577,-2.8814530792637054,0.33430016590671185,1.98858963347814
58,0.9638965493831093,5.194132967918851,0.4035931361209417,-1.9044620648200348,-0.6169882754640109,-0.24021630597563004,0.04088989311884956,0.4204723891156302,0.55671778108575,-2.918874595797881,0.31334476851176135,1.988298575004291
59,0.9862676529809302,5.207407154090893,0.3745858373523612,-1.9383228976073381,-0.6261213622517481,-0.22990127514237613,0.03131021482724039,0.4201798843382961,0.5618726455631966,-2.955254691313227,0.2910665664831815,1.9890603533746614
60,1.0086387565787513,5.220681340262935,0.3455785385837806,-1.9721837303946415,-0.6352544490394852,-0.2195862443091222,0.02163650312435327,0.41945534497214065,0.5668969887620553,-2.9905940666351425,0.2675230365770753,1.9909144549505933
61,1.0310098601765725,5.233955526434976,0.3165712398152001,-2.006044563181945,-0.6443875358272224,-0.2092712134758683,0.011888891681819587,0.4182929727692972,0.5717815287829389,-3.0249034585005172,0.24277300127681034,1.9938922076441818
62,1.0533809637743936,5.247229712607019,0.2875639410466191,-2.039905395969248,-0.6535206226149597,-0.19895618264261428,0.002087947387670151,0.4166881850813065,0.5765169825484469,-3.0582028178368996,0.21687602820860105,1.9980178575297676
63,1.0757520673722147,5.260503898779061,0.25855664227803854,-2.0737662287565515,-0.6626537094026969,-0.18864115180936036,-0.007745401200726459,0.41463764991910496,0.5810940876175191,-3.0905204643731756,0.1898919209767463,2.003309699278477
64,1.0981231709700359,5.273778084951103,0.229549343509458,-2.107627061543855,-0.671786796190434,-0.17832612097610645,-0.017589938303257505,0.41213931637244267,0.5855036245591544,-3.1218922587122986,0.16188030154462923,2.009781223373901
65,1.1204942745678568,5.287052271123145,0.20054204474087745,-2.141487894331158,-0.6809198829781712,-0.16801109014285254,-0.02742423796313247,0.4091924401349143,0.5897364398257506,3.1308244821730877,0.13290028143772287,2.017442251713708
66,1.142865378165678,5.300326457295187,0.1715347459722969,-2.175348727118461,-0.6900529697659084,-0.15769605930959862,-0.03722674337030811,0.40579760390104513,0.5937834690632235,3.101210457458149,0.10301021707747977,2.026300041612261
67,1.165236481763499,5.313600643467229,0.14252744720371613,-2.209209559905765,-0.6991860565536456,-0.1473810284763446,-0.0469758481194949,0.40195673242408514,0.5976357607921382,3.0723968320347876,0.07226754338321774,2.03636034592117
68,1.1876075853613202,5.326874829639271,0.11352014843513558,-2.243070392693068,-0.7083191433413828,-0.1370659976430907,-0.05664997904084605,0.3976731020471536,0.6012845003913624,3.0443245066119324,0.04072867928662356,2.047628423713511
69,1.2099786889591413,5.340149015811313,0.08451284966655503,-2.2769312254803715,-0.71745223012912,-0.12675096680983677,-0.06622768022403253,0.3929513445461462,0.6047210343132283,3.0169298076213114,0.00844899886471579,2.060110001634933
70,1.2323497925569624,5.353423201983356,0.05550555089797449,-2.310792058267675,-0.7265853169168571,-0.11643593597658286,-0.07568769784087236,0.38779744515011866,0.6079368944569175,2.990144748728224,-0.02451713770731448,2.0738121906338667
71,1.2547208961547833,5.366697388155397,0.02649825212939394,-2.3446528910549778,-0.7357184037045944,-0.10612090514332895,-0.08500906535815077,0.38221873463365047,0.6109238226246968,2.9638971681757154,-0.05811629835618332,2.0887443664441045
72,1.2770919997526045,5.379971574327439,-0.0025090466391866073,-2.378513723842281,-0.7448514904923316,-0.09580587431007492,-0.09417118872087629,0.376223875405766,0.61367379498385,2.93811074019121,-0.09229584236403926,2.1049190250483205
73,1.2994631033504256,5.3932457604994815,-0.0315163454077676,-2.412374556629585,-0.7539845772800687,-0.08549084347682101,-0.10315393107708284,0.3698228415512019,0.6161790464555635,2.912704859029311,-0.1270037353189209,2.122352626554745
74,1.3218342069482467,5.406519946671524,-0.060523644176348146,-2.4462353894168882,-0.7631176640678059,-0.0751758126435671,-0.11193769660851993,0.3630268928119872,0.6184320949507478,2.887594393896876,-0.16218831700401148,2.14106644261582
75,1.3442053105460676,5.419794132843565,-0.08953094294492825,-2.480096222204191,-0.7722507508555431,-0.06486078181031318,-0.12050351302725675,0.3558485425302516,0.6204257653717327,2.862689312171938,-0.1977980219421089,2.161087423824249
76,1.366576414143889,5.433068319015607,-0.11853824171350968,-2.513957054991495,-0.7813838376432803,-0.05454575097705916,-0.12883311229644645,0.3483015196067156,0.622153213298039,2.837894167156592,-0.23378105066611485,2.182449104513792
77,1.38894751774171,5.4463425051876495,-0.14754554048209023,-2.5478178877787983,-0.7905169244310175,-0.04423072014380525,-0.13690900913432222,0.34040072456324527,0.6236079482739665,2.8131074452814007,-0.2700849880106422,2.205192563086728
78,1.4113186213395312,5.459616691359692,-0.17655283925067078,-2.5816787205661016,-0.7996500112187547,-0.03391568931055122,-0.14471457686396277,0.3321621798319451,0.6247838566155491,2.7882207664275476,-0.30665636279410513,2.22936745632718
79,1.4336897249373521,5.472890877531734,-0.20556013801925133,-2.6155395533534045,-0.808783098006492,-0.02360065847729731,-0.15223412017750476,0.32360297442735686,0.6256752236545643,2.7631179301436126,-0.3434401411595453,2.255033145973658
80,1.4560608285351733,5.486165063703776,-0.23456743678783187,-2.649400386140708,-0.8179161847942291,-0.013285627644043396,-0.15945294439232,0.3147412031921366,0.6262767553376918,2.7376738004126477,-0.3803791435421184,2.282259934801692
81,1.4784319321329944,5.4994392498758184,-0.2635747355564124,-2.683261218928011,-0.8270492715819663,-0.002970596810789483,-0.16635742078819574,0.3055959008399627,0.6265835990996252,2.7117530228617337,-0.41741337271853834,2.3111304270849464
82,1.5008030357308155,5.51271343604786,-0.29258203432499297,-2.7171220517153145,-0.8361823583697034,0.00734443402246443,-0.17293504762874398,0.2961869710521119,0.6265913639299696,2.6852085717698766,-0.45447923768259224,2.3417410237362266
83,1.5231741393286364,5.525987622219902,-0.3215893330935735,-2.750982884502618,-0.8453154451574406,0.017659464855718343,-0.1791745064870818,0.2865351109159263,0.6262961395550508,2.6578801312053857,-0.49150865524586235,2.3742035544221722
84,1.5455452429264576,5.539261808391944,-0.35059663186215406,-2.784843717289921,-0.8544485319451778,0.027974495688972256,-0.18506571351521584,0.2766617310240765,0.625694514657396,2.629592326995731,-0.5284280084393184,2.4086470356287815
85,1.5679163465242787,5.552535994563986,-0.3796039306307346,-2.8187045500772245,-0.863581618732915,0.03828952652222617,-0.1905998653184407,0.26658887158288785,0.6247835940575284,2.6001528467309,-0.565156938297023,2.4452195223065862
86,1.5902874501220996,5.565810180736028,-0.40861122939931516,-2.8525653828645274,-0.8727147055206521,0.04860455735548008,-0.19576947912035433,0.256339114905826,0.623561014784938,2.5693505175028886,-0.6016069439926971,2.484089987468199
87,1.6126585537199207,5.57908436690807,-0.4376185281678957,-2.8864262156518308,-0.8818477923083893,0.058919588188733996,-0.2005684269306814,0.24593549469433656,0.6220249609675726,2.53695346094812,-0.6376797665182456,2.525450113584886
88,1.635029657317742,5.592358553080112,-0.4666258269364767,-2.9202870484391346,-0.8909808790961267,0.06923461902198813,-0.20499196345684365,0.2354014025324298,0.6201741774719474,2.502707519502106,-0.6732655346815937,2.5695158047112834
89,1.6574007609155632,5.6056327392521546,-0.49563312570505724,-2.954147881226438,-0.9001139658838638,0.07954964985524204,-0.20903674753101606,0.2247604920434823,0.6180079822290445,2.4663352554698643,-0.7082406615777248,2.616528120077794
90,1.6797718645133843,5.618906925424197,-0.5246404244736378,-2.9880087140137412,-0.909247052671601,0.08986468068849596,-0.2127008568570587,0.2140365811775324,0.6155262771844627,2.4275359754701644,-0.7424654984972885,2.6667531785121126
91,1.7021429681112055,5.632181111596239,-0.5536477232422188,-3.0218695468010446,-0.9183801394593382,0.10017971152174987,-0.21598379591608366,0.2032535531147442,0.6127295578148592,2.3859874356728685,-0.7757817867164658,2.720480379830291
92,1.7245140717090266,5.64545529776828,-0.5826550220107993,-3.055730379588348,-0.9275132262470753,0.11049474235500378,-0.2188864969053028,0.1924352562854987,0.6096189211565535,2.3413501400890593,-0.8080100027899442,2.7780180321936383
93,1.7468851753068473,5.658729483940323,-0.6116623207793799,-3.0895912123756513,-0.9366463130348125,0.1208097731882577,-0.22141131362200284,0.18160540401967495,0.6061960722962059,2.293275440045167,-0.8389467783368275,2.8396851783012185
94,1.7692562789046684,5.672003670112365,-0.6406696195479604,-3.1234520451629546,-0.9457793998225497,0.13112480402151172,-0.22356200824281752,0.1707874743469295,0.6024633292777923,2.2414189279443013,-0.8683626992056508,2.9057981281028966
95,1.7916273825024895,5.685277856284406,-0.669676918316541,-3.1573128779502575,-0.9549124866102868,0.14143983485476563,-0.22534373098768073,0.1600046104761359,0.5984236263845748,2.1854607812550033,-0.8960009554147392,2.976650042704155
96,1.8139984861003107,5.698552042456448,-0.6986842170851215,-3.191173710737561,-0.964045573398024,0.15175486568801955,-0.2267629926977317,0.1492795224854449,0.5940805157594938,2.1251345514232303,-0.9215775141102595,3.0524820752323905
97,1.8363695896981318,5.711826228628491,-0.7276915158537021,-3.225034543524864,-0.9731786601857612,0.16206989652127346,-0.22782763039675133,0.1386343907546695,0.5894381673322753,2.060265101844186,-0.9447836892873045,3.133445364873852
98,1.858740693295953,5.725100414800533,-0.7566988146222826,-3.2588953763121675,-0.9823117469734983,0.17238492735452726,-0.22854676594622708,0.1280907716688183,0.5845013670266207,1.990814619323424,-0.9652921092715465,-3.0636303472797435
99,1.881111796893774,5.738374600972575,-0.7857061133908636,-3.2927562090994713,-0.9914448337612357,0.1826999581877815,-0.22893075794459225,0.1176695061155473,0.5792755132260546,1.9169326169407388,-0.9827670106322294,-2.9725455552419833
100,1.9033828060683384,5.7515893948127506,-0.814583625587773,-3.326465539279225,-1.0005370566259852,0.1929688367577993,-0.22899157921370464,0.10743627594262922,0.573791880631595,1.8393586915729725,-0.9968241668032672,-2.8773260957666595
101,1.9252284139440636,5.764551771242497,-0.8429095448550776,-3.3595309833768945,-1.0094556078180372,0.20304156820906405,-0.2287517073443002,0.09755385928430137,0.5681467442091851,1.7599813133105224,-1.007086463422224,-2.7801549916086348
102,1.946623596915134,5.777246882178847,-0.8706514245498616,-3.391914665740589,-1.0181902713566449,0.21290661447576698,-0.2282416008311085,0.08804075496032181,0.5623689008817019,1.6799017743579667,-1.0135211333682237,-2.682199461843586
103,1.96756835498155,5.789674727621798,-0.8978092646721225,-3.423616586370313,-1.0267410472418084,0.2225639755579072,-0.2274908642779195,0.07890119225145038,0.5564804805902314,1.6002176959644399,-1.0161939746405886,-2.584600065181191
104,1.9880626881433119,5.801835307571354,-0.9243830652218632,-3.4546367452660647,-1.035107935473527,0.23201365145548514,-0.22652785754291516,0.07013694451011658,0.5505028848778952,1.5220187863658776,-1.015251051938592,-2.488486300886248
105,2.0081065964004208,5.813728622027513,-0.9503728261990805,-3.4849751424278423,-1.0432909360518017,0.2412556421685017,-0.22537958017713358,0.061747562150674166,0.5444567309182786,1.446299516311245,-1.0109103765983662,-2.394889558386193
106,2.027700079752875,5.825354670990273,-0.9757785476037775,-3.514631777855649,-1.0512900489766321,0.25028994769695534,-0.2240715828432944,0.05373060315002946,0.5383618053725514,1.3738900387958675,-1.003447335530018,-2.3046742838831142
107,2.046843138200674,5.836713454459638,-1.000600229435951,-3.5436066515494824,-1.0591052742480178,0.25911656804084693,-0.22262790371709953,0.046081858567765754,0.5322370276222365,1.3054156102614818,-0.9931765669908226,-2.218497624091059
108,2.0655357717438205,5.847804972435608,-1.0248378716956048,-3.571899763509342,-1.0667366118659591,0.2677355032001765,-0.221071027761858,0.03879557096865083,0.5261004218757993,1.2412863452591107,-0.980433285905698,-2.1367993816504667
109,2.083777980382312,5.858629224918177,-1.0484914743827356,-3.5995111137352316,-1.0741840618304568,0.2761467531749444,-0.21942186670418096,0.03186464398965455,0.5199690976091826,1.1817120120331157,-0.9655565362423778,-2.0598169919574674
110,2.1015697641161495,5.869186211907352,-1.0715610374973452,-3.626440702227147,-1.0814476241415092,0.2843503179651494,-0.21769975751807302,0.025280841633803862,0.5138592377723997,1.1267329088188545,-0.9488758709197356,-1.9876165632313827
111,2.1189111229453337,5.87947593340313,-1.0940465610394328,-3.65268852898509,-1.0885272987991175,0.29234619757079305,-0.21592247724159688,0.01903497619115309,0.507786094175487,1.07625769384178,-0.9307019578610428,-1.9201308546166074
112,2.135802056869863,5.889498389405512,-1.1159480450089996,-3.6782545940090614,-1.0954230858032818,0.30013439199187397,-0.21410627199900403,0.01311708398034269,0.5017639894566903,1.0301010826422115,-0.9113208620932772,-1.857197107552664
113,2.152242565889738,5.899253579914494,-1.137265489406043,-3.70313889729906,-1.1021349851540014,0.3077149012283926,-0.21226589817654282,0.007516588370987641,0.49580632503292954,0.988017071059991,-0.8909913412156168,-1.7985903901791378
114,2.1682326500049585,5.908741504930082,-1.1579988942305657,-3.727341438855084,-1.1086629968512762,0.315087725280349,-0.21041467379710257,0.0022224497867155135,0.48992559443641887,0.9497257666082431,-0.8699443631649053,-1.7440505387797782
115,2.183772309215526,5.917962164452272,-1.1781482594825654,-3.7508622186771374,-1.1150071208951076,0.3222528641477438,-0.20856453825277033,-0.0027766973992863434,0.4841334014510765,0.914933594764081,-0.8483841080431876,-1.6933024639288488
116,2.198861543521439,5.926915558481065,-1.1977135851620453,-3.773701236765219,-1.1211673572854939,0.3292103178305761,-0.2067261186809348,-0.007492420979444379,0.47844048247715354,0.8833475891640082,-0.8264898538006596,-1.6460705313386172
117,2.2135003529226975,5.9356016870164625,-1.2166948712690036,-3.7958584931193258,-1.1271437060224359,0.33596008632884633,-0.20490880140487291,-0.011936379782448105,0.47285673257159655,0.8546848614905249,-0.8044183028947742,-1.6020881140956567
118,2.2276887374193026,5.944020550058463,-1.235092117803437,-3.8173339877394614,-1.1329361671059335,0.34250216964255453,-0.20312080700029195,-0.016120224910884523,0.46739123463430676,0.8286783913149567,-0.7823060483342923,-1.5611034573546319
119,2.241426697011253,5.952172147607064,-1.2529053247653517,-3.8381277206256232,-1.1385447405359872,0.34883656777170025,-0.20136926769202412,-0.020055512847922993,0.46205229123592445,0.8050801475454417,-0.7602719892812801,-1.5228828678557473
120,2.254714231698549,5.9600564796622715,-1.2701344921547424,-3.858239691777814,-1.143969426312596,0.3549632807162837,-0.19966030592728473,-0.02375362984784664,0.4568474586104511,0.7836623613505751,-0.7384195876013314,-1.4872120487770322
121,2.267551341481191,5.9676735462240815,-1.2867796199716137,-3.8776699011960325,-1.1492102244357605,0.36088230847630576,-0.1979991131113647,-0.02722572695830347,0.4517835823652853,0.7642175762182096,-0.7168389119922268,-1.453896206153847
122,2.279938026359179,5.975023347292493,-1.3028407082159612,-3.8964183488802764,-1.1542671349054812,0.3665936510517649,-0.19639002762651953,-0.030482664973628587,0.44686683449158643,0.746557931851037,-0.6956084517049322,-1.4227593840799568
123,2.2918742863325137,5.982105882867508,-1.3183177568877893,-3.91448503483055,-1.1591401577217568,0.372097308442662,-0.19483661138350894,-0.03353496858664054,0.44210275128874715,0.7305140034354107,-0.6747967031140601,-1.3936433506861357
124,2.3033601214011936,5.988921152949128,-1.3332107659870926,-3.9318699590468507,-1.1638292928845884,0.37739328064899746,-0.19334172427669968,-0.03639278898887503,0.43749627184779516,0.7159334153801189,-0.6544635440983928,-1.3664062544052689
125,2.3143955315652187,5.99546915753735,-1.3475197355138766,-3.9485731215291766,-1.1683345403939756,0.38248156767077,-0.19190759602686772,-0.03906587416449396,0.43305177676926165,0.7026793739167899,-0.6346614167547133,-1.340921195286056
126,2.324980516824592,6.001749896632175,-1.3612446654681367,-3.9645945222775323,-1.1726559002499182,0.38736216950798075,-0.1905358950003358,-0.04156354612918359,0.42877312682124413,0.69062921007772,-0.6154363407636563,-1.317074803204375
127,2.3351150771793097,6.007763370233604,-1.3743855558498774,-3.979934161291915,-1.1767933724524167,0.39203508616062965,-0.1892277936883586,-0.04389468438061278,0.42466370127264935,0.6796729880766502,-0.5968287793388368,-1.2947658782982434
128,2.3447992126293724,6.013509578341636,-1.3869424066590934,-3.994592038572323,-1.1807469570014708,0.39650031762871585,-0.18798403061671476,-0.04606771484970496,0.4207264356647707,0.6697122095278498,-0.5788743781413073,-1.2739041243328135
129,2.354032923174782,6.0189885209562695,-1.3989152178957909,-4.008568154118762,-1.1845166538970804,0.40075786391224,-0.18680496853215717,-0.04809060367070382,0.4169638588112025,0.660658627777117,-0.5616045954628416,-1.2544089895142674
130,2.3628162088155364,6.024200198077508,-1.4103039895599636,-4.0218625079312265,-1.1881024631392454,0.4048077250112023,-0.18569064877998015,-0.049970855121355275,0.4133781288414803,0.6524331763069445,-0.5450472397506215,-1.236208618936935
131,2.3711490695516377,6.02914460970535,-1.4211087216516178,-4.034475100009718,-1.1915043847279663,0.4086499009256024,-0.184640841845683,-0.051715513121304874,0.4099710681276123,0.6449650088547347,-0.5292269283740498,-1.2192389165041508
132,2.379031505383084,6.033821755839793,-1.4313294141707473,-4.046405930354238,-1.194722418663243,0.41228439165543973,-0.1836550940840137,-0.05333116571585092,0.4067441969548123,0.6381906452314341,-0.5141654795314675,-1.203442710493502
133,2.386463516309879,6.038231636480841,-1.4409660671173565,-4.057654998964786,-1.197756564945075,0.41571119720071525,-0.18273277070090344,-0.05482395201267978,0.4036987658181144,0.6320532149319031,-0.49988224740634735,-1.18876901502474
134,2.3934451023320165,6.042374251628492,-1.4500186804914437,-4.06822230584136,-1.2006068235734628,0.4189303175614292,-0.18187309508856395,-0.056199571080165864,0.4008357862452168,0.626501789860551,-0.4863944091207564,-1.175172378906196
135,2.399976263449501,6.046249601282746,-1.4584872542930105,-4.078107850983962,-1.2032731945484065,0.4219417527375804,-0.18107518464176314,-0.057463292356674515,0.3981560600627558,0.6214907974309198,-0.47371721068876754,-1.1626123132574824
136,2.406056999662333,6.049857685443602,-1.4663717885220526,-4.0873116343925915,-1.2057556778699052,0.4247455027291691,-0.18033808320463066,-0.05861996716040173,0.39566020703838994,0.6169795056526978,-0.46186417802548274,-1.1510527896491771
137,2.4116873109705086,6.053198504111062,-1.4736722831785753,-4.0958336560672475,-1.2080542735379598,0.4273415675361969,-0.17966079031279417,-0.0596740409282098,0.3933486908444847,0.6129315724074657,-0.4508472980953015,-1.1404618010771426
138,2.4168671973740317,6.056272057285128,-1.480388738262575,-4.103673916007933,-1.2101689815525705,0.42972994715866175,-0.17904228740579387,-0.060629565849267285,0.39122184330100873,0.6093146518153244,-0.4406771744628701,-1.1308109787800273
139,2.4215966588728985,6.059078344965792,-1.4865211537740537,-4.110832414214643,-1.2120998019137361,0.4319106415965641,-0.1784815611900806,-0.06149021359482294,0.3892798868654421,0.6061000513326553,-0.4313631608193781,-1.122075258637453
140,2.425875695467113,6.0616173671530635,-1.4920695297130102,-4.117309150687383,-1.2138467346214576,0.4338836508499049,-0.17797762433400824,-0.06225928787896322,0.3875229553462039,0.6032624339509145,-0.4229134754755958,-1.1142325916074116
141,2.4297043071566726,6.063889123846936,-1.4970338660794456,-4.12310412542615,-1.215409779675735,0.4356489749186827,-0.17752953367354954,-0.06293973661659495,0.38595111282340755,0.6007795605615146,-0.4153352993235513,-1.107263693348559
142,2.433082493941578,6.065893615047411,-1.501414162873358,-4.128217338430943,-1.2167889370765677,0.43720661380289894,-0.17713640610151293,-0.06353416347409016,0.38456437076668215,0.5986320681991546,-0.40863485935580723,-1.1011518288126139
143,2.4360102558218317,6.067630840754491,-1.50521042009475,-4.132648789701766,-1.2179842068239561,0.4385565675025527,-0.17679743230415126,-0.06404483863513545,0.38336270334455924,0.5968032804701895,-0.4028174994815918,-1.0958826281790037
144,2.438487592797429,6.069100800968174,-1.508422637743621,-4.136398479238615,-1.2189955889179,0.43969883601764526,-0.17651188849774552,-0.06447370862928573,0.3823460609235383,0.595279047014072,-0.3978877400818916,-1.0914439310381159
145,2.4405145048683723,6.070303495688459,-1.511050815819968,-4.139466407041491,-1.2198230833584,0.44063341934817535,-0.176279146304273,-0.06482240509376082,0.38151438175755154,0.5940476093371417,-0.3938493274910598,-1.08782565621374
146,2.4420909920346627,6.071238924915348,-1.513094954323794,-4.141852573110396,-1.2204666901454553,0.44136031749414295,-0.1760986808900392,-0.0650922523602156,0.3808676018702753,0.5930994908043556,-0.3907052743730596,-1.0850196950547346
147,2.443217054296297,6.071907088648841,-1.5145550532550986,-4.143556977445328,-1.2209264092790664,0.44187953045554806,-0.17597007747442805,-0.06528427377778319,0.3804056631336885,0.5924274089812955,-0.38845789176902756,-1.0830198264257598
148,2.4438926916532786,6.072307986888936,-1.5154311126138804,-4.144579620046285,-1.2212022407592324,0.44219105823239113,-0.1758930362979987,-0.06539919670183936,0.3801285195465508,0.5920262088922724,-0.38710881342370723,-1.0818216519936341
149,2.444117904105605,6.072441619635633,-1.515723132400142,-4.144920500913272,-1.2212941845859548,0.44229490082467215,-0.17586737612027759,-0.0654374560948692,0.38003614171621675,0.5918928161068032,-0.3866590128464705,-1.081422550745499
