nimar13/UR3e_dataset_trayectorias/data/trayectorias_completas_UR3e_TRAPEZOIDAL_FUNC/trayectoria_317.csv
Punto,shoulder_pan_joint,shoulder_lift_joint,elbow_joint,wrist_1_joint,wrist_2_joint,wrist_3_joint,Posicion_X,Posicion_Y,Posicion_Z,Roll,Pitch,Yaw
0,-0.36972818292925247,4.826136141456466,1.1118152014676306,3.8583013388252105,-2.8410468685760843,3.240753448023,0.28145049330692073,-0.06242829339389567,0.5455136560115276,-0.25856610242784384,0.10408002563217425,-1.66119744872447
1,-0.3696808973404242,4.826130862117197,1.1117304285810647,3.8578422752135295,-2.840615426368972,3.2409619809995123,0.28144788220686384,-0.062400072172498454,0.5455490589893376,-0.2577854495462667,0.10407911108488077,-1.660685863400165
2,-0.3695390405739394,4.8261150240993915,1.1114761099213673,3.856465084378487,-2.8393210997476346,3.2415875799290506,0.2814400259028304,-0.06231530063085325,0.5456553820868878,-0.2554438675986857,0.10407350849355303,-1.6591506370834377
3,-0.3693026126297981,4.826088627403049,1.1110522454885379,3.8541697663200827,-2.837163888712072,3.2426302448116138,0.28142685350077873,-0.062173654632021805,0.5458329676524478,-0.2515425084543299,0.10405463912390246,-1.656590384531863
4,-0.36897161350800023,4.826051672028169,1.1104588352825768,3.850956321038317,-2.8341437932622844,3.244089975647203,0.2814082405668501,-0.06197459227316342,0.5460823857565438,-0.24608336457269261,0.10400819924848677,-1.6530028829364232
5,-0.36854604320854584,4.826004157974752,1.1096958793034843,3.846824748533189,-2.830260813398272,3.2459667724358168,0.2813839997042947,-0.06171735139943132,0.5464044333234891,-0.23906937829239996,0.10391415296494778,-1.6483852006684678
6,-0.3680259017314349,4.825946085242798,1.1087633775512598,3.841775048804699,-2.8255149491200346,3.248260635177456,0.28135386734837436,-0.061400946175788215,0.5468001327082856,-0.23050459529383716,0.1037467252893908,-1.6427338771520337
7,-0.3674111890766675,4.825877453832306,1.1076613300259037,3.835807221852848,-2.8199062004275723,3.2509715638721213,0.2813174867711259,-0.06102416277081866,0.5472707295116229,-0.22039436249030836,0.10347439867081676,-1.636045153295672
8,-0.36670190524424345,4.825798263743278,1.106389736727416,3.828921267677635,-2.813434567320885,3.2540995585198114,0.2812743872922316,-0.0605855542244807,0.5478176893665093,-0.2087455703854715,0.10305991696085078,-1.6283152514812211
9,-0.36589805023416294,4.8257085149757115,1.1049485976557964,3.8211171862790603,-2.8061000497999724,3.257644619120527,0.2812239597016425,-0.06008343459136162,0.5484426933711563,-0.19556693950303639,0.1024603017398081,-1.619540703465003
10,-0.36499962404642594,4.8256082075296085,1.1033379128110452,3.812394977657124,-2.797902647864835,3.261606745674268,0.2811654279151888,-0.05951587247269345,0.5491476317843343,-0.18086934980630479,0.10162688672571261,-1.6097187236578505
11,-0.36400662668103234,4.825497341404969,1.1015576821931623,3.8027546418118257,-2.7888423615154725,3.2659859381810343,0.28109781690729774,-0.05888068407443296,0.5499345955420284,-0.1646662110452817,0.10050537674872459,-1.5988476240788798
12,-0.36291905813798225,4.825375916601791,1.0996079058021477,3.7921961787431657,-2.778919190751885,3.270782196640826,0.28101991699629003,-0.058175425955322595,0.5508058650983542,-0.14697387067485668,0.09903593842155908,-1.5869272657986355
13,-0.3617369184172756,4.825243933120077,1.0974885836380013,3.7807195884511438,-2.768133135574073,3.275995521053643,0.2809302445986304,-0.05739738765819738,0.551763896040253,-0.12781205437374055,0.09715333012880559,-1.5739595398917283
14,-0.36046020751891245,4.8251013909598255,1.0951997157007234,3.7683248709357606,-2.7564841959820354,3.2816259114194852,0.2808269996200518,-0.0565435844499253,0.5528113008753468,-0.10720433227990545,0.09478707923725974,-1.559948868821277
15,-0.3590889254428927,4.8249482901210365,1.0927413019903136,3.7550120261970155,-2.743972371975773,3.287673367738353,0.2807080197146842,-0.055610750430282366,0.5539508263468781,-0.08517860189631152,0.09186171443050906,-1.544902716822562
16,-0.3576230721892165,4.824784630603711,1.0901133425067722,3.7407810542349083,-2.7305976635552858,3.294137890010246,0.28057073171909414,-0.05459533230758408,0.5551853255902407,-0.06176757630257747,0.08829706072536497,-1.5288320953235373
17,-0.35606264775788377,4.824610412407848,1.0873158372500988,3.72563195504944,-2.7163600707205733,3.3010194782351645,0.28041210065730826,-0.05349348417877462,0.556517724414129,-0.03700926397187855,0.08400860396786035,-1.5117520468612717
18,-0.35440765214889447,4.824425635533448,1.084348786220294,3.7095647286406095,-2.701259593471636,3.3083181324131083,0.28022857681606683,-0.05230106369348214,0.5579509809677407,-0.010947424324517499,0.07890793037424185,-1.4936820884973467
19,-0.35265808536224863,4.824230299980511,1.0812121894173574,3.6925793750084175,-2.685296231808474,3.3160338525440776,0.28001604150712917,-0.05101363002469034,0.5594880380461387,0.016368018616480035,0.07290324493761613,-1.4746465936158657
20,-0.3508139473979463,4.824024405749037,1.077906046841289,3.6746758941528634,-2.6684699857310865,3.324166638628072,0.27976975226556544,-0.04962644411236415,0.5611317672914359,0.044880623196118165,0.06589997025260205,-1.4546750894514267
21,-0.34887523825598743,4.823807952839025,1.0744303584920891,3.655854286073948,-2.6507808552394745,3.332716490665092,0.27948428837937844,-0.048134471689625924,0.5628849045707799,0.07452715658403959,0.05780142454715152,-1.4338024470008015
22,-0.346841957936372,4.8235809412504755,1.0707851243697575,3.6361145507716706,-2.632228840333637,3.3416834086551375,0.2791534978058622,-0.046532389642684496,0.5647499758563228,0.10523741846170263,0.04850957453052569,-1.4120689403655575
23,-0.34471410643910005,4.82334337098339,1.0669703444742942,3.6154566882460317,-2.6128139410135747,3.351067392598208,0.2787704467026377,-0.04481459629422703,0.5667292130008226,0.13693417708179156,0.03792585520242352,-1.389520154245868
24,-0.3424916837641716,4.823095242037767,1.062986018805699,3.593880698497031,-2.5925361572792878,3.3608684424943043,0.27832737298458554,-0.04297522623371086,0.5688244588987303,0.16953322858683526,0.025952045209719252,-1.366206721356459
25,-0.34017468991158656,4.822836554413607,1.0588321473639721,3.5713865815246684,-2.5713954891307753,3.3710865583434257,0.27781564550946664,-0.04100817034499304,0.571037061650168,0.20294358451999547,0.012491182923220557,-1.3421838759266886
26,-0.337763124881345,4.8225673081109095,1.0545087301491136,3.5479743373289443,-2.549391936568038,3.3817217401455726,0.2772257306916494,-0.03890710169981711,0.5733677575077137,0.2370677849027563,-0.00255149458906619,-1.3175108149699406
27,-0.33525698867344694,4.822287503129675,1.0500157671611234,3.523643965909858,-2.526525499591076,3.3927739879007444,0.2765471685410205,-0.03666550799245093,0.5758165425868382,0.27180232533897886,-0.019267609807225427,-1.2922498652637058
28,-0.3326562812878924,4.821997139469904,1.0453532584000014,3.4983954672674105,-2.5027961781998886,3.404243301608942,0.27576856031774616,-0.03427673118357687,0.5783825335634336,0.30703817671637956,-0.037744721656368226,-1.266465460381879
29,-0.3299610027246812,4.821696217131595,1.0405212038657479,3.472228841401601,-2.4782039723944767,3.416129681270165,0.2748775701770529,-0.03173401499762649,0.5810638178690309,0.34266136568884026,-0.058065442611124174,-1.2402229379091416
30,-0.3271711529838136,4.821384736114749,1.0355196035583625,3.44514408831243,-2.4527488821748396,3.428433126884413,0.2738609433444369,-0.029030560874176853,0.583857294228152,0.3785535737232659,-0.08030661634616548,-1.2135871712668933
31,-0.32428673206528935,4.821062696419366,1.0303484574778454,3.417141207999897,-2.4264309075409773,3.4411536384516865,0.27270454350240625,-0.02615959290784361,0.5867585047643898,0.4145927024796723,-0.1045385736652484,-1.1866210524491128
32,-0.32130773996910866,4.820730098045446,1.0250077656241967,3.3882202004640023,-2.39925004849289,3.4542912159719856,0.2713934121755728,-0.02311443221939887,0.5897614603325182,0.4506533438461517,-0.1308244805017986,-1.1593838404495727
33,-0.31823417669527143,4.8203869409929885,1.019497527997416,3.3583810657047457,-2.371206305030578,3.4678458594453097,0.26991185296110326,-0.01988858108079611,0.5928584612124354,0.48660708390900476,-0.1592197866596377,-1.1319293843174456
34,-0.3150660422437776,4.8200332252619935,1.013817744597504,3.3276238037221275,-2.342299677154041,3.4818175688716595,0.2682435434545689,-0.016475816965926746,0.5960399158245252,0.522322560856129,-0.18977177786556823,-1.1043042186539251
35,-0.31180333661462734,4.819668950852463,1.0079684154244601,3.2959484145161477,-2.3125301648632792,3.4962063442510343,0.2663716776546076,-0.01287029651513508,0.5992941606907439,0.5576651860098555,-0.22251922686590675,-1.07654551189183
36,-0.30844605980782047,4.819294117764393,1.0019495404782846,3.2633548980868063,-2.281897768158292,3.511012185583435,0.2642791414801684,-0.009066669183293574,0.602607285464949,0.5924964227704694,-0.25749213190096815,-1.0486788224911507
37,-0.30499421182335706,4.818908725997788,0.9957611197589772,3.229843254434103,-2.2504024870390795,3.5262350928688604,0.2619487237877429,-0.005060200087843303,0.6059629674806518,0.6266724970518676,-0.2947115229957905,-1.020715583151949
38,-0.30144779266123717,4.8185127755526445,0.9894031532665382,3.195413483558038,-2.2180443215056425,3.5418750661073117,0.25936336491883055,-0.0008469012848685425,0.609342320902794,0.6600423801223889,-0.334189307955723,-0.992650184930323
39,-0.29780680232146073,4.8181062664289644,0.9828756410009675,3.160065585458611,-2.1848232715579803,3.557932105298788,0.2565064443263945,0.00357632962054775,0.6127237662075293,0.6924448336748316,-0.3759281202549861,-0.9644564661744578
40,-0.29407124080402774,4.817689198626747,0.9761785829622651,3.123799560135822,-2.1507393371960934,3.57440621044329,0.25336210821018706,0.008211564975932693,0.6160829263323475,0.7237042268873076,-0.4199211191424488,-0.9360833162017497
41,-0.2902411081089383,4.817261572145992,0.969311979150431,3.0866154075896723,-2.1157925184199815,3.591297381540817,0.24991563732319527,0.013059698519929535,0.6193925564167826,0.7536247096818315,-0.4661516764499113,-0.9074489651396231
42,-0.28631640423619226,4.816823386986701,0.9622758295654651,3.0485131278201605,-2.0799828152296445,3.6086056185913695,0.2461538541856135,0.01812029498119787,0.6226225145665415,0.7819821286378398,-0.5145928616721196,-0.8784333233773468
43,-0.2822971291857897,4.816374643148872,0.9550701342073675,3.0094927208272866,-2.0433102276250827,3.6263309215949473,0.2420655678523511,0.023391440471358826,0.6257397814928486,0.8085127575662464,-0.5652066016033002,-0.8488674125030685
44,-0.27818328295773054,4.815915340632506,0.9476948930761383,2.9695541866110506,-2.0057747556062955,3.644473290551551,0.23764205312250716,0.02886959671687861,0.6287085371725739,0.8328974072625935,-0.6179423339834315,-0.8185184181615132
45,-0.27397486555201495,4.815445479437603,0.9401501061717774,2.9286975251714535,-1.9673763991732836,3.6630327254611794,0.23287755965684387,0.03454946257439686,0.6314903028087919,0.8547386438836957,-0.6727348798616287,-0.787068059213796
46,-0.2696718769686428,4.814965059564162,0.9324357734942847,2.886922736508495,-1.9281151583260465,3.6820092263238333,0.22776984489022586,0.04042384664700089,0.6340441563089098,0.8735274390593213,-0.729501096564815,-0.754080562855007
47,-0.26527431720761413,4.814474081012185,0.9245518950436603,2.844229820622174,-1.8879910330645846,3.701402793139513,0.22232072290544544,0.046483555148097655,0.6363270291998294,0.8885931438616534,-0.7881345846697346,-0.718954108058845
48,-0.2607821862689289,4.81397254378167,0.9164984708199042,2.8006187775124918,-1.8470040233888978,3.7212134259082177,0.216536619596019,0.05271729942565583,0.6382940923275413,0.8990263567977893,-0.8484971939743653,-0.6808452830327751
49,-0.2561954841525872,4.813460447872618,0.9082755008230166,2.756089607179448,-1.8051541292989859,3.7414411246299477,0.21042912252071672,0.05911162774168056,0.63989923680331,0.9035563478826765,-0.9104050693860912,-0.6385482005978813
50,-0.2515194648129031,4.812938379878281,0.8998924042626155,2.710693316691006,-1.7624892888178612,3.7620627189739793,0.20402279999377154,0.06564354602781926,0.6410945702277566,0.900358594961891,-0.973534172207704,-0.5903528560067736
51,-0.24682242965596207,4.8124139655109355,0.8914716308637407,2.665092997930706,-1.719632696244687,3.7827769946409058,0.19743824751404981,0.07220002543834163,0.6418277769530816,0.8870187261923006,-1.0366095878287382,-0.5345025470907466
52,-0.24212539449902107,4.811889551143591,0.883050857464866,2.6194926791704067,-1.6767761036715125,3.8034912703078323,0.1907401171812047,0.07873349249306175,0.6420764524809063,0.8602231293095812,-1.098860300762831,-0.4678058706168646
53,-0.23742835934208004,4.811365136776246,0.8746300840659913,2.5738923604101074,-1.633919511098338,3.824205545974759,0.18396680760012704,0.08522592010116768,0.6418282220303904,0.8148941794372062,-1.1595727875187158,-0.3851111402288698
54,-0.23273132418513898,4.8108407224089005,0.8662093106671165,2.528292041649808,-1.591062918525164,3.844919821641685,0.1771585369349082,0.09165962828470575,0.6410745435286418,0.7431342816315466,-1.217629813881757,-0.2784587755957456
55,-0.228034289028198,4.810316308041555,0.8577885372682417,2.4826917228895087,-1.5482063259519894,3.865634097308611,0.17035698813994232,0.09801742016226357,0.6398108692084259,0.6328304687828198,-1.271183146506617,-0.13568578971254372
56,-0.2233372538712569,4.809791893674211,0.8493677638693669,2.437091404129209,-1.5053497333788148,3.8863483729755375,0.16360493569103385,0.10428271135932535,0.6380367712922328,0.4671438706541115,-1.317100327891438,0.06008487329377377
57,-0.21864021871431588,4.8092674793068655,0.840946990470492,2.391491085368909,-1.4624931408056403,3.907062648642464,0.15694585731430383,0.11043965149477544,0.6357560303217962,0.23043634284451076,-1.350354541806205,0.32451784080310864
58,-0.21394318355737485,4.80874306493952,0.8325262170716173,2.3458907666086097,-1.4196365482324658,3.9277769243093905,0.15042353437609987,0.11647323649611328,0.6329766850412663,-0.0692792895156295,-1.3646175271140564,0.6496151861739278
59,-0.20924614840043382,4.808218650572175,0.8241054436727426,2.3002904478483104,-1.3767799556592917,3.9484911999763166,0.14408164472715948,0.12236941061237289,0.6297110431024194,-0.3788379643890568,-1.3560730458061283,0.9822152577582189
60,-0.20454911324349279,4.8076942362048305,0.8156846702738678,2.254690129088011,-1.3339233630861171,3.9692054756432427,0.13796335188762374,0.12811515712208837,0.6259756522282044,-0.6370172033598769,-1.327200130331446,1.2610875704959923
61,-0.19985207808655175,4.807169821837485,0.8072638968749931,2.2090898103277112,-1.291066770512943,3.989919751310169,0.13211089451508898,0.13369857687236658,0.6217912318430499,-0.8252340788484547,-1.2842303739004937,1.4676298197579511
62,-0.19515504292961072,4.80664540747014,0.7988431234761182,2.1634894915674114,-1.248210177939768,4.010634026977096,0.12656518011506557,0.13910895393257264,0.6171825655511892,-0.9561253123567784,-1.2326907898367045,1.6144480070346627
63,-0.1904580077726697,4.806120993102795,0.7904223500772435,2.117889172807112,-1.205353585366594,4.031348302644022,0.12136538693171059,0.1443368078005597,0.6121783552142919,-1.0473023679119486,-1.1761503402477587,1.7191115514820992
64,-0.18576097261572866,4.80559657873545,0.7820015766783687,2.0722888540468127,-1.1624969927934194,4.052062578310949,0.11654857789662855,0.14937393175897604,0.6068110377433724,-1.1121567865911042,-1.1167224025757938,1.7949586481369086
65,-0.18106393745878763,4.805072164368105,0.773580803279494,2.0266885352865134,-1.119640400220245,4.072776853977874,0.11214933041535662,0.15421341714209763,0.6011165660738711,-1.1595615486243656,-1.0556735299261952,1.8507976800954495
66,-0.1763669023018466,4.80454775000076,0.7651600298806192,1.981088216526214,-1.0767838076470708,4.093491129644801,0.1081993856357459,0.15884966343799495,0.5951341561336015,-1.195254916504791,-0.9938027466779893,1.8922911658072343
67,-0.17166986714490556,4.804023335633414,0.7567392564817443,1.9354878977659138,-1.0339272150738958,4.114205405311727,0.10472732067103949,0.16327837431474065,0.5889060019376824,-1.2229987382542682,-0.9316488003091334,1.9231142565984296
68,-0.16697283198796453,4.80349892126607,0.7483184830828696,1.8898875790056144,-0.9910706225007218,4.134919680978654,0.10175824704463476,0.16749653982095317,0.5824769612495652,-1.2453256183049946,-0.8696019882294028,1.9457022376476145
69,-0.1622757968310235,4.802974506898725,0.7398977096839948,1.844287260245315,-0.9482140299275472,4.15563395664558,0.09931353838522007,0.17150240516839357,0.5758942145299087,-1.2639933181041128,-0.8079660715452784,1.9617054517857746
70,-0.15757876167408247,4.802450092531379,0.7314769362851201,1.7986869414850157,-0.9053574373543731,4.176348232312506,0.09741059013246542,0.17529542665582734,0.5692069001526685,-1.2802600825479413,-0.7469939010185901,1.972265412715699
71,-0.15288172651714144,4.801925678164034,0.7230561628862453,1.7530866227247164,-0.8625008447811986,4.197062507979433,0.09606261371726235,0.17887621543722335,0.5624657290978808,-1.2950539811116388,-0.6869087951334427,1.9781852817306707
72,-0.1481846913602004,4.80140126379669,0.7146353894873705,1.7074863039644166,-0.8196442522080241,4.217776783646359,0.09527846735951709,0.1822464699719856,0.5557225825310662,-1.3090792253957173,-0.6279179099000765,1.980037770493734
73,-0.14348765620325932,4.800876849429344,0.7062146160884957,1.6618859852041168,-0.7767876596348495,4.238491059313286,0.09506252528376237,0.18540889811881328,0.5490300958480079,-1.3228842823827682,-0.5702209220070606,1.978235405366741
74,-0.13879062104631829,4.800352435061999,0.697793842689621,1.6162856664438174,-0.733931067061675,4.259205334980212,0.09541458679168995,0.18836712994658944,0.5424412328992599,-1.3369062287580096,-0.5140158397383365,1.9730777279445464
75,-0.1340935858893773,4.799828020694654,0.6893730692907463,1.5706853476835185,-0.6910744744885009,4.279919610647138,0.0963298262546017,0.19112562243421982,0.5360088542098401,-1.351499895473507,-0.4595029496135542,1.964784118070672
76,-0.12939655073243622,4.799303606327309,0.6809522958918713,1.5250850289232183,-0.6482178819153259,4.300633886314064,0.09779878470139729,0.19368955731547566,0.5297852830751042,-1.366956965096771,-0.40688745759660133,1.9535175370549527
77,-0.12469951557549519,4.798779191959964,0.6725315224929966,1.479484710162919,-0.6053612893421518,4.321348161980991,0.09980740328279408,0.19606473339381375,0.5238218734432284,-1.3835182093413045,-0.35638112276499756,1.9394024961534213
78,-0.12000248041855416,4.798254777592619,0.6641107490941218,1.4338843914026191,-0.5625046967689773,4.342062437647917,0.10233709849389741,0.19825745470507053,0.5181685834876465,-1.4013808878658367,-0.3082030235281507,1.922539348677673
79,-0.11530544526161313,4.7977303632252735,0.655689975695247,1.3882840726423198,-0.5196481041958028,4.362776713314844,0.1053648786388393,0.20027441594240322,0.5128735587293185,-1.4207026400576488,-0.26257949879319853,1.9030162434498403
80,-0.1106084101046721,4.797205948857929,0.6472692022963723,1.3426837538820204,-0.47679151162262867,4.3834909889817695,0.1088635006269318,0.20212258657747645,0.5079827284891585,-1.44160280390788,-0.2197432477010576,1.8809195701184651
81,-0.10591137494773106,4.796681534490584,0.6388484288974975,1.297083435121721,-0.43393491904945414,4.404205264648696,0.11280166580343391,0.20380909511459566,0.503539419336098,-1.464161884239129,-0.17993154234073072,1.8563433627158832
82,-0.10121433979079003,4.7961571201232385,0.6304276554986228,1.2514831163614217,-0.39107832647628005,4.4249195403156225,0.11714425314344078,0.20534111490025642,0.49958398904712403,-1.4884198021525183,-0.14338350535848396,1.8293978446470787
83,-0.09651730463384905,4.795632705755893,0.622006882099748,1.205882797601122,-0.3482217339031055,4.445633815982549,0.12185258777819837,0.20672575287972822,0.4961534844136032,-1.514373544442687,-0.11033642891951934,1.8002170648839764
84,-0.09182026947690802,4.795108291388549,0.6135861087008733,1.1602824788408226,-0.305365141329931,4.4663480916494755,0.12688474248289336,0.20796994264519617,0.49328132601497865,-1.5419748591283624,-0.08102116381035239,1.768965382471651
85,-0.08712323431996699,4.7945838770212035,0.6051653353019985,1.1146821600805232,-0.2625085487567569,4.487062367316401,0.13219586943697184,0.20908034305733159,0.49099702283846963,-1.5711286750139999,-0.05565668622052307,1.7358424123505707
86,-0.08242619916302596,4.794059462653858,0.5967445619031237,1.0690818413202239,-0.21965195618358235,4.507776642983328,0.13773855927545783,0.21006324364468618,0.4893259193539861,-1.6016929220579519,-0.034444049007837166,1.7010859694030993
87,-0.07772916400608493,4.793535048286513,0.5883237885042489,1.023481522559924,-0.17679536361040826,4.528490918650254,0.14346322418543248,0.21092447789404115,0.4882889773596211,-1.633480360206125,-0.017560031888120647,1.6649725632104797
88,-0.07303212884914384,4.7930106339191685,0.579903015105374,0.9778812037996243,-0.13393877103723284,4.549205194317181,0.14931850156842935,0.21166934544085014,0.4879025945974963,-1.666262862240291,-0.00515090250401828,1.6278151208909435
89,-0.06833509369220281,4.792486219551823,0.5714822417064993,0.9322808850393249,-0.09108217846405875,4.569919469984107,0.15525167458927427,0.21230254405350885,0.48817846180543384,-1.699778336227385,0.002673234806061854,1.589957849613184
90,-0.06363805853526178,4.791961805184478,0.5630614683076245,0.8866805662790256,-0.048225585890884215,4.590633745651033,0.16120910576687242,0.2128281121797287,0.4891234595199664,-1.7337401386914817,0.005843015082865703,1.5517684674252887
91,-0.058941023378320745,4.791437390817133,0.5546406949087498,0.8410802475187253,-0.0053689933177101246,4.611348021317959,0.16713667963420753,0.2132493826892989,0.4907395955839022,-1.7678484729872268,0.004332883815226457,1.5136283765273622
92,-0.05424398822137971,4.790912976449788,0.546219921509875,0.795479928758426,0.03748759925546441,4.632062296984886,0.1729802504047009,0.21356894830659207,0.4930239839403972,-1.8018029597514202,-0.0018376406316682986,1.4759216545368903
93,-0.04954695306443868,4.790388562082443,0.5377991481110003,0.7498796099981266,0.08034419182863894,4.652776572651812,0.17868609053094828,0.213788639079971,0.49596886491873704,-1.8353153780205385,-0.012604638033198936,1.4390239256458945
94,-0.04484991790749765,4.789864147715098,0.5293783747121255,0.7042792912378273,0.12320078440181303,4.673490848318739,0.18420133603024155,0.21390951208552464,0.4995616668383266,-1.868121552985766,-0.027862313943431884,1.4032921981986515
95,-0.04015288275055662,4.789339733347752,0.5209576013132508,0.6586789724775279,0.16605737697498713,4.694205123985665,0.18947442447933888,0.21393185341105803,0.5037851083802696,-1.8999915154752918,-0.047467118774765664,1.3690566121662449
96,-0.035455847593615586,4.788815318980408,0.5125368279143759,0.6130786537172286,0.2089139695481621,4.714919399652591,0.19445552164840368,0.21385519231476757,0.5086173408039221,-1.930737342694724,-0.0712430504062487,1.3366147661616552
97,-0.030758812436674554,4.788290904613063,0.5041160545155012,0.5674783349569292,0.2517705621213362,4.735633675319518,0.19909693285024477,0.21367832730333747,0.514032128722409,-1.9602184437182009,-0.09898765537865419,1.3062289557647324
98,-0.026061777279733522,4.787766490245717,0.4956952811166264,0.5218780161966299,0.2946271546945103,4.756347950986443,0.2033534952249715,0.21339936372802898,0.519999067799716,-1.9883444036763804,-0.13047823621475696,1.278126327531644
99,-0.021364742122792435,4.787242075878372,0.4872745077177515,0.47627769743632964,0.33748374726768526,4.777062226653371,0.20718294736046602,0.21301576235643477,0.5264838373958645,-2.0150757888307056,-0.16547782335586028,1.2525016970897538
100,-0.0166887227831084,4.7867200078840355,0.47889141115735057,0.430881406947889,0.3801485877488098,4.797683820997403,0.21053231646753617,0.21252684196188418,0.533416315355302,-2.040313107597509,-0.20356246371889347,1.2296193284718633
101,-0.012102020666766633,4.7862079119749845,0.4706684411604626,0.38635223661484464,0.42199848183872213,4.817911519719132,0.21333509711156046,0.21194003475392503,0.540639147351882,-2.0637927663254825,-0.24382329870018432,1.2098616581955695
102,-0.00760988972808152,4.78570637474447,0.46261501693670637,0.3427411935051632,0.4629854915144085,4.837722152487837,0.21558819244581487,0.21125872201049858,0.5480790390493137,-2.08565963298123,-0.2858148750512968,1.1932134401260994
103,-0.003212329967052896,4.785215396192493,0.4547311384860824,0.300048277618842,0.5031096167758706,4.857115719303517,0.2172988081149398,0.21048582071976593,0.5556735417254978,-2.106112565577797,-0.3291657948957072,1.1796180903343085
104,0.0010906586163194065,4.784734976319052,0.4470168058085896,0.25827348895588464,0.5423708576231077,4.87609222016617,0.21847969561366665,0.20962437507377857,0.5633639916024253,-2.125368273089332,-0.37353704008325583,1.1690138251302664
105,0.005299076022035054,4.784265115124149,0.4394720189042285,0.21741682751628666,0.5807692140561196,4.8946516550757995,0.21914842344926866,0.20867763672480127,0.5710958644461954,-2.143656131546932,-0.4186203711247165,1.1613409039791038
106,0.009412922250094047,4.783805812607783,0.4320967777729995,0.17747829330005072,0.6183046860749064,4.912794024032403,0.21932665973405432,0.20764912371332273,0.5788190248130718,-2.1612146465890745,-0.46413612103088736,1.1565474021558335
107,0.013432197300496607,4.783357068769955,0.4248910824149019,0.1384578863071786,0.6549772736794681,4.93051932703598,0.2190394776971485,0.20654265972535746,0.5864878793749057,-2.178289321906493,-0.5098306424034202,1.1545937698019806
108,0.01735690117324251,4.782918883610662,0.4178549328299359,0.10035560653766584,0.6907869768698056,4.947827564086532,0.21831469348881535,0.20536239562075198,0.5940614443199639,-2.1951316825922467,-0.5554735942845987,1.155456433179418
109,0.021187033868332095,4.782491257129908,0.410988329018102,0.06317145399151425,0.725733795645918,4.964718735184061,0.21718224364842315,0.2041128153529806,0.6015033370789117,-2.211999214103989,-0.600855196209817,1.159130664538795
110,0.024922595385765134,4.782074189327691,0.40429127097939954,0.02690542866872736,0.7598177300078044,4.9811928403285615,0.2156736077498344,0.20279872848795236,0.6087817026148444,-2.2291559961403062,-0.6457835312283461,1.1656329010580215
111,0.02856358572554163,4.781667680204011,0.39776375871382896,-0.00844246943070015,0.7930387799554675,4.997249879520039,0.2138212800474575,0.20142525153859425,0.6158690842845032,-2.2468738253363987,-0.6900819463380776,1.1750026370668725
112,0.03211000488766158,4.781271729758867,0.3914057922213896,-0.04287224030676651,0.8253969454889045,5.012889852758489,0.2116582924358603,0.19999778027714388,0.6227422488670704,-2.2654336233041366,-0.7335865762256851,1.1873039490083412
113,0.03556185287212488,4.7808863379922615,0.38521737150208213,-0.07638388395946993,0.8568922266081165,5.028112760043915,0.2092177897122088,0.19852195508137985,0.6293819748065164,-2.2851269107026235,-0.7761440029096436,1.2026266375297419
114,0.03891912967893163,4.780511504904193,0.379198496555907,-0.10897740038880954,0.8875246233131033,5.042918601376314,0.20653265699417964,0.1970036212266428,0.6357728120592714,-2.306257087750519,-0.8176090587996977,1.2210868813638986
115,0.04218183530808206,4.780147230494661,0.37334916738286306,-0.14065278959478977,0.9172941356038651,5.05730737675569,0.20363519819195838,0.19544878586359773,0.6419028212134432,-2.329140190955894,-0.8578427834063571,1.242827187173951
116,0.04534996975957584,4.779793514763666,0.36766938398295057,-0.17141005157740974,0.9462007634804035,5.07127908618204,0.20055686365295317,0.1938635732320794,0.6477632987772853,-2.3541046894236617,-0.8967105547625259,1.268015281859397
117,0.04842353303341307,4.779450357711209,0.3621591463561704,-0.20124918633666677,0.9742445069427159,5.084833729655364,0.19732802448069287,0.19225417946257795,0.6533484947477174,-2.381489738887965,-0.934080436518382,1.2968414246023043
118,0.05140252512959376,4.779117759337289,0.3568184545025215,-0.23017019387256,1.0014253659908023,5.097971307175662,0.19397779056152248,0.19062682811613257,0.6586553277850177,-2.4116411312326376,-0.969821812011177,1.3295134174350716
119,0.0542869460481179,4.778795719641906,0.3516473084220042,-0.25817307418509206,1.0277433406246645,5.1106918187429375,0.19053386899943958,0.1889877274164761,0.6636831025543296,-2.4449039797316336,-1.0038044185638346,1.3662483821231672
120,0.057076795788985724,4.77848423862506,0.34664570811461926,-0.28525782727426474,1.0531984308442999,5.122995264357184,0.18702245944524903,0.18734302993986499,0.6684332330618159,-2.4816110102758917,-1.0358979485590554,1.4072601913363367
121,0.05977207435219689,4.778183316286751,0.3418136535803653,-0.3114244531400736,1.0777906366497128,5.134881644018408,0.18346818269556409,0.18569879535166803,0.6729089751235385,-2.5220652741488214,-1.0659724445540408,1.4527413802641236
122,0.062372781737751404,4.7778929526269796,0.33715114481924324,-0.33667295178251955,1.1015199580408996,5.146350957726606,0.17989403891473207,0.18406095661696778,0.6771151704657589,-2.566516304456051,-1.093899772924712,1.5028385663175492
123,0.06487891794564948,4.777613147645745,0.3326581818312533,-0.3610033232016061,1.1243863950178632,5.157403205481776,0.17632139188379833,0.1824352899667864,0.6810580043714903,-2.615129410587251,-1.1195564922313785,1.5576210732977736
124,0.06729048297589091,4.777343901343047,0.32833476461639455,-0.3844155673973333,1.1463899475806008,5.168038387283925,0.17276997579138648,0.18082738877294532,0.6847447782624094,-2.6679491639195754,-1.142828402622769,1.6170438128270586
125,0.0696074768284759,4.7770852137188875,0.3241808931746677,-0.406909684369694,1.1675306157291105,5.178256503133046,0.1692579212391099,0.17924264137322524,0.6881836981387246,-2.724860290308407,-1.1636169236897276,1.680907636565319
126,0.07182989950340446,4.776837084773265,0.32019656750607295,-0.42848567411869354,1.187808399463398,5.188057553029141,0.16580179732733125,0.1776862127941186,0.6913836793916901,-2.7855519496647467,-1.1818471562449155,1.7488231364599978
127,0.07395775100067647,4.776599514506178,0.3163817876106092,-0.4491435366443355,1.207223298783461,5.197441536972214,0.16241666690549547,0.17616303024039623,0.6943541681524088,-2.8494939889572866,-1.1974770300896784,1.8201864756957749
128,0.07599103132029172,4.7763725029176305,0.312736553488278,-0.46888327194661095,1.2257753136892973,5.206408454962256,0.15911615230586013,0.17467777215788874,0.6971049790436729,-2.9159348223649304,-1.2105063952695594,1.8941769000636282
129,0.07792974046225065,4.776156050007619,0.3092608651390778,-0.48770488002552614,1.2434644441809102,5.214958306999279,0.15591250912246768,0.173234860627155,0.6996461489554844,-2.9839285528889308,-1.2209844543294484,1.9697835399126635
130,0.07977387842655292,4.775950155776145,0.3059547225630095,-0.5056083608810811,1.260290690258297,5.223091093083273,0.15281670584226048,0.1718384568096936,0.7019878062656202,-3.0523930743145873,-1.229013803938897,2.045863237419993
131,0.08152344521319899,4.775754820223207,0.30281812576007305,-0.5225937145132731,1.2762540519214598,5.230806813214242,0.14983850737664964,0.17049245914361785,0.7041400547701102,-3.12019240591475,-1.2347497524371622,2.121222647492951
132,0.08317844082218817,4.775570043348806,0.29985107473026806,-0.5386609409221013,1.2913545291703965,5.2381054673921845,0.14698656077559277,0.16920050397084277,0.7061128714703695,3.0969566013209007,-1.2383944961108873,2.194710054319098
133,0.08473886525352092,4.775395825152944,0.29705356947359474,-0.5538100401075692,1.305592122005109,5.244987055617103,0.14426848162860528,0.16796596827138996,0.7079160172796786,3.033659263418648,-1.2401868893219032,2.265298980212898
134,0.08620471850719713,4.775232165635618,0.2944256099900535,-0.5680410120696759,1.3189668304255981,5.2514515778889965,0.14169093986580478,0.16679197418105443,0.7095589596575914,2.973894449321819,-1.2403894941734963,2.332148508640747
135,0.0875760005832168,4.775079064796829,0.2919671962796435,-0.5813538568084233,1.3314786544318604,5.257499034207864,0.13925974386509124,0.16568139497513035,0.7110508061525218,2.9182437309386002,-1.2392749959518126,2.3946327974369703
136,0.08885271148158003,4.774936522636578,0.2896783283423654,-0.593748574323806,1.3431275940238976,5.263129424573706,0.13697992194786573,0.16463686221199478,0.712400247826504,2.867076845346533,-1.2371138507299966,2.4523408386693086
137,0.09003485120228671,4.7748045391548635,0.2875590061782194,-0.6052251646158258,1.3539136492017096,5.268342748986525,0.1348558005045835,0.16366077374504553,0.7136155115484233,2.820574379908435,-1.2341643930160577,2.5050537082884006
138,0.09112241974533686,4.774683114351686,0.2856092297872044,-0.6157836276844897,1.3638368199652984,5.273139007446316,0.13289107813288228,0.16275530232887117,0.7147043201696263,2.7787633735534145,-1.2306658849862107,2.552708916645037
139,0.09211541711073024,4.774572248227046,0.28382899916932147,-0.6254239635297854,1.3728971063146602,5.277518199953082,0.1310888952951687,0.16192240456477838,0.7156738596359503,2.7415570750645175,-1.2268343813938969,2.5953606163811993
140,0.09301384329846729,4.774471940780943,0.28221831432457045,-0.6341461721517216,1.3810945082497987,5.2814803265068235,0.12945189910998864,0.1611638299512399,0.7165307521403054,2.7087926337283283,-1.222860921366886,2.633141889875671
141,0.09381769830854769,4.774382192013378,0.2807771752529509,-0.6419502535502986,1.3884290257707104,5.285025387107538,0.12798230298307964,0.1604811298259064,0.7172810344777684,2.680263288986008,-1.218911425659008,2.666232547329209
142,0.09452698214097166,4.774303001924348,0.27950558195446296,-0.6488362077255108,1.394900658877397,5.288153381755228,0.1266819408605721,0.15987566600706596,0.7179301408289214,2.6557438555311856,-1.2151277029232708,2.6948336369567665
143,0.0951416947957393,4.774234370513858,0.27840353442910715,-0.65480403467736,1.40050940756986,5.2908643104498925,0.12555231594962044,0.15934861896351996,0.7184828892652191,2.6350097270777653,-1.2116290730651318,2.7191484421662486
144,0.09566183627285041,4.774176297781903,0.27747103267688256,-0.6598537344058517,1.4052552718480946,5.293158173191534,0.12459464380192006,0.15890099536249014,0.7189434713412891,2.617850344199017,-1.2085142420407615,2.739369018616129
145,0.09608740657230463,4.774128783728487,0.2767080766977901,-0.6639853069109805,1.4091382517121076,5.295034969980148,0.12380988969446802,0.158533634865219,0.719315444212193,2.6040783065632946,-1.2058631779514333,2.755667089313484
146,0.09641840569410243,4.774091828353606,0.27611466649182903,-0.6671987521927463,1.4121583471618955,5.296494700815737,0.12319880027075432,0.15824721605929062,0.7196017247880291,2.5935352652447925,-1.203738829639607,2.7681881607563836
147,0.09665483363824401,4.774065431657263,0.27569080205899965,-0.6694940702511492,1.4143155581974582,5.2975373656983,0.1227619294258637,0.15804226143530592,0.7198045855132483,2.5860955569300863,-1.2021885944421091,2.777047897180045
148,0.09679669040472838,4.774049593639457,0.2754364833993024,-0.6708712610861944,1.415609884818796,5.298162964627838,0.12249965843181466,0.15791914133347226,0.7199256514332899,2.5816683294750096,-1.201245484925901,2.78233000253242
149,0.09684397599355687,4.7740443143001885,0.2753517105127363,-0.6713303246978732,1.4160413270259085,5.29837149760435,0.12241221030649187,0.15787807680294255,0.7199658982863626,2.580198703006023,-1.2009289706060933,2.7840850652673512
