nimar13/UR3e_dataset_trayectorias/data/trayectorias_completas_UR3e_TRAPEZOIDAL_FUNC/trayectoria_267.csv
Punto,shoulder_pan_joint,shoulder_lift_joint,elbow_joint,wrist_1_joint,wrist_2_joint,wrist_3_joint,Posicion_X,Posicion_Y,Posicion_Z,Roll,Pitch,Yaw
0,0.9815255752456631,3.049733930929607,2.013185496978226,-2.1219566859745296,4.056702385002502,1.499171626930977,-0.1257969528140221,-0.053383713888456294,0.4378633509210256,-1.5209476433982576,-0.15856693387236284,0.3116151363731295
1,0.9816130934428229,3.0497943313256375,2.013202102171523,-2.1220309685506993,4.055919054295184,1.499297702855617,-0.1257610372135987,-0.05345047559702728,0.4378635687274235,-1.520698079890315,-0.15847006117199217,0.31091574937380945
2,0.9818756480343024,3.0499755325137294,2.0132519177514134,-2.122253816279208,4.053569062173227,1.4996759306295369,-0.1256535430310969,-0.05365082602562197,0.43786416315987964,-1.5199498734419203,-0.15817887672285652,0.30881773326240136
3,0.9823132390201016,3.0502775344938824,2.013334943717898,-2.1226252291600565,4.049652408636633,1.500306310252737,-0.1254752287621841,-0.05398495934965199,0.43786495759424426,-1.5187044804639898,-0.15769168540390227,0.30532152312727284
4,0.9829258664002205,3.0507003372660964,2.013451180070976,-2.123145207193244,4.044169093685402,1.501188841725217,-0.1252273606803995,-0.05445319341221611,0.43786565878149714,-1.516964342199987,-0.15700567513347194,0.3004278454932963
5,0.983713530174659,3.0512439408303713,2.0136006268106477,-2.123813750378771,4.037119117319533,1.5023235250469769,-0.12491171594831817,-0.055055961032426916,0.43786585854975907,-1.5147329053647762,-0.1561169367002695,0.2941377202083015
6,0.9846762303434172,3.0519083451867077,2.013783283936913,-2.1246308587166367,4.028502479539027,1.503710360218017,-0.12453058685295589,-0.05579379780225401,0.4378650362172453,-1.5120146506399659,-0.15502049182509928,0.2864524627240967
7,0.985813966906495,3.052693550335105,2.0139991514497724,-2.1255965322068424,4.018319180343882,1.505349347238337,-0.12408678604456003,-0.056667326338844116,0.43786256174583627,-1.5088151286246676,-0.15371032974409393,0.2773736864120273
8,0.9871267398638927,3.053599556275564,2.014248229349225,-2.126710770849387,4.006569219734101,1.507240486107937,-0.12358365262254575,-0.05767723695240599,0.43785769967275495,-1.505141002723447,-0.1521794526763473,0.26690330445060667
9,0.9886145492156099,3.054626363008084,2.0145305176352717,-2.127973574644271,3.9932525977096813,1.509383776826817,-0.12302505887634146,-0.05882426468479575,0.43784961386511545,-1.501000098334891,-0.15041993060280798,0.2550435307215171
10,0.9902773949616468,3.0557739705326648,2.0148460163079123,-2.129384943591494,3.9783693142706245,1.511779219394977,-0.12241541745227043,-0.06010916267136029,0.4378373731487669,-1.4964014575850357,-0.14842296583737524,0.2417968790515172
11,0.9921152771020033,3.0570423788493066,2.015194725367146,-2.1309448776910567,3.9619193694169303,1.514426813812417,-0.12175968868023837,-0.06153267177885553,0.4378199578686849,-1.49135539873075,-0.14617896791349377,0.22716616004304901
12,0.9941281956366795,3.05843158795801,2.015576644812974,-2.1326533769429585,3.9439027631485986,1.517326560079137,-0.12106338775597461,-0.06309548647578667,0.43779626744305494,-1.4858735792401774,-0.14367763933861716,0.21115447464822426
13,0.9963161505656755,3.0599415978587743,2.0159917746453955,-2.1345104413472,3.924319495465629,1.5204784581951372,-0.12033259143592236,-0.06479821689880583,0.4377651289769894,-1.4799690614421985,-0.14090807278320686,0.19376520356205693
14,0.9986791418889911,3.0615724085516,2.0164401148644107,-2.1365160709037805,3.903169566368022,1.523882508160417,-0.11957394386271991,-0.06664134709030016,0.43772530700428036,-1.4736563795264916,-0.13785886026902358,0.17500199144510573
15,1.0012171696066263,3.063324020036487,2.0169216654700195,-2.1386702656127,3.8804529758557775,1.527538709974977,-0.11879466109976364,-0.06862518939848598,0.43767551442659924,-1.46695160657239,-0.1345182149024109,0.15486872493720952
16,1.0039302337185814,3.0651964323134346,2.017436426462222,-2.140973025473959,3.8561697239288955,1.531447063638817,-0.11800253391383889,-0.07074983505265249,0.4376144247188503,-1.459872420190824,-0.13087410566111737,0.13336950339758535
17,1.0068183342248558,3.067189645382444,2.0179843978410186,-2.1434243504875576,3.8303198105873757,1.5356075691519373,-0.11720592830561719,-0.0730151009531357,0.43754068546677827,-1.4524381652815919,-0.12691440568761644,0.11050860130746482
18,1.0098814711254502,3.069303659243514,2.0185655796064084,-2.146024240653495,3.8029032358312183,1.5400202265143372,-0.11641378324936391,-0.07542047274857745,0.4374529332981776,-1.4446699123402402,-0.12262705446774244,0.08629042130529892
19,1.013119644420364,3.0715384738966454,2.0191799717583923,-2.148772695971772,3.7739199996604236,1.5446850357260173,-0.1156356050660323,-0.07796504431246093,0.4373498102619294,-1.4365905096968414,-0.11800023418113577,0.060719436897144936
20,1.0165328541095977,3.0738940893418376,2.01982757429697,-2.151669716442388,3.743370102074991,1.5496019967869774,-0.11488145781867225,-0.08064745377719985,0.4372299816993582,-1.428224628033793,-0.11302256040029837,0.03380012400192297
21,1.020121100193151,3.0763705055790913,2.020508387222141,-2.154715302065344,3.7112535430749216,1.5547711096972174,-0.1141619490864941,-0.08346581633751222,0.4370921556397922,-1.4195987955116247,-0.1076832871891226,0.005536880658249827
22,1.023884382671024,3.0789677226084065,2.0212224105339063,-2.157909452840639,3.677570322660214,1.5601923744567374,-0.11348821044488572,-0.08641765409572962,0.4369351037365264,-1.4107414218291694,-0.10197252651110612,-0.024066065558428554
23,1.0278227015432166,3.081685740429782,2.0219696442322648,-2.161252168768273,3.642320440830869,1.5658657910655376,-0.11287187195414713,-0.08949982329027059,0.4367576837403667,-1.401682809554278,-0.09588148170371508,-0.05500476257863054
24,1.0319360568097289,3.0845245590432193,2.022750088317217,-2.1647434498482463,3.6055038975868867,1.5717913595236175,-0.11232502994079618,-0.0927084393248521,0.4365588634853762,-1.392455151078642,-0.0894026946101961,-0.0872756511682731
25,1.036224448470561,3.0874841784487175,2.023563742788763,-2.1683832960805587,3.5671206929282664,1.5779690798309776,-0.11186020734324176,-0.0960388001001423,0.43633774633516126,-1.3830925095679336,-0.08253030578489064,-0.1208756939636881
26,1.0406878765257126,3.090564598646277,2.024410607646903,-2.172171707465211,3.527170826855009,1.5843989519876176,-0.11149030588974396,-0.09948530824131376,0.4360935980078867,-1.3736307822873313,-0.07526032700364023,-0.15580251515833274
27,1.045326340975184,3.0937658196358977,2.0252906828916366,-2.176108684002202,3.4856542993671136,1.5910809759935376,-0.11122854938236207,-0.10304139291409424,0.4358258746640652,-1.3641076446709401,-0.06759092511692737,-0.19205454925032575
28,1.050139841818975,3.0970878414175793,2.026203968522964,-2.1801942256915328,3.4425711104645806,1.5980151518487378,-0.11108841737757871,-0.10669943202792569,0.43553425210299695,-1.3545624734586996,-0.05952271607853054,-0.229631196661134
29,1.0551283790570856,3.1005306639913224,2.0271504645408847,-2.1844283325332023,3.3979212601474105,1.6052014795532177,-0.11108356858414282,-0.11045067573712422,0.43521865587155034,-1.3450362471316537,-0.051059067763277274,-0.2685329833791573
30,1.060291952689516,3.1040942873571264,2.0281301709453996,-2.188811004527212,3.3517047484156026,1.6126399591069778,-0.11122775334312521,-0.11428517226853853,0.43487929204288966,-1.3355714217210002,-0.04220640994835467,-0.3087617210732563
31,1.065630562716266,3.1077787115149915,2.029143087736508,-2.19334224167356,3.303921575269157,1.6203305905100178,-0.11153471461600463,-0.11819169722604395,0.43451667837295677,-1.3262117798342767,-0.03297454956534732,-0.35032066336809836
32,1.0711442091373358,3.111583936464918,2.03018921491421,-2.198022043972248,3.2545717407080743,1.628273373762338,-0.1120180769856248,-0.12215768764682998,0.4341316754893432,-1.3170022504211443,-0.023376989023509806,-0.39321465318546234
33,1.076832891952725,3.1155099622069056,2.031268552478506,-2.2028504114232748,3.203655244732354,1.636468308863938,-0.11269122327385847,-0.12616918221013954,0.43372551771107687,-1.3079886963838625,-0.013431245044312746,-0.4374502552460969
34,1.0826966111624343,3.119556788740954,2.0323811004293955,-2.2078273440266414,3.1511720873419957,1.6449153958148182,-0.11356715850056982,-0.1302107691238443,0.43329984303939556,-1.2992176666219535,-0.003159165015736024,-0.48303586701223644
35,1.088735366766463,3.1237244160670636,2.0335268587668787,-2.212952841782347,3.097122268537,1.653614634614978,-0.11465836105259994,-0.13426554333561128,0.43285672179956963,-1.2907361084942686,0.0074127626481989,-0.5299818005537483
36,1.0949491587648112,3.1280128441852346,2.034705827490956,-2.218226904690392,3.041505788317367,1.662566025264418,-0.11597662110056352,-0.13831507483067354,0.432398683353149,-1.2825910360041881,0.018253108293634763,-0.5783003270711845
37,1.1013379871574793,3.132422073095467,2.0359180066016265,-2.223649532750776,2.984322646683096,1.6717695677631383,-0.11753286649649461,-0.14233938988424777,0.4319287402398544,-1.2748291483004814,0.02932521588264241,-0.6280056751474445
38,1.1079018519444672,3.13695210279776,2.037163396098891,-2.2292207259634997,2.9255728436341872,1.6812252621111383,-0.11933697660785914,-0.14631696722993676,0.4314504090499512,-1.2674963923921303,0.04058693877315181,-0.6791139732809933
39,1.1146407531257745,3.1416029332921145,2.0384419959827493,-2.2349404843285625,2.8652563791706416,1.6909331083084185,-0.12139758479381482,-0.15022475118215345,0.4309677272729471,-1.2606374633787996,0.051990403384102025,-0.7316431269503367
40,1.1215546907014016,3.1463745645785304,2.0397538062532012,-2.2408088078459643,2.8033732532924582,1.7008931063549786,-0.12372187050805078,-0.15403818380645748,0.4304852653185372,-1.2542952351051413,0.06348180899857742,-0.7856126204663066
41,1.1286436646713485,3.151266996657007,2.041098826910247,-2.246825696515706,2.739923465999637,1.7111052562508187,-0.12631534231878677,-0.15773125826213585,0.4300081328628879,-1.2485101140924826,0.075001273432095,-0.8410432343055456
42,1.135907675035615,3.1562802295275447,2.042477057953886,-2.2529911503377864,2.674907017292179,1.7215695579959387,-0.12918161346960108,-0.16127659544149886,0.4295419786397388,-1.2433193100520714,0.0864827359287591,-0.8979566696321872
43,1.143346721794201,3.161414263190144,2.0438884993841193,-2.2593051693122064,2.608323907170083,1.7322860115903387,-0.13232217196303533,-0.16464554599508494,0.4290929827737906,-1.2387560174345376,0.09785393039782783,-0.9563750734771961
44,1.1509608049471067,3.166669097644804,2.045333151200946,-2.2657677534389657,2.540174135633349,1.7432546170340188,-0.13573614752988622,-0.16780831975589236,0.42866784074593883,-1.2348485045361794,0.10903644388694728,-1.0163204607470906
45,1.1587499244943322,3.1720447328915253,2.0468110134043664,-2.2723789027180645,2.470457702681978,1.754475374326979,-0.13942007824734784,-0.1707341444535113,0.4282737380888032,-1.231619109884769,0.11994587688491022,-1.0778140330712433
46,1.1667140804358773,3.177541168930308,2.0483220859943807,-2.2791386171495023,2.3991746083159695,1.765948283469219,-0.1433676799842411,-0.17339145543511708,0.42791831493940075,-1.2290831501677955,0.13049212348776779,-1.1408753996458771
47,1.1748532727717422,3.1831584057611515,2.0498663689709886,-2.2860468967332794,2.326324852535323,1.777673344460739,-0.1475696222759214,-0.1757481178793799,0.42760961962656024,-1.2272477499908772,0.14057979042872676,-1.2055217118142183
48,1.1831675015019265,3.1888964433840563,2.05144386233419,-2.293103741469396,2.251908435340039,1.789650557301539,-0.15201331465831042,-0.17777168269639285,0.42735605054650333,-1.2261106113060876,0.1501087741977221,-1.2717667311539218
49,1.1916567666264308,3.1947552817990226,2.0530545660839854,-2.3003091513578515,2.1759253567301178,1.8018799219916193,-0.15668270791183822,-0.17942967694701148,0.4271662856836089,-1.2256587493093085,0.15897501465731625,-1.339619860180147
50,1.2003113439011257,3.200728209850935,2.0546966351988973,-2.3076548727790724,2.0984626534508157,1.8143474300949083,-0.16155259189006607,-0.180688761346885,0.42704928571736395,-1.2258666463256207,0.16706291263101725,-1.4090070960062735
51,1.2090048181523363,3.2067279825233057,2.0563460843997183,-2.3150336086785908,2.020651803190484,1.8268709719424816,-0.1665264725806293,-0.181510293885094,0.42701363278264937,-1.226678432348991,0.17417145074882068,-1.4789077655589893
52,1.2176982924035467,3.2127277551956763,2.0579955336005398,-2.322412344578109,1.942840952930152,1.8393945137900551,-0.17155273515614455,-0.1818846597271573,0.4270636650481355,-1.2280121257670418,0.18021863628841148,-1.5489906217031173
53,1.226391766654757,3.218727527868047,2.059644982801361,-2.3297910804776274,1.8650301026698202,1.8519180556376287,-0.17660120740024454,-0.1818109264078466,0.4272024246048049,-1.2297806898114063,0.18516771054851575,-1.6192312343158435
54,1.2350852409059674,3.2247273005404176,2.0612944320021827,-2.3371698163771453,1.7872192524094883,1.864441597485202,-0.18164164741497676,-0.18129020288901357,0.4274323440628291,-1.2318932232434996,0.18898897663538167,-1.6896012133065812
55,1.2437787151571777,3.230727073212788,2.062943881203004,-2.3445485522766636,1.7094084021491565,1.8769651393327753,-0.18664389040922763,-0.180325634870743,0.4277552335233882,-1.234255723089356,0.19166012010065694,-1.760068930923322
56,1.2524721894083883,3.2367268458851592,2.0645933304038255,-2.351927288176182,1.6315975518888237,1.889488681180349,-0.19157799514657473,-0.17892239052072234,0.42817227134276675,-1.2367719383074947,0.1931664555197809,-1.8306003466493554
57,1.261165663659599,3.24272661855753,2.0662427796046465,-2.3593060240757002,1.5537867016284928,1.9020122230279224,-0.19641438934310704,-0.177087636692657,0.42868399873438834,-1.2393442926679894,0.19350108984712502,-1.9011599092904303
58,1.2698591379108093,3.2487263912299005,2.067892228805468,-2.3666847599752185,1.475975851368161,1.9145357648754957,-0.2011240133105374,-0.17483050574899842,0.42929031823117636,-1.241874850767029,0.19266499613163157,-1.9717115066382218
59,1.2785526121620197,3.254726163902271,2.0695416780062894,-2.374063495874737,1.398165001107829,1.927059306723069,-0.20567846114817512,-0.17216205314712826,0.4299904960072719,-1.2442662983281019,0.19066699437010556,-2.0422194304262073
60,1.28724608641323,3.2607259365746417,2.071191127207111,-2.3814422317742547,1.3203541508474972,1.9395828485706426,-0.21005011879894936,-0.16909520599125552,0.43078316803484845,-1.2464229070079178,0.18752363969656435,-2.1126493234268957
61,1.2959395606644404,3.2667257092470123,2.0728405764079323,-2.388820967673773,1.2425433005871653,1.952106390418216,-0.21421229829967386,-0.1656447027944361,0.43166635002869125,-1.2482514549187191,0.1832590215136893,-2.1829690765614163
62,1.304633034915651,3.272725481919383,2.0744900256087537,-2.3961997035732914,1.1647324503268326,1.9646299322657894,-0.21813936757399605,-0.16182702473611027,0.43263745110846125,-1.2496620769003832,0.17790448032652278,-2.2531496467080756
63,1.3133265091668616,3.2787252545917536,2.0761394748095747,-2.4035784394728097,1.0869216000665007,1.977153474113363,-0.22180687513792688,-0.15766031874020564,0.4336932910863158,-1.2505690229559632,0.17149825172553348,-2.3231657702400925
64,1.322019983418072,3.284725027264124,2.077788924010396,-2.410957175372328,1.0091107498061689,1.9896770159609365,-0.22519166911238847,-0.15316431273696474,0.4348301212659253,-1.250891308798638,0.16408504901966364,-2.3929965527963026
65,1.3307134576692823,3.290724799936495,2.0794383732112176,-2.4183359112718463,0.931299899545837,2.00220055780851,-0.22827200996470692,-0.14836022350807648,0.43604364861802103,-1.2505532486601543,0.1557155973350593,-2.462625921914544
66,1.3394069319204926,3.2967245726088654,2.081087822412039,-2.4257146471713646,0.8534890492855052,2.014724099656083,-0.2310276764313169,-0.14327065754922452,0.43732906317759085,-1.2494848668724892,0.14644613253407707,-2.532042935438634
67,1.348100406171703,3.302724345281236,2.0827372716128605,-2.433093383070883,0.7756781990251733,2.0272476415036564,-0.2334400641069519,-0.13791950541669298,0.4386810684888,-1.2476221907816347,0.13633787809866732,-2.601241944586587
68,1.3567938804229136,3.3087241179536067,2.084386720813682,-2.440472118970401,0.6978673487648415,2.03977118335123,-0.23549227622113433,-0.13233183005498916,0.44009391490577515,-1.2449074328913146,0.12545651224392038,-2.670222615863795
69,1.365487354674124,3.3147238906259773,2.086036170014503,-2.447850854869919,0.6200564985045096,2.0522947251988035,-0.2371692061606533,-0.126533749630471,0.4415614355406606,-1.241289074479785,0.1138716361031378,-2.73898982035649
70,1.3741808289253346,3.3207236632983483,2.0876856192153244,-2.4552295907694375,0.5422456482441778,2.064818267046377,-0.23845761133677118,-0.12055231542153483,0.4430770846349199,-1.2367218661192332,0.1016562520007042,-2.807553402208193
71,1.382874303176545,3.326723435970719,2.089335068416146,-2.462608326668956,0.4644347979838459,2.0773418088939506,-0.239346178037899,-0.11441538533891717,0.44463397811582345,-1.23116676250316,0.08888625875576078,-2.8759278402433814
72,1.3915677774277553,3.3327232086430896,2.0909845176169672,-2.4699870625684737,0.38662394772351405,2.089865350741524,-0.23982557695225848,-0.1081514936700151,0.44622493608750596,-1.2245908097972869,0.07563996878447997,-2.944131817837498
73,1.4002612516789656,3.33872298131546,2.0926339668177887,-2.477365798467992,0.3088130974631813,2.1023888925890972,-0.23988850909035053,-0.10178971765868496,0.4478425269949455,-1.2169670034896687,0.06199764962111698,-3.01218771639445
74,1.4089547259301762,3.344722753987831,2.09428341601861,-2.4847445343675103,0.23100224720284945,2.114912434436671,-0.23952974188369827,-0.09535954154672252,0.4494791131898284,-1.2082741335854703,0.048041090465009144,-3.0801210473822573
75,1.4176482001813866,3.3507225266602014,2.095932865219431,-2.4921232702670286,0.1531913969425185,2.127435976284244,-0.23874613528405045,-0.0888907187150356,0.4511268976195087,-1.1984966321491868,0.0338531925644793,3.135225470164973
76,1.4263416744325972,3.356722299332572,2.0975823144202526,-2.499502006166547,0.07538054668218575,2.1399595181318176,-0.23753665773582405,-0.08241313257137273,0.4527779713542212,-1.1876244358181833,0.019517580727701243,3.0674513306128213
77,1.4350351486838075,3.3627220720049427,2.099231763621074,-2.5068807420660653,-0.002430303578146109,2.152483059979391,-0.23590239194377777,-0.0759566568373164,0.4544243616634262,-1.1756528731568012,0.0051182320425449766,2.9997107570058605
78,1.443728622935018,3.3687218446773133,2.1008812128218954,-2.5142594779655836,-0.08024115383847796,2.1650066018269642,-0.23384653040748737,-0.06955101589005307,0.4560580803495912,-1.1625825837271901,-0.009260882986554959,2.9319721562411667
79,1.4524220971862283,3.374721617349684,2.102530662022717,-2.521638213865102,-0.15805200409880982,2.177530143674538,-0.23137436074392836,-0.06322564581419639,0.45767117204694746,-1.148419472634697,-0.02353615220777047,2.8642041117823474
80,1.4611155714374389,3.380721390022055,2.1041801112235383,-2.52901694976462,-0.23586285435914167,2.1900536855221113,-0.2284932408690842,-0.05700955681565186,0.4592557621937564,-1.1331747011541198,-0.037624672007936275,2.796376061253726
81,1.4698090456886492,3.3867211626944256,2.1058295604243593,-2.536395685664138,-0.3136737046194735,2.2025772273696846,-0.2252125641587598,-0.05093119764319351,0.4608041043893503,-1.116864710936624,-0.05144460127597254,2.7284589566315236
82,1.4785025199398598,3.392720935366796,2.1074790096251808,-2.5437744215636564,-0.3914845548798054,2.2151007692172584,-0.22154371475746196,-0.04501832265409425,0.4623086268517129,-1.0995112763079988,-0.06491552402517842,2.660425897361178
83,1.4871959941910702,3.398720708039167,2.109128458826002,-2.5511531574631747,-0.46929540514013723,2.2276243110648313,-0.21750001325204538,-0.03929786214787517,0.4637619776975501,-1.0811415763725394,-0.07795882476217117,2.592252726253266
84,1.4958894684422805,3.4047204807115374,2.1107779080268236,-2.558531893362693,-0.5471062554004691,2.240147852912405,-0.2130966529735958,-0.03379579657704076,0.46515706877465607,-1.061788276118553,-0.090498079601429,2.5239185773649315
85,1.504582942693491,3.410720253383908,2.112427357227645,-2.565910629262211,-0.6249171056608009,2.2526713947599784,-0.20835062723651426,-0.028537035225641546,0.466487117785836,-1.0414896035812666,-0.10245946476830968,2.4554063643935695
86,1.5132764169447013,3.4167200260562787,2.1140768064284665,-2.5732893651617292,-0.7027279559211319,2.2651949366075517,-0.20328064786771993,-0.02354529992572443,0.46774568845468745,-1.0202894084718444,-0.11377218254938996,2.386703197556659
87,1.5219698911959116,3.4227197987286493,2.1157262556292875,-2.5806681010612476,-0.7805388061814638,2.2777184784551254,-0.19790705542113107,-0.018843014358286034,0.46892672849600553,-0.9982371866534367,-0.12436890299038487,2.317800716684371
88,1.5306633654471224,3.42871957140102,2.117375704830109,-2.588046836960766,-0.8583496564417974,2.2902420203026987,-0.19225172151287556,-0.014451199459355442,0.4700246051675016,-0.97538805456446,-0.13418621777915085,2.2486953284911437
89,1.5393568396983328,3.4347193440733905,2.1190251540309304,-2.595425572860284,-0.9361605067021292,2.302765562150272,-0.1863379437508415,-0.010389375423397774,0.47103413819472095,-0.9518026582707138,-0.14316510087195447,2.179388336884855
90,1.5480503139495432,3.440719116745761,2.120674603231752,-2.6028043087598025,-1.013971356962461,2.315289103997846,-0.18019033376802368,-0.006675470765503403,0.4719506298774694,-0.9275470033560529,-0.1512513686290892,2.1098859568488137
91,1.5567437882007535,3.4467188894181318,2.1223240524325733,-2.610183044659321,-1.091782207222793,2.327812645845419,-0.17383469890246087,-0.003325738870936113,0.4727698922036115,-0.9026921943695668,-0.15839613063670074,2.0401992049671644
92,1.565437262451964,3.4527186620905024,2.1239735016333947,-2.617561780558839,-1.1695930574831248,2.3403361876929925,-0.1672979180972539,-0.000354682425700633,0.4734882708146395,-0.8773140759998045,-0.16455622112552723,1.970343663057942
93,1.5741307367031745,3.458718434762873,2.1256229508342157,-2.624940516458357,-1.2474039077434558,2.352859729540566,-0.16060781262203158,0.0022250139149565286,0.4741026656868605,-0.8514927724236934,-0.169694600069193,1.9003391155396432
94,1.5828242109543849,3.4647182074352436,2.127272400035037,-2.6323192523578753,-1.3252147580037876,2.365383271388139,-0.15379301224217512,0.0044025423016429595,0.4746105484122523,-0.8253121261702818,-0.17378071275249354,1.8302090659016224
95,1.5915176852055954,3.4707179801076142,2.1289218492358586,-2.6396979882573937,-1.4030256082641195,2.377906813235713,-0.14688281748399973,0.006169021630985278,0.4750099759839012,-0.7988590430541077,-0.1767907969121551,1.7599801427018107
96,1.6002111594568058,3.4767177527799853,2.13057129843668,-2.647076724156912,-1.4808364585244513,2.390430355083286,-0.13990705866279576,0.007517538413602774,0.47529960101231394,-0.7722227549116496,-0.17870812749642437,1.6896814105336293
97,1.6089046337080162,3.482717525452356,2.1322207476375015,-2.65445546005643,-1.5586473087847832,2.4029538969308595,-0.1328959523561009,0.008443178375014047,0.47547867832065366,-0.7454940166240345,-0.17952319064474787,1.6193436060058546
98,1.6175981079592265,3.4887172981247265,2.1338701968383225,-2.661834195955948,-1.636458159045115,2.4154774387784332,-0.12587995601670574,0.008943048637952027,0.47554706788898704,-0.7187642578433304,-0.17923378058198688,1.5489983225854715
99,1.6262915822104371,3.494717070797097,2.135519646039144,-2.6692129318554665,-1.7142690093054487,2.4280009806260066,-0.11888962142863523,0.009016290378607853,0.47550523413975565,-0.6921247126212117,-0.17784501563207844,1.4786771708324353
100,1.6349461594851324,3.50068999884901,2.137161715154056,-2.676558653276687,-1.791731712584749,2.4404684887292953,-0.11198630302933889,0.008666601301268454,0.4753551580350943,-0.6657834036422887,-0.17538274404356155,1.4087251658456725
101,1.643435424609636,3.506548837263976,2.138772418903851,-2.683764063165143,-1.8677147911946719,2.4526978534193757,-0.10529778176378567,0.007916985591812087,0.47510441782915,-0.6402030145435728,-0.17193941122927306,1.3401900008829166
102,1.6517496533398206,3.5122868748868807,2.140349912267053,-2.690820907901259,-1.9421312083899522,2.4646750662601757,-0.09885381792704948,0.006797174904328532,0.4747614695188011,-0.6154747802227043,-0.16760381192349,1.273169617951312
103,1.659888845675686,3.517904111717724,2.1418941952436605,-2.697729187485036,-2.0149809641706007,2.476400127251696,-0.09267274208285735,0.005337283694072527,0.47433474603104353,-0.5916482106641422,-0.16246377099479173,1.207677959032392
104,1.6678530016172304,3.5234005477565065,2.143405267833675,-2.704488901916474,-2.08626405853661,2.4878730363939363,-0.08676940305297007,0.003567631225071359,0.47383266852256556,-0.5687614179411818,-0.15660708202488036,1.1437238545326631
105,1.675642121164456,3.528776183003228,2.1448831300370954,-2.7111000511955727,-2.1559804914879788,2.499093793686896,-0.08115534501780318,0.0015184410921060126,0.47326356065002945,-0.5468418682673579,-0.15012043357812688,1.081311425331198
106,1.6832562043173622,3.534031017457888,2.1463277818539224,-2.717562635322332,-2.2241302630247137,2.510062399130576,-0.07583900230409658,-0.0007804257137876275,0.4726355737333914,-0.5259072313762571,-0.1430884891413608,1.0204405896690278
107,1.6906952510759474,3.539165051120487,2.1477392232841552,-2.7238766542967516,-2.2907133731468097,2.520778852724976,-0.07082590734115128,-0.003299704782923553,0.471956622541393,-0.5059662888556665,-0.13559311799741885,0.9611076353733163
108,1.6979592614402141,3.544178283991026,2.1491174543277944,-2.7300421081188326,-2.355729821854265,2.531243154470096,-0.06611890765798382,-0.006010930275488047,0.4712343312939318,-0.4870198679017337,-0.1277127702796727,0.9033058227106462
109,1.7050482354101613,3.5490707160695014,2.15046247498484,-2.736058996788574,-2.419179609147088,2.5414553043659365,-0.06171838819580981,-0.008886606203750206,0.4704759893683163,-0.4690617725653109,-0.11952198650226703,0.8470259888534568
110,1.7119621729857886,3.5538423473559178,2.1517742852552924,-2.741927320305976,-2.4810627350252723,2.5514153024124964,-0.05762249561510481,-0.011900348543666872,0.46968851611334556,-0.4520796903610147,-0.11109102990417578,0.7922571309158071
111,1.718701074167096,3.5584931778502717,2.15305288513915,-2.747647078671039,-2.5413791994888193,2.5611231486097763,-0.0538273616769195,-0.015026999907264808,0.46887843411460656,-0.4360560576635162,-0.10248562886063044,0.738986950306792
112,1.725264938954083,3.563023207552565,2.1542982746364148,-2.7532182718837626,-2.6001290025377273,2.5705788429577767,-0.05032732316814138,-0.018242718650528303,0.46805185021395845,-0.42096887233037406,-0.09376681624940478,0.6872023464451894
113,1.7316537673467516,3.567432436462797,2.1555104537470853,-2.7586408999441465,-2.657312144171998,2.5797823854564967,-0.04711513621506601,-0.02152504438787723,0.4672144435635908,-0.40679244629742756,-0.08499085285104625,0.636889852488268
114,1.7378675593451,3.571720864580968,2.1566894224711626,-2.7639149628521915,-2.7129286243916315,2.588733776105937,-0.044182183185102336,-0.02485294193876991,0.46637145998792373,-0.3934980944259842,-0.07620922245810681,0.5880360095687008
115,1.743906314949129,3.5758884919070786,2.157835180808646,-2.769040460607897,-2.7669784431966242,2.597433014906097,-0.041518670709718514,-0.028206825749835084,0.4655277119327046,-0.38105475865080146,-0.06746868723361295,0.5406276791009873
116,1.7497700341588376,3.5799353184411267,2.158947728759535,-2.7740173932112633,-2.819461600586985,2.6058801018569766,-0.0391138176707559,-0.031568566822149896,0.46468758329781323,-0.36942956854566866,-0.05881139288072689,0.49465229506103514
117,1.7554587169742273,3.5838613441831146,2.1600270663238312,-2.778845760662291,-2.870378096562707,2.614075036958577,-0.0369560322756238,-0.0349214841327148,0.4638550384764337,-0.35858834087999575,-0.05027501427507849,0.45009805983924933
118,1.7609723633952972,3.5876665691330403,2.1610731935015335,-2.7835255629609783,-2.919727931123786,2.622017820210897,-0.03503307760391651,-0.038250322476368497,0.46303363495656635,-0.34849602168841565,-0.04189293330276186,0.4069540884126865
119,1.7663109734220466,3.5913509932909062,2.1620861102926416,-2.788056800107327,-2.9675111042702333,2.6297084516139373,-0.0333322252385654,-0.041541218573525614,0.4622265388795759,-0.33911707492021503,-0.033694441694557334,0.3652105062733786
120,1.771474547054477,3.59491461665671,2.163065816697156,-2.7924394721013357,-3.0137276160020416,2.637146931167697,-0.03184039679902011,-0.04478165719416059,0.4614365429931107,-0.3304158219728301,-0.02570496262140227,0.3248585068794563
121,1.7764630842925881,3.598357439230453,2.1640123127150774,-2.7966735789430057,-3.058377466319209,2.6443332588721775,-0.03054429337290613,-0.04796041894290026,0.4606660864808841,-0.3223567364286886,-0.017946285701348964,0.2858903744462694
122,1.7812765851363785,3.6016794610121345,2.1649255983464046,-2.8007591206323363,-3.101460655221743,2.6512674347273766,-0.029430512997130606,-0.0510675212371157,0.45991727619831724,-0.31490469817832534,-0.010436810858131555,0.24829947773785221
123,1.7859150495858507,3.6048806820017547,2.165805673591138,-2.8046960971693276,-3.1429771827096395,2.6579494587332975,-0.028485656470803374,-0.05409415389233247,0.4591919088898932,-0.30802521088183704,-0.0031917971666010963,0.21208024021392138
124,1.7903784776410017,3.607961102199315,2.1666525384492776,-2.80848450855398,-3.182927048782899,2.6643793308899375,-0.027696421892027093,-0.05703261060959394,0.4584914940103582,-0.30168458643941204,0.003776386573964954,0.17722809148258398
125,1.7946668693018337,3.6109207216048125,2.167466192920824,-2.812124354786292,-3.2213102534415157,2.6705570511972976,-0.027049688400200098,-0.05987621753971621,0.45781727681699147,-0.2958500998416732,0.01045801227335252,0.14373940454270234
126,1.7987802245683464,3.61375954021825,2.168246637005777,-2.8156156358662656,-3.2581267966854988,2.676482619655377,-0.026532589676608626,-0.06261925998147991,0.4571702614434045,-0.29049011747466996,0.01684574627333269,0.11161142280173197
127,1.8027185434405386,3.6164775580396262,2.168993870704135,-2.8189583517939,-3.2933766785148464,2.6821560362641774,-0.026132577810438217,-0.06525690815624793,0.456551233706324,-0.28557420167633424,0.02293440825338123,0.08084218034824946
128,1.8064818259184117,3.619074775068941,2.1697078940159,-2.8221525025691947,-3.3270598989295497,2.687577301023697,-0.02583747817663445,-0.06778514289145016,0.4559607834352048,-0.2810731940896597,0.028720736877191875,0.05143041845966802
129,1.8100700720019653,3.621551191306194,2.1703887069410714,-2.82519808819215,-3.359176457929623,2.6927464139339374,-0.025635535997889813,-0.07020068194089206,0.45539932615008444,-0.27695928013561033,0.034203163448258155,0.023375500847860865
130,1.813483281691198,3.623906806751387,2.171036309479649,-2.828095108662766,-3.3897263555150534,2.6976633749948977,-0.025515455277095856,-0.072500907571561,0.4548671239456617,-0.2732060367364035,0.03938159459178689,-0.0033226703028531803
131,1.8167214549861126,3.626141621404518,2.171650701631633,-2.8308435639810434,-3.4187095916858485,2.702328184206578,-0.025466430790332503,-0.07468379595520394,0.45436430546911216,-0.26978846525464883,0.04425720476202374,-0.0286637358641396
132,1.819784591886707,3.628255635265588,2.1722318833970227,-2.8334434541469813,-3.4461261664420046,2.706740841568977,-0.025478173825369013,-0.07674784881862251,0.4538908849055957,-0.26668301147280965,0.04883223918380786,-0.052646957590844895
133,1.822672692392982,3.630248848334598,2.1727798547758193,-2.8358947791605797,-3.4719760797835253,2.710901347082097,-0.02554093233801461,-0.07869202772974936,0.4534467799088381,-0.26386757431611796,0.05310982767123792,-0.07527129131245917
134,1.8253857565049367,3.6321212606115454,2.1732946157680217,-2.838197539021839,-3.4962593317104087,2.714809700745938,-0.025645506179733227,-0.08051569132705147,0.4530318284346389,-0.2613215049164124,0.057093809621603694,-0.09653545484567967
135,1.8279237842225713,3.633872872096432,2.1737761663736306,-2.840351733730759,-3.5189759222226513,2.718465902560498,-0.025783258025842436,-0.082218535737687,0.45264580445279784,-0.2590255975201658,0.06078857035720421,-0.11643799023559974
136,1.8302867755458871,3.635503682789258,2.1742245065926458,-2.8423573632873387,-3.5401258513202585,2.7218699525257772,-0.025946120605331226,-0.08380053837495952,0.45228843252789247,-0.2569620736576835,0.06419888887951865,-0.13497732014426972
137,1.8324747304748834,3.6370136926900223,2.1746396364250673,-2.84421442769158,-3.55970911900323,2.7250218506417774,-0.026126600801788927,-0.08526190525767938,0.45195940127176243,-0.2551145609091492,0.06732979700828635,-0.15215179837931503
138,1.83448764900956,3.6384029017987256,2.175021555870895,-2.845922926943481,-3.5777257252715593,2.7279215969084976,-0.02631778116087007,-0.08660302195285986,0.45165837568060085,-0.2534680675243083,0.07018644980135431,-0.1679597546945955
139,1.8363255311499158,3.639671310115367,2.175370264930129,-2.847482861043044,-3.5941756701252547,2.730569191325938,-0.026513319303842393,-0.08782440820830542,0.4513850083774224,-0.25200895407435925,0.07277400708893406,-0.18239953410232165
140,1.837988376895953,3.6408189176399492,2.175685763602769,-2.8488942299902673,-3.609058953564313,2.732964633894098,-0.026707445709621188,-0.08892667631275117,0.4511389497865593,-0.25072490323589314,0.07509752590737477,-0.19546953101457604
141,1.8394761862476705,3.641845724372468,2.175968051888816,-2.850157033785152,-3.622375575588732,2.735107924612978,-0.026894960289779522,-0.0899104931978991,0.4509198572708791,-0.2496048887264649,0.07716186358221619,-0.2071682185854567
142,1.8407889592050672,3.642751730312927,2.1762171297882693,-2.8512712724276965,-3.634125536198514,2.7369990634825774,-0.027071228142716643,-0.09077654627843625,0.4507274032648537,-0.24863914432949136,0.07897159118712939,-0.21749417365536003
143,1.8419266957681455,3.6435369354613236,2.176432997301128,-2.8522369459179013,-3.6443088353936552,2.7386380505028978,-0.027232174834771816,-0.09152551301260813,0.4505612824375641,-0.24781913386213147,0.08053091709402493,-0.22644609771007976
144,1.842889395936904,3.644201339817661,2.1766156544273936,-2.853054054255768,-3.652925473174161,2.7400248856739378,-0.027374281517834664,-0.09215803415654164,0.4504212179193991,-0.24713752285419516,0.08184362032886529,-0.23402283426179632
145,1.843677059711342,3.6447449433819363,2.1767651011670655,-2.853722597441294,-3.659975449540031,2.7411595689956982,-0.027494580155056417,-0.09267469067996387,0.4503069666247544,-0.2465881526185802,0.08291299345704174,-0.24022338303931492
146,1.8442896870914616,3.64516774615415,2.1768813375201437,-2.8542425754744825,-3.6654587644912624,2.7420421004681783,-0.027590649088755248,-0.09307598430864848,0.45021832370060993,-0.24616601730517004,0.08374179474028587,-0.24504691134383452
147,1.8447272780772601,3.6454697481343032,2.176964363486628,-2.8546139883553296,-3.6693754180278546,2.7426724800913775,-0.02766060914753929,-0.09336232165951015,0.45015512612761865,-0.24586724444023877,0.08433220933314581,-0.24849276288587235
148,1.84498983266874,3.6456509493223943,2.177014179066518,-2.854836836083839,-3.671725410149815,2.7430507078652977,-0.027703120453082365,-0.093534001937208,0.4501172554963917,-0.24568907936291312,0.08468581931983564,-0.2505604643708386
149,1.8450773508659,3.6457113497184257,2.177030784259815,-2.854911118660009,-3.6725087408571326,2.743176783789938,-0.02771738005082462,-0.09359120816602108,0.4501046399772006,-0.24562987387924085,0.08480358243063249,-0.2512497300469172
