nimar13/UR3e_dataset_trayectorias/data/trayectorias_completas_UR3e_TRAPEZOIDAL_FUNC/trayectoria_215.csv
Punto,shoulder_pan_joint,shoulder_lift_joint,elbow_joint,wrist_1_joint,wrist_2_joint,wrist_3_joint,Posicion_X,Posicion_Y,Posicion_Z,Roll,Pitch,Yaw
0,3.8869269605632812,3.587795483221541,0.33633603223391884,3.500728751091433,-5.897936833175133,-5.33234830954181,0.4653158690078834,0.13450086880859669,0.3510168074437456,2.0628942902963106,0.34589129549886727,-0.997751738855937
1,3.8866095897606656,3.5878760504351117,0.33645686968330435,3.500432009166778,-5.8978805367217975,-5.331788825546406,0.4653224401730762,0.13432257013761986,0.35105438789194116,2.063344625302383,0.34592673620412273,-0.9981304104235795
2,3.885657477352819,3.5881177520758234,0.33681938203146083,3.4995417833928135,-5.897711647361789,-5.330110373560195,0.4653417153439019,0.13378769588305134,0.35116709492105924,2.064695610424137,0.3460330084640776,-0.9992664813982635
3,3.8840706233397415,3.588520588143677,0.33742356927838835,3.498058073769539,-5.89743016509511,-5.327312953583175,0.46537237967870043,0.13289631321128334,0.35135482551474007,2.0669471860017565,0.3462099626173128,-1.0011601205293978
4,3.8818490277214326,3.5890845586386715,0.3382694314240869,3.4959808802969548,-5.89703608992176,-5.323396565615348,0.4654122422285932,0.13164854036985527,0.35161740774605194,2.070099252701236,0.34645734891498725,-1.0038116088460833
5,3.878992690497893,3.589809663560808,0.3393569684685564,3.4933102029750605,-5.896529421841737,-5.318361209656714,0.46545823665992,0.1300445561398657,0.35195460042868204,2.074151671664658,0.3467748170515064,-1.007221339325772
6,3.8755016116691223,3.590695902910085,0.34068618041179694,3.490046041803857,-5.895910160855043,-5.312206885707272,0.465506422348847,0.1280846130631584,0.352366092629969,2.0791042647240334,0.3471619155082454,-1.01138981642746
7,3.87137579123512,3.591743276686504,0.34225706725380844,3.486188396783343,-5.895178306961677,-5.304933593767022,0.4655519859312787,0.12576905443726616,0.35285150304716556,2.0849568146821684,0.34761809071113325,-1.0163176554864866
8,3.866615229195887,3.592951784890064,0.344069628994591,3.4817372679135197,-5.894333860161639,-5.2965413338359655,0.4655892434148796,0.12309833506789582,0.3534103792487017,2.0917090656650577,0.34814268600313775,-1.022005581967136
9,3.8612199255514232,3.5943214275207653,0.34612386563414455,3.476692655194386,-5.89337682045493,-5.2870301059141,0.4656116429835788,0.12007304576465191,0.3540421967826425,2.099360723551259,0.34873494043296355,-1.0284544305684067
10,3.855189880301728,3.595852204578608,0.3484197771724691,3.4710545586259434,-5.892307187841548,-5.276399910001428,0.46561176864839854,0.11669394156053933,0.35474635815494004,2.107911456484778,0.34939398736156263,-1.0356651441774163
11,3.848525093446802,3.5975441160635926,0.35095736360956464,3.4648229782081903,-5.891124962321496,-5.2646507460979475,0.46558134492172226,0.11296197362931772,0.35552219168051324,2.117360895479016,0.3501188528883437,-1.0436387726640464
12,3.8412255649866447,3.599397161975718,0.3537366249454312,3.457997913941128,-5.8898301438947716,-5.25178261420366,0.4655112427151799,0.10887832486687328,0.3563689502106169,2.127708635120366,0.35090845409931604,-1.0523764715095185
13,3.8332912949212568,3.601411342314985,0.35675756118006874,3.450579365824755,-5.888422732561375,-5.237795514318564,0.46539148668405494,0.10444444909316927,0.3572858097404123,2.138954234381133,0.35176159713972927,-1.0618795002607189
14,3.824722283250637,3.603586657081393,0.3600201723134773,3.4425673338590728,-5.886902728321308,-5.2226894464426605,0.46521126426346326,0.09966211381991272,0.35827186790110965,2.1510972175525134,0.35267697511420537,-1.0721492208011107
15,3.8155185299747867,3.6059231062749424,0.3635244583456569,3.433961818044081,-5.885270131174568,-5.20646441057595,0.4649589366633548,0.09453344651559435,0.3593261423415266,2.1641370753094678,0.35365316581774053,-1.0831870954282012
16,3.8056800350937054,3.6084206898956332,0.3672704192766075,3.424762818379779,-5.883524941121157,-5.189120406718431,0.46462205211055696,0.08906098428388244,0.36044756900439234,2.1780732659204225,0.35468862930145145,-1.094994684726549
17,3.795206798607393,3.611079407943466,0.3712580551063291,3.4149703348661675,-5.881667158161075,-5.1706574348701055,0.46418736164640734,0.08324772685329535,0.36163500030323387,2.192905216615849,0.3557817052774548,-1.1075736452243652
18,3.7840988205158492,3.6138992604184392,0.3754873658348217,3.404584367503246,-5.87969678229432,-5.151075495030971,0.46364083780788296,0.07709719275548975,0.3628872032061973,2.208632325130873,0.35693061036781126,-1.1209257268207808
19,3.7723561008190747,3.6168802473205544,0.37995835146208523,3.3936049162910145,-5.8776138135208935,-5.130374587201031,0.4629676965382581,0.07061347854622858,0.36420285723369783,2.2252539614382085,0.35813343520310603,-1.1350527699699318
20,3.759978639517069,3.6200223686498103,0.38467101198811987,3.3820319812294737,-5.875418251840796,-5.108554711380282,0.4621524226900384,0.06380132089700705,0.3655805523773429,2.242769469688804,0.359388141376899,-1.1499567026070325
21,3.7469664366098323,3.623325624406208,0.3896253474129254,3.3698655623186227,-5.873110097254027,-5.085615867568725,0.4611787994978958,0.05666616135631369,0.36701878694814744,2.2611781703786957,0.36069255826303603,-1.1656395368006802
22,3.7333194920973645,3.626790014589747,0.39482135773650207,3.357105659558462,-5.870689349760585,-5.06155805576636,0.4600299424123386,0.04921421354746297,0.36851596536265663,2.280479362761661,0.36204437970358955,-1.1821033651147026
23,3.7190378059796654,3.6304155392004276,0.4002590429588497,3.3437522729489917,-5.868156009360472,-5.036381275973189,0.45868833769551265,0.0414525325348228,0.370070395876195,2.3006723275282925,0.36344116057611964,-1.1993503566619799
24,3.7041213782567355,3.634202198238249,0.4059384030799683,3.3298054024902113,-5.865510076053687,-5.010085528189209,0.457135886188535,0.033389086052005065,0.37168028827309657,2.3217563297731516,0.36488031324986964,-1.2173827528318384
25,3.6885702089285743,3.6381499917032123,0.4118594380998579,3.3152650481821215,-5.862751549840231,-4.982670812414422,0.4553539526646945,0.02503282724419634,0.3733437515244193,2.3437306222725933,0.3663591039415665,-1.2362028626717678
26,3.6723842979951824,3.6422589195953163,0.41802214801851856,3.3001312100247215,-5.859880430720104,-4.954137128648827,0.45332342118431945,0.016393768532307135,0.3750587914243094,2.366594449096751,0.3678746489826253,-1.2558130579035611
27,3.655563645456559,3.646528981914562,0.42442653283595017,3.2844038880180118,-5.856896718693304,-4.924484476892425,0.4510247568646729,0.007483056159065114,0.37682330821687987,2.3903470495799595,0.3694239110107558,-1.2762157675532957
28,3.638108251312705,3.650960178660949,0.4310725925521528,3.2680830821619926,-5.853800413759832,-4.893712857145214,0.4484380744713959,-0.0016869550732782623,0.37863509422615005,2.414987662674562,0.3710036951002981,-1.2974134721740762
29,3.62001811556362,3.655552509834478,0.43796032716712646,3.2511687924566632,-5.85059151591969,-4.861822269407197,0.44554321422633836,-0.011102627417196285,0.38049183150234206,2.4405155317136074,0.3726106448469941,-1.3194086976400698
30,3.601293238209304,3.6603059754351475,0.4450897366808711,3.233661018902024,-5.847270025172874,-4.828812713678372,0.442319825209517,-0.02074896674538849,0.38239108949854017,2.4669299096083237,0.3742412384244315,-1.3422040084901536
31,3.581933619249756,3.6652205754629588,0.45246082109338676,3.215559761498075,-5.843835941519388,-4.794684189958738,0.4387474567099606,-0.03060955072482581,0.38433032279249013,2.4942300645064113,0.37589178463094963,-1.3658020007994354
32,3.561939258684978,3.6702963099179113,0.4600735804046734,3.196865020244817,-5.84028926495923,-4.759436698248297,0.43480565785074926,-0.040666459316469464,0.3863068688690614,2.522415285937203,0.37755841894754616,-1.3902052945571348
33,3.5413101565149683,3.6755331788000047,0.4679280146147311,3.1775767951422482,-5.836629995492401,-4.7230702385470495,0.43047408577710566,-0.05090020837908199,0.38831794597969216,2.5514848914694115,0.3792370996290615,-1.415416525529746
34,3.5200463127397277,3.6809311821092403,0.47602412372355973,3.15769508619037,-5.832858133118899,-4.685584810854993,0.42573262265241063,-0.06128968721772311,0.39036065109589857,2.5814382339065913,0.3809236038528513,-1.441438336589141
35,3.4981477273592563,3.6864903198456167,0.4843619077311594,3.137219893389182,-5.828973677838726,-4.64698041517213,0.4205615016549348,-0.07181210098003397,0.3924319579747386,2.6122747090444913,0.3826135239510646,-1.4682733684864018
36,3.4756144003735536,3.6922105920091344,0.4929413666375301,3.1161512167386842,-5.824976629651881,-4.6072570514984585,0.41494144210740175,-0.08244291886548302,0.39452871535490686,2.6439937640131683,0.38430226375476945,-1.4959242500535888
37,3.4524463317826197,3.6980919985997938,0.5017625004426718,3.0944890562388765,-5.820866988558365,-4.566414719833979,0.4088537938017314,-0.09315582917366473,0.39664764530293356,2.676594906224953,0.3859850350802099,-1.5243935878176011
38,3.428643521586455,3.7041345396175944,0.5108253091465845,3.072233411889759,-5.816644754558176,-4.524453420178693,0.402280690501996,-0.1039227022765277,0.39878534172975644,2.7100777129471076,0.38765685438970837,-1.5536839550126365
39,3.404205969785059,3.7103382150625364,0.5201297927492682,3.049384283691332,-5.812309927651317,-4.481373152532599,0.3952052125193688,-0.11471356265513402,0.400938269098722,2.744441841515281,0.3893125396619039,-1.5837978799806829
40,3.3791336763784323,3.7167030249346196,0.5296759512507229,3.025941671643595,-5.807862507837785,-4.437173916895697,0.3876115581533199,-0.12549657119303304,0.40310276134684936,2.7796870402004643,0.3909467075082655,-1.614737833952947
41,3.3534266413665743,3.723228969233844,0.5394637846509486,3.001905575746548,-5.803302495117582,-4.391855713267987,0.3794852236832695,-0.13623801896443613,0.4052750210419527,2.8158131597382208,0.39255377057503504,-1.646506218209234
42,3.3270848647494855,3.72991604796021,0.5494932929499452,2.9772759960001913,-5.798629889490707,-4.345418541649471,0.37081319147419156,-0.14690233379471015,0.4074511187989647,2.8528201655242578,0.39412793527196505,-1.6791053506170943
43,3.300108346527165,3.7367642611137173,0.559764476147713,2.9520529324045253,-5.79384469095716,-4.2978624020401455,0.36158412562824954,-0.15745210090189227,0.4096269929795183,2.8907081504750676,0.3956631998713181,-1.7125374515580387
44,3.2724970866996137,3.743773608694366,0.5702773342442518,2.926236384959549,-5.788946899516942,-4.249187294440013,0.3517885744725346,-0.16784809894942668,0.411798449699544,2.929477348546209,0.3971533530226535,-1.7468046292543757
45,3.2442510852668316,3.750944090702156,0.5810318672395615,2.899826353665263,-5.783936515170051,-4.199393218849073,0.3414191790206236,-0.17804935285051676,0.41396116317027815,2.9691281488938857,0.39859197273078545,-1.7819088645172927
46,3.2153703422288187,3.7582757071370874,0.5920280751336422,2.872822838521667,-5.77881353791649,-4.148480175267325,0.3304708863834304,-0.18801320466169977,0.4161106763987099,3.0096611106577327,0.3999724258459893,-1.8178519949446315
47,3.185854857585574,3.76576845799916,0.6032659579264938,2.8452258395287613,-5.773577967756257,-4.09644816369477,0.3189411669332964,-0.19769540388569853,0.41824240227403753,3.0510769783341654,0.4012878681170092,-1.854635698605505
48,3.1557046313370987,3.773422343288374,0.6147455156181166,2.8170353566865463,-5.768229804689351,-4.043297184131408,0.3068302338453241,-0.20705021846949406,0.42035162506722823,3.0933766977002692,0.4025312448585162,-1.8922614772583741
49,3.1249196634833925,3.7812373630047293,0.6264667482085103,2.788251389995021,-5.762769048715775,-3.989027236577237,0.29414126345268016,-0.2160305677310255,0.42243350237120736,3.1365614322380284,0.40369529228551027,-1.930730639159536
50,3.0935352174469672,3.789204565235607,0.6384162293144101,2.7589069107791477,-5.757201954997008,-3.9337004859206366,0.28089566284532613,-0.22457892255062437,0.42448080999142807,-3.102602188163725,0.40477139360122016,-1.970000130236738
51,3.062009717720491,3.7972075751169605,0.6504194159533699,2.7294305462634276,-5.751609840632314,-3.878125075710524,0.2673037449578813,-0.23253714034799144,0.42646050563304366,-3.058384869059068,0.40573903318957066,-2.0094959706926128
52,3.0304842179940152,3.805210584998314,0.6624226025923299,2.6999541817477075,-5.74601772626762,-3.822549665500411,0.2534529908891617,-0.23985485510942195,0.428362774584187,-3.01416787829928,0.40659228851660867,-2.049039524399167
53,2.998958718267539,3.813213594879668,0.6744257892312898,2.670477817231988,-5.7404256119029275,-3.7669742552902985,0.23937244545349445,-0.24652282260888908,0.43018720595969634,-2.9699492797837554,0.4073303678843191,-2.0886285024845743
54,2.9674332185410632,3.8212166047610214,0.6864289758702496,2.641001452716268,-5.734833497538234,-3.711398845080186,0.22509150174140813,-0.2525331249966326,0.4319334199407211,-2.925727101040815,0.40795252208532945,-2.12826058871679
55,2.935907718814587,3.829219614642375,0.6984321625092096,2.611525088200548,-5.72924138317354,-3.655823434870073,0.2106398394551008,-0.25787918419699885,0.4336010679181575,-2.881499335694497,0.4084580451587235,-2.1679334419604395
56,2.904382219088111,3.837222624523729,0.7104353491481696,2.582048723684828,-5.723649268808846,-3.60024802465996,0.19604736273186282,-0.2625557723853822,0.43518983262329913,-2.8372639460253897,0.4088462750907935,-2.207644698727479
57,2.872856719361635,3.8452256344050824,0.7224385357871295,2.552572359169108,-5.7180571544441525,-3.544672614449847,0.18134413759609128,-0.26655901952539285,0.4366994282456548,-2.793018865618339,0.4091165944580919,-2.2473919758145318
58,2.8413312196351588,3.853228644286436,0.7344417224260894,2.5230959946533877,-5.712465040079459,-3.489097204239734,0.16656032918118022,-0.2698864179542287,0.4381296005378861,-2.748762002089301,0.4092684310103657,-2.2871728730192804
59,2.8098057199086828,3.8612316541677894,0.7464449090650492,2.493619630137668,-5.706872925714765,-3.4335217940296214,0.15172613886287387,-0.2725368240111163,0.4394801269078169,-2.704491239883241,0.40930125819112667,-2.3269849759278625
60,2.7782802201822068,3.8692346640491433,0.7584480957040092,2.4641432656219484,-5.701280811350071,-3.3779463838195087,0.1368717414456303,-0.2745104567105641,0.4407508164974861,-2.660204443134464,0.40921459559385315,-2.366825858764767
61,2.7467547204557308,3.877237673930497,0.7704512823429691,2.4346669011062283,-5.6956886969853775,-3.322370973609396,0.12202722254317157,-0.27580889346904147,0.44194151024920436,-2.6158994585804507,0.40900800935203835,-2.4066930872963623
62,2.7152292207292543,3.8852406838118503,0.782454468981929,2.405190536590508,-5.690096582620684,-3.266795563399283,0.10722251629368554,-0.27643506290052516,0.4430520809585917,-2.5715741185199157,0.4086811124615399,-2.446584221778861
63,2.6837037210027788,3.893243693693204,0.794457655620889,2.3757141720747885,-5.68450446825599,-3.21122015318917,0.09248734354910144,-0.27639323470314636,0.4440824333145758,-2.527226243805551,0.4082335650339525,-2.486496819941248
64,2.6521782212763028,3.9012467035745577,0.8064608422598489,2.3462378075590684,-5.678912353891296,-3.1556447429790575,0.07785115067647869,-0.2756890066658865,0.44503250392633065,-2.4828536468616935,0.4076650744799609,-2.5264284399935084
65,2.6206527215498268,3.909249713455911,0.8184640288988088,2.3167614430433483,-5.6733202395266025,-3.100069332768945,0.06334304910785578,-0.2743292888309051,0.44590226133714894,-2.4384541347170066,0.4069753956219356,-2.5663766436502913
66,2.5891272218233508,3.917252723337265,0.8304672155377687,2.2872850785276286,-5.667728125161909,-3.0444939225588317,0.0489917557728715,-0.27232228485362736,0.44669170602524094,-2.394025512042172,0.4061643307352593,-2.606338999160099
67,2.5576017220968743,3.9252557332186186,0.8424704021767286,2.257808714011908,-5.662136010797216,-2.9889185123487185,0.03482553454613289,-0.2696774706091419,0.4474008703914581,-2.3495655841825425,0.4052317295181918,-2.6463130843300187
68,2.5260762223703983,3.933258743099972,0.8544735888156886,2.2283323494961884,-5.656543896432522,-2.933343102138606,0.020872138838649006,-0.2664055700997516,0.44802981873394926,-2.3050721601757496,0.40417748899033507,-2.686296489536061
69,2.4945507226439223,3.9412617529813256,0.8664767754546485,2.1988559849804687,-5.650951782067828,-2.877767691928493,0.007158755459697387,-0.2625185287246804,0.448578647209759,-2.260543055744336,0.4030015533200192,-2.726286820709251
70,2.4630252229174463,3.9492647628626796,0.8784799620936083,2.1693796204647486,-5.645359667703135,-2.8221922817183804,-0.006288050127766752,-0.25802948397892217,0.4490474837833794,-2.2159760962536446,0.40170391358125973,-2.7662817022877717
71,2.4314997231909703,3.957267772744033,0.8904831487325683,2.1399032559490285,-5.639767553338441,-2.7666168715082677,-0.019442387038584082,-0.252952733654045,0.4494364881622839,-2.171369119625382,0.40028460744113137,-2.8062787801256515
72,2.3999742234644943,3.9652707826253866,0.9024863353715282,2.110426891433309,-5.634175438973747,-2.711041461298155,-0.032279090567991706,-0.24730370161938894,0.4497458517194614,-2.12671997919756,0.3987437187787286,-2.8462757243487773
73,2.368448723738018,3.97327379250674,0.9144895220104882,2.0809505269175887,-5.628583324609053,-2.655466051088042,-0.04477377205367723,-0.24109890126753408,0.4499757974029877,-2.0820265465218397,0.3970813772370924,-2.886270232149313
74,2.336923224011542,3.981276802388094,0.9264927086494481,2.0514741624018686,-5.6229912102443596,-2.5998906408779288,-0.05690286688995642,-0.2343558967131269,0.4501265796326666,-2.0372867140896385,0.3952977577097655,-2.926260030509967
75,2.3053977242850663,3.9892798122694475,0.9384958952884078,2.021997797886149,-5.617399095879666,-2.5443152306678165,-0.06864368059133237,-0.22709326183914846,0.4501984841837854,-1.9924983979788211,0.3933930797638277,-2.966242878850013
76,2.27387222455859,3.997282822150801,0.950499081927368,1.9925214333704289,-5.611806981514972,-2.4887398204577034,-0.07997443280751743,-0.21933053728946253,0.45019182805802915,-1.9476595404132273,0.3913676070015282,-3.0062165715853686
77,2.242346724832114,4.005285832032155,0.9625022685663278,1.9630450688547088,-5.606214867150278,-2.4331644102475902,-0.09087429919703742,-0.21108818551098701,0.4501069593416095,-1.9027681122278093,0.38922164636280465,-3.046178940595585
78,2.210821225105638,4.013288841913509,0.9745054552052878,1.933568704338989,-5.6006227527855845,-2.377589000037478,-0.10132345107180189,-0.20238754395307895,0.44994425705065944,-1.8578221152326608,0.38695554737118293,-3.0861278575911157
79,2.179295725379162,4.021291851794862,0.9865086418442477,1.904092339823269,-5.595030638420891,-2.322013589827365,-0.11130309273046196,-0.19325077653570458,0.4497041309639622,-1.8128195844698176,0.384569701325725,-3.126061236374807
80,2.147770225652686,4.029294861676216,0.9985118284832075,1.8746159753075489,-5.589438524056197,-2.2664381796172517,-0.12079549640401914,-0.18370082350166156,0.44938702144307957,-1.7677585903572703,0.38206454044185556,3.117208272187455
81,2.11624472592621,4.03729787155757,1.0105150151221673,1.8451396107918292,-5.583846409691503,-2.2108627694071394,-0.12978403474293534,-0.17376134977154337,0.4489933992399498,-1.722637240715264,0.37944053694402075,3.077312049414273
82,2.084719226199734,4.045300881438923,1.0225182017611274,1.815663246276109,-5.5782542953268095,-2.1552873591970263,-0.138253210780962,-0.16345669192324633,0.44852376529203736,-1.6774536826705573,0.376698202113278,3.03743734997248
83,2.053193726473258,4.053303891320277,1.0345213884000872,1.7861868817603894,-5.572662180962117,-2.099711948986914,-0.14618868531698115,-0.15281180392065005,0.44797865050511326,-1.6322061044349785,0.373838085292995,2.9975860713689575
84,2.021668226746782,4.06130690120163,1.0465245750390473,1.7567105172446693,-5.567070066597423,-2.044136538776801,-0.15357730166237404,-0.14185220171860954,0.44735861552375594,-1.586892736955228,0.3708607728559478,2.9577600594672866
85,1.9901427270203058,4.069309911082984,1.058527761678007,1.7272341527289496,-5.561477952232729,-1.9885611285666887,-0.16040710770775343,-0.1306039068735994,0.4466642504896643,-1.541511855431525,0.3677668871361428,2.917961106954047
86,1.9586172272938298,4.077312920964338,1.070530948316967,1.6977577882132295,-5.555885837868035,-1.9329857183565755,-0.16666737526930278,-0.11909338929123948,0.44589617478788013,-1.4960617807033367,0.3645570853287575,2.8781909519360007
87,1.9270917275673538,4.085315930845691,1.0825341349559268,1.6682814236975099,-5.550293723503342,-1.8774103081464633,-0.1723486166814589,-0.10734750924349008,0.44505503678102376,-1.4505408805010305,0.3612320583616238,2.8384512766692676
88,1.8955662278408774,4.093318940727045,1.094537321594887,1.6388050591817893,-5.544701609138648,-1.8218348979363492,-0.17744259860921963,-0.09539345878954791,0.44414151353165027,-1.404947570562915,0.3577925297416719,2.7987437064209035
89,1.8640407281144014,4.101321950608399,1.1065405082338469,1.6093286946660692,-5.539109494773954,-1.766259487726236,-0.18194235305994955,-0.08325870273539658,0.44315631051283394,-1.359280315617727,0.3542392543797594,2.759069808462769
90,1.8325152283879254,4.109324960489752,1.1185436948728067,1.5798523301503495,-5.53351738040926,-1.7106840775161238,-0.1858421855811773,-0.07097091926753897,0.4421001613071065,-1.3135376302331692,0.3505730173972929,2.7194310911969497
91,1.8009897286614494,4.117327970371106,1.1305468815117665,1.5503759656346294,-5.527925266044567,-1.6551086673060107,-0.18913768063750316,-0.058557940396715594,0.4409738272938608,-1.2677180795316652,0.3467946329180011,2.679829003411496
92,1.7694642289349733,4.12533098025246,1.1425500681507264,1.5208996011189098,-5.522333151679873,-1.5995332570958984,-0.19182570416636202,-0.0460476923473446,0.4397780973253545,-1.2218202797750177,0.34290494284816014,2.6402649336646986
93,1.7379387292084973,4.133333990133813,1.1545532547896866,1.4914232366031897,-5.516741037315179,-1.5439578468857853,-0.19390440331898767,-0.03346813602801504,0.4385137873914391,-1.1758428988201235,0.33890481564852476,2.6007402097956227
94,1.7064132294820213,4.141337000015167,1.1665564414286465,1.46194687208747,-5.511148922950485,-1.488382436675673,-0.19537320339948985,-0.02084720771767009,0.4371817402731538,-1.1297846564483471,0.33479514510112385,2.5612560985582116
95,1.6748877297555453,4.14934000989652,1.1785596280676063,1.4324705075717499,-5.5055568085857916,-1.43280702646556,-0.1962328020214621,-0.008212760101067817,0.43578282518532024,-1.0836443245716085,0.3305768490739828,2.521813805375797
96,1.6433622300290693,4.157343019777874,1.190562814706566,1.4029941430560302,-5.499964694221099,-1.3772316162554477,-0.19648516050798398,0.004407496214249058,0.43431793740828584,-1.0374207273185734,0.32625086828676253,2.4824144742125096
97,1.6118367303025933,4.1653460296592275,1.202566001345526,1.37351777854031,-5.494372579856405,-1.3216562060453345,-0.1961334925672315,0.01698605056889515,0.43278799790896333,-0.9911127410047229,0.32181816508013694,2.4430591875577026
98,1.5803112305761173,4.173349039540581,1.2145691879844858,1.34404141402459,-5.488780465491711,-1.2660807958352214,-0.19518225028216987,0.02949564938190939,0.4311939529513197,-0.9447192939903531,0.31727972219167844,2.403748966519231
99,1.5487857308496409,4.1813520494219345,1.226572374623446,1.3145650495088699,-5.483188351127017,-1.2105053856251082,-0.19363710745893478,0.04190935241402798,0.42953677369647153,-0.8982393664308513,0.31263654154084664,2.364484771021093
100,1.517401284813217,4.189319251652812,1.2385218557293456,1.2852205702929957,-5.47762125740825,-1.1551786349685091,-0.1915157761576046,0.05414590535467831,0.42782528537898606,-0.8518805412138188,0.3079111114081261,2.3254428631028214
101,1.48661631695951,4.197134271369167,1.2502430883197397,1.2564366036014714,-5.472160501434673,-1.1009086874143375,-0.188877409879866,0.0660058990907787,0.42608762886282237,-0.8063221467107702,0.3031770641608179,2.2871926802331144
102,1.456466090711034,4.204788156658382,1.2617226460113622,1.2282461207592568,-5.466812338367769,-1.047757707850975,-0.18576651066002275,0.07746107646430876,0.4243302395765119,-0.7616206504900334,0.298446658295143,2.2497760034088303
103,1.4269506060677912,4.212280907520454,1.272960528804214,1.2006491217663502,-5.461576768207536,-0.9957256962784191,-0.18222471948910723,0.08850011992776079,0.4225574926166522,-0.717780510784818,0.29372666999862823,2.213190642265912
104,1.3980698630297774,4.219612523955385,1.2839567366982945,1.1736456066227552,-5.456453790953974,-0.9448126526966716,-0.178292713717463,0.09911462667437884,0.42077359309857554,-0.6748062020779099,0.2890236478229234,2.1774343438517407
105,1.3698238615969949,4.226783005963176,1.2947112696936045,1.1472355753284682,-5.451443406607083,-0.8950185771057351,-0.1740100690888503,0.10929890511492663,0.41898257828051616,-0.6327022020628285,0.2843439158847115,2.1425048066119867
106,1.3422126017694431,4.233792353543825,1.305224127790143,1.1214190278834928,-5.446545615166865,-0.8463434695056025,-0.16941514286890202,0.1190497722771029,0.41718832000035466,-0.5914729795902124,0.27969357738858514,2.1083996932672298
107,1.3152360835471248,4.240640566697332,1.3154953109879104,1.0961959642878272,-5.441760416633319,-0.7987873298962773,-0.1645449767919218,0.12836635358129517,0.4153945273948919,-0.5511229835562901,0.27507851842094494,2.0751166426287906
108,1.2888943069300351,4.247327645423698,1.3255248192869074,1.0715663845414696,-5.437087811006444,-0.7523501582777605,-0.15943521851668885,0.13724988625980553,0.41360474987272977,-0.5116566326878306,0.2705044119682031,2.0426532804053847
109,1.2631872719181763,4.253853589722922,1.335312652687133,1.047530288644423,-5.43252779828624,-0.7070319546500494,-0.15412006026551142,0.145703527509714,0.4118223803129769,-0.47307830617663854,0.26597672211649226,2.01100722905356
110,1.2381149785115495,4.260218399595006,1.3448588111885877,1.0240876765966855,-5.428080378472709,-0.6628327190131484,-0.1486321933192788,0.15373216830291875,0.41005065846314004,-0.4353923351158353,0.2615007083938982,1.9801761167254437
111,1.213677426710154,4.266422075039948,1.3541632947912718,1.0012385483982582,-5.423745551565849,-0.6197524513670523,-0.14300277705282194,0.16134225362103896,0.4082926745107282,-0.39860299468996985,0.25708143021983654,1.9501575853674262
112,1.1898746165139888,4.272464616057748,1.3632261034951847,0.9789829040491411,-5.419523317565662,-0.5777911517117644,-0.13726142121769974,0.16854160973824284,0.40655137280423603,-0.36271449707149234,0.25272375142953013,1.920949298022899
113,1.166706547923055,4.278346022648408,1.3720472373003259,0.9573207435493325,-5.415413676472145,-0.5369488200472858,-0.13143618021186654,0.17533927904167357,0.4048295557003239,-0.3277309849767571,0.2484323448447884,1.8925489453912483
114,1.144173220937354,4.284066294811925,1.3806266962066964,0.9362520668988359,-5.411416628285299,-0.4972254563736147,-0.12555355811601804,0.18174536275708458,0.40312988751514517,-0.2936565258359719,0.2442116968651802,1.8649542516940993
115,1.1222746355568818,4.289625432548302,1.3889644802142964,0.9157768740976469,-5.4075321730051265,-0.4586210606907546,-0.11963852332322272,0.18777087183636385,0.40145489855888944,-0.26049510653290253,0.2400661120564754,1.8381629798982655
116,1.1010107917816399,4.295023435857537,1.3970605893231254,0.895895165145769,-5.4037603106316245,-0.4211356329986975,-0.11371453164046297,0.19342758616359101,0.3998069892337031,-0.22825062867167614,0.2359997177157853,1.8121729363431756
117,1.08038168961163,4.300260304739631,1.4049150235331824,0.8766069400432013,-5.4001010411647945,-0.38476917329744875,-0.10780355679660805,0.19872792214681265,0.39818843417623495,-0.19692690432999294,0.23201646839511508,1.786981974818638
118,1.0603873290468533,4.305336039194583,1.4125277828444693,0.8579121987899416,-5.396554364604637,-0.34952168158700836,-0.1019261273501196,0.20368480868337444,0.39660138642709786,-0.16652765225974436,0.22812015036724276,1.7625880001368013
119,1.041027710087305,4.310250639222394,1.4198988672569852,0.839810941385994,-5.393120280951151,-0.31539315786737543,-0.09610136905036853,0.2083115714169859,0.39504788161056503,-0.1370564944982032,0.22431438601977244,1.7389889712401632
120,1.022302832732989,4.315004104823064,1.42702827677073,0.8223031678313539,-5.3897987902043365,-0.28238360213854996,-0.09034705176799805,0.2126218251441813,0.3935298421088116,-0.10851695335486515,0.2206026381649831,1.716182903885343
121,1.0042126969839025,4.319596435996592,1.433916011385703,0.805388878126025,-5.386589892364193,-0.25049301440053107,-0.0846796401714807,0.21662937417590572,0.3920490812159776,-0.0809124487410757,0.21698821425475012,1.6941678729401735
122,0.9867573028400498,4.32402763274298,1.4405620711019058,0.7890680722700063,-5.3834935874307215,-0.2197213946533214,-0.07911434738827884,0.22034812041607474,0.3906073072582513,-0.054246295811623275,0.21347427049122297,1.6729420143296676
123,0.9699366503014257,4.328297695062226,1.4469664559193371,0.7733407502632952,-5.380509875403922,-0.19006874289691744,-0.07366519094916435,0.22379197888249858,0.3892061276670773,-0.0285217028894299,0.21006381582530778,1.6525035266642214
124,0.9537507393680338,4.33240662295433,1.4531291658379981,0.7582069121058961,-5.377638756283794,-0.16153505913132626,-0.06834505037289548,0.22697480036598688,0.38784705299344363,-0.0037417696464600407,0.20675971583616667,1.632850672581521
125,0.938199570039874,4.336354416419293,1.4590502008578878,0.7436665577978072,-5.374880230070338,-0.134120343356539,-0.0631657258050739,0.22991030090017764,0.38653150085203586,0.0200905144842032,0.20356469648597314,1.6139817798315004
126,0.9232831423169436,4.340141075457114,1.4647295609790068,0.7297196873390259,-5.372234296763553,-0.10782459557255919,-0.05813799717939554,0.23261199769705565,0.3852607997848265,0.04297227168824754,0.20048134774514872,1.5958952421319164
127,0.9090014561992437,4.343766600067794,1.4701672462013538,0.7163663007295558,-5.36970095636344,-0.08264781577938507,-0.05327168342129947,0.2350931511907831,0.3840361930344309,0.06490073696353658,0.19751212708410973,1.5785895198202196
128,0.8953545116867767,4.347230990251333,1.4753632565249304,0.703606397969395,-5.36728020887,-0.058590003977021965,-0.048575701263078225,0.2373667128247527,0.3828588422182636,0.08587325914672281,0.19465936282826748,1.5620631403256175
129,0.8823423087795401,4.350534246007731,1.4803175919497362,0.6914399790585444,-5.364972054283229,-0.035651160165464546,-0.04405812328567466,0.23944527821323885,0.38172983089522805,0.1058873017913812,0.1919252573737148,1.5463146984835867
130,0.8699648474775348,4.353676367336988,1.485030252475771,0.6798670439970023,-5.362776492603132,-0.013831284344716366,-0.039726234845565735,0.24134104530919304,0.3806501680172972,0.1249404439142831,0.1893118902615401,1.5313428567135092
131,0.8582221277807589,4.356657354239102,1.4895012381030344,0.6688875927847713,-5.360693523829706,0.006869623485226128,-0.03558658958524779,0.24306577721314834,0.3796207912589685,0.14303038062522755,0.1868212211092572,1.5171463450785054
132,0.8471141496892161,4.359477206714076,1.4937305488315267,0.6585016254218514,-5.358723147962952,0.026451563324359384,-0.031645063262943154,0.24463076926447566,0.37864257021814735,0.16015492365432002,0.18445509239817418,1.5037239612451978
133,0.8366409132029045,4.362135924761908,1.4977181846612484,0.6487091419082383,-5.356865365002868,0.04491453517268518,-0.027906905671179413,0.24604682006498158,0.3777163094825533,0.17631200178952638,0.18221523211596738,1.4910745703596986
134,0.8268024183218223,4.364633508382599,1.501464145592199,0.6395101422439371,-5.355120174949457,0.06225853903020173,-0.024376790444999682,0.24732420609570646,0.37684275155625957,0.19149966123604883,0.1801032562539763,1.4791971048548707
135,0.8175986650459715,4.366969957576148,1.5049684316243788,0.6309046264289453,-5.353487577802717,0.0784835748969126,-0.021058862588727485,0.24847265960047346,0.3760225796414497,0.20571606590803726,0.17812067115898753,1.468090564202673
136,0.8090296533753536,4.369145272342557,1.5082310427577874,0.622892594463262,-5.35196757356265,0.093589642772816,-0.01795678357560948,0.24950134942395094,0.3752564202709304,0.21895949766214254,0.1762688757395051,1.4577540146242711
137,0.8010953833099652,4.371159452681823,1.5112519789924241,0.6154740463468906,-5.350560162229254,0.10757674265791195,-0.015073773897355128,0.25041886450747564,0.37454484578735703,0.23122835648148274,0.17454916352666344,1.4481865887694625
138,0.7937958548498063,4.373012498593949,1.5140312403282912,0.608648982079826,-5.3492653438025295,0.12044487455220043,-0.012412652960748238,0.2512331997624331,0.37388837666551816,0.24252116061771026,0.1729627245900467,1.4393874853760351
139,0.7871310679948804,4.374704410078934,1.5165688267653867,0.6024174016620751,-5.348083118282476,0.13219403845568145,-0.009975876246234947,0.2519517440583596,0.3732874836744068,0.25283654669807754,0.1715106473088137,1.431355968918598
140,0.7811010227451867,4.376235187136777,1.5188647383037117,0.5967793050936319,-5.3470134856690965,0.142824234368355,-0.007765569658857085,0.25258127008102105,0.37274258987612796,0.2621732698036416,0.1701939199985587,1.4240913692555768
141,0.7757057191007224,4.377604829767478,1.5209189749432648,0.5917346923744979,-5.346056445962387,0.15233546229021933,-0.005783561015281456,0.25312792583430227,0.3722540724590323,0.2705302035240774,0.16901343239443023,1.417593081282192
142,0.7709451570614894,4.378813337971038,1.5227315366840473,0.5872835635046751,-5.345211999162349,0.16072772222127618,-0.004031408622077167,0.2535972275787498,0.3718222644027559,0.2779063399939079,0.16796997699099833,1.4118605645964213
143,0.7668193366274867,4.379860711747456,1.5243024235260592,0.5834259184841608,-5.3444801452689825,0.16800101416152735,-0.00251042691003327,0.2539940540189187,0.3714474559731263,0.28430078991434804,0.1670642502393978,1.4068933431841057
144,0.763328257798717,4.380746951096734,1.5256316354693,0.5801617573129576,-5.343860884282289,0.17415533811096928,-0.0012217090973409119,0.2543226415711787,0.37112989604516106,0.2897127825644625,0.16629685360227192,1.4026910051286936
145,0.760471920575176,4.381472056018871,1.526719172513769,0.577491079991062,-5.343354216202266,0.17919069406960375,-0.0001661468610421866,0.25458658056331496,0.3708697932526276,0.2941416658047624,0.16566829446696482,1.3992532023503392
146,0.7582503249568671,4.382036026513865,1.5275650346594678,0.5754138865184775,-5.3429601410289145,0.18310708203742898,0.0006555529985313286,0.25478881223700117,0.370667316962868,0.2975869060759149,0.16517898691744398,1.3965796503784464
147,0.7566634709437894,4.3824388625817186,1.5281692219063956,0.5739301768952041,-5.342678658762235,0.18590450201444852,0.0012428549114170996,0.25493162644404693,0.3705225980758145,0.30004808839475616,0.164829252365296,1.3946701281609877
148,0.7557113585359438,4.382680564222431,1.5285317342545515,0.5730399511212383,-5.342509769402229,0.1875829540006606,0.001595383917557413,0.2550166599471444,0.3704357296463305,0.30152491634938206,0.1646193200401468,1.3935244779133975
149,0.7553939877333278,4.382761131436001,1.5286525717039372,0.5727432091965845,-5.342453472948892,0.18814243799606345,0.0017129180774927647,0.2550448952556964,0.37040676732920286,0.30201721209470195,0.16454932733978647,1.3931426050091285
