nimar13/UR3e_dataset_trayectorias/data/trayectorias_completas_UR3e_TRAPEZOIDAL_FUNC/trayectoria_431.csv
Punto,shoulder_pan_joint,shoulder_lift_joint,elbow_joint,wrist_1_joint,wrist_2_joint,wrist_3_joint,Posicion_X,Posicion_Y,Posicion_Z,Roll,Pitch,Yaw
0,3.6834942897787872,-1.4139499319780084,0.95478166651018,5.707936811721831,-2.4407387735717867,4.817356082986766,-0.20235057316454022,-0.19201460967845985,0.4021700247472165,-0.5539487069639547,0.5808602231447995,1.7036773796774742
1,3.683151455501229,-1.4140141161238393,0.9546457791517876,5.707458988327061,-2.440542104500137,4.816600278434045,-0.20242992476287253,-0.19196704130300424,0.40222788684825067,-0.5540394084572193,0.581284684463013,1.7036020912224854
2,3.682122952668554,-1.414206668561332,0.9542381170766104,5.7060255181427495,-2.4399520972851887,4.8143328647758805,-0.20266786508338186,-0.19182412798843507,0.4024016600847582,-0.5543097773768427,0.582557544454424,1.7033792821946738
3,3.680408781280762,-1.4145275892904865,0.9535586802846484,5.703636401168898,-2.4389687519269416,4.810553842012273,-0.20306404861876926,-0.1915852451098186,0.40269190551440714,-0.5547545751965948,0.5846772089492241,1.7030181473214485
4,3.6780089413378536,-1.4149768783113026,0.9526074687759016,5.700291637405504,-2.4375920684253956,4.805263210143222,-0.20361789256196655,-0.19124935144814018,0.40309955907813405,-0.5553649646549818,0.5876409463701724,1.7025340971235954
5,3.6749234328398286,-1.4155545356237804,0.95138448255037,5.69599122685257,-2.4358220467805505,4.798460969168729,-0.20432856631011526,-0.1908149890072949,0.40362593282044035,-0.556128349386407,0.5914447745194127,1.7019488877527793
6,3.6711522557866867,-1.4162605612279202,0.9498897216080536,5.690735169510095,-2.4336586869924064,4.790147119088792,-0.20519497666426673,-0.19028028292589105,0.40427271650327645,-0.5570281478958196,0.5960832994998813,1.7012908044430437
7,3.6666954101784284,-1.4170949551237217,0.9481231859489524,5.68452346537808,-2.4311019890609633,4.7803216599034135,-0.20621574862240744,-0.18964294165575057,0.4050419795174338,-0.558043500554917,0.6015495041063156,1.7005949000788638
8,3.661552896015053,-1.418057717311185,0.9460848755730664,5.677356114456522,-2.4281519529862217,4.768984591612591,-0.2073892016392489,-0.18890025763354001,0.4059361729657669,-0.5591489082175546,0.6078344821395181,1.6999032905287337
9,3.6557247132965616,-1.41914884779031,0.9437747904803956,5.669233116745425,-2.424808578768181,4.756135914216325,-0.20871332120615455,-0.18804910873047892,0.4069581317613538,-0.5603138012504577,0.6149271141289855,1.6992655082703916
10,3.649210862022953,-1.4203683465610968,0.94119293067094,5.660154472244787,-2.4210718664068414,4.741775627714617,-0.2101857255897246,-0.18708596082826517,0.4081110765506548,-0.561502038383951,0.6228136788790695,1.6987389153110335
11,3.6420113421942277,-1.4217162136235453,0.9383392961446996,5.650120180954607,-2.4169418159022027,4.725903732107466,-0.21180362755932539,-0.1860068719378497,0.40939861523651366,-0.562671335989257,0.631477394073901,1.6983891753003577
12,3.634126153810386,-1.4231924489776555,0.9352138869016744,5.639130242874887,-2.4124184272542655,4.708520227394872,-0.21356379093369754,-0.18480749835196972,0.4108247438383218,-0.5637726304383988,0.6408978778882652,1.6982907827909004
13,3.6255552968714273,-1.4247970526234277,0.9318167029418644,5.627184658005626,-2.4075017004630292,4.6896251135768345,-0.21546248178643315,-0.1834831034026958,0.41239384638660437,-0.5647493794504638,0.6510505221739779,1.6985276444669615
14,3.616298771377352,-1.4265300245608614,0.9281477442652696,5.614283426346823,-2.402191635528494,4.669218390653354,-0.21749541417153612,-0.18202856948177024,0.4141106935066787,-0.5655368132517666,0.6619057663701206,1.6991937023606516
15,3.60635657732816,-1.428391364789957,0.92420701087189,5.60042654789848,-2.39648823245066,4.647300058624431,-0.21965769026556586,-0.1804384140739581,0.41598043930079726,-0.5660611536187304,0.6734282599090025,1.7003935819570857
16,3.5957287147238515,-1.4303810733107143,0.9199945027617256,5.585614022660597,-2.3903914912295265,4.623870117490065,-0.22194373487444533,-0.17870681065150573,0.41800861609046946,-0.5662388292764436,0.685575899711323,1.7022432378121504
17,3.584415183564426,-1.4324991501231334,0.9155102199347763,5.569845850633172,-2.3839014118650947,4.598928567250256,-0.2243472243234223,-0.17682761538010694,0.42020112653065306,-0.5659757307782461,0.6982987286333329,1.7048705547767693
18,3.572415983849884,-1.4347455952272143,0.9107541623910423,5.553122031816206,-2.377017994357364,4.572475407905004,-0.2268610098407085,-0.17479440069207525,0.42256423255551595,-0.5651665682368465,0.7115376808363021,1.7084158427931788
19,3.559731115580225,-1.437120408622957,0.9057263301305235,5.535442566209699,-2.369741238706334,4.544510639454309,-0.22947703566186944,-0.17260049688869605,0.42510454056206065,-0.5636944226920149,0.7252231615829622,1.7130321359213239
20,3.5463605787554497,-1.4396235903103616,0.9004267231532198,5.516807453813652,-2.3620711449120053,4.515034261898171,-0.23218625222611336,-0.17023904303828058,0.42782898218367144,-0.5614306181713962,0.7392734527873204,1.7188851700764913
21,3.532304373375558,-1.4422551402894277,0.8948553414591315,5.497216694628063,-2.354007712974378,4.484046275236589,-0.23497852501020208,-0.1677030485358047,0.43074478995148807,-0.55823508812932,0.7535929429680552,1.726152867410087
22,3.5175624994405488,-1.4450150585601556,0.8890121850482582,5.476670288652934,-2.345550942893451,4.4515466794695655,-0.2378425397536901,-0.16498546677990944,0.4338594670885265,-0.5539574676434724,0.7680701927291622,1.7350240976324247
23,3.5021349569504236,-1.4479033451225454,0.8828972539206001,5.455168235888264,-2.3367008346692257,4.4175354745970985,-0.2407657050731983,-0.16207928249816678,0.4371807506309216,-0.5484392103473109,0.7825758666336537,1.74569641902203
24,3.486021745905181,-1.4509199999765967,0.8765105480761574,5.432710536334053,-2.327457388301702,4.382012660619188,-0.24373405374569918,-0.15897761430563115,0.4407165670242256,-0.5415171017619032,0.7969605918705145,1.7583724292055056
25,3.4692228663048224,-1.45406502312231,0.8698520675149297,5.409297189990301,-2.3178206037908784,4.344978237535836,-0.2467321442628868,-0.1556738341074047,0.4444749793021594,-0.5330286073546794,0.8110528460802188,1.7732542891364442
26,3.451738318149347,-1.457338414559685,0.8629218122369173,5.384928196857008,-2.3077904811367564,4.30643220534704,-0.2497429646213778,-0.1521617049447379,0.44846412492278925,-0.5228195334310518,0.82465703316523,1.790535943916809
27,3.433568101438755,-1.4607401742887218,0.8557197822421201,5.359603556934174,-2.297367020339335,4.266374564052801,-0.2527478407162807,-0.14843553882642127,0.45269214331527735,-0.5107544576185404,0.8375519770487239,1.8103925854327938
28,3.414712216173046,-1.4642703023094203,0.8482459775305381,5.3333232702218,-2.286550221398615,4.2248053136531185,-0.25572635214667827,-0.14449037597212044,0.4571670921819071,-0.49673025366923745,0.8494901453145679,1.8329670337870791
29,3.3951706623522204,-1.4679287986217806,0.8405003981021713,5.306087336719885,-2.2753400843145966,4.181724454147994,-0.2586562587170293,-0.14032218671012917,0.46189685160817273,-0.48069273112824423,0.8601979966556199,1.8583530186638795
30,3.374943439976278,-1.4717156632258028,0.8324830439570197,5.277895756428428,-2.2637366090872786,4.137131985537426,-0.26151344142243815,-0.13592809700609002,0.466889015061774,-0.46265587526532786,0.8693779071525788,1.8865758768976382
31,3.3540305490452194,-1.4756308961214866,0.8241939150950832,5.248748529347431,-2.251739795716662,4.091027907821415,-0.26427186222952925,-0.1313066382384041,0.4721507664131033,-0.44272238200995595,0.8767121378809463,1.9175719731745606
32,3.3324319895590433,-1.4796744973088323,0.815633011516362,5.218645655476893,-2.2393496442027465,4.0434122209999614,-0.26690354749663864,-0.1264580213667763,0.4776887421892638,-0.4211031960770291,0.8818692184942918,1.9511691373779867
33,3.3101477615177513,-1.4838464667878395,0.806800333220856,5.187587134816813,-2.226566154545532,3.9942849250730643,-0.2693786004020064,-0.12138443504942904,0.48350887838500045,-0.39813277633583405,0.8845128986307091,1.9870713962929507
34,3.2871778649213423,-1.4881468045585087,0.7976958802085651,5.155572967367193,-2.213389326745019,3.9436460200407244,-0.271665248247605,-0.11609036653945382,0.4896162413015388,-0.37427619004415735,0.8843134449282898,2.0248518999406295
35,3.2635222997698166,-1.4925755106208396,0.7883196524794895,5.122603153128033,-2.1998191608012063,3.8914955059029417,-0.2737299309559292,-0.11058294332069786,0.4960148420725859,-0.35012433180248864,0.8809605701768447,2.0639577487782166
36,3.2391810660631744,-1.4971325849748323,0.778671650033629,5.08867769209933,-2.185855656714095,3.837833382659716,-0.27553743744978587,-0.10487229241996485,0.5027074347700426,-0.3263749343968222,0.8741767755921419,2.1037290569781115
37,3.214154163801415,-1.5018180276204867,0.7687518728709839,5.053796584281088,-2.171498814483685,3.7826596503110475,-0.2770510968685943,-0.09897191315017347,0.5096952982644388,-0.3037995814513228,0.8637295278753633,2.143432044660032
38,3.1884415929845393,-1.5066318385578028,0.7585603209915538,5.017959829673304,-2.156748634109976,3.7259743088569355,-0.2782330316920883,-0.09289905769805938,0.5169780023505665,-0.28320008210901,0.8494406434847631,2.1823028022183486
39,3.162043353612547,-1.511574017786781,0.7480969943953389,4.981167428275979,-2.1416051155929683,3.6677773582973807,-0.27904447977250696,-0.08667511247563559,0.5245531590405035,-0.2653602954790275,0.8311915982043963,2.2195956431272847
40,3.1349594456854377,-1.5166445653074205,0.7373618930823393,4.943419380089114,-2.126068258932661,3.608068798632383,-0.27944619197448084,-0.08032597151999768,0.5324161603766965,-0.2510007387705393,0.8089241625248648,2.254628716435499
41,3.107189869203212,-1.5218434811197221,0.7263550170525549,4.904715685112708,-2.110138064129056,3.546848629861943,-0.2793989115401228,-0.07388239147307582,0.5405599046284897,-0.24074255641195894,0.7826365867458122,2.2868203081147316
42,3.0787346241658695,-1.5271707652236852,0.7150763663059857,4.865056343346761,-2.093814531182151,3.4841168519860592,-0.2788639403858734,-0.0673803158340769,0.5489745133066354,-0.23508498767122485,0.7523762741988177,2.315711701959793
43,3.0495937105734106,-1.5326264176193103,0.7035259408426316,4.824441354791273,-2.0770976600919475,3.4198734650047324,-0.2778037962480478,-0.0608611542970128,0.5576470420605051,-0.23439732012367775,0.7182302960784223,2.3409756232040877
44,3.0197671284258343,-1.538210438306597,0.6917037406624927,4.782870719446244,-2.0599874508584453,3.354118468917963,-0.2761829628785149,-0.054372001121625574,0.5665611892086031,-0.23892354572049773,0.6803151588169895,2.362412061633067
45,2.9892548777231416,-1.5439228272855456,0.6796097657655691,4.740344437311673,-2.0424839034816435,3.28685186372575,-0.2739687333081547,-0.04796577471041559,0.5756970063889884,-0.24879625032334954,0.6387670049259242,2.3799349608640807
46,2.9580569584653325,-1.549763584556156,0.6672440161518607,4.696862508387563,-2.0245870179615437,3.218073649428095,-0.2711321435092968,-0.04170125896477038,0.5850306165941539,-0.2640558031394886,0.5937330482492055,2.393553730211879
47,2.9261733706524065,-1.555732710118428,0.6546064918213674,4.652424932673911,-2.0062967942981444,3.1477838260249964,-0.2676489905766454,-0.035643025672245116,0.5945339456636585,-0.28467137573682716,0.5453646491431015,2.403353079443372
48,2.893604114284364,-1.561830203972362,0.6416971927740894,4.607031710170719,-1.9876132324914464,3.0759823935164547,-0.26350092580258516,-0.029861216252668785,0.604174474132949,-0.31056125771539717,0.49381211276383263,2.409473748968911
49,2.8603491893612047,-1.5680560661179574,0.6285161190100266,4.560682840877986,-1.9685363325414493,3.0026693519024708,-0.25867660876110365,-0.024431160794405465,0.6139150171603699,-0.3416109538830909,0.4392210790064007,2.4120957034115516
50,2.826446688580435,-1.574403164983456,0.6150783691245558,4.513431416284018,-1.9490879465672255,2.927928679466679,-0.253179394707914,-0.019438096112714773,0.6237026384275948,-0.37764558158486927,0.3817957001207787,2.4114270076824638
51,2.79239181700964,-1.5807787901359902,0.6015802248575775,4.465967625736821,-1.9295521521167132,2.8528520938963444,-0.24710945535723283,-0.01502322071427305,0.6333522186448091,-0.4179010288607748,0.32254372696121986,2.4077713553066418
52,2.7583369454388444,-1.5871544152885246,0.588082080590599,4.418503835189623,-1.910016357666201,2.77777550832601,-0.24053685683030382,-0.011256212603327029,0.6427816676217099,-0.46187079058844893,0.2619218419764995,2.4015062478262386
53,2.724282073868049,-1.5935300404410588,0.5745839363236206,4.371040044642425,-1.8904805632156887,2.7026989227556752,-0.23351372569527795,-0.008178806476859403,0.6519532229887687,-0.509245346569517,0.2001048604874333,2.392978089533575
54,2.6902272022972533,-1.5999056655935933,0.5610857920566421,4.323576254095228,-1.8709447687651763,2.6276223371853407,-0.22609730138780204,-0.005827906696584704,0.6608293367203918,-0.5597585278793216,0.1372443160913662,2.382500698699691
55,2.656172330726458,-1.6062812907461277,0.5475876477896637,4.27611246354803,-1.851408974314664,2.552545751615006,-0.21834950332837114,-0.004235021102710236,0.669372906755432,-0.6131853496598447,0.07347225688085939,2.370359307552462
56,2.622117459155662,-1.612656915898662,0.5340895035226851,4.228648673000832,-1.8318731798641514,2.4774691660446715,-0.2103364309184164,-0.003425738643068119,0.6775475107523959,-0.669339707665704,0.00890452181063286,2.3568151967594333
57,2.588062587584867,-1.6190325410511963,0.5205913592557068,4.181184882453634,-1.812337385413639,2.402392580474337,-0.20212780093268973,-0.0034192586821407966,0.6853176403409644,-0.7280723797657741,-0.056356441509941145,2.3421106759530086
58,2.5540077160140715,-1.6254081662037305,0.5070932149887284,4.133721091906436,-1.7928015909631267,2.3273159949040023,-0.19379632776419542,-0.004227979356986534,0.6926489342034872,-0.7892696391678424,-0.12221914396577382,2.3264743128640255
59,2.519952844443276,-1.631783791356265,0.4935950707217499,4.086257301359238,-1.7732657965126144,2.2522394093336677,-0.18541705286006155,-0.0058571517374580336,0.6995084083044488,-0.8528527246084457,-0.1886009295622554,2.3101264562394106
60,2.485897972872481,-1.6381594165087994,0.48009692645477153,4.03879351081204,-1.753730002062102,2.177162823763333,-0.17706663049888616,-0.008304605833038568,0.7058646815826923,-0.9187784099017345,-0.2554260791207283,2.293285218402984
61,2.4518431013016855,-1.6445350416613336,0.46659878218779305,3.9913297202648423,-1.7341942076115897,2.1020862381929986,-0.16882257778959284,-0.011560553676434117,0.7116881954306197,-0.9870409664172659,-0.32262406270775673,2.2761732060226176
62,2.4177882297308897,-1.650910666813868,0.45310063792081456,3.943865929717644,-1.7146584131610774,2.027009652622664,-0.1607624974070525,-0.015607473814539394,0.7169514253066476,-1.0576759230634363,-0.3901278543651941,2.2590254374796697
63,2.3837333581600944,-1.6572862919664022,0.4396024936538361,3.8964021391704464,-1.695122618710565,1.9519330670523294,-0.15296328211022608,-0.020420080561756676,0.721629082861896,-1.1307662181030818,-0.4578722089602595,2.2420990937749523
64,2.349678486589299,-1.6636619171189366,0.4261043493868577,3.8489383486232485,-1.6755868242600527,1.8768564814819948,-0.14550031050523468,-0.02596538033133036,0.7256983070091854,-1.2064516436325976,-0.5257917746712293,2.2256860632903384
65,2.3156236150185037,-1.670037542271471,0.4126062051198792,3.801474558076051,-1.6560510298095403,1.8017798959116602,-0.13844664381100763,-0.03220281627087761,0.7291388424217583,-1.2849429759150008,-0.5938188677538359,2.2101297331733565
66,2.281568743447708,-1.6764131674240053,0.39910806085290085,3.754010767528853,-1.636515235359028,1.7267033103413256,-0.13187223355295802,-0.03908450130308964,0.7319332040203157,-1.36654298621249,-0.6618806547429423,2.1958482780261246
67,2.2475138718769125,-1.6827887925765397,0.38560991658592225,3.706546976981655,-1.6169794409085154,1.651626724770991,-0.12584315014631473,-0.04655553852673827,0.7340668260895573,-1.4516778589041166,-0.7298953454365288,2.1833680234573185
68,2.2134590003061168,-1.6891644177290739,0.3721117723189439,3.659083186434457,-1.597443646458003,1.5765501392006565,-0.12042084223278071,-0.05455442678227519,0.7355281947589308,-1.54094481199087,-0.7977667492986333,2.1733727245084222
69,2.1794041287353214,-1.6955400428816083,0.3586136280519655,3.6116193958872596,-1.5779078520074907,1.5014735536303219,-0.11566143640159166,-0.06301354804634013,0.7363089626860826,-1.635185676147113,-0.8653760933634991,2.1667785541869002
70,2.145349257164526,-1.7019156680341427,0.345115483784987,3.5641556053400616,-1.5583720575569784,1.4263969680599873,-0.11161508656008176,-0.07185973220629857,0.73640404489492,-1.7356032757760802,-0.932569149375821,2.164851679162172
71,2.1112943855937307,-1.708291293186677,0.33161733951800865,3.5166918147928636,-1.5388362631064663,1.3513203824896527,-0.10832538172276474,-0.08101489369530765,0.7358116948424276,-1.843950391954782,-0.999135070229497,2.1693982311439703
72,2.0772395140229354,-1.7146669183392114,0.31811919525103016,3.469228024245666,-1.519300468655954,1.276243796919318,-0.10582882036679996,-0.09039673345564558,0.7345335599186362,-1.962844881944037,-1.0647700248599377,2.183080272848274
73,2.0431846424521396,-1.7210425434917456,0.3046210509840517,3.4217642336984677,-1.4997646742054414,1.2011672113489835,-0.10415435876241792,-0.09991949875790022,0.7325747157214778,-2.0963071902539427,-1.1290118462612861,2.209954013914769
74,2.0091297708813443,-1.72741816864428,0.2911229067170732,3.37430044315127,-1.480228879754929,1.126090625778649,-0.10332303983808316,-0.10949479254994193,0.7299436785917613,-2.250683527769598,-1.1911173859215543,2.2563935703074356
75,1.9750748993105494,-1.7337937937968142,0.27762476245009493,3.3268366526040727,-1.4606930853044169,1.0510140402083152,-0.10334770819214832,-0.11903242325522277,0.7266523960421123,-2.436165650092628,-1.2498245812427289,2.332611212489573
76,1.9410200277397531,-1.7401694189493486,0.26412661818311634,3.2793728620568743,-1.441157290853904,0.9759374546379789,-0.10423281582726776,-0.12844128529644777,0.7227162148663896,-2.6687912625906067,-1.3028925532818758,2.454658141509793
77,1.9069651561689578,-1.746545044101883,0.25062847391613774,3.2319090715096763,-1.4216214964033917,0.9008608690676452,-0.10597432207403878,-0.13763026009819238,0.7181538268717912,-2.970383449339275,-1.346319840475266,2.644364199682672
78,1.8729102845981624,-1.7529206692544173,0.23713032964915937,3.184445280962479,-1.4020857019528794,0.8257842834973106,-0.10855969000051066,-0.14650912692920043,0.7129871923333242,2.9277446849873288,-1.3737028434548884,2.916228019748696
79,1.838855413027367,-1.7592962944069517,0.223632185382181,3.136981490415281,-1.3825499075023673,0.750707697926976,-0.11196798038967261,-0.1549894726887365,0.7072414414285949,2.489492603091092,-1.3781871492149154,-3.0432119744997403
80,1.8048005414565718,-1.765671919559486,0.21013404111520262,3.089517699868083,-1.363014113051855,0.6756311123566414,-0.11617004312384593,-0.16298558962656232,0.7009447540686127,2.078019551258048,-1.3584511553791843,-2.7475716590420483
81,1.7707456698857764,-1.7720475447120203,0.19663589684822425,3.0420539093208854,-1.3434783186013426,0.6005545267863068,-0.12112880455974115,-0.17041535001596703,0.6941282186965102,1.7450874101448968,-1.3202939756326555,-2.5318171460298204
82,1.7366907983149806,-1.7784231698645545,0.18313775258124565,2.9945901187736874,-1.3239425241508302,0.5254779412159722,-0.1267996482277498,-0.17720104697498054,0.6868256707794809,1.4866344972911545,-1.2708040465452382,-2.3919121291265832
83,1.7026359267441853,-1.784798795017089,0.16963960831426728,2.94712632822649,-1.304406729700318,0.45040135564563766,-0.1331308849609008,-0.1832701909515791,0.6790735118687765,1.2806233017114237,-1.2148173795505466,-2.30585106725063
84,1.66858105517339,-1.7911744201696234,0.1561414640472889,2.899662537679292,-1.2848709352498056,0.37532477007530307,-0.1400643073697809,-0.18855625185149988,0.6709105102471141,1.1086988807808535,-1.1550911350178137,-2.255317785683446
85,1.6345261836025946,-1.7975500453221578,0.14264331978031053,2.8521987471320944,-1.2653351407992932,0.3002481845049694,-0.1475358224461072,-0.19299933738733455,0.6623775843212293,0.9588549133480896,-1.093166763762948,-2.228351795151162
86,1.6004713120317993,-1.803925670474692,0.12914517551333193,2.8047349565848965,-1.2457993463487809,0.2251715989346348,-0.15547615501553597,-0.19654679895810967,0.6535175700485966,0.8235915153976743,-1.0299400411613706,-2.217506434972295
87,1.566416440461004,-1.8103012956272262,0.11564703124635356,2.7572711660376985,-1.2262635518982685,0.1500950133643002,-0.1638116137847599,-0.1991537572208806,0.6443749738104231,0.6981702161208525,-0.9659618838882074,-2.2181042379248432
88,1.5323615688902077,-1.8166769207797606,0.10214888697937496,2.7098073754905005,-1.206727757447756,0.07501842779396473,-0.17246491085302915,-0.20078354047958677,0.6349957122570149,0.5795083355588988,-0.9015924821465219,-2.22713175749111
89,1.4983066973194124,-1.823052545932295,0.08865074271239659,2.6623435849433026,-1.1871919629972436,-5.8157776369860414e-05,-0.18135602479671836,-0.20140803007947086,0.6254268407556599,0.46553111654680523,-0.8370823378826521,-2.2425922089832415
90,1.464251825748617,-1.8294281710848295,0.075152598445418,2.6148797943961046,-1.1676561685467313,-0.07513474334670445,-0.19040309679872913,-0.20100790814425404,0.6157162721643464,0.3547934859525636,-0.7726167016754069,-2.26312779704904
91,1.4301969541778217,-1.8358037962373637,0.06165445417843962,2.5674160038489067,-1.148120374096219,-0.15021132891703903,-0.19952334879211,-0.19957280421317244,0.6059124877363342,0.24625478567217943,-0.7083410780762078,-2.287795065520969
92,1.3961420826070263,-1.8421794213898979,0.04815630991146125,2.5199522133017087,-1.1285845796457066,-0.22528791448737362,-0.20863401222716532,-0.19710133861002274,0.5960642420300252,0.13914087805455969,-0.6443765478282653,-2.315927666816474
93,1.362087211036231,-1.8485550465424323,0.034658165644482875,2.4724884227545116,-1.1090487851951942,-0.3003645000577082,-0.21765325585957931,-0.19360106168973998,0.5862202637552686,0.03285725685800357,-0.5808293983076733,-2.3470501702803075
94,1.3280323394654356,-1.8549306716949667,0.0211600213775045,2.4250246322073137,-1.0895129907446819,-0.3754410856280428,-0.2265011008977134,-0.18908828944231404,0.576428954530632,-0.07306726441393883,-0.5177974603682894,-2.380822463688619
95,1.2939774678946399,-1.8613062968475012,0.007661877110525905,2.3775608416601157,-1.0699771962941695,-0.4505176711983774,-0.23510031194222442,-0.18358783727117137,0.5667380875558979,-0.17901802113062482,-0.45537448192524427,-2.4170029878663732
96,1.2599225963238445,-1.8676819220000354,-0.005836267156452468,2.3300970511129178,-1.0504414018436572,-0.5255942567687111,-0.2433772524003832,-0.17713265508548184,0.5571945082198415,-0.28532003342526774,-0.3936533027020937,-2.455423857515966
97,1.2258677247530492,-1.8740575471525696,-0.019334411423430842,2.28263326056572,-1.0309056073931449,-0.6006708423390457,-0.251262693458671,-0.1697633681352325,0.5478438386649617,-0.39225577793684674,-0.3327282831357693,-2.4959736487196773
98,1.1918128531822538,-1.880433172305104,-0.032832555690409215,2.2351694700185227,-1.0113698129426325,-0.6757474279093802,-0.2586925662460811,-0.16152772925672262,0.538730188318231,-0.50007776349774,-0.27269726235793756,-2.5385852153567923
99,1.157757981611458,-1.8868087974576384,-0.04633069995738803,2.187705679471324,-0.9918340184921199,-0.7508240134797166,-0.2656086475106303,-0.15247998936731608,0.5298958723700868,-0.6090175177885171,-0.21366321394760568,-2.5832268338531463
100,1.1238554808306893,-1.8931558963231367,-0.059768449842858784,2.1404542548773575,-0.9723856325178963,-0.8255646859155066,-0.27193208460201607,-0.14272562130703081,0.5214184685230071,-0.7187953170457995,-0.1559922496422422,-2.6296821947616125
101,1.09060055590753,-1.8993817584687323,-0.07294952360692175,2.094105385584623,-0.9533087325678995,-0.8988777275294932,-0.2775474763595826,-0.13249539660481985,0.5134468445714009,-0.8279584554041505,-0.10060011442730095,-2.677221411880257
102,1.0580312995394858,-1.905479252322666,-0.08585882265419986,2.0487121630814302,-0.9346251707612012,-0.9706791600380331,-0.2824494617532327,-0.121902874079094,0.506001620089877,-0.9364739071037812,-0.04759412319437812,-2.725708016633951
103,1.0261477117265603,-1.9114483778849383,-0.09849634698469312,2.00427458736778,-0.9163349470978024,-1.0409689834411324,-0.2866499066392233,-0.1110452655325136,0.4990878964209082,-1.044406105218002,0.0029881816088687596,-2.775067147262204
104,0.9949497924687511,-1.9172891351555483,-0.11086209659840152,1.960792658443669,-0.8984380615777017,-1.1097471977387876,-0.2901691131248399,-0.10001316747570828,0.49270549479276804,-1.151796769583931,0.051113922608607476,-2.8252291945856363
105,0.9644375417660589,-1.9230015241344969,-0.12295607149532439,1.9182663763090986,-0.8809345142009009,-1.1770138029309987,-0.2930344684887349,-0.08888997671053145,0.48684949451042026,-1.2586663183381122,0.09675540677169293,-2.876125486790239
106,0.9346109596184831,-1.928585544821784,-0.1347782716754633,1.8766957409640703,-0.8638243049673981,-1.2427687990177692,-0.29527913379867393,-0.07775152126262067,0.48151077243909096,-1.3650146360225108,0.13989079735095744,-2.927684730779864
107,0.9054700460260245,-1.9340411972174087,-0.14632869713881713,1.8360807524085825,-0.8471074338771949,-1.3070121859990937,-0.29694079605641066,-0.06666588361111311,0.47667653562771983,-1.4708214623763627,0.1805049025368034,-2.9798300921819276
108,0.877014800988682,-1.9393684813213719,-0.15760734788538655,1.7964214106426342,-0.8307839009302898,-1.3697439638749795,-0.29806050243864346,-0.05569339196435302,0.4723308400825911,-1.57604662045457,0.21859004250001257,-3.032476864371817
109,0.8492452245064559,-1.9445673971336737,-0.16861422391517134,1.757717715666229,-0.8148537061266845,-1.4309641326454194,-0.2986815902880945,-0.044886754991269706,0.46845508983387985,-1.6806302710936094,0.25414695195389375,-3.0855307223063915
110,0.8221613165793471,-1.949637944654313,-0.1793493252281706,1.7199696674793632,-0.7993168494663774,-1.4906726923104152,-0.29884872202815943,-0.03429131580046856,0.4650285115209715,-1.7844933543532917,0.287185670010504,-3.1388865835846165
111,0.7957630772073543,-1.9545801238832912,-0.1898126518243861,1.6831772660820379,-0.7841733309493697,-1.5488696428699722,-0.29860703018648943,-0.023945401926458,0.46202860074163826,-1.8875383513264867,0.31772636434968454,3.090757198230921
112,0.7700505063904766,-1.9593939348206078,-0.20000420370381633,1.6473405114742539,-0.7694231505756601,-1.6055549843240833,-0.29800137424901085,-0.013880749504343811,0.4594315373545189,-1.9896504677007516,0.3458000339302228,3.0371574385252433
113,0.7450236041287184,-1.9640793774662622,-0.20992398086646147,1.6124594036560103,-0.7550663083452505,-1.6607287166727538,-0.29707570813555234,-0.004122981569885253,0.45721256778636266,-2.0906993018580287,0.37144903489351344,2.983637125824741
114,0.7206823704220762,-1.9686364518202546,-0.21957198331232175,1.5785339426273088,-0.7411028042581389,-1.7143908399159766,-0.29587255468206997,0.005307877598193703,0.4553463531705594,-2.1905410154791207,0.39472737889298065,2.93034270619352
115,0.6970268052705508,-1.9730651578825857,-0.22894821104139673,1.5455641283881505,-0.7275326383143272,-1.7665413540537624,-0.2944325816085589,0.014396868068185329,0.4538072828296096,-2.289020976072777,0.41570076229442876,2.8774273185441683
116,0.6740569086741415,-1.9773654956532547,-0.23805266405368775,1.51354996093853,-0.7143558105138137,-1.8171802590861006,-0.29279427201115554,0.023133553597265898,0.4525697532116545,-2.3859767928292537,0.43444629835700566,2.8250482413598044
117,0.651772680632849,-1.981537465132262,-0.2468853423491939,1.4824914402784497,-0.7015723208565987,-1.8663075550129964,-0.2909936813990235,0.03151148641157743,0.4516084129020172,-2.4812416249889377,0.4510519417329382,2.773363998181719
118,0.6301741211466743,-1.9855810663196078,-0.255446245927915,1.4523885664079117,-0.6891821693426841,-1.9139232418344516,-0.2890642726538652,0.03952768705413162,0.4508983747584781,-2.574647610795207,0.465615613879317,2.722531288896166
119,0.6092612302156155,-1.9894962992152916,-0.26373537478985165,1.4232413393269132,-0.6771853559720666,-1.960027319550461,-0.28703681997254826,0.04718214699205274,0.45041539656840285,-2.666029249214217,0.47824405727707564,2.672701926466486
120,0.5890340078396736,-1.9932831638193134,-0.27175272893500324,1.395049759035457,-0.6655818807447496,-2.0046197881610315,-0.28493937281124704,0.054477359885974436,0.450136031902412,-2.755226568022536,0.4890514635970558,2.624019954796369
121,0.5694924540188477,-1.996941660131674,-0.2794983083633702,1.3678138255335437,-0.6543717436607301,-2.0477006476661543,-0.2827972710339645,0.061417885805598454,0.4500377530492053,-2.8420879300788524,0.4981579342721907,2.5766191031998837
122,0.5506365687531396,-2.0004717881523724,-0.2869721130749521,1.341533538821169,-0.6435549447200106,-2.0892698980658384,-0.2806332028332416,0.06800995123813569,0.4500990480658506,-2.9264723616050228,0.5056878400142923,2.530620699363722
123,0.5324663520425448,-2.003873547881409,-0.29417414306974976,1.3162088988983331,-0.6331314839225892,-2.1293275393600766,-0.2784672974937359,0.07426108648488129,0.4502994940740488,-3.0082513272425797,0.5117681480932418,2.4861321204802134
124,0.5149818038870695,-2.007146939318784,-0.3011043983477615,1.2918399057650394,-0.6231013612684673,-2.1678735715488706,-0.2763172456717804,0.0801798009735896,0.4506198089821699,-3.087309920805389,0.5165267829094414,2.4432458170535143
125,0.49818292428671107,-2.0102919624644975,-0.307762878908989,1.2684265594212913,-0.6134645767576439,-2.204907994632226,-0.2741984405321635,0.08577529612397389,0.45104188382170357,3.1196378246557335,0.5200910774500256,2.4020389011752714
126,0.4820697132414695,-2.0133086173185486,-0.3141495847534319,1.2459688598670793,-0.6042211303901199,-2.2404308086101334,-0.27212413378796013,0.0910572146800899,0.45154879786140667,3.046307618381755,0.5225863619907034,2.3625732551650205
127,0.46664217075134395,-2.016196903880939,-0.3202645158810902,1.2244668071024085,-0.5953710221658937,-2.274442013482604,-0.2701056014056465,0.09603542485371963,0.45212481860870696,2.9759571208640545,0.5241347234324707,2.324896090073274
128,0.45190029681633614,-2.018956822151667,-0.32610767229196336,1.203920401127279,-0.5869142520849682,-2.306941609249625,-0.26815231444566573,0.10071983719233665,0.4527553887312755,2.908645449299943,0.5248539554156593,2.289040867604303
129,0.43784409143644343,-2.021588372130733,-0.3316790539860519,1.18432964194169,-0.5788508201473399,-2.337929595911209,-0.2662721111919901,0.10512025177826467,0.4534271018371061,2.8444194942256686,0.5248567070398904,2.2550284929707947
130,0.42447355461166847,-2.024091553818137,-0.3369786609633554,1.1656945295456431,-0.571180726353012,-2.367405973467344,-0.26447136737056226,0.10924623316627446,0.4541276689434408,2.783315113765046,0.524249827481454,2.222868688418851
131,0.4117886863420095,-2.02646636721388,-0.34200649322387466,1.148015063939134,-0.5639039707019813,-2.3953707419180397,-0.26275516185680053,0.11310701035950915,0.4548458773474809,2.7253584307459064,0.5231338955003076,2.1925614654776067
132,0.39978948662746827,-2.028712812317961,-0.3467625507676084,1.1312912451221724,-0.5570205531942509,-2.421823901263293,-0.26112743582045894,0.11671139909314489,0.45557154348851314,2.670567163068679,0.521602916890748,2.1640986261102126
133,0.38847595546804126,-2.03083088913038,-0.35124683359455755,1.1155230730947476,-0.5505304738298196,-2.4467654515031008,-0.25959114374840264,0.12006774372763948,0.45629546126497944,2.6189519317281484,0.5197441692173759,2.1374652368169493
134,0.377848092863732,-2.032820597651137,-0.3554593417047216,1.1007105478568615,-0.5444337326086859,-2.4701953926374696,-0.2581483952207684,0.12318387613571484,0.45700934714361763,2.5705175049834694,0.5176381713889682,2.112641033731745
135,0.3679058988145405,-2.034681937880233,-0.35940007509810146,1.0868536694085176,-0.5387303295308521,-2.4921137246663907,-0.2568005866936594,0.12606708908787542,0.4577057832733724,2.5252639501935876,0.5153587553719131,2.0896017297068763
136,0.35864937332046587,-2.0364149098176663,-0.3630690337746958,1.0739524377497194,-0.5334202645963169,-2.5125204475898713,-0.2555485228635173,0.1287241217898535,0.45837815969596585,2.483187676096861,0.5129732182299752,2.068320205603261
137,0.3500785163815072,-2.0380195134634382,-0.36646621773450594,1.0620068528804563,-0.5285035378050797,-2.5314155614079077,-0.2543925274571096,0.13116115539307419,0.4590206166292836,2.4442823575041888,0.5105425343261193,2.048767577179924
138,0.34219332799766544,-2.039495748817549,-0.36959162697753145,1.0510169148007353,-0.5239801491571434,-2.5487990661205018,-0.2533325435099706,0.13338381647845485,0.4596279876900921,2.4085397414650216,0.5081216096179525,2.030914136072883
139,0.33499380816894053,-2.0408436158799974,-0.3724452615037719,1.0409826235105566,-0.5198500986525048,-2.5646709617276535,-0.25236822336890796,0.1353971866982776,0.46019574481980074,2.375950339111299,0.5057595622707344,2.014730168522085
140,0.3284799568953316,-2.042063114650784,-0.3750271213132277,1.0319039790099165,-0.5161133862911642,-2.579031248229363,-0.25149900878489556,0.13720581694546674,0.46071994558147344,2.3465040108445887,0.5035000161159683,2.0001866590004886
141,0.32265177417684043,-2.0431542451299096,-0.3773372064058984,1.0237809812988186,-0.5127700120731236,-2.591879925625628,-0.25072420155553166,0.13881374460037857,0.4611971834083453,2.3201904546058296,0.5013813956734722,1.9872558880175037
142,0.31750926001346613,-2.0441170073173724,-0.3793755167817845,1.0166136303772646,-0.5098199759983828,-2.6032169939164493,-0.2500430252354136,0.14022451257922142,0.4616245413036865,2.2969996079535773,0.4994372134532895,1.975911934405097
143,0.3130524144052069,-2.044951401213174,-0.38114205244088595,1.0104019262452493,-0.5072632780669393,-2.613042453101828,-0.24945467846239416,0.14144118907338682,0.4619995494188494,2.276921974846353,0.4976963420211433,1.966131092616665
144,0.3092812373520637,-2.0456574268173138,-0.3826368133832023,1.0051458689027726,-0.5050999182787947,-2.621356303181763,-0.24895838045158955,0.1424663870240765,0.46232014687040685,2.2599488876078206,0.4961832648353427,1.9578922152042586
145,0.30619572885403823,-2.0462350841297914,-0.38385979960873406,1.000845458349838,-0.5033298966339492,-2.6281585441562623,-0.24855340919091545,0.14330228252101704,0.462584648097996,2.2460727137359284,0.4949183011509215,1.951176989872845
146,0.3037958889111305,-2.046684373150608,-0.3848110111174803,0.9975006945864457,-0.5019532131324036,-2.6334491760253087,-0.24823913283524154,0.14395063144781042,0.4627917140112652,2.23528701614217,0.4939178013574681,1.9459701594826992
147,0.3020817175233388,-2.047005293879762,-0.3854904479094423,0.9951115776125938,-0.5009698677741561,-2.6372281987889217,-0.24801503474409464,0.1444127838200907,0.46294032812652947,2.227586674178665,0.49319430999626257,1.9422596921862647
148,0.30105321469066393,-2.047197846317255,-0.3858981099846197,0.9936781074282823,-0.5003798605592085,-2.6394956124470816,-0.24788073254314463,0.14468969537701962,0.46302977785065985,2.222967971502309,0.4927566944198133,1.9400369076160542
149,0.30071038041310594,-2.0472620304630857,-0.386033997343012,0.9932002840335112,-0.500183191487559,-2.640251416999803,-0.24783599151504976,0.14478193609307646,0.4630596410305785,2.221428655481695,0.49261023764291567,1.9392965637318984
