nimar13/UR3e_dataset_trayectorias/data/trayectorias_completas_UR3e_TRAPEZOIDAL_FUNC/trayectoria_497.csv
Punto,shoulder_pan_joint,shoulder_lift_joint,elbow_joint,wrist_1_joint,wrist_2_joint,wrist_3_joint,Posicion_X,Posicion_Y,Posicion_Z,Roll,Pitch,Yaw
0,-5.118182864575365,-1.0576000681810545,-1.783968545736805,-1.9284125607255271,1.0244907284098614,0.04382878373808641,-0.22948529326575734,-0.08025411337523689,0.3545850956276759,1.5024026018749372,1.0173537471622083,2.637895079687368
1,-5.1176971584354245,-1.0577016289767769,-1.7839163789582606,-1.9283507038403127,1.0249546936105747,0.04351042149433812,-0.22942246503418745,-0.08040247538505464,0.3545659433396187,1.5020229962103733,1.0178158959030477,2.6383022497287354
2,-5.116240040015604,-1.0580063113639437,-1.7837598786226272,-1.9281651331846696,1.0263465892127148,0.04255533476309324,-0.22923338888680433,-0.08084734531057862,0.35450857353653964,1.5008834859769073,1.0192023289093977,2.6395231151324436
3,-5.1138115093159024,-1.0585141153425555,-1.783499044729905,-1.9278558487585977,1.0286664152162814,0.040963523544351794,-0.228916291918623,-0.08158807072650778,0.35441324768516624,1.4989819745307438,1.02151300614532,2.6415557246274592
4,-5.11041156633632,-1.0592250409126116,-1.7831338772800938,-1.9274228505620972,1.031914171621275,0.03873498783811376,-0.228468224174077,-0.08262355056169629,0.3542804025051852,1.4963149102466975,1.0247478595749395,2.644396768260701
5,-5.106040211076857,-1.0601390880741126,-1.7826643762731937,-1.926866138595168,1.036089858427695,0.03586972764437914,-0.22788506612505718,-0.08395221461255398,0.35411065137130915,1.4928771978146491,1.0289067911345404,2.648041487777153
6,-5.100697443537513,-1.061256256827058,-1.7820905417092048,-1.92618571285781,1.0411934756355419,0.03236774296314794,-0.22716153943708947,-0.08557199497772702,0.35390478625483507,1.4886620680768794,1.0339896697605608,2.652483545189042
7,-5.094383263718289,-1.0625765471714483,-1.7814123735881269,-1.925381573350023,1.0472250232448153,0.028229033794420166,-0.2262912213183757,-0.08748028953504289,0.3536637801832217,1.4836608998717316,1.0399963273280186,2.657714843013976
8,-5.087097671619183,-1.0640999591072833,-1.78062987190996,-1.9244537200718075,1.0541845012555153,0.023453600138195804,-0.22526656282737662,-0.08967391762347417,0.3533887901899014,1.4778629846146782,1.046926553292902,2.6637252869313746
9,-5.078840667240198,-1.0658264926345626,-1.7797430366747045,-1.9234021530231633,1.0620719096676423,0.018041441994474865,-0.22407891159295443,-0.09214906813993165,0.3530811607200844,1.4712552208241934,1.0547800877532898,2.67050247808635
10,-5.069612250581331,-1.0677561477532869,-1.77875186788236,-1.9222268722040903,1.0708872484811958,0.01199255936325734,-0.22271853947602174,-0.09490124031415341,0.35274242745170387,1.463821721129366,1.0635566125394498,2.6780313176029837
11,-5.059412421642584,-1.0698889244634557,-1.7776563655329263,-1.9209278776145886,1.080630517696176,0.00530695224454323,-0.22117467577228603,-0.09792517748576808,0.35237432148385645,1.4555433079660385,1.0732557398012923,2.686293499541666
12,-5.048241180423957,-1.072224822765069,-1.7764565296264039,-1.919505169254658,1.0913017173125827,-0.0020153793616674437,-0.21943554662096743,-0.10121479427673445,0.35197877383810683,1.4463968654250332,1.0838769973654194,2.6952668597945246
13,-5.036098526925448,-1.0747638426581272,-1.7751523601627925,-1.917958747124299,1.1029008473304165,-0.009974435455374714,-0.21748842134316795,-0.10476309763056274,0.35155792021080834,1.4363545024328956,1.0954198098580687,2.7049245361319625
14,-5.022984461147059,-1.07750598414263,-1.7737438571420925,-1.916288611223511,1.1154279077496767,-0.01857021603657856,-0.21531966648449793,-0.10856210227768255,0.35111410590717274,1.4253824649046276,1.1078834741957557,2.715233877074141
15,-5.008898983088789,-1.0804512472185774,-1.7722310205643033,-1.9144947615522943,1.1288828985703636,-0.027802721105278982,-0.21291480837814347,-0.11260274128454595,0.3506498908801652,1.4134397090423558,1.1212671274718917,2.7261550117971556
16,-4.993842092750639,-1.0835996318859693,-1.7706138504294253,-1.9125771981106487,1.1432658197924772,-0.03767195066147601,-0.2102586050750918,-0.11687477245280443,0.3501680547894226,1.400476010344249,1.1355697044194328,2.7376389556749423
17,-4.977813790132608,-1.086951138144806,-1.7688923467374584,-1.9105359208985746,1.1585766714160177,-0.0481779047051696,-0.20733512850586147,-0.12136668145427917,0.3496716019872901,1.386429426318792,1.15078988035168,2.7496250694894564
18,-4.960814075234696,-1.0905057659950874,-1.7670665094884026,-1.9083709299160716,1.1748154534409847,-0.05932058323635976,-0.2041278577408026,-0.12606558271721735,0.3491637663307958,1.371222844117967,1.1669259935192249,2.762037603560361
19,-4.942842948056903,-1.0942635154368134,-1.7651363386822578,-1.90608222516314,1.1919821658673784,-0.07109998625504653,-0.2006197842016589,-0.13095711921896738,0.3486480157098941,1.3547592082751356,1.1839759377356918,2.7747809220177087
20,-4.923900408599231,-1.098224386469984,-1.7631018343190241,-1.9036698066397797,1.2100768086951987,-0.08351611376122986,-0.1967935296433103,-0.13602536248883018,0.34812805617372905,1.336914805401234,1.2019370111601655,2.7877327841086497
21,-4.903986456861676,-1.1023883790945994,-1.7609629963987017,-1.9011336743459906,1.2290993819244458,-0.09656896575490975,-0.1926314776690605,-0.14125271428115124,0.34760783552794156,1.3175296229372124,1.2208056989189353,2.8007346996729994
22,-4.8831010928442415,-1.1067554933106594,-1.75871982492129,-1.8984738282817728,1.2490498855551195,-0.1102585422360863,-0.18811591946301146,-0.1466198115409371,0.34709154626732547,1.2963931886695657,1.240577353277009,2.81357776553074
23,-4.861244316546927,-1.111325729118164,-1.7563723198867898,-1.8956902684471262,1.26992831958722,-0.12458484320475935,-0.1832292143165351,-0.15210543645017696,0.346583627699407,1.2732232274916506,1.2612457104639367,2.8259813192996104
24,-4.838416127969731,-1.116099086517113,-1.7539204812952005,-1.8927829948420507,1.291734684020747,-0.139547868660929,-0.17795396539019379,-0.15768643350980333,0.34608876710592196,1.2476325244646826,1.2828021382398438,2.8375597997312654
25,-4.814616527112654,-1.1210755655075069,-1.7513643091465225,-1.8897520074665468,1.314468978855701,-0.15514761860459528,-0.1722732109854068,-0.16333763577642835,0.34561189978073276,1.2190756866785877,1.3052344222455414,2.847769506099955
26,-4.789845513975697,-1.1262551660893454,-1.7487038034407554,-1.8865973063206138,1.3381312040920814,-0.17138409303575808,-0.16617063139969335,-0.16903180253067088,0.3451582077746294,1.186760131370703,1.3285247262236768,2.855819584134702
27,-4.764103088558859,-1.1316378882626286,-1.7459389641778995,-1.8833188914042525,1.3627213597298886,-0.18825729195441748,-0.15963077120370417,-0.17473957080034172,0.34473311716973576,1.1494901085559994,1.3526459924389282,2.8605160467810817
28,-4.73738925086214,-1.1372237320273564,-1.7430697913579545,-1.8799167627174622,1.3882394457691225,-0.20576721536057346,-0.1526392765063068,-0.18042942329169154,0.3443422936991164,1.1053776647980185,1.3775552057725537,2.859972736453768
29,-4.709704000885542,-1.1430126973835288,-1.7400962849809207,-1.8763909202602431,1.414685462209783,-0.22391386325422602,-0.1451831464649881,-0.1860676753893837,0.3439916365207019,1.0512697699106621,1.4031798515151268,2.851038450601919
30,-4.681047338629061,-1.149004784331146,-1.737018445046798,-1.8727413640325954,1.4420594090518701,-0.24269723563537515,-0.1372509979529542,-0.19161848396425657,0.34368726994909377,0.9815165077449918,1.4293881480669168,2.8280651317737844
31,-4.651419264092701,-1.155199992870208,-1.7338362715555864,-1.8689680940345188,1.4703612862953843,-0.2621173325040209,-0.12883334191248724,-0.19704388077009502,0.3434355329442313,0.8850510395872451,1.455915810170711,2.779987830739709
32,-4.62081977727646,-1.1615983230007143,-1.730549764507286,-1.8650711102660136,1.499591093940325,-0.28217415386016326,-0.11992286950843344,-0.20230383320894987,0.3432429661526131,0.7376855044266465,1.4821584225611784,2.682620606966457
33,-4.589248878180338,-1.1681997747226653,-1.7271589239018965,-1.8610504127270797,1.529748831986692,-0.3028676997038021,-0.11051474574948349,-0.20735633519092428,0.3431162962948894,0.48061859178775684,1.5064806444759489,2.4771641021739343
34,-4.556706566804335,-1.175004348036061,-1.7236637497394183,-1.856906001417717,1.5608345004344861,-0.3241979700349376,-0.10060690777282913,-0.212157530700583,0.3430624176934367,-0.014063223067277439,1.5238388617162517,2.035706776818837
35,-4.523192843148452,-1.1820120429409013,-1.720064242019851,-1.8526378763379256,1.5928480992837069,-0.3461649648535696,-0.0902003644961856,-0.21666187249987542,0.34308837073523873,-0.7289291578883323,1.5235169836943125,1.3756814332263938
36,-4.488707707212688,-1.1892228594371863,-1.716360400743195,-1.8482460374877054,1.625789628534354,-0.36876868415969827,-0.07929949383805998,-0.22082231813861347,0.3432013170692485,-1.235094664036869,1.5044196809980561,0.9259746775198486
37,-4.453251158997043,-1.1966367975249161,-1.7125522259094499,-1.8437304848670564,1.6596590881864284,-0.3920091279533235,-0.06791233320243144,-0.22459056510043574,0.3434085113436805,-1.5001568581052636,1.4764559261061299,0.7189914912317763
38,-4.416823198501518,-1.2042538572040904,-1.708639717518616,-1.839091218475979,1.6944564782399292,-0.41588629623444534,-0.0560508584295385,-0.2279173264779983,0.34371726929764207,-1.6537943580019008,1.4446740958849567,0.6250553992127158
39,-4.379423825726112,-1.2120740384747093,-1.7046228755706931,-1.8343282383144723,1.7301817986948564,-0.44040018900306377,-0.04373124594416288,-0.2307526480401705,0.3441349320334248,-1.7566160598050529,1.4107341930867063,0.5835596976050333
40,-4.341053040670825,-1.2200973413367728,-1.7005017000656815,-1.8294415443825374,1.7668350495512106,-0.46555080625917866,-0.030974112402541734,-0.2330462669222359,0.3446688263109413,-1.8334964479248206,1.3752498760792298,0.5696321494251004
41,-4.301710843335658,-1.228323765790281,-1.6962761910035808,-1.8244311366801735,1.8044162308089913,-0.4913381480027902,-0.017804725766743957,-0.2347480114355111,0.34532622072446667,-1.8957725109498151,1.3384890316763758,0.5719380754734589
42,-4.2613972337206105,-1.236753311835234,-1.6919463483843913,-1.8192970152073809,1.8429253424681988,-0.5177622142338982,-0.0042531814406999175,-0.2358082406559788,0.3461142776443323,-1.9492131379357867,1.3005850311432132,0.5847109659290695
43,-4.220112211825682,-1.2453859794716315,-1.687512172208113,-1.8140391799641595,1.8823623845288329,-0.5448230049525029,0.009645463093618571,-0.23617832151615312,0.34704000083276365,-1.9970295494386965,1.2616111804427872,0.604742058458897
44,-4.177855777650872,-1.2542217686994739,-1.6829736624747456,-1.8086576309505094,1.922727356990894,-0.5725205201586044,0.023851101775654703,-0.23581114009781903,0.34811017867393723,-2.0411408171366467,1.2216109349004278,0.6301148291570592
45,-4.1346279311961815,-1.2632606795187606,-1.6783308191842892,-1.8031523681664305,1.9640202598543817,-0.6008547598522023,0.038318548166713796,-0.23466164271693307,0.3493313229937735,-2.0827606702174037,1.1806116249910186,0.6596181983254432
46,-4.090428672461611,-1.272502711929492,-1.673583642336744,-1.797523391611923,2.0062410931192955,-0.6298257240332966,0.05299756467829564,-0.2326874012220739,0.3507096034852154,-2.1226928395587548,1.1386312749689451,0.6924512002937261
47,-4.04525800144716,-1.2819478659316683,-1.66873213193211,-1.7917707012869868,2.049389856785637,-0.6594334127018877,0.06783295872593507,-0.22984919571558698,0.35225077779993647,-2.1614901212881477,1.0956822428010167,0.7280639359619089
48,-3.999115918152828,-1.291596141525289,-1.6637762879703872,-1.7858942971916218,2.093466550853404,-0.6896778258579752,0.08276475106490841,-0.2261116066788065,0.3539601174177248,-2.1995450024490357,1.0517732810173102,0.7660669656616491
49,-3.9520024225786154,-1.3014475387103543,-1.6587161104515753,-1.779894179325828,2.1384711753225982,-0.7205589635015593,0.09772842069230134,-0.22144360727185172,0.3558423294603089,-2.2371437939586873,1.0069107620549569,0.8061771975417388
50,-3.9039714820734046,-1.3114907729540066,-1.6535573956844016,-1.7737772206768516,2.1843521785042515,-0.7520414520500016,0.11263869100917148,-0.21582593380630274,0.3578990872210667,-2.2744588540266557,0.9611508647175023,0.8481365865822188
51,-3.8557246721726646,-1.3215791453290908,-1.6483754956823193,-1.767632770078891,2.2304393884417766,-0.7836654349289984,0.127215691761157,-0.2093412396888105,0.36010028491759344,-2.3111275400521114,0.9151660713778462,0.8911521150843145
52,-3.807477862271924,-1.3316675177041748,-1.6431935956802373,-1.7614883194809303,2.276526598379302,-0.8152894178079955,0.14134421968712244,-0.20204727965225291,0.3624316278194289,-2.347143915515766,0.8691656992963716,0.9348741064785914
53,-3.759231052371184,-1.341755890079259,-1.638011695678155,-1.7553438688829697,2.3226138083168273,-0.8469134006869923,0.15498014294099757,-0.19398116365150328,0.36488742598158136,-2.3826317925688847,0.8231525583274794,0.979179440714816
54,-3.710984242470444,-1.3518442624543432,-1.6328297956760727,-1.749199418285009,2.368701018254353,-0.8785373835659891,0.16808271480312448,-0.18518235728944876,0.367461673184997,-2.4176864894687395,0.7771288224062988,1.0239736340278904
55,-3.662737432569704,-1.3619326348294274,-1.6276478956739904,-1.7430549676870486,2.414788228191878,-0.9101613664449859,0.18061469308221711,-0.175692361635557,0.3701480596641666,-2.452382633413017,0.7310962037037099,1.0691830450500814
56,-3.6144906226689635,-1.3720210072045116,-1.622465995671908,-1.736910517089088,2.460875438129404,-0.941785349323983,0.19254242896578666,-0.16555438780598247,0.37293998548934953,-2.486779543280621,0.6850560726925643,1.1147495024718446
57,-3.5662438127682234,-1.3821093795795958,-1.6172840956698258,-1.7307660664911273,2.506962648066929,-0.9734093322029798,0.2038359251949464,-0.15481302921798026,0.37583057457483626,-2.5209250253194946,0.6390095427773205,1.1606265213937512
58,-3.5179970028674834,-1.39219775195468,-1.6121021956677435,-1.7246216158931666,2.5530498580044547,-1.0050333150819766,0.2144688637162801,-0.1435139344188799,0.3788126892833322,-2.5548581028638306,0.5929575311405229,1.2067765875041723
59,-3.4697501929667434,-1.402286124329764,-1.6069202956656614,-1.718477165295206,2.59913706794198,-1.0366572979609734,0.22441860323732457,-0.13170348335115134,0.38187894559525526,-2.5886110147008097,0.5469008032821271,1.2531691747196987
60,-3.4215033830660033,-1.4123744967048482,-1.6017383956635791,-1.7123327146972454,2.6452242778795054,-1.0682812808399702,0.23366614738073757,-0.11942846985057945,0.38502172881053787,-2.622210702084953,0.5008400061627233,1.299779276595402
61,-3.373256573165263,-1.4224628690799324,-1.5965564956614968,-1.7061882640992847,2.6913114878170306,-1.099905263718967,0.24219608439294776,-0.10673579308487538,0.38823320974936937,-2.655679932147949,0.45477569324650907,1.3465863041197366
62,-3.3250097632645224,-1.4325512414550166,-1.5913745956594145,-1.700043813501324,2.7373986977545566,-1.131529246597964,0.24999649961367884,-0.09367216052605505,0.39150536141725284,-2.6890381588731165,0.4087083436994509,1.3935732491570616
63,-3.2767629533637823,-1.4426396138301008,-1.5861926956573322,-1.6938993629033634,2.7834859076920817,-1.1631532294769609,0.2570588621509139,-0.08028380491270479,0.3948299760987447,-2.722302192160407,0.3626383773140881,1.440726043528095
64,-3.2285161434630423,-1.452727986205185,-1.5810107956552502,-1.687754912305403,2.8295731176296073,-1.1947772123559577,0.2633778874295079,-0.06661621749910729,0.398198682843328,-2.7554867249781823,0.31656616627443024,1.4880330643506479
65,-3.1802693335623022,-1.4628163585802691,-1.5758288956531679,-1.6816104617074423,2.8756603275671324,-1.2264011952349547,0.268951377488695,-0.052713899708609305,0.4016029653060296,-2.7886047546190493,0.2704920445627441,1.535484750367272
66,-3.132022523661562,-1.4729047309553533,-1.5706469956510856,-1.6754660111094817,2.921747537504658,-1.2580251781139513,0.27378004109236637,-0.038620135110274526,0.40503417990462004,-2.821667924422645,0.22441631559480532,1.5830733037948077
67,-3.0837757137608217,-1.4829931033304375,-1.5654650956490033,-1.669321560511521,2.9678347474421836,-1.2896491609929484,0.2778672958844409,-0.024376783422604367,0.40848357425456566,-2.854686805581284,0.17833925851987784,1.630792459168261
68,-3.0355289038600817,-1.4930814757055217,-1.560283195646921,-1.6631771099135604,3.013921957379709,-1.3212731438719454,0.28121905496846406,-0.010024098017933625,0.4119423058422976,-2.8876711338870944,0.13226113351563082,1.6786373056452404
69,-2.9872820939593416,-1.503169848080606,-1.555101295644839,-1.6570326593155997,3.0600091673172343,-1.3528971267509424,0.2838435004143662,0.004399431841819075,0.4154014608968489,-2.920630012909941,0.08618218633316135,1.726604152902139
70,-2.939035284058601,-1.5132582204556901,-1.5499193956427566,-1.6508882087176393,3.10609637725476,-1.384521109629939,0.28575084629503034,0.01885721306083117,0.41885207341948716,-2.9535720927144604,0.040102652294144316,1.7746904335056946
71,-2.890788474157861,-1.5233465928307743,-1.5447374956406743,-1.6447437581196787,3.152183587192285,-1.416145092508936,0.2869530939300163,0.03331465434087745,0.4222851443306304,-2.9865057315662162,-0.005977240094879025,1.8228946367715757
72,-2.842541664257121,-1.5334349652058585,-1.539555595638592,-1.638599307521718,3.1982707971298105,-1.4477690753879326,0.2874637820628413,0.04773924494039604,0.42569166069307257,-3.019439146965401,-0.052057265771007194,1.871216270830903
73,-2.7942948543563806,-1.5435233375809427,-1.5343736956365097,-1.6324548569237574,3.244358007067336,-1.4793930582669297,0.2872977347211536,0.06210060638344655,0.4290626149703923,-3.052380561668646,-0.09813719986149505,1.9196558510690898
74,-2.7460480444556405,-1.553611709956027,-1.5291917956344276,-1.6263104063257967,3.2904452170048617,-1.5110170411459267,0.2864708095057982,0.07637051721222783,0.4323890242793282,-3.085338350048638,-0.1442168144307353,1.9682149143999481
75,-2.697801234554901,-1.5637000823311111,-1.5240098956323453,-1.620165955727836,3.3365324269423864,-1.5426410240249233,0.28499964902516634,0.09052291114634098,0.43566194959492577,-3.1183211901676606,-0.19029587510995258,2.0168960600954087
76,-2.64955442465416,-1.5737884547061953,-1.518827995630263,-1.6140215051298754,3.382619636879913,-1.5742650069039203,0.28290143813568147,0.10453384927723838,0.43887251486735646,3.1318470798721063,-0.2363741374842355,2.06570301920672
77,-2.60130761475342,-1.5838768270812795,-1.5136460956281808,-1.6078770545319148,3.428706846817438,-1.6058889897829174,0.28019366956826414,0.11838146718473867,0.44201192600949146,3.0987860517390833,-0.2824513430956681,2.114640756092476
78,-2.55306080485268,-1.5939651994563637,-1.5084641956260985,-1.6017326039339541,3.4747940567549636,-1.637512972661914,0.2768939204149666,0.13204589811179357,0.4450714897146064,3.0656703828597713,-0.3285272148957501,2.163715607338038
79,-2.50481399495194,-1.604053571831448,-1.5032822956240162,-1.5955881533359935,3.5208812666924887,-1.669136955540911,0.27301964182058736,0.14550917357142062,0.44804263206393075,3.0324883255477624,-0.3746014519421344,2.2129354655707436
80,-2.4565671850511994,-1.6141419442065321,-1.4981003956219339,-1.589443702738033,3.5669684766300143,-1.7007609384199076,0.268587964072241,0.15875510298374992,0.45091691688422836,2.999226744994599,-0.42067372308016476,2.262310018564614
81,-2.4083203751504594,-1.6242303165816163,-1.4929184956198518,-1.5832992521400724,3.6130556865675394,-1.7323849212989046,0.2636155191069211,0.17176913414928097,0.45368606381611504,2.9658707674906073,-0.4667436592721747,2.311851057895573
82,-2.3600735652497193,-1.6343186889567005,-1.4877365956177695,-1.5771548015421117,3.659142896505065,-1.7640089041779017,0.2581182822647064,0.1845381965547953,0.45634196605444916,2.9324033454369625,-0.512810844128005,2.3615728767018647
83,-2.3118267553489797,-1.6444070613317847,-1.4825546956156872,-1.5710103509441513,3.70523010644259,-1.7956328870568983,0.2521114349051913,0.1970505296790876,0.45887670772282063,2.898804711329883,-0.5588748020342049,2.411492783490115
84,-2.263579945448239,-1.6544954337068687,-1.477372795613605,-1.5648659003461907,3.7513173163801157,-1.8272568699358953,0.2456092492789316,0.2092954986151689,0.4612825808449632,2.8650516825611083,-0.6049349830554893,2.4616317694142125
85,-2.2153331355474988,-1.6645838060819529,-1.4721908956115226,-1.55872144974823,3.797404526317641,-1.858880852814892,0.2386249968062933,0.22126339945238932,0.46355210187676105,2.8311167638551327,-0.6509907434563147,2.5120153815999267
86,-2.1670863256467587,-1.674672178457037,-1.4670089956094405,-1.5525769991502694,3.8434917362551664,-1.890504835693889,0.23117088066530309,0.232945256964846,0.4656780277634815,2.796966972005603,-0.6970413202098639,2.562674877346187
87,-2.1188395157460187,-1.6847605508321213,-1.4618270956073582,-1.5464325485523087,3.889578946192692,-1.9221288185728855,0.22325799333027863,0.24433261723041919,0.4676533714878614,2.762562274341835,-0.7430857971404642,2.613648767347547
88,-2.0705927058452778,-1.6948489232072057,-1.456645195605276,-1.540288097954348,3.935666156130218,-1.953752801451883,0.21489629943657945,0.2554173378570843,0.46947141707578377,2.7278534815763056,-0.7891230592425936,2.6649849069303326
89,-2.0223458959445377,-1.70493729558229,-1.4514632956031936,-1.5341436473563874,3.981753366067743,-1.9853767843308796,0.20609464407628494,0.26619137851921976,0.4711257340274369,2.6927793564545204,-0.8351517299973517,2.71674337358088
90,-1.9740990860437977,-1.715025667957374,-1.4462813956011114,-1.5279991967584268,4.027840576005268,-2.0170007672098764,0.1968607863574883,0.2766465945061293,0.47261019114307345,2.6572625731121544,-0.8811700837544705,2.7690004956077106
91,-1.9258522761430577,-1.725114040332458,-1.4410994955990293,-1.5218547461604661,4.073927785942795,-2.048624750088873,0.18720145778879688,0.2867745359579219,0.47391896971379877,2.621203954728473,-0.927175920731742,2.821854604134889
92,-1.8776054662423176,-1.7352024127075423,-1.435917595596947,-1.5157102955625055,4.12001499588032,-2.0802487329678705,0.17712244478305822,0.2965662554103762,0.475046576049163,2.584474067364303,-0.9731663845552985,2.8754344303577604
93,-1.8293586563415776,-1.7452907850826265,-1.4307356955948647,-1.5095658449645448,4.166102205817845,-2.111872715846867,0.16662869431287966,0.30601212619090795,0.47598785331476406,2.546900638425208,-1.0191376889471546,2.9299116794680833
94,-1.7811118464408375,-1.7553791574577107,-1.4255537955927824,-1.5034213943665842,4.21218941575537,-2.1434966987258637,0.15572444149760703,0.315101674102928,0.4767379926545446,2.5082491659576585,-1.0650846960314693,2.9855204149124193
95,-1.7328650365400975,-1.7654675298327946,-1.4203718955907,-1.4972769437686237,4.258276625692895,-2.175120681604861,0.14441335765954105,0.3238234247066184,0.47729254357399753,2.468192005073682,-1.11100024307048,3.042587966580622
96,-1.6846182266393575,-1.7755559022078788,-1.415189995588618,-1.491132493170663,4.30436383563042,-2.2067446644838578,0.13269871715856937,0.332164768351601,0.4776474235620776,2.4262570954731455,-1.1568740236433412,3.1015861988654123
97,-1.6363714167386174,-1.785644274582963,-1.4100080955865357,-1.4849880425727024,4.3504510455679455,-2.2383686473628543,0.12058358110132682,0.34011184494249036,0.4777989269312598,2.381738840392349,-1.2026906378521383,-3.119964678989552
98,-1.5881246068378774,-1.7957326469580472,-1.4048261955844534,-1.478843591974742,4.396538255505471,-2.269992630241851,0.10807099582549945,0.3476494502234393,0.4777437328568407,2.3335341995833345,-1.2484259934203608,-3.0545909798405897
99,-1.5398777969371364,-1.8058210193331317,-1.3996442955823711,-1.4726991413767812,4.4426254654429975,-2.3016166131208484,0.09516420388390512,0.35476096515426664,0.4774789125983162,2.2798196085190168,-1.2940401751158288,-2.98365430283124
100,-1.491846856431926,-1.8158642535767835,-1.3944855808151975,-1.4665821827278047,4.48850646862465,-2.333099101669292,0.08192722473209683,0.3613994958523066,0.4770045458120453,2.2176627963902136,-1.3392593581006165,-2.904299537694013
101,-1.444733360857712,-1.825715650761849,-1.3894254032963858,-1.460582064862011,4.533511093093844,-2.3639802393128746,0.06857114102935165,0.36746493040116346,0.4763329356171586,2.1422880674925726,-1.3832971070981386,-2.8120037094810653
102,-1.3985912775633818,-1.83536392635547,-1.3844695593346625,-1.454705660766646,4.577587787161613,-2.3942246524689623,0.055138048936708,0.37295794449126035,0.4754755743364207,2.0422990863770347,-1.4258446282822888,-2.6953925166327792
103,-1.35342060654893,-1.844809080357646,-1.3796180489300287,-1.4489529704417095,4.620736550827953,-2.4238323411375533,0.041655246462174,0.37788752103253104,0.47444381006828257,1.8898705567654273,-1.46625579199329,-2.5266432996420933
104,-1.3092213478143586,-1.8540511127683776,-1.3748708720824836,-1.4433239938872022,4.662957384092868,-2.452803305318648,0.028149900182198262,0.3822634061584236,0.4732491827548021,1.6035154294878744,-1.5024694154258382,-2.2242715577569183
105,-1.2659935013596693,-1.8630900235876642,-1.3702280287920272,-1.4378187311031234,4.704250286956355,-2.481137545012246,0.014649017797120039,0.38609625804094333,0.4719033515968883,0.952778414988068,-1.526129427788859,-1.5578244746713632
106,-1.2237370671848593,-1.8719258128155063,-1.3656895190586598,-1.4324371820894732,4.744615259418415,-2.5088350602183476,0.0011793890857580312,0.38939777399926484,0.47041802813418937,0.07324629083703722,-1.5190449022611299,-0.6628912376509442
107,-1.1824520452899323,-1.880558480451904,-1.3612553428823815,-1.4271793468462521,4.78405230147905,-2.535895850936952,-0.01223249820956451,0.3921807928290563,0.46880491494743204,-0.37339294750328894,-1.490218547442821,-0.2011621985136614
108,-1.1421384356748838,-1.8889880264968568,-1.356925500263192,-1.4220452253734592,4.822561413138256,-2.56231991716806,-0.025560561217478586,0.3944593705090911,0.46707564989598377,-0.5796658596764136,-1.4558224059041347,0.019886890392888823
109,-1.1027962383397147,-1.8972144509503654,-1.3526999912010913,-1.4170348176710954,4.860142594396037,-2.5881072589116725,-0.03877923747619192,0.3962488285262488,0.4652417557642754,-0.6989273532354415,-1.420322956625499,0.15360866114211646
110,-1.0644254532844304,-1.9052377538124283,-1.3485788156960794,-1.4121481237391607,4.896795845252392,-2.613257876167787,-0.051863607614092026,0.39756577499307866,0.46331459515720497,-0.7802925879932854,-1.3849119028162529,0.2491160277420888
111,-1.027026080509021,-1.9130579350830477,-1.3445619737481567,-1.4073851435776539,4.93252116570732,-2.6377717689364046,-0.06478952014900617,0.39842809951267477,0.461305330456398,-0.8420328580571798,-1.3500089020458592,0.32467806226540186
112,-0.9905981200134981,-1.9206749947622221,-1.3406494653573229,-1.4027458771865762,4.967318555760821,-2.661648937217527,-0.07753371397812461,0.39885494337722627,0.4592248886259166,-0.8922466888750207,-1.3157956174746361,0.38839108685242846
113,-0.9551415717978529,-1.9280889328499518,-1.3368412905235778,-1.3982303245659276,5.001188015412894,-2.6848893810111525,-0.09007393475673968,0.39886664717639203,0.4570839306372587,-0.9350266549752719,-1.2823626993681365,0.44434548721184447
114,-0.9206564358620897,-1.9352997493462367,-1.3331374492469217,-1.3938384857157073,5.034129544663542,-2.707493100317281,-0.10238904199846136,0.3984846782496089,0.4548928252689778,-0.9726514794016661,-1.2497602248007236,0.49481780857159735
115,-0.887142712206205,-1.942307444251077,-1.3295379415273545,-1.3895703606359158,5.066143143512762,-2.729460095135913,-0.11445910435437236,0.39773154065437627,0.4526616270255786,-1.0064868620628538,-1.2180180372315648,0.5411715812611223
116,-0.8546004008302015,-1.949112017564473,-1.3260427673648763,-1.3854259493265528,5.097228811960558,-2.750790365467049,-0.126265481128203,0.39663067045373007,0.4504000579131258,-1.0373997626006013,-1.1871549937713162,0.5842716014954369
117,-0.8230295017340818,-1.9557134692864238,-1.3226519267594867,-1.3814052517876192,5.127386550006924,-2.771483911310688,-0.13779088864772612,0.395206319164241,0.4481174928049214,-1.0659664951155843,-1.1571835752069388,0.6246920246726811
118,-0.7924300149178407,-1.9621117994169301,-1.3193654197111861,-1.377508268019114,5.156616357651864,-2.7915407326668307,-0.14901945063023073,0.3934834281650273,0.4458229481293071,-1.0925848963138163,-1.1281123579519379,0.6628285327246177
119,-0.762801940381479,-1.9683070079559921,-1.3161832462199747,-1.3737349980210372,5.1849182348953775,-2.8109608295354747,-0.1599367321463366,0.39148749676202077,0.44352507361276816,-1.1175383703965702,-1.099947420153034,0.6989623788223389
120,-0.7341452781249993,-1.9742990949036092,-1.313105406285852,-1.3700854417933894,5.212292181737464,-2.8297442019166237,-0.1705297571979916,0.38924444644327555,0.4412321468147873,-1.1410342480748685,-1.0726931815297225,0.7332987467996105
121,-0.706460028148399,-1.9800880602597817,-1.3101318999088183,-1.3665595993361708,5.238738198178127,-2.847890849810277,-0.18078701028169217,0.3867804836626006,0.43895207019599125,-1.1632277065886203,-1.0463529260099977,0.7659906721562563
122,-0.6797461904516835,-1.9856739040245093,-1.3072627270888733,-1.3631574706493805,5.26425628421736,-2.8654007732164324,-0.19069842260712405,0.38412196326147735,0.43669237046777876,-1.184237208500621,-1.0209291385561015,0.7971544823942204
123,-0.6540037650348429,-1.9910566261977924,-1.3044978878260176,-1.359879055733019,5.288846439855169,-2.882273972135093,-0.20025534388617722,0.3812952543930912,0.434460199979552,-1.2041547673098307,-0.9964237289029821,0.8268800647126848
124,-0.6292327518978853,-1.9962362267796312,-1.3018373821202502,-1.3567243545870862,5.312508665091548,-2.898510446566256,-0.20945050080035071,0.3783266105562513,0.43226233990867896,-1.223052952689489,-0.972838184152601,0.8552378738483437
125,-0.6054331510408124,-2.001212705770025,-1.2992812099715723,-1.3536933672115818,5.335242959926501,-2.914110196509922,-0.21827794339972675,0.37524204508851333,0.43010520502811916,-1.2409897811393096,-0.9501736752961933,0.8822838258288906
126,-0.5826049624636154,-2.005986063168974,-1.2968293713799828,-1.3507860936065064,5.357049324360028,-2.9290732219660915,-0.22673298078792228,0.37206721321346936,0.42799484983711966,-1.2580122000135012,-0.9284311331295424,0.9080627855777601
127,-0.5607481861662986,-2.0105562989764794,-1.2944818663454825,-1.3480025337718602,5.3779277583921274,-2.943399522934765,-0.23481210750954115,0.3688273014920793,0.4259369758512895,-1.2741586145430335,-0.9076113033686034,0.9326110979619807
128,-0.5398628221488648,-2.014923413192539,-1.2922386948680713,-1.3453426877076424,5.397878262022804,-2.9570890994159393,-0.242512922084333,0.3655469252962956,0.4239369398595624,-1.2894607504797606,-0.8877147873404106,0.9559584548810671
129,-0.5199488704113087,-2.019087405817154,-1.2900998569477486,-1.342806555413853,5.416900835252051,-2.9701419514096203,-0.24983403913028912,0.36225003470831196,0.4219997629669187,-1.3039450470472023,-0.8687420724857231,0.9781292930483827
130,-0.5010063309536399,-2.023048276850324,-1.2880653525845154,-1.3403941368904926,5.43499547807987,-2.982558078915803,-0.2567749964910527,0.3589598290527513,0.4201301402531088,-1.3176337123158306,-0.8506935555452282,0.9991438545458503
131,-0.4830352037758452,-2.026806026292051,-1.28613518177837,-1.3381054321375612,5.452162190506264,-2.9943374819344912,-0.26333615873586885,0.35569868009354955,0.41833245088891935,-1.3305455322886626,-0.8335695604115895,1.019019001396978
132,-0.46603548887793345,-2.0303606541423322,-1.2843093445293143,-1.3359404411550582,5.46840097253123,-3.0054801604656802,-0.2695186183368719,0.35248806377307823,0.4166107685626503,-1.3426964978121037,-0.8173703520379522,1.0377688482284526
133,-0.4500071862599029,-2.0337121604011683,-1.2825878408373477,-1.333899163942984,5.483711824154772,-3.0159861145093743,-0.27532409575307,0.34934850023826725,0.4149688720803348,-1.3541002950235386,-0.8020961473931484,1.0554052586834863
134,-0.4349502959217535,-2.036860545068561,-1.2809706707024693,-1.3319816005013387,5.498094745376884,-3.0258553440655724,-0.28075483956606934,0.34629950178712554,0.4134102560138035,-1.3647686923770874,-0.7877471241783611,1.0719382385764211
135,-0.42086481786348173,-2.039805808144508,-1.2794578341246803,-1.3301877508301219,5.511549736197573,-3.035087849134273,-0.2858135277228913,0.3433595282783025,0.4119381412808819,-1.3747118484348408,-0.7743234278274249,1.087376249920843
136,-0.4077507520850929,-2.042547949629011,-1.2780493311039802,-1.3285176149293338,5.524076796616832,-3.043683629715475,-0.29050317084868055,0.3405459494754113,0.4105554855518118,-1.3839385583366635,-0.7618251771767821,1.1017264636864295
137,-0.3956080985865835,-2.0450869695220693,-1.276745161640369,-1.326971192798975,5.535675926634665,-3.051642685809182,-0.2948270184991204,0.33787501374551426,0.4092649933853453,-1.3924564523580036,-0.7502524690930705,1.114994964633898
138,-0.3844368573679553,-2.0474228678236823,-1.2755453257338467,-1.3255484844390442,5.546347126251073,-3.0589650174153933,-0.2987884691308726,0.33536182249625085,0.40806912600689565,-1.4002721566929996,-0.7396053822754683,1.127186918303568
139,-0.3742370284292118,-2.04955564453385,-1.2744498233844128,-1.3242494898495425,5.55609039546605,-3.065650624534107,-0.30239098447994506,0.3330203097170527,0.4069701106495765,-1.4073914241956635,-0.7298839803975952,1.138306707827582
140,-0.36500861177034416,-2.0514852996525756,-1.2734586545920683,-1.3230742090304692,5.564905734279607,-3.0716995071653255,-0.3056380089537612,0.3308632259854264,0.4059699493870028,-1.413819241025313,-0.7210883147150802,1.1483580464490881
141,-0.3567516073913577,-2.053211833179854,-1.2725718193568127,-1.3220226419818255,5.572793142691733,-3.0771116653090465,-0.30853289456371524,0.3289021263078437,0.4050704273942806,-1.4195599138011639,-0.7132184262359342,1.1573440702909428
142,-0.3494660152922524,-2.05473524511569,-1.271789317678646,-1.3210947887036097,5.579752620702433,-3.0818870989652707,-0.3110788318518775,0.32714736118495485,0.40427312058074055,-1.42461714085342,-0.7062743475286954,1.1652674149004998
143,-0.3431518354730265,-2.0560555354600796,-1.2711111495575682,-1.3202906491958228,5.585784168311706,-3.086025808133999,-0.31327878719837515,0.32560807032128103,0.40357940254474345,-1.4289940703777286,-0.7002561042267479,1.1721302783188896
144,-0.33780906793368537,-2.057172704213026,-1.2705373149935788,-1.3196102234584648,5.590887785519552,-3.08952779281523,-0.31513544683512046,0.32429217843891206,0.40299045080717405,-1.4326933476951031,-0.6951637162740628,1.1779344728216303
145,-0.33343771267422184,-2.0580867513745265,-1.2700678139866788,-1.3190535114915356,5.595063472325975,-3.0923930530089656,-0.31665116783672115,0.32320639270172996,0.4025072522862632,-1.4357171533446216,-0.6909971989475757,1.182681467006823
146,-0.3300377696946377,-2.058797676944583,-1.269702646536868,-1.3186205132950348,5.5983112287309655,-3.094621588715202,-0.31782793631031375,0.3223562013103008,0.4021306079820327,-1.43806723335857,-0.6877565636835004,1.1863724195343217
147,-0.3276092389949383,-2.059305480923194,-1.2694418126441454,-1.318311228868963,5.600631054734535,-3.0962133999339434,-0.3186673329622877,0.3217458728865331,0.40186113684402514,-1.439744922764604,-0.6854418187283609,1.1890082055199902
148,-0.32615212057511656,-2.059610163310362,-1.269285312308512,-1.31812565821332,5.602022950336675,-3.097168486665189,-0.31917050618075116,0.32137845633068934,0.40169927880112916,-1.4407511631078307,-0.6840529696305865,1.1905894363438143
149,-0.32566641443517597,-2.059711724106083,-1.2692331455299677,-1.3180638013281056,5.602486915537387,-3.097486848908937,-0.31933815273742605,0.321255780900368,0.40164529693722395,-1.4410865145736471,-0.6835900195839353,1.1911164734254223
