nimar13/UR3e_dataset_trayectorias/data/trayectorias_completas_UR3e_TRAPEZOIDAL_FUNC/trayectoria_056.csv
Punto,shoulder_pan_joint,shoulder_lift_joint,elbow_joint,wrist_1_joint,wrist_2_joint,wrist_3_joint,Posicion_X,Posicion_Y,Posicion_Z,Roll,Pitch,Yaw
0,-2.4741018915739024,5.832087665643244,-0.8409175741457284,-2.7187367813069074,-0.9404253830771783,-3.809118462026984,-0.09060034596614532,-0.30787223150026405,0.5846572667762433,-1.2776744483214169,-0.6620855272935355,-1.6315072515448668
1,-2.4743035173277765,5.832082256238559,-0.8410253357495325,-2.71860230656583,-0.9405935144730424,-3.8085174034838043,-0.09065802263772334,-0.3078344867528773,0.584672570406564,-1.27694500651665,-0.6621681649233359,-1.631896644715868
2,-2.474908394589399,5.832066028024506,-0.841348620560945,-2.7181988823425973,-0.9410979086606349,-3.806714227854266,-0.09083098054317801,-0.30772117394425524,0.5847184540465428,-1.2747565247977435,-0.6624159533840912,-1.633064986499907
3,-2.4759165233587694,5.832038981001082,-0.8418874285799655,-2.71752650863721,-0.9419385656399557,-3.8037089351383684,-0.09111900313775123,-0.3075320575973447,0.5847948359305781,-1.2711085342753914,-0.6628285190807219,-1.6350127637369427
4,-2.4773279036358886,5.83200111516829,-0.8426417598065944,-2.7165851854496674,-0.9431154854110049,-3.7995015253361117,-0.09152172879142466,-0.30726674599247195,0.5849015797405672,-1.2660002535530654,-0.663405238323987,-1.6377407879124533
5,-2.4791425354207557,5.831952430526128,-0.8436116142408314,-2.71537491277997,-0.9446286679737823,-3.794091998447496,-0.09203864970915641,-0.306924692283867,0.5850384945430439,-1.2594305888692747,-0.664145235783451,-1.6412501952717746
6,-2.481360418713371,5.8318929270745965,-0.8447969918826768,-2.7138956906281178,-0.946478113328288,-3.7874803544725215,-0.09266911042599381,-0.3065051960696027,0.5852053347017568,-1.2513981343245137,-0.6650473823199085,-1.6455424469520428
7,-2.483981553513735,5.831822604813697,-0.8461978927321303,-2.71214751899411,-0.9486638214745221,-3.779666593411188,-0.09341230588387857,-0.3060074054216839,0.5854017997662576,-1.2419011722210798,-0.6661102921956858,-1.6506193291031857
8,-2.4870059398218465,5.831741463743427,-0.8478143167891922,-2.710130397877948,-0.9511857924124845,-3.7706507152634954,-0.09426727909899851,-0.30543031938491083,0.585627534337257,-1.230937673552608,-0.6673323196609912,-1.656482952960692
9,-2.490433577637707,5.831649503863788,-0.8496462640538621,-2.7078443272796306,-0.9540440261421752,-3.7604327200294434,-0.09523291843061771,-0.3047727909549397,0.5858821279096568,-1.2185052986892428,-0.6687115549143468,-1.6631357548236776
10,-2.494264466961315,5.831546725174779,-0.8516937345261405,-2.705289307199158,-0.9572385226635942,-3.749012607709033,-0.09630795446445374,-0.304033530547714,0.5861651146943381,-1.204601398314041,-0.6702458194352588,-1.670580495882069
11,-2.498498607792672,5.8314331276764015,-0.853956728206027,-2.702465337636531,-0.9607692819767416,-3.736390378302263,-0.09749095652590795,-0.30321110997412465,0.5864759734199592,-1.1892230146764218,-0.6719326606875768,-1.6788202618263917
12,-2.503136000131777,5.831308711368655,-0.8564352450935218,-2.6993724185917487,-0.9646363040816173,-3.722566031809134,-0.09878032884074954,-0.302303966935337,0.5868141271161811,-1.1723668832395469,-0.6737693461926098,-1.6878584621625454
13,-2.50817664397863,5.831173476251538,-0.8591292851886247,-2.6960105500648117,-0.9688395889782213,-3.707539568229646,-0.10017430636327704,-0.3013104100557109,0.5871789428799059,-1.1540294348102766,-0.6757528569720097,-1.6976988291421307
14,-2.513620539333232,5.831027422325053,-0.862038848491336,-2.6923797320557195,-0.9733791366665536,-3.6913109875637993,-0.1016709502944887,-0.300228624471612,0.5875697316262897,-1.1342067982531288,-0.6778798803617473,-1.708345416206069
15,-2.5194676861955814,5.830870549589198,-0.8651639350016554,-2.688479964564472,-0.9782549471466142,-3.6738802898115934,-0.1032681433154232,-0.2990566779956474,0.5879857478264593,-1.112894803903339,-0.6801468022003279,-1.7198025958255785
16,-2.5257180845656797,5.830702858043974,-0.8685045447195833,-2.68431124759107,-0.9834670204184032,-3.6552474749730286,-0.10496358456359392,-0.29779252787694116,0.5884261892340343,-1.0900889878088897,-0.6825496983966908,-1.7320750566097782
17,-2.532371734443526,5.830524347689381,-0.8720606776451192,-2.6798735811355128,-0.9890153564819204,-3.635412543048105,-0.10675478438331326,-0.29643402817900344,0.5888901966027313,-1.0657845969471673,-0.6850843258861661,-1.745167799533405
18,-2.5394286358291205,5.830335018525418,-0.8758323337782634,-2.6751669651978003,-0.994899955337166,-3.614375494036822,-0.10863905888372517,-0.29497893779745815,0.5893768533974979,-1.0399765955788958,-0.6877461129865285,-1.7590861331211871
19,-2.546888788722463,5.830134870552087,-0.8798195131190159,-2.6701913997779334,-1.00112081698414,-3.59213632793918,-0.11061352434151908,-0.29342492914044727,0.5898851855017991,-1.0126596729199802,-0.6905301491705373,-1.7738356674074367
20,-2.554752193123554,5.8299239037693855,-0.8840222156673766,-2.6649468848759112,-1.007677941422842,-3.5686950447551786,-0.11267509148858731,-0.29176959749482406,0.5904141609238595,-0.9838282523310236,-0.6934311742767177,-1.7894223064703814
21,-2.5630188490323933,5.829702118177314,-0.8884404414233454,-2.6594334204917343,-1.0145713286532727,-3.544051644484819,-0.11482045972832437,-0.2900104711013054,0.5909626895048294,-0.9534765022443608,-0.696443567186432,-1.805852239320743
22,-2.571688756448981,5.829469513775875,-0.8930741903869227,-2.653651006625402,-1.0218009786754316,-3.5182061271280998,-0.11704611132784165,-0.28814502196154373,0.5915296226320269,-0.9215983490693522,-0.6995613340026938,-1.8231319289032548
23,-2.580761915373317,5.829226090565066,-0.8979234625581081,-2.647599643276915,-1.0293668914893188,-3.4911584926850217,-0.11934830563706618,-0.28617067739956337,0.5921137529605888,-0.8881874923382371,-0.7027780957749017,-1.8412680989483852
24,-2.5902383258054007,5.828971848544887,-0.9029882579369017,-2.641279330446273,-1.0372690670949343,-3.4629087411555846,-0.12172307338954177,-0.2840848323991843,0.5927138141470184,-0.8532374223766882,-0.7060870758236651,-1.8602677183898237
25,-2.600117987745233,5.82870678771534,-0.9082685765233036,-2.6346900681334757,-1.045507505492278,-3.4334568725397885,-0.1241662111436931,-0.28188486273787655,0.5933284805983225,-0.8167414408050588,-0.7094810867314573,-1.8801379830415692
26,-2.610400901192814,5.828430908076422,-0.9137644183173138,-2.6278318563385237,-1.0540822066813502,-3.4028028868376334,-0.1266732759273737,-0.2795681389359319,0.5939563672405868,-0.7786926841975247,-0.7129525170780104,-1.90088629420746
27,-2.6210870661481427,5.828144209628136,-0.9194757833189321,-2.620704695061417,-1.0629931706621507,-3.370946784049119,-0.12923958015269765,-0.27713204103790146,0.5945960293110072,-0.7390841512463022,-0.7164933180142289,-1.922520233876169
28,-2.6321764826112197,5.82784669237048,-0.9254026715281588,-2.6133085843021546,-1.0722403974346795,-3.337888564174246,-0.13186018687235032,-0.27457397424084784,0.5952459621775954,-0.6979087337961885,-0.7200949897852101,-1.9450475361368678
29,-2.643669150582045,5.827538356303456,-0.9315450829449936,-2.605643524060738,-1.0818238869989365,-3.3036282272130135,-0.13452990545289994,-0.27189138538113583,0.5959046011909098,-0.6551592521295396,-0.7237485683315871,-1.9684760544360955
30,-2.655565070060619,5.827219201427061,-0.9379030175694367,-2.597709514337166,-1.091743639354922,-3.2681657731654226,-0.13724328774491912,-0.2690817802881383,0.5965703215723731,-0.6108284948926416,-0.7274446121191409,-1.992813724285836
31,-2.667864241046941,5.826889227741298,-0.944476475401488,-2.589506555131439,-1.1019996545026358,-3.231501202031472,-0.13999462483406663,-0.26614274200939664,0.59724143834386,-0.564909264059565,-0.7311731893692429,-2.0180685210278972
32,-2.680566663541011,5.826548435246165,-0.9512654564411477,-2.581034646443557,-1.1125919324420779,-3.193634513811163,-0.14277794446154554,-0.26307194990737454,0.5979162063034503,-0.5173944253275476,-0.7349238658873593,-2.044248412262089
33,-2.6936723375428295,5.826196823941663,-0.9582699606884154,-2.5722937882735204,-1.1235204731732482,-3.1545657085044945,-0.14558700920659737,-0.2598671996229709,0.5985928200523489,-0.4682769643267866,-0.7386856937132787,-2.0713613045571377
34,-2.707181263052396,5.825834393827791,-0.9654899881432916,-2.5632839806213283,-1.1347852766961468,-3.114294786111467,-0.1484153155277666,-0.2565264238953885,0.5992694140781811,-0.417550049005227,-0.7424472008448364,-2.0994149840859437
35,-2.721093440069711,5.825461144904551,-0.9729255388057758,-2.5540052234869814,-1.146386343010774,-3.072821746632081,-0.1512560937636436,-0.2530477142217484,0.5999440628999773,-0.36520709851307337,-0.7461963823163259,-2.1284170508630043
36,-2.735408868594774,5.825077077171941,-0.9805766126758684,-2.5444575168704797,-1.1583236721171293,-3.0301465900663356,-0.15410230919750265,-0.24942934333299013,0.6006147812803356,-0.3112418588600063,-0.7499206929430522,-2.1583748463139676
37,-2.7501275486275856,5.824682190629962,-0.9884432097535691,-2.5346408607718227,-1.170597264015213,-2.986269316414231,-0.1569466642937382,-0.24566978845506438,0.6012795245103656,-0.2556484855476782,-0.753607042074083,-2.189295373978089
38,-2.765249480168145,5.824276485278613,-0.9965253300388782,-2.524555255191011,-1.1832071187050248,-2.941189925675767,-0.1597816022171083,-0.2417677553162116,0.6019361887731637,-0.1984216332885885,-0.7572417907252803,-2.2211852132362884
39,-2.7807746632164534,5.823859961117895,-1.0048229735317955,-2.514200700128044,-1.1961532361865652,-2.894908417850945,-0.1625993117485412,-0.23772220285218565,0.602582611591678,-0.1395565528071239,-0.7608107514933236,-2.254050426073268
40,-2.7967030977725096,5.823432618147808,-1.0133361402323209,-2.5035771955829222,-1.2094356164598339,-2.8474247929397634,-0.16539173371349755,-0.23353236855164405,0.6032165723669369,-0.0790491945773676,-0.7642991916773713,-2.287896457023812
41,-2.813034783836314,5.822994456368352,-1.0220648301404547,-2.492684741555646,-1.2230542595248308,-2.7987390509422228,-0.1681505690405808,-0.2291977943735557,0.6038357930127158,-0.01689631918327283,-0.7676918400569365,-2.3227280266229267
42,-2.8297697214078665,5.822545475779526,-1.0310090432561967,-2.4815233380462143,-1.237009165381556,-2.748851191858323,-0.1708672885691322,-0.2247183531573896,0.6044379386928055,0.046904386211062965,-0.7709728977907937,-2.3585490188778198
43,-2.8469079104871677,5.822085676381331,-1.040168779579547,-2.4700929850546274,-1.2513003340300095,-2.6977612156880646,-0.1735331447248637,-0.22009427543504692,0.6050206186671223,0.11235418602002552,-0.774126053910528,-2.395362363507077
44,-2.8644493510742173,5.821615058173767,-1.0495440391105053,-2.4583936825808856,-1.2659277654701915,-2.6454691224314466,-0.17613918518206587,-0.21532617654099165,0.6055813872529563,0.1794531700175739,-0.7771345058816093,-2.4331699139474634
45,-2.8823940431690147,5.821133621156833,-1.0591348218490722,-2.446425430624989,-1.2808914597021017,-2.59197491208847,-0.17867626862947128,-0.21041508390386418,0.6061177449077148,0.24820012401356753,-0.7799809856925864,-2.4719723224086643
46,-2.9007419867715605,5.82064136533053,-1.068941127795247,-2.4341882291869372,-1.2961914167257402,-2.5372785846591346,-0.1811350827543737,-0.20536246438903014,0.6066271394395327,0.3185923989973887,-0.7826477919069094,-2.511768913556133
47,-2.919493181881854,5.8201382906948576,-1.0789629569490302,-2.4216820782667305,-1.311827636541107,-2.4813801401434397,-0.18350616455595345,-0.20017025154711035,0.6071069673521456,0.39062578063281994,-0.7851168280699217,-2.552557558714829
48,-2.9386476284998966,5.819624397249816,-1.0892003093104217,-2.408906977864369,-1.3278001191482023,-2.4242795785413866,-0.18577992309386027,-0.19484087260855568,0.6075545753304146,0.46429436130313906,-0.7873696478037924,-2.594334552802297
49,-2.958205326625687,5.819099684995406,-1.0996531848794213,-2.3958629279798527,-1.3441088645470256,-2.3659768998529738,-0.18794666477182323,-0.18937727504891225,0.6079672618728569,0.5395904172110406,-0.7893875068439479,-2.6370944965058873
50,-2.9781438733976846,5.81856475497659,-1.1103096101444954,-2.3825648702510787,-1.3607351914713703,-2.3065388883607767,-0.18999441192879218,-0.18378923961279767,0.6083418843199703,0.6164179388361263,-0.7911496102387878,-2.680781052451026
51,-2.998172031615848,5.818027420777915,-1.1210139294557047,-2.3692070459707146,-1.3774362434605436,-2.2468337397382783,-0.19188759154460966,-0.17816275842766643,0.6086713650620141,0.693641844759532,-0.7926186978680774,-2.724745039400334
52,-3.018200189834012,5.81749008657924,-1.131718248766914,-2.3558492216903506,-1.3941372954497169,-2.1871285911157803,-0.19361686748128756,-0.17252796990033806,0.608953959106674,0.7709013238361646,-0.7937854947280817,-2.768775469739709
53,-3.0382283480521752,5.816952752380565,-1.1424225680781233,-2.3424913974099866,-1.41083834743889,-2.127423442493282,-0.19518263943260505,-0.16688992124054286,0.6091897198455698,0.8481805080556941,-0.7946496872113238,-2.812857287916792
54,-3.0582565062703386,5.81641541818189,-1.1531268873893326,-2.3291335731296225,-1.4275393994280632,-2.067718293870784,-0.19658547181859987,-0.16125364014717172,0.6093787102801974,0.9254633897621019,-0.7952113344655418,-2.856975302153786
55,-3.0782846644885025,5.815878083983215,-1.1638312067005416,-2.3157757488492585,-1.4442404514172362,-2.0080131452482854,-0.19782609320445413,-0.15562412918200408,0.6095210029858897,1.0027338951257874,-0.7954708704983275,-2.901114258200513
56,-3.098312822706666,5.81534074978454,-1.1745355260117512,-2.302417924568894,-1.4609415034064095,-1.948307996625787,-0.19890539552095912,-0.15000636015524582,0.6096166800732739,1.0799759583829385,-0.7954291041094317,-2.945258913852222
57,-3.1183409809248293,5.814803415585865,-1.1852398453229602,-2.28906010028853,-1.4776425553955828,-1.8886028480032886,-0.1998244330865857,-0.14440526853002528,0.6096658331472415,1.15717359596399,-0.7950872166476813,-2.989394113354102
58,-3.138369139142993,5.81426608138719,-1.1959441646341697,-2.275702276008166,-1.494343607384756,-1.8288976993807906,-0.20058442143146507,-0.13882574785301746,0.6096685632634566,1.234310979635418,-0.7944467576193265,-3.0335048608169135
59,-3.158397297361156,5.813728747188515,-1.2066484839453788,-2.262344451727802,-1.5110446593739293,-1.7691925507582922,-0.201186735923821,-0.13327264421836232,0.6096249808824101,1.3113725078008414,-0.7935096382039964,-3.077576391789821
60,-3.17842545557932,5.81319141298984,-1.2173528032565883,-2.248986627447438,-1.5277457113631023,-1.7094874021357942,-0.2016329101996925,-0.12775075077204223,0.6095352058210434,1.3883428741474897,-0.7922781227623819,-3.121594242176635
61,-3.1984536137974833,5.812654078791165,-1.2280571225677974,-2.235628803167074,-1.5444467633522756,-1.6497822535132958,-0.20192463439701688,-0.12226480226386635,0.6093993672019636,1.465207132881305,-0.7907548184457841,3.1176409934407543
62,-3.218481772015647,5.81211674459249,-1.238761441879007,-2.22227097888671,-1.5611478153414489,-1.5900771048907973,-0.20206375319542996,-0.11681946965418158,0.6092176034002613,1.541950759866171,-0.7889426630410755,3.073772371678636
63,-3.2385099302338105,5.811579410393815,-1.249465761190216,-2.208913154606346,-1.577848867330622,-1.530371956268299,-0.20205226366338533,-0.11141935478239884,0.6089900619879632,1.6185597090677324,-0.7868449112049678,3.0299983867206444
64,-3.2585380884519743,5.81104207619514,-1.2601700805014253,-2.195555330325982,-1.5945499193197952,-1.470666807645801,-0.20189231291447776,-0.10606898510437283,0.608716899676133,1.695020463797031,-0.7844651192583096,2.986331690092817
65,-3.2785662466701373,5.810504741996465,-1.2708743998126346,-2.182197506045618,-1.6112509713089684,-1.4109616590233025,-0.20158619557509166,-0.10077280850562369,0.6083982822546453,1.7713200823509145,-0.7818071287243292,2.942784351941281
66,-3.298594404888301,5.80996740779779,-1.281578719123844,-2.1688396817652533,-1.6279520232981415,-1.3512565104008045,-0.201136351065774,-0.09553518819731847,0.6080343845296599,1.8474462377516805,-0.7788750488039525,2.899367821032524
67,-3.318622563106465,5.809430073599115,-1.2922830384350532,-2.1554818574848893,-1.6446530752873147,-1.291551361778306,-0.20054536069898338,-0.09036039770186201,0.6076253902588091,1.9233872513947006,-0.7756732379867182,2.856092890847039
68,-3.338650721324628,5.80889273940044,-1.3029873577462625,-2.1421240332045253,-1.661354127276488,-1.2318462131558077,-0.19981594459611657,-0.08525261593485715,0.6071714920841386,1.9991321205169865,-0.7722062849973781,2.8129696718533115
69,-3.3586788795427918,5.808355405201765,-1.3136916770574718,-2.1287662089241612,-1.6780551792656613,-1.1721410645333092,-0.19895095842697286,-0.08021592239010265,0.606672891462811,2.0746705394992087,-0.7684789892762545,2.7700075699496147
70,-3.378707037760955,5.80781807100309,-1.3243959963686809,-2.115408384643797,-1.6947562312548343,-1.1124359159108108,-0.19795338997506176,-0.07525429243419639,0.6061297985956132,2.14999291510623,-0.7644963411861126,2.727215270968501
71,-3.3987351959791186,5.807280736804415,-1.3351003156798904,-2.102050560363433,-1.7114572832440076,-1.0527307672883133,-0.19682635553241026,-0.07037159271719166,0.6055424323532792,2.2250903758551304,-0.7602635021300139,2.684600731055
72,-3.4187633541972824,5.80674340260574,-1.3458046349910995,-2.088692736083069,-1.7281583352331806,-0.9930256186658148,-0.19557309612775692,-0.06557157670564263,0.6049110202006684,2.2999547757733434,-0.7557857847538773,2.6421711726559005
73,-3.438791512415446,5.806206068407065,-1.356508954302309,-2.075334911802705,-1.7448593872223541,-0.9333204700433164,-0.19419697359227953,-0.06085788034423395,0.6042357981188196,2.374578692872093,-0.7510686333945428,2.599933085794893
74,-3.458819670633609,5.80566873420839,-1.367213273613518,-2.061977087522341,-1.7615604392115272,-0.873615321420818,-0.19270146646720698,-0.05623401785205641,0.6035170105249154,2.448955422711354,-0.74611760491973,2.5578922342573986
75,-3.4788478288517726,5.805131400009715,-1.3779175929247274,-2.048619263241977,-1.7782614912007002,-0.8139101727983205,-0.19109016575792412,-0.05170337765943796,0.6027549101901772,2.523078967471745,-0.7409383500905508,2.516053666269668
76,-3.4988759870699364,5.80459406581104,-1.3886219122359367,-2.035261438961613,-1.7949625431898737,-0.7542050241758211,-0.18936677053938183,-0.04726921849108237,0.6019497581557333,2.596944020976623,-0.7355365955609678,2.474421729228927
77,-3.5189041452881,5.8040567316123655,-1.3993262315471462,-2.021903614681249,-1.811663595179047,-0.6944998755533227,-0.18753508341785163,-0.042934665601105364,0.6011018236464778,2.6705459501245166,-0.7299181266118657,2.4330000880244604
78,-3.5389323035062636,5.80351939741369,-1.4100305508583553,-2.008545790400885,-1.82836464716822,-0.6347947269308243,-0.18559900585427538,-0.038702707165374536,0.6002113839829628,2.743880773198968,-0.7240887707008546,2.391791746482645
79,-3.558960461724427,5.8029820632150155,-1.4207348701695648,-1.9951879661205207,-1.8450656991573933,-0.5750895783083267,-0.18356253335466466,-0.03457619083639028,0.5992787244913462,2.8169451355205744,-0.7180543818927101,2.3507990714711795
80,-3.5789886199425904,5.80244472901634,-1.4314391894807739,-1.9818301418401567,-1.8617667511465663,-0.5153844296858283,-0.18142975053320745,-0.03055782046573972,0.5983041384114363,2.889736282895956,-0.7118208262198394,2.3100238192078932
81,-3.5990167781607543,5.801907394817666,-1.4421435087919832,-1.9684723175597925,-1.8784678031357396,-0.4556792810633299,-0.17920482605393115,-0.026650152998969646,0.5972879268028555,2.9622520333014672,-0.7053939680075341,2.2694671633363908
82,-3.619044936378917,5.80137006061899,-1.4528478281031925,-1.9551144932794284,-1.8951688551249128,-0.39597413244083146,-0.17689200745695588,-0.022855595547512694,0.5962303984493711,3.034490747217159,-0.6987796571852322,2.22912972435315
83,-3.639073094597081,5.800832726420316,-1.4635521474144015,-1.9417566689990644,-1.9118699071140859,-0.3362689838183339,-0.1744956158755556,-0.01917640264208738,0.5951318697614114,3.1064512969997757,-0.6919837175926161,2.1890115999974062
84,-3.6591012528152445,5.80029539222164,-1.474256466725611,-1.9283988447187004,-1.9285709591032592,-0.2765638351958355,-0.17202004065040694,-0.01561467367177998,0.5939926646768139,-3.1050522715258495,-0.6850119362783295,2.1491123962450254
85,-3.679129411033408,5.799758058022966,-1.4849607860368201,-1.9150410204383363,-1.9452720110924322,-0.21685868657333707,-0.16946973384758474,-0.012172350512780554,0.5928131145598342,-3.0336495418525478,-0.6778700537792669,2.109431258579563
86,-3.6991575692515717,5.79922072382429,-1.4956651053480297,-1.9016831961579723,-1.9619730630816055,-0.15715353795083864,-0.16684920468699496,-0.008851215350520516,0.5915935580984554,-2.962525601353665,-0.6705637553599892,2.0699669032468617
87,-3.719185727469735,5.798683389625615,-1.5063694246592387,-1.8883253718776083,-1.9786741150707787,-0.0974483893283411,-0.1641630138881122,-0.005652888698715235,0.5903343412000285,-2.891679843771067,-0.6630986631845732,2.030717648233155
88,-3.739213885687899,5.79814605542694,-1.5170737439704483,-1.874967547597244,-1.995375167059952,-0.037743240705841785,-0.16141576793999785,-0.002578827618574848,0.5890358168852877,-2.8211113070949008,-0.6554803293873387,1.991681443739685
89,-3.7592420439060623,5.797608721228265,-1.5277780632816573,-1.86160972331688,-2.012076219049125,0.021961907916656642,-0.15861211330272795,0.00036967585880460195,0.5876983451807729,-2.750818703562726,-0.6477142300040598,1.9528559019592036
90,-3.779270202124226,5.7970713870295905,-1.5384823825928668,-1.848251899036516,-2.0287772710382983,0.08166705653915507,-0.15575673054746816,0.0031914961041195015,0.5863222930096958,-2.6808004487934216,-0.6398057597216297,1.9142383259904237
91,-3.799298360342389,5.796534052830915,-1.549186701904076,-1.834894074756152,-2.0454783230274716,0.1413722051616526,-0.15285432844254487,0.005885675053099606,0.584908034081294,-2.611054689920763,-0.6317602274014269,1.8758257377555883
92,-3.819326518560553,5.7959967186322405,-1.5598910212152854,-1.821536250475788,-2.062179375016645,0.20107735378415104,-0.14990963799297366,0.008451423159089196,0.583455948778703,-2.541579332618487,-0.6235828523298228,1.8376149048132564
93,-3.8393546767787163,5.795459384433565,-1.5705953405264945,-1.808178426195424,-2.078880427005818,0.26078250240664946,-0.1469274064409823,0.010888120132999633,0.5819664240453943,-2.4723720669334384,-0.6152787611482669,1.7996023659832292
94,-3.8593828349968797,5.794922050234891,-1.581299659837704,-1.7948206019150597,-2.0955814789949914,0.3204876510291479,-0.14391239123516544,0.013195315468941562,0.5804398532702093,-2.4034303918658306,-0.606852985415065,1.7617844557229732
95,-3.8794109932150436,5.794384716036215,-1.5920039791489131,-1.7814627776346956,-2.1122825309841646,0.38019279965164543,-0.14086935397596845,0.015372728754124477,0.5788766361710384,-2.3347516386557534,-0.5983104597512074,1.7241573272150548
96,-3.8994391514332065,5.793847381837541,-1.6027082984601222,-1.7681049533543316,-2.1289835829733375,0.43989794827414386,-0.13780305434526746,0.017420249761880818,0.5772771786771722,-2.266332992752898,-0.5896560205234133,1.6867169741429384
97,-3.9194673096513704,5.793310047638865,-1.6134126177713317,-1.7547471290739676,-2.1456846349625107,0.4996030968966423,-0.13471824402786067,0.019337938326964024,0.5756418928103845,-2.198171514462002,-0.580894405018711,1.6494592511480506
98,-3.9394954678695338,5.792772713440191,-1.6241169370825408,-1.7413893047936035,-2.1623856869516835,0.5593082455191407,-0.13161966063273672,0.02112602400254622,0.5739711965647669,-2.1302641582699633,-0.5720302510664088,1.612379892974548
99,-3.9595236260876976,5.792235379241515,-1.6348212563937503,-1.7280314805132393,-2.1790867389408572,0.6190133941416391,-0.12851202162200046,0.022784905498625725,0.5722655137853699,-2.0626077908719647,-0.5630680970651021,1.5754745323195676
100,-3.9794621728596944,5.7917004492227,-1.6454776816588244,-1.7147334227844655,-2.1957130658652018,0.6784514056338349,-0.12541394501243447,0.0243085886358272,0.5705331366733555,-1.9955002652860292,-0.554053102017638,1.5389027115629403
101,-3.999019870985485,5.791175736968289,-1.6559305572278242,-1.701689372899949,-2.2120218112640253,0.7367540843222491,-0.12237528063752606,0.0256800069744143,0.5688009909630645,-1.929910045162041,-0.5451243533168093,1.5031883935650965
102,-4.018174317603528,5.790661843523248,-1.6661679095892155,-1.6889142724975874,-2.227994293871121,0.793854645924303,-0.11940366519027731,0.0269057306362309,0.5670734144839812,-1.865895265855391,-0.5363010267203143,1.4683588956861071
103,-4.036925512713822,5.790158768887576,-1.6761897387429985,-1.676408121577381,-2.2436305136864876,0.8497530904399984,-0.11650270421024286,0.027993992647578545,0.5653527314555742,-1.8034391659571318,-0.5275915587154553,1.4344010259201319
104,-4.0552734563163675,5.789666513061273,-1.6859960446891733,-1.6641709201393293,-2.2589304707101263,0.9044494178693308,-0.11367548161530312,0.028952881275400976,0.563641181352302,-1.7425256209502884,-0.5190037665387277,1.4013022579393941
105,-4.073218148411165,5.7891850760443395,-1.6955868274277404,-1.6522026681834328,-2.2738941649420363,0.9579436282123082,-0.11092458991826917,0.029790318743667957,0.5619409205207755,-1.6831391341727304,-0.5105448880410848,1.3690507170217372
106,-4.090759588998214,5.788714457836775,-1.7049620869586988,-1.6405033657096912,-2.2885215963822185,1.0102357214689262,-0.1082521603688372,0.030514042615266728,0.5602540238494927,-1.6252648250684192,-0.5022216193255589,1.3376351632243695
107,-4.107897778077515,5.78825465843858,-1.7141218232820488,-1.6290730127181048,-2.3028127650306707,1.0613256976391847,-0.10565989286241109,0.031131589705903028,0.5585824864832393,-1.5688884153618126,-0.4940401502311374,1.30704497244419
108,-4.124632715649067,5.787805677849754,-1.723066036397791,-1.617911609208673,-2.3167676708873963,1.1112135567230856,-0.10314908547401105,0.03165028239260978,0.5569282255746224,-1.51399621369088,-0.48600619774711257,1.2772701159060642
109,-4.140964401712873,5.787367516070298,-1.7317947263059248,-1.6070191551813953,-2.3303863139523937,1.1598992987206245,-0.10072066349156657,0.032077217176896905,0.5552930820655998,-1.4605750991474336,-0.4781250374490039,1.2483011385341878
110,-4.156892836268929,5.78694017310021,-1.74030789300645,-1.5963956506362738,-2.3436686942256624,1.2073829236318057,-0.09837520783826748,0.03241925536122359,0.553678822492219,-1.4086125040982822,-0.47040153305104543,1.2201291365868876
111,-4.172418019317236,5.786523648939493,-1.7486055364993676,-1.5860410955733075,-2.3566148117072023,1.25366443145663,-0.09611298278830058,0.03268301569726017,0.5520871408061431,-1.358096396596142,-0.4628401641718988,1.1927457348708648
112,-4.187539950857796,5.786117943588144,-1.7566876567846765,-1.5759554899924957,-2.369224666397015,1.298743822195095,-0.09393396289414377,0.032874868865129754,0.550519660206905,-1.3090152626334561,-0.4554450524101648,1.1661430637955639
113,-4.202258630890608,5.785723057046165,-1.7645542538623773,-1.566138833893838,-2.3814982582950988,1.3426210958471962,-0.09183785905665547,0.0330009336444801,0.5489779349791424,-1.2613580884449467,-0.44821998582474337,1.1403137364811504
114,-4.21657405941567,5.785338989313555,-1.7722053277324699,-1.5565911272773365,-2.393435587401454,1.3852962524129415,-0.08982414368140557,0.033067074640608755,0.5474634523294276,-1.215114343024223,-0.4411684419126215,1.1152508260933511
115,-4.230486236432986,5.784965740390314,-1.779640878394954,-1.5473123701429896,-2.405036653716081,1.4267692918923283,-0.08789207487609585,0.033078901431962675,0.5459776342175962,-1.1702739609857005,-0.43429360917334076,1.0909478435444186
116,-4.243995161942553,5.784603310276443,-1.7868609058498302,-1.5383025624907976,-2.4163014572389785,1.4670402142853565,-0.08604071965445327,0.033041769008945635,0.5445218391777945,-1.1268273258740578,-0.427598407345677,1.0673987156707565
117,-4.257100835944371,5.78425169897194,-1.7938654100970983,-1.5295617043207608,-2.4272299979701493,1.5061090195920261,-0.08426897612170424,0.03296077937811697,0.5430973641247683,-1.0847652539993966,-0.42108550639783476,1.044597763973536
118,-4.269803258438442,5.783910906476808,-1.8006543911367576,-1.521089795632879,-2.4378222759095918,1.5439757078123328,-0.08257559462563654,0.03284078421037632,0.541705446141186,-1.0440789788560256,-0.4147573443481223,1.0225396839885874
119,-4.2821024294247625,5.783580932791044,-1.807227848968809,-1.5128868364271522,-2.4480782910573056,1.5806402789462837,-0.08095919786533541,0.03268638841655429,0.5403472642420635,-1.004760136165879,-0.4086161439886528,1.0012195253349168
120,-4.293998348903337,5.7832617779146505,-1.8135857835932523,-1.5049528267035803,-2.457998043413291,1.616102732993875,-0.07941829995700517,0.03250195453895206,0.5390239411126247,-0.9668007495739457,-0.4026639285800397,0.980632672477381
121,-4.3054910168741625,5.782953441847625,-1.819728195010087,-1.4972877664621633,-2.467581532977549,1.6503630699551088,-0.07795132446283343,0.03229160785259501,0.5377365448161685,-0.9301932170114349,-0.3969025365807496,0.9607748262276073
122,-4.316580433337239,5.782655924589969,-1.8256550832193135,-1.4898916557029014,-2.4768287597500778,1.6834212898299814,-0.07655662139467896,0.03205924207538513,0.5364860904687596,-0.894930297733408,-0.3913336354703792,0.9416419859978309
123,-4.327266598292568,5.782369226141683,-1.8313664482209322,-1.482764494425794,-2.4857397237308776,1.7152773926184945,-0.07523248320949436,0.031808525591765974,0.5352735418777761,-0.8610051000299683,-0.38595873472197817,0.9232304328147938
124,-4.337549511740149,5.782093346502766,-1.836862290014942,-1.475906282630842,-2.49431442491995,1.74593137832065,-0.07397715981785113,0.03154290809998342,0.5340998131415722,-0.8284110696043148,-0.38077919797454207,0.9055367130947495
125,-4.347429173679981,5.781828285673219,-1.8421426086013437,-1.4693170203180452,-2.502552863317294,1.7753832469364461,-0.07278887263077347,0.03126562759846602,0.5329657702076991,-0.797141978606226,-0.37579625445296816,0.8885576231757417
126,-4.356905584112065,5.78157404365304,-1.8472074039801378,-1.4629967074874033,-2.5104550389229083,1.8036329984658845,-0.0716658276733044,0.030979717632205715,0.5318722323873408,-0.7671919153059907,-0.371011009679148,0.8722901945995668
127,-4.3659787430364005,5.7813306204422314,-1.8520566761513226,-1.4569453441389162,-2.518020951736796,1.8306806329089635,-0.07060622779591832,0.030688014725304403,0.5308199738237849,-0.7385552743911797,-0.3664244555144326,0.8567316801329227
128,-4.374648650452988,5.781098016040791,-1.8566904251149,-1.4511629302725844,-2.5252506017589544,1.8565261502656796,-0.06960828401702293,0.03039316593097005,0.5298097249129259,-0.7112267478666378,-0.3620374795705267,0.8418795405150612
129,-4.382915306361828,5.780876230448721,-1.8611086508708694,-1.445649465888407,-2.5321439889893855,1.8811695505360397,-0.06867022603145839,0.030097636435256862,0.528842173673963,-0.6852013165368928,-0.35785087402278515,0.8277314319176873
130,-4.390778710762919,5.78066526366602,-1.8653113534192294,-1.4404049509863852,-2.538701113428088,1.9046108337200405,-0.06779031192109623,0.029803717155631796,0.5279179670686017,-0.6604742420493152,-0.3538653438571217,0.8142851941018127
131,-4.398238863656262,5.780465115692687,-1.8692985327599823,-1.435429385566518,-2.5449219750750625,1.9268499998176853,-0.0669668371044122,0.029513532280094693,0.5270377122672047,-0.6370410594760287,-0.3500815145790451,0.8015388392555924
132,-4.405295765041855,5.780275786528725,-1.8730701888931267,-1.4307227696288058,-2.550806573930306,1.9478870488289672,-0.06619814256230283,0.029229046696994488,0.5262019778604872,-0.6148975704126236,-0.346499939410915,0.7894905414968972
133,-4.411949414919702,5.780097276174131,-1.876626321818662,-1.4262851031732482,-2.5563549099938236,1.967721980753888,-0.0654826223774254,0.028952073269883728,0.5254112950154564,-0.5940398365718672,-0.34312110600120593,0.7781386270242853
134,-4.4181998132897995,5.779929584628908,-1.8799669315365906,-1.4221163861998463,-2.5615669832656143,1.9863547955924545,-0.06481873062406142,0.028684279915777863,0.5246661585744247,-0.5744641738513071,-0.3399454426674476,0.7674815649003486
135,-4.42404696015215,5.779772711893052,-1.8830920180469095,-1.4182166187085992,-2.566442793745673,2.0037854933446617,-0.06420498764488188,0.028427196448928268,0.5239670280960339,-0.5561671468541939,-0.33697332419253245,0.7575179584516191
136,-4.429490855506751,5.779626657966567,-1.886001581349621,-1.4145858006995073,-2.570982341434006,2.0200140740105095,-0.06363998575013452,0.02818222115580506,0.523314328837314,-0.5391455638440253,-0.3342050771922252,0.7482465372698972
137,-4.434531499353604,5.779491422849451,-1.8886956214447244,-1.411223932172569,-2.57518562633061,2.0350405375899943,-0.06312239437365037,0.027950627070302818,0.5227084526759165,-0.5233964721140313,-0.33164098507007195,0.7396661498004191
138,-4.43916889169271,5.779367006541704,-1.8911741383322185,-1.4081310131277864,-2.579052648435486,2.048864884083125,-0.06265096471872615,0.027733567921319268,0.5221497589717341,-0.5089171537538562,-0.32928129257425015,0.7317757565030184
139,-4.443403032524065,5.779253409043327,-1.8934371320121053,-1.4053070435651596,-2.5825834077486336,2.0614871134898944,-0.062224533925402774,0.027532083727771266,0.521638575367199,-0.4957051217969346,-0.3271262099694819,0.7245744235732814
140,-4.447233921847676,5.779150630354318,-1.8954846024843839,-1.402752023484687,-2.5857779042700533,2.0729072258103063,-0.0618420287889419,0.027347106018830558,0.5211751985256411,-0.4837581167330215,-0.325175916835762,0.718061317211456
141,-4.450661559663534,5.779058670474679,-1.8973165497490534,-1.4004659528863699,-2.588636137999744,2.083125221044357,-0.061502469057433236,0.02717946265969281,0.520759894807139,-0.47307410337175587,-0.32343056550437393,0.7122356984279313
142,-4.453685945971646,5.7789775294044095,-1.8989329738061151,-1.398448831770208,-2.5911581089377047,2.0921410991920517,-0.06120497033444498,0.027029882265528937,0.5203929008813779,-0.46365126804412554,-0.32189028414049825,0.707096918374812
143,-4.456307080772011,5.778907207143509,-1.9003338746555682,-1.3967006601362004,-2.593343817083939,2.0999548602533817,-0.06094874661050509,0.026898998188475166,0.5200744242770787,-0.45548801613017437,-0.3205551794805732,0.7026444141943095
144,-4.458524964064625,5.778847703691978,-1.901519252297414,-1.3952214379843482,-2.5951932624384453,2.1065665042283577,-0.06073311244495075,0.026787352064507747,0.5198046438676245,-0.4485829699022471,-0.31942533923160293,0.6988777053754432
145,-4.460339595849494,5.778799019049815,-1.9024891067316516,-1.3940111653146503,-2.596706445001223,2.111976031116974,-0.06055748481735356,0.02669539690897091,0.5195837102925588,-0.4429349666746489,-0.3185008341385291,0.6957963906115927
146,-4.461750976126613,5.778761153217023,-1.90324343795828,-1.3930698421271077,-2.597883364772272,2.116183440919233,-0.06042138466531959,0.02662349975125944,0.519411746314686,-0.43854305725151727,-0.3177817197249445,0.6934001451525001
147,-4.462759104895983,5.7787341061936,-1.9037822459773013,-1.3923974684217204,-2.598724021751593,2.119188733635127,-0.060324438122976894,0.026571943800814322,0.5192888471125424,-0.4354065046661765,-0.3172680377115,0.6916887186451567
148,-4.463363982157606,5.778717877979546,-1.904105530788713,-1.391994044198488,-2.5992284159391854,2.1209919092646654,-0.06026637747194361,0.026540930138162284,0.5192150805080629,-0.43352478320639437,-0.31695981711551197,0.6906619334591731
149,-4.463565607911479,5.778712468574861,-1.9042132923925172,-1.3918595694574107,-2.5993965473350498,2.121592967807846,-0.06024704181398181,0.02653057892617281,0.5191904871292938,-0.43289757772123416,-0.3168570750344949,0.6903196834930923
