nimar13/UR3e_dataset_trayectorias/data/trayectorias_completas_UR3e_TRAPEZOIDAL_FUNC/trayectoria_403.csv
Punto,shoulder_pan_joint,shoulder_lift_joint,elbow_joint,wrist_1_joint,wrist_2_joint,wrist_3_joint,Posicion_X,Posicion_Y,Posicion_Z,Roll,Pitch,Yaw
0,-4.560616318283773,-2.3168883880515234,-0.9277398410054445,-5.552328514698394,-0.6832034120151489,-3.59446058375982,-0.15749210984037548,-0.3075832641726131,0.35494931214882297,0.06328746015802951,0.37671098509527084,2.7119954659365177
1,-4.559553010510701,-2.316807049889951,-0.9276014418596825,-5.5511743775838855,-0.6831736491750908,-3.5940641220145917,-0.1571757596418637,-0.30769528829511694,0.3548771675393918,0.06492948668416611,0.37745012474744033,2.7135467779280624
2,-4.556363087191485,-2.3165630354052347,-0.9271862444223966,-5.54771196624036,-0.6830843606549166,-3.5928747367789082,-0.1562261930163003,-0.3080304112601909,0.35466036713025634,0.06986021368062394,0.37966397032672855,2.718207416729338
3,-4.551046548326125,-2.3161563445973736,-0.9264942486935869,-5.541941280667818,-0.6829355464546262,-3.5908924280527685,-0.1546418491662166,-0.30858578446103085,0.35429782575757923,0.07809366585280757,0.38334171380764237,2.72599752580203
4,-4.543603393914622,-2.3155869774663684,-0.9255254546732531,-5.53386232086626,-0.6827272065742197,-3.588117195836173,-0.1524200842693911,-0.30935665789984357,0.35378778349775564,0.0896534904437227,0.3884650473926202,2.736950793002514
5,-4.534033623956974,-2.314854934012219,-0.9242798623613955,-5.523475086835684,-0.682459341013697,-3.584549040129122,-0.14955710732031238,-0.3103363732417214,0.3531278789897766,0.10457335867241922,0.39500771683666946,2.7511146192221725
6,-4.522337238453183,-2.313960214234925,-0.9227574717580139,-5.510779578576091,-0.6821319497730581,-3.5801879609316143,-0.14604788966604826,-0.31151634713193177,0.35231525265803526,0.1228975113090035,0.4029348860481951,2.7685503442474335
7,-4.508514237403248,-2.3129028181344866,-0.9209582828631084,-5.495775796087481,-0.6817450328523031,-3.5750339582436514,-0.14188604805201246,-0.3128860377711858,0.35134668034885097,0.14468142922938868,0.412202303036496,2.7893335165581106
8,-4.492564620807168,-2.3116827457109044,-0.918882295676679,-5.478463739369856,-0.681298590251432,-3.5690870320652324,-0.13706370159694814,-0.3144328857043755,0.35021873795699093,0.1699926001280854,0.42275525475208064,2.813554185343709
9,-4.474488388664946,-2.310299996964177,-0.9165295101987257,-5.4588434084232125,-0.6807926219704447,-3.562347182396358,-0.13157130421529686,-0.31614221776370094,0.34892799761792065,0.19891133921922893,0.43452729633425524,2.8413171805804023
10,-4.454285540976579,-2.3087545718943057,-0.9138999264292484,-5.436914803247552,-0.6802271280093412,-3.5548144092370273,-0.1253974557076248,-0.31799710118120444,0.34747125596260126,0.23153160331928174,0.447438739180644,2.872742329126599
11,-4.4319560777420675,-2.30704647050129,-0.9109935443682473,-5.4126779238428755,-0.6796021083681216,-3.546488712587241,-0.11852869714779589,-0.31997813314759266,0.34584579475930055,0.26796171247119405,0.4613948827853167,2.907964529723056
12,-4.407499998961413,-2.3051756927851303,-0.9078103640157222,-5.386132770209182,-0.6789175630467859,-3.5373700924469986,-0.1109492993974348,-0.3220631496836571,0.3440496739859432,0.30832485927872966,0.4762839785205403,2.9471335755466694
13,-4.380917304634614,-2.3031422387458256,-0.9043503853716732,-5.357279342346471,-0.678173492045334,-3.5274585488163,-0.10264105763957371,-0.32422683679242686,0.3420820569720774,0.35275924135465087,0.49197492101841056,2.9904135675441275
14,-4.352207994761671,-2.300946108383377,-0.9006136084361003,-5.326117640254743,-0.6773698953637658,-3.5167540816951464,-0.09358310977502018,-0.32644022670723255,0.33994356670717985,0.4014175951347751,0.5083146767296447,3.03798170355724
15,-4.321372069342585,-2.298587301697784,-0.8966000332090034,-5.292647663933999,-0.6765067730020816,-3.5052566910835363,-0.08375180234777078,-0.32867006292373996,0.3376366717184159,0.45446583946870733,0.5251254825286757,3.0900261569591647
16,-4.288409528377355,-2.2960658186890464,-0.8923096596903827,-5.256869413384238,-0.6755841249602812,-3.492966376981471,-0.07312063427290924,-0.33087801992772925,0.335166099064506,0.5120804574726286,0.5422018835878242,-3.136442630402373
17,-4.25332037186598,-2.2933816593571645,-0.887742487880238,-5.21878288860546,-0.6746019512383646,-3.4798831393889493,-0.06166031585703516,-0.3330197674653805,0.33253927096384805,0.5744441631923097,0.5593077333826637,-3.074855850000391
18,-4.216104599808462,-2.2905348237021386,-0.8828985177785694,-5.178388089597665,-0.673560251836332,-3.466006978305972,-0.04933898814299016,-0.33504387522994195,0.3297667603688259,0.6417393328917053,0.5761733536669202,-3.008205552196696
19,-4.1767622122048005,-2.287525311723968,-0.8777777493853769,-5.135685016360854,-0.6724590267541831,-3.4513378937325387,-0.03612265506172756,-0.3368905623361897,0.3268627594131164,0.7141386601234133,0.5924931509191383,-2.936313596786406
20,-4.1352932090549945,-2.2843531234226533,-0.8723801827006604,-5.090673668895025,-0.6712982759919182,-3.4358758856686493,-0.021975887667760374,-0.338490307265558,0.3238455530994558,0.7917925676922116,0.6079241060208398,-2.859030410162753
21,-4.091697590359045,-2.281018258798194,-0.86670581772442,-5.04335404720018,-0.670077999549537,-3.4196209541143046,-0.006862865137448238,-0.3397623483567751,0.3207379888736191,0.874813144690666,0.6220856850388695,-2.776251948351625
22,-4.0459753561169505,-2.2775207178505905,-0.8607546544566558,-4.993726151276317,-0.6687981974270397,-3.4025730990695036,0.00925117968507618,-0.3406131225256545,0.31756793086684737,0.9632548480960547,0.6345618363007738,-2.687939947939806
23,-3.9981265063287132,-2.2738605005798425,-0.8545266928973675,-4.9417899811234385,-0.6674588696244262,-3.384732320534247,0.02639804267611747,-0.34093471066650893,0.3143686856145753,1.0570929728270042,0.6449057993463575,-2.5941444796219977
24,-3.9481510409943317,-2.2700376069859503,-0.8480219330465554,-4.887545536741543,-0.6660600161416966,-3.3660986185085346,0.04460409609592116,-0.3406033817940072,0.3111793840167854,1.1562019398597456,0.6526483933605927,-2.4950267782603968
25,-3.8960489601138066,-2.266052037068914,-0.8412403749042193,-4.83099281813063,-0.6646016369788508,-3.3466719929923663,0.0638872496427767,-0.33947835376268476,0.3080453022508728,1.2603366305616517,0.6573102075525148,-2.390879150407786
26,-3.8418202636871372,-2.261903790828733,-0.8341820184703593,-4.772131825290701,-0.6630837321358889,-3.326452443985742,0.08425329105341292,-0.3374009152648802,0.30501810235254007,1.3691209675167457,0.6584176349721872,-2.2821377947065797
27,-3.785464951714324,-2.2575928682654074,-0.8268468637449755,-4.7109625582217545,-0.6615063016128109,-3.305439971488662,0.105691598988606,-0.33419408017726426,0.3021559713307798,1.4820481990663734,0.6555219884919739,-2.1693841214530396
28,-3.7269830241953668,-2.2531192693789377,-0.8192349107280676,-4.647485016923791,-0.6598693454096166,-3.283634575501126,0.12817025713179214,-0.3296629690753703,0.2995236360829574,1.5984963719632712,0.6482201310090514,-2.0533311398706444
29,-3.666374481130266,-2.248482994169324,-0.811346159419636,-4.581699201396811,-0.6581728635263062,-3.2610362560231345,0.15163064489628592,-0.323596131167373,0.29719223014543167,1.7177600596532563,0.6361743696225735,-1.9347939099977691
30,-3.603639322519021,-2.2436840426365654,-0.8031806098196803,-4.513605111640814,-0.6564168559628797,-3.2376450130546868,0.1759816369585433,-0.31576802976425367,0.2952389875902713,1.8390959467106534,0.619129083443416,-1.814646537143403
31,-3.538777548361632,-2.238722414780663,-0.7947382619282007,-4.4432027476558,-0.654601322719337,-3.2134608465957832,0.20109361025265096,-0.3059429119845289,0.29374673931003004,1.9617764062621958,0.5969218784750892,-1.6937716678297494
32,-3.4717891586581,-2.2335981106016156,-0.7860191157451972,-4.37049210944177,-0.6527262637956781,-3.188483756646424,0.2267925312364641,-0.29388026465791706,0.29280318768265423,2.0851430728836724,0.5694879867970122,-1.5730106016850722
33,-3.402674153408423,-2.2283111300994243,-0.7770231712706699,-4.2954731969987225,-0.6507916791919032,-3.162713743206609,0.2528544750150636,-0.27934201925519064,0.29249993734737056,2.2086525194669013,0.5368579020062805,-1.4531220535823486
34,-3.3314325326126024,-2.2228614732740883,-0.7677504285046185,-4.218146010326658,-0.648797568908012,-3.136150806276338,0.27900100660506777,-0.2621016053426931,0.2929312627220186,2.3319084526930935,0.4991494732859235,-1.3347553253069397
35,-3.2580642962706383,-2.2172491401256083,-0.7582008874470432,-4.138510549425577,-0.6467439329440047,-3.108794945855611,0.3048959269200933,-0.2419548615197225,0.29419259711950035,2.454678381094515,0.4565565112832174,-1.218440143360175
36,-3.1825694443825303,-2.211474130653984,-0.748374548097944,-4.056566814295479,-0.6446307712998812,-3.0806461619444283,0.3301439439762676,-0.2187326933667174,0.29637873402836223,2.576896154403476,0.4093362285655275,-1.104592016374693
37,-3.104947976948278,-2.205536444859215,-0.7382714104573209,-3.9723148049363637,-0.6424580839756416,-3.0517044545427896,0.3542918638883922,-0.1923152199307256,0.29958173843710345,2.6986541116653697,0.3577976101761313,-0.9935296708277891
38,-3.0251998939678817,-2.199436082741302,-0.7278914745251739,-3.885754521348232,-0.6402258709712858,-3.021969823650695,0.37683289587187435,-0.16264697671764353,0.30388857509270034,2.8201894654810746,0.3022922937354194,-0.88550027398258
39,-2.943325195441342,-2.1931730443002446,-0.7172347403015029,-3.7968859635310834,-0.637934132286814,-2.991442269268145,0.39721461963594534,-0.12975255044207465,0.30937847132756463,2.9418692342432644,0.24320896402020603,-0.7807084913775189
40,-2.8593238813686583,-2.1867473295360425,-0.7063012077863081,-3.705709131484918,-0.6355828679222258,-2.9601217913951388,0.41485106167690106,-0.09375181925515692,0.3161200445340562,3.0641770239900605,0.1809718000309364,-0.6793464155021797
41,-2.773195951749831,-2.1801589384486966,-0.6950908769795894,-3.612224025209736,-0.6331720778775216,-2.928008390031677,0.4291391602033315,-0.05487377649920169,0.32416823839529035,-3.0954815762760495,0.11604322779617283,-0.581622517790074
42,-2.6849414065848594,-2.1734078710382057,-0.6836037478813467,-3.516430644705537,-0.6307017621527012,-2.895102065177759,0.43947966114180065,-0.013467745242777728,0.3335611273774525,-2.970042244673287,0.04893112835929854,-0.4877886475602875
43,-2.594560245873744,-2.166494127304571,-0.6718398204915801,-3.4183289899723213,-0.6281719207477647,-2.8614028168333854,0.44530217925534743,0.029989332157386625,0.34431666541697664,-2.8418935929037206,-0.019799321285128697,-0.3981645117640445
44,-2.502052469616484,-2.159417707247792,-0.6597990948102894,-3.317919061010088,-0.625582553662712,-2.8269106449985557,0.44609378502905966,0.07489089469745884,0.3564294717293952,-2.7101323530837145,-0.08950891465724219,-0.31315887492021605
45,-2.4074180778130807,-2.152178610867868,-0.647481570837475,-3.2152008578188385,-0.6229336608975432,-2.7916255496732703,0.4414300543100395,0.12050536795296668,0.3698677636171329,-2.573744330811993,-0.1594625061863121,-0.2332857551369809
46,-2.310657070463534,-2.1447768381648,-0.6348872485731367,-3.1101743803985724,-0.6202252424522582,-2.755547530857529,0.43100706825115065,0.165988511821807,0.38457056230525183,-2.4316040192978026,-0.22880184894827937,-0.15917190647062515
47,-2.211769447567843,-2.137212389138588,-0.6220161280172744,-3.002839628749289,-0.617457298326857,-2.718676588551332,0.41467241093038304,0.2104043262099487,0.40044531228470426,-2.2824861894686213,-0.2965138257153791,-0.09154853887486568
48,-2.1107552091260082,-2.129485263789231,-0.6088682091698882,-2.8931966028709892,-0.6146298285213397,-2.681012722754679,0.39245282629564143,0.2527548498547693,0.41736606635239887,-2.125102198729713,-0.36139641342658196,-0.031215332884664368
49,-2.00761435513803,-2.12159546211673,-0.5954434920309781,-2.7812453027636725,-0.6117428330357063,-2.6425559334675706,0.3645759184656698,0.2920185509317901,0.43517239634941546,-1.9581794387339246,-0.4220280160048715,0.021041062639687445
50,-1.9024650309120243,-2.1135520216945927,-0.5817573542834065,-2.667113965884506,-0.6087996188521854,-2.6033502719950308,0.3315226098719398,0.3271597667029511,0.4536483384893755,-1.780809725968493,-0.47669441497843223,0.06455247310493899
51,-1.7968431254535444,-2.1054724309784234,-0.568009705804385,-2.55246967917667,-0.6058431767397496,-2.56396840530239,0.2945224485831459,0.35688431367407264,0.47229450390376343,-1.5950516433687785,-0.5229494650986385,0.09869100850059621
52,-1.6912212199950645,-2.0973928402622537,-0.5542620573253637,-2.4378253924688336,-0.602886734627314,-2.5245865386097495,0.2547237200255123,0.3805992215637345,0.49078267989190844,-1.4020698126988358,-0.5591534173915111,0.12420542537267612
53,-1.5855993145365845,-2.0893132495460844,-0.5405144088463424,-2.3231811057609963,-0.5999302925148784,-2.4852046719171086,0.21318155763504792,0.398086219881416,0.5088695696130449,-1.2030559700357655,-0.5840903247144664,0.1428275117448671
54,-1.4799774090781046,-2.0812336588299147,-0.526766760367321,-2.20853681905316,-0.5969738504024428,-2.445822805224468,0.17095194695278848,0.4093350538973289,0.5263186659765335,-1.0000082413147489,-0.5968601096091966,0.1570662990939713
55,-1.3743555036196247,-2.0731540681137455,-0.5130191118882996,-2.0938925323453237,-0.5940174082900072,-2.4064409385318277,0.12904783900859457,0.41453632974899823,0.5429044677772011,-0.7955217898147473,-0.5970217222719717,0.17001048909661526
56,-1.2687335981611438,-2.0650744773975758,-0.4992714634092781,-1.9792482456374865,-0.5910609661775714,-2.367059071839187,0.08839828906474913,0.4140647742556001,0.5584164852078357,-0.5923883974246394,-0.5846756110583071,0.1849389515552365
57,-1.163111692702664,-2.0569948866814065,-0.48552381493025676,-1.8646039589296501,-0.5881045240651359,-2.3276772051465464,0.04981273578877231,0.40845390404754495,0.5726629631019025,-0.39312718858816753,-0.5604525792615622,0.20486184506689947
58,-1.0574897872441849,-2.0489152959652372,-0.47177616645123543,-1.749959672221813,-0.5851480819527002,-2.2882953384539055,0.013952238892680276,0.3983635630062235,0.5854742555868621,-0.1996111576635877,-0.5254132192652354,0.23215732185935106
59,-0.9518678817857049,-2.0408357052490675,-0.458028517972214,-1.6353153855139766,-0.5821916398402646,-2.248913471761265,-0.01869090418149513,0.3845421673525672,0.5967057923347935,-0.012896019932816926,-0.48089651278184803,0.2684105893695657
60,-0.846245976327225,-2.0327561145328983,-0.4442808694931927,-1.5206710988061403,-0.5792351977278289,-2.2095316050686247,-0.047804216919821035,0.367785772814336,0.6062405841608223,0.16674924996949372,-0.4283664357153963,0.31445488234374014
61,-0.740624070868745,-2.024676523816729,-0.43053322101417135,-1.406026812098304,-0.5762787556153933,-2.170149738375984,-0.07325635736521718,0.3488962330028103,0.6139912242007678,0.3396861392942923,-0.3692915029281455,0.37053849796731253
62,-0.6350021654102642,-2.0165969331005593,-0.4167855725351498,-1.2913825253904667,-0.5733223135029577,-2.130767871683343,-0.09508881184222148,0.3286407442162412,0.6199013501411061,0.5067124721175702,-0.3050698413274972,0.43652995823533375
63,-0.5293802599517843,-2.00851734238439,-0.4030379240561285,-1.1767382386826295,-0.570365871390522,-2.0913860049907025,-0.1134986286193696,0.3077149684961471,0.6239465428074612,0.6688895982066156,-0.23699558216451183,0.5121018699710069
64,-0.42375835449330435,-2.000437751668221,-0.38929027557710716,-1.0620939519747932,-0.5674094292780864,-2.052004138298062,-0.12881334498090458,0.28671170041176125,0.6261346466627382,0.8274148489865227,-0.16625521369454718,0.5968688934391615
65,-0.3181364490348244,-1.992358160952051,-0.3755426270980857,-0.9474496652669568,-0.5644529871656507,-2.0126222716054216,-0.14145968588750452,0.26609670723890844,0.6265055082365625,0.9835394216184632,-0.09394234375474245,0.6904784424077647
66,-0.21251454357634447,-1.9842785702358818,-0.3617949786190644,-0.8328053785591205,-0.5614965450532151,-1.9732404049127807,-0.15192794440464225,0.24619294661878963,0.6251301390142142,1.1385211251173002,-0.02108207454129436,0.7926625732115844
67,-0.10689263811786365,-1.9761989795197121,-0.34804733014004297,-0.7181610918512824,-0.5585401029407795,-1.9338585382201399,-0.16073417497296186,0.22717387515271106,0.6221093196662353,1.2935989167714157,0.051340776160559015,0.9032607104696694
68,-0.001270732659383711,-1.9681193888035429,-0.33429968166102153,-0.6035168051434461,-0.5555836608283438,-1.8944766715274994,-0.16838242841704304,0.2090660340381686,0.6175716725132036,1.4499770870232342,0.12235319700265104,1.0222201063777265
69,0.10435117279909623,-1.9600397980873734,-0.3205520331820002,-0.48887251843560975,-0.5526272187159083,-1.855094804834859,-0.17532922744912569,0.19176056407813752,0.6116712386146465,1.6088085291339818,0.1909677675558584,1.1495770793642919
70,0.20997307825757616,-1.951960207371204,-0.3068043847029789,-0.3742282317277734,-0.5496707766034725,-1.8157129381422181,-0.18195232576916098,0.1750327927279164,0.604584604677419,1.7711677606964529,0.2561611680373338,1.2854185298501908
71,0.3155949837160561,-1.9438806166550346,-0.29305673622395745,-0.2595839450199371,-0.5467143344910369,-1.7763310714495777,-0.1885255223038246,0.1585685792951115,0.596507632940949,1.9380054985019775,0.31686064174812534,1.4298208653582762
72,0.42121688917453604,-1.9358010259388652,-0.2793090877449361,-0.14493965831210076,-0.5437578923786013,-1.7369492047569373,-0.1952009308640207,0.14199572682108463,0.5876518541741503,2.110078823317574,0.37194291713482996,1.5827633799528038
73,0.5268387946330169,-1.9277214352226957,-0.2655614392659147,-0.030295371604262655,-0.5408014502661657,-1.6975673380642964,-0.20199965636629194,0.12491849175287198,0.5782405897894325,2.287856233948129,0.420251294435873,1.7440169509212713
74,0.6324607000914968,-1.9196418445065264,-0.25181379078689337,0.08434891510357367,-0.53784500815373,-1.658185471371656,-0.20881132795408439,0.10695306063809804,0.5685048737413294,2.4714071167175877,0.460636617584101,1.9130182868834191
75,0.738082605549975,-1.911562253790357,-0.23806614230787204,0.19899320181141,-0.5348885660412944,-1.6188036046790155,-0.21540241591102524,0.08776182542759518,0.558679248251269,2.660300337603159,0.4920251101887786,2.0887546591093953
76,0.8437045110084576,-1.9034826630741875,-0.2243184938288505,0.3136374885192481,-0.5319321239288587,-1.5794217379863742,-0.2214327433924746,0.06708437707705953,0.5489975094298167,2.853551787763811,0.5135092481813222,2.269698912750611
77,0.9493264164669366,-1.895403072358018,-0.21057084534982917,0.42828177522708444,-0.5289756818164231,-1.5400398712937338,-0.22647912536195122,0.04476334530602427,0.5396884795216503,3.0496643690123433,0.5244476124756814,2.4538380835505764
78,1.0549483219254174,-1.8873234816418485,-0.19682319687080763,0.5429260619349208,-0.5260192397039875,-1.5006580046010933,-0.23006465309368493,0.020763528039759498,0.5309718817697336,-3.036401516002371,0.524550215523871,2.638818779273934
79,1.1605702273838965,-1.8792438909256792,-0.1830755483917863,0.6575703486427571,-0.5230627975915518,-1.461276137908453,-0.23169181675840167,-0.004816841452555919,0.5230543918017913,-2.8402353961221536,0.51392390554531,2.822188833855221
80,1.2661921328423773,-1.8711643002095097,-0.16932789991276498,0.7722146353505934,-0.5201063554791161,-1.421894271215812,-0.23087743935588992,-0.0317433721087994,0.5161259360267328,-2.6468071920440135,0.4930624628652784,3.0016695312717414
81,1.3718140383008564,-1.8630847094933403,-0.15558025143374365,0.8868589220584298,-0.5171499133666806,-1.3825124045231716,-0.2271872948104148,-0.05965151234050146,0.510356302857393,-2.4574957016429972,0.46278446694839376,-3.107808218832587
82,1.4774359437593372,-1.855005118777171,-0.14183260295472233,1.001503208766266,-0.5141934712542449,-1.3431305378305312,-0.2202683067473178,-0.08806092634903508,0.5058921267372902,-2.2731499748366186,0.42413878453730197,-2.94124728471915
83,1.5830578492178162,-1.8469255280610013,-0.128084954475701,1.1161474954741024,-0.5112370291418092,-1.3037486711378903,-0.20987637051097835,-0.11639741459651873,0.5028542980522545,-2.0940790973942747,0.3783038158748861,-2.7826943053611326
84,1.6886797546762953,-1.838845937344832,-0.11433730599667946,1.2307917821819387,-0.5082805870293736,-1.2643668044452498,-0.19589810053022239,-0.14402109923268494,0.5013358441804805,-1.92012444895588,0.3265016066515978,-2.632578813666983
85,1.794301660134776,-1.8307663466286626,-0.10058965751765814,1.3454360688897768,-0.505324144916938,-1.2249849377526094,-0.17836516285685988,-0.17025922639749372,0.5014003183208393,-1.75077019935394,0.2699373924777186,-2.4910166210423226
86,1.8999235655932551,-1.822686755912493,-0.08684200903863681,1.4600803555976132,-0.5023677028045024,-1.185603071059969,-0.15746028767163947,-0.19444166494196696,0.5030807234966835,-1.5852559080527553,0.20976551983362762,-2.3579289959841447
87,2.005545471051736,-1.8146071651963238,-0.07309436055961549,1.5747246423054495,-0.4994112606920667,-1.146221204367328,-0.13351454346829952,-0.21593702070788098,0.5063789894292331,-1.4226711300822763,0.14707706938727158,-2.233141995039987
88,2.111167376510217,-1.806527574480154,-0.059346712080593944,1.6893689290132876,-0.49645481857963103,-1.1068393376746872,-0.10699596527733186,-0.23418724607238506,0.5112660099867922,-1.2620260027414112,0.08290271750237706,-2.1164585497340793
89,2.2167892819686976,-1.7984479837639848,-0.0455990636015724,1.804013215721124,-0.4934983764671954,-1.0674574709820464,-0.07849013417746374,-0.24873870801301634,0.51768223882392,-1.102300430428229,0.0182248520092594,-2.0077038451870135
90,2.3224111874271767,-1.7903683930478154,-0.031851415122551074,1.9186575024289603,-0.4905419343547598,-1.028075604289406,-0.04867377537464354,-0.2592678794289177,0.5255388308097958,-0.9424783679743247,-0.046005767215001374,-1.9067474940692881
91,2.4280330928856575,-1.7822888023316459,-0.01810376664352975,2.0333017891367966,-0.4875854922423241,-0.9886937375967655,-0.01828285029014372,-0.26560012605302574,0.534719307086843,-0.781574707894588,-0.10885233593436973,-1.81350595650089
92,2.5336549983441365,-1.7742092116154766,-0.004356118164508427,2.147946075844633,-0.4846290501298885,-0.9493118709041246,0.01192305900724783,-0.2677204571320932,0.545081712273408,-0.618661925271353,-0.16937615065692943,-1.7279273222861562
93,2.6392769038026174,-1.7661296208993071,0.009391530314512897,2.2625903625524693,-0.4816726080174529,-0.9099300042114842,0.04119805551679835,-0.2657755692390347,0.5564612235937325,-0.4529026493455081,-0.22662522554015863,-1.6499591811184526
94,2.7448988092610964,-1.7580500301831377,0.02313917879353422,2.3772346492603056,-0.47871616590501725,-0.8705481375188437,0.06884680266964643,-0.26006701252056963,0.5686731637390536,-0.28359270404356646,-0.27963026077069797,-1.5794997639619972
95,2.8505207147195772,-1.7499704394669684,0.03688682727255577,2.4918789359681437,-0.4757597237925816,-0.8311662708262033,0.09425886780629243,-0.25103581861336666,0.5815163621758623,-0.11021636433996346,-0.32741118065843033,-1.516333655371696
96,2.9561426201780563,-1.741890848750799,0.05063447575157709,2.60652322267598,-0.47280328168014596,-0.7917844041335624,0.1169385719288144,-0.23923942011194516,0.594776803545003,0.06748907647763054,-0.36899743727594403,-1.4600568419659188
97,3.061764525636537,-1.7338112580346294,0.06438212423059841,2.7211675093838164,-0.46984683956771034,-0.752402537440922,0.13652863617809904,-0.2253221347329471,0.608231496843687,0.24946903928915154,-0.40346424137267306,-1.4100017779095149
98,3.167386431095016,-1.7257316673184602,0.07812977270961974,2.8358117960916527,-0.4668903974552747,-0.7130206707482816,0.15282626580364125,-0.20998085785253334,0.6216524953362965,0.43530478778351084,-0.4299842060265725,-1.3651801310392804
99,3.2730083365534988,-1.7176520766022905,0.09187742118864128,2.950456082799491,-0.463933955342839,-0.6736388040556403,0.165790740594216,-0.19392788376582015,0.6348109946619513,0.6242057978770175,-0.44788945094452304,-1.3242653141812022
100,3.378157660779504,-1.7096086361801532,0.10556355893621316,3.0645874196786576,-0.46099074115931804,-0.6344331425831031,0.17550524001136134,-0.17792395182487225,0.6474261583516835,0.8142038311702057,-0.4567150208082082,-1.285804133430136
101,3.481298514767481,-1.7017188345076522,0.11898827607512352,3.176538719785974,-0.4581037456736846,-0.5959763532959936,0.18219698756137528,-0.16280576352867202,0.659122451262823,1.0011971697990334,-0.45647921692855004,-1.248547155504131
102,3.5823127532093153,-1.6939917091582952,0.13213619492250972,3.2861817456642726,-0.4552762758681674,-0.5583124874993413,0.1863876064078868,-0.14904432561630054,0.6697396499047679,1.183698453711966,-0.44781245230763717,-1.210832461620371
103,3.6812003761050054,-1.6864272601320829,0.1450073154783713,3.3935164973135556,-0.45250833174276617,-0.5214415451931442,0.18865126244285926,-0.13693527751569784,0.6791663534072915,1.3606806593231087,-0.4315704793237883,-1.1712564044187244
104,3.777961383454551,-1.679025487429015,0.15760163774270963,3.4985429747338213,-0.4497999132974812,-0.48536352637740254,0.18956344458451063,-0.1266248973930995,0.6873242505505981,1.5314410160378669,-0.40874367015223695,-1.1287862626823104
105,3.8725957752579543,-1.6717863910490913,0.16991916171552424,3.601261177925071,-0.4471510205323123,-0.4500784310521171,0.18966860482556072,-0.11812578716429066,0.6941661570392392,1.6956125105019593,-0.38038166686482794,-1.0827656635419909
106,3.96510355151522,-1.664709970992312,0.1819598873968149,3.7016711068873036,-0.4445616534472597,-0.41558625921728787,0.18945500300731583,-0.11133793097693552,0.699673502049595,1.8531256878511526,-0.34752966797056883,-1.0328719380888014
107,4.055484712226333,-1.6577962272586775,0.1937238147865814,3.799772761620517,-0.4420318120423232,-0.3818870108729149,0.1893370705587629,-0.10607281787950401,0.7038534209086392,2.0041434411642354,-0.31118189024769966,-0.9790478388816655
108,4.143739257391305,-1.6510451598481868,0.20521094388482441,3.895566142124716,-0.43956149631750274,-0.34898068601899634,0.18964503114509315,-0.10207856188209903,0.7067355972865383,2.14898913116258,-0.2722525504366333,-0.9214277486151328
109,4.229867187010132,-1.6444567687608405,0.21642127469154349,3.9890512483998997,-0.4371507062727985,-0.31686728465553404,0.19062108134003303,-0.09906429452539063,0.7083689822680356,2.288081373169162,-0.23156151158671692,-0.8602715381449185
110,4.313868501082814,-1.638031053996639,0.22735480720673817,4.080228080446069,-0.4347994419082104,-0.28554680678252886,0.19242114248467665,-0.09672249727925065,0.708818500184739,2.4218816786723076,-0.1898305590983132,-0.7959121020463762
111,4.395743199609358,-1.6317680155555812,0.2380115414304087,4.169096638263214,-0.4325077032237385,-0.25501925239997725,0.19512103522788737,-0.09474834227309377,0.708161833061898,2.5508560489874443,-0.14768644265758804,-0.7287175170281385
112,4.475491282589752,-1.625667653437668,0.24839147736255596,4.255656921851347,-0.43027549021938266,-0.22528462150788275,0.1987258822397379,-0.09285548804660901,0.7064863577151149,2.6754488773652807,-0.10566761521833479,-0.6590660235430017
113,4.553112750024004,-1.6197299676428991,0.2584946150031793,4.339908931210468,-0.4281028028951431,-0.1963429141062445,0.2031815892369474,-0.090788109875466,0.7038862925204779,2.796066520693066,-0.06423251969293864,-0.5873310232649858
114,4.62860760191211,-1.6139549581712749,0.2683209543522782,4.421852666340564,-0.4259896412510196,-0.16819413019506246,0.20838736539342542,-0.08832921844787646,0.7004600951203847,2.913067909583336,-0.023768069926668904,-0.513873274499083
115,4.701975838254073,-1.6083426250227948,0.27787049540985365,4.501488127241645,-0.4239360052870125,-0.1408382697743349,0.21420839805064185,-0.08530553067524091,0.6963081381243174,3.0267600141400486,0.015402431937936481,-0.43903789579324376
116,4.773217459049896,-1.6028929681974586,0.28714323817590515,4.57881531391371,-0.4219418950031212,-0.11427533284406355,0.2204879726148478,-0.08158930282727749,0.6915306774059155,3.137396539613103,0.053012294160307824,-0.36315432729920055
117,4.84233246429957,-1.5976059876952673,0.2961391826504327,4.653834226356757,-0.42000731039934613,-0.08850531940424844,0.22705850941549002,-0.07709762412056761,0.6862261169694837,-3.0380065753815164,0.08884544598729574,-0.28653789554606396
118,4.909320854003109,-1.5924816835162203,0.30485832883343544,4.726544864570787,-0.4181322514756873,-0.06352822945488956,0.23375116184731015,-0.0717897064256248,0.6804895655612646,-2.9329277378694685,0.12273140438938379,-0.209492028897076
119,4.974182628160497,-1.5875200556603175,0.31330067672491513,4.796947228555801,-0.4163167182321447,-0.03934406299598514,0.24040377500313467,-0.06566270250363884,0.674411673168136,-2.8304484044878104,0.15454105943589055,-0.13231047715810587
120,5.03691778677174,-1.5827211041275593,0.3214662263248709,4.865041318311796,-0.41456071066871814,-0.01595282002753784,0.24686713549137398,-0.058746551167377786,0.6680777301641584,-2.7305080236983668,0.18418310390456202,-0.05527911783881035
121,5.0975263298368425,-1.5780848289179452,0.3293549776333027,4.9308271338387755,-0.4128642287854076,0.006645499450454118,0.25300954854915464,-0.051098292573498585,0.6615670079843836,-2.633084976551609,0.2116009245588681,0.021322895255357393
122,5.156008257355797,-1.5736112300314757,0.33696693065021055,4.994304675136739,-0.4112272725822136,0.028450895437989843,0.25871985767658584,-0.04279622907014889,0.6549523176549328,-2.538191779496779,0.23676978311167757,0.09722275073282825
123,5.2123635693286126,-1.5693003074681502,0.3443020853755949,5.055473942205687,-0.40964984205913535,0.049463367935070224,0.26390907640228384,-0.033934233860432386,0.6482997611073058,-2.445869956375563,0.2596941380275377,0.17215436778982635
124,5.266592265755282,-1.5651520612279695,0.351360441809454,5.1143349350456155,-0.4081319372161736,0.06968291694169437,0.26851083422730454,-0.02461643691208676,0.6416686497703322,-2.3561846957537456,0.28040498976055506,0.24585947029834448
125,5.318694346635805,-1.5611664913109329,0.3581419999517901,5.1708876536565285,-0.4066735580533278,0.08910954245786229,0.2724808527580617,-0.014952449265142713,0.6351115652876236,-2.2692194344239716,0.2989571683153443,0.3180891981448814
126,5.368669811970186,-1.5573435977170407,0.3646467598026022,5.225132098038422,-0.4052747045705981,0.10774324448357486,0.275795667270289,-0.005053226001957871,0.6286745381848187,-2.1850705294048183,0.3154265198504493,0.38860606377829
127,5.416518661758424,-1.5536833804462928,0.3708747213618908,5.277068268191304,-0.40393537676798474,0.1255840230188321,0.278450797131472,0.0049723837094625065,0.6223973217565179,-2.1038421906644915,0.32990698514046574,0.45718604168427
128,5.462240896000516,-1.5501858394986894,0.37682588462965505,5.3266961641151624,-0.4026555746454874,0.1426318780636322,0.28045854904946566,0.015020393245262553,0.6163137402212124,-2.025641840513353,0.34250759402343,0.5236205814334435
129,5.505836514696465,-1.5468509748742296,0.3825002496058958,5.374015785810009,-0.40143529820310614,0.15888680961797785,0.281845612982851,0.024993768130637594,0.6104520921849034,-1.9505760424774827,0.35334942401725017,0.587718358781488
130,5.547305517846276,-1.543678786572915,0.38789781629061215,5.419027133275836,-0.40027454744084134,0.1743488176818646,0.2826505842144311,0.03480389851451394,0.6048355925595376,-1.8787471053055977,0.36256258655826484,0.6493066193677647
131,5.58664790544994,-1.5406692745947443,0.393018584683805,5.461730206512648,-0.3991733223586924,0.1890179022552987,0.2829215185030899,0.04437152003219772,0.59948283821722,-1.8102504218415136,0.3702833103973365,0.7082320194524827
132,5.623863677507455,-1.5378224389397184,0.3978625547854735,5.5021250055204405,-0.3981316229566597,0.20289406333827564,0.28271360184209837,0.05362715741843406,0.5944082847581332,-1.7451725541637186,0.3766511893081735,0.7643609208139034
133,5.658952834018827,-1.5351382796078368,0.40242972659561715,5.540211530299217,-0.39714944923474305,0.21597730093079726,0.28208699316481906,0.06251116855735202,0.5896227237769553,-1.6835900317001264,0.3818066520473365,0.8175791459450703
134,5.69191537498406,-1.532616796599099,0.40672010011423865,5.575989780848982,-0.39622680119294273,0.22826761503286264,0.28110487796612493,0.07097346569344311,0.5851337518904719,-1.625568792648766,0.38588869862939085,0.8677912401443234
135,5.7227513004031465,-1.530257989913506,0.4107336753413353,5.609459757169727,-0.39536367883125845,0.23976500564447267,0.2798317535486691,0.07897298642109618,0.5809462245109063,-1.5711641736956503,0.3890329307622722,0.9149193161508304
136,5.751460610276087,-1.5280618595510576,0.4144704522769085,5.64062145926145,-0.3945600821496905,0.2504694727656265,0.2783319525108074,0.08647698082862867,0.5770626888981847,-1.5204213394225212,0.3913698878384212,0.9589015738879425
137,5.778043304602885,-1.526028405511753,0.4179304309209573,5.669474887124167,-0.3938160111482386,0.2603810163963267,0.2766684000409362,0.09346017365154029,0.5734837923911454,-1.473376039959809,0.3930236848593634,0.9996905936168897
138,5.802499383383541,-1.524157627795593,0.421113611273483,5.696020040757865,-0.3931314658269027,0.26949963653656805,0.27490159232248,0.0999038521846779,0.5702086629006883,-1.4300555912647217,0.3941109361884031,1.0372514974864064
139,5.8248288466180504,-1.5224495264025775,0.42401999333448304,5.720256920162537,-0.3925064461856833,0.27782533318635494,0.27308877756217476,0.10579492255582468,0.567235259750402,-1.390479984276846,0.39473993962763687,1.071560064731315
140,5.845031694306417,-1.520904101332706,0.42664957710396045,5.742185525338201,-0.3919409522245797,0.2853581063456847,0.27128331747452206,0.11112496917482576,0.5645606937798889,-1.3546630445089964,0.39501008908464175,1.1026008722732257
141,5.863107926448638,-1.5195213525859792,0.42900236258191393,5.761805856284841,-0.39143498394359233,0.2920979560145609,0.2695342051252984,0.11588934502017187,0.5621815162932693,-1.3226135801027483,0.3950114807765981,1.1303655175093226
142,5.879057543044723,-1.5183012801623963,0.431078349768343,5.779117913002466,-0.3909885413427213,0.2980448821929782,0.2678857145115741,0.12008631408248976,0.5600939769526462,-1.2943364722836352,0.39482467705809443,1.1548509654077228
143,5.892880544094659,-1.5172438840619578,0.4328775386632491,5.794121695491075,-0.3906016244219662,0.3031988848809437,0.2663771578209148,0.1237162618405373,0.5582942510976343,-1.2698336763313327,0.3945205930114583,1.176058048851754
144,5.9045769295984485,-1.516349164284664,0.43439992926663074,5.8068172037506685,-0.39027423318132737,0.30755996407844854,0.26504272769407616,0.12678098512307684,0.5567786372315823,-1.2491051129927508,0.3941604733665783,1.1939901401639446
145,5.914146699556099,-1.5156171208305143,0.43564552157848846,5.817204437781246,-0.39000636762080454,0.3111281197855025,0.26391140378331934,0.1292830690822685,0.5555437255676661,-1.2321494394831154,0.3937959306432424,1.2086520031494286
146,5.921589853967603,-1.515047753699509,0.4366143155988218,5.825283397582805,-0.38979802774039807,0.3139033520020984,0.2630069052661028,0.13122535620855552,0.5545865385879147,-1.218964695907691,0.39346901924575384,1.2200488287898728
147,5.9269063928329615,-1.5146410628916482,0.43730631132763165,5.8310540831553475,-0.3896492135401076,0.31588566072823454,0.26234767359726013,0.13261051026604886,0.5539046445494986,-1.2095488273442678,0.39321232429916814,1.2281854536663201
148,5.930096316152177,-1.5143970484069318,0.43772150876491756,5.834516494498871,-0.38955992501993364,0.31707504596392155,0.2619468725556721,0.13344067661849854,0.5534962447887588,-1.2039000843029937,0.3930490481054843,1.2330657579675097
149,5.931159623925247,-1.5143157102453597,0.4378599079106795,5.835670631613379,-0.38953016217987546,0.317471507709147,0.2618123954909029,0.13371723953732684,0.5533602355373413,-1.2020173052076966,0.39299308110486725,1.2346922391871347
