nimar13/UR3e_dataset_trayectorias/data/trayectorias_completas_UR3e_TRAPEZOIDAL_FUNC/trayectoria_376.csv
Punto,shoulder_pan_joint,shoulder_lift_joint,elbow_joint,wrist_1_joint,wrist_2_joint,wrist_3_joint,Posicion_X,Posicion_Y,Posicion_Z,Roll,Pitch,Yaw
0,1.0491702762711164,0.3094276245029879,-2.1200892492894465,-1.5078107792771052,-0.2802286989393137,4.53588273266873,-0.09411311679401989,0.2762628009578011,0.3835862119448962,1.2244914965546465,-0.048266476863419644,2.3385819321979815
1,1.048449850080942,0.3093256085640636,-2.11988432327932,-1.507834641301286,-0.28033020631485783,4.535454429132547,-0.09388950992620845,0.2763680004178996,0.38361576742573444,1.2241441600529728,-0.04826150762485536,2.337757678252315
2,1.0462885715104189,0.3090195607472908,-2.119269545248941,-1.507906227373828,-0.2806347284414902,4.534169518523999,-0.09321807477614508,0.2766825125687478,0.3837044133512144,1.2231021340287322,-0.0482465039977758,2.3352849112212897
3,1.0426864405595473,0.30850948105266945,-2.11824491519831,-1.5080255374947316,-0.2811422653192108,4.532028000843085,-0.09209697650994182,0.2772030731270403,0.3838520881535289,1.2213653687715609,-0.04822117826836641,2.3311636156435434
4,1.0376434572283268,0.3077953694801996,-2.1168104331274256,-1.5081925716639963,-0.2818528169480197,4.5290298760898065,-0.0905231864931105,0.2779242230708658,0.38405868916403973,1.2189337809218936,-0.048185050981881763,2.325393766152353
5,1.0311596215167576,0.30687722602988116,-2.114966099036289,-1.5084073298816227,-0.2827663833279168,4.5251751442641615,-0.08849252666239067,0.27883828116666226,0.38432407253003786,1.2158072527076877,-0.048137451046720715,2.317975328078383
6,1.0232349334248398,0.30575505070171416,-2.1127119129248997,-1.5086698121476103,-0.2838829644589022,4.520463805366152,-0.08599973211869122,0.27993530621385015,0.3846480530986017,1.2119856308761994,-0.048077515883437574,2.3089082582923877
7,1.0138693929525733,0.30442884349569865,-2.1100478747932576,-1.5089800184619595,-0.28520256034097585,4.514895859395776,-0.08303853240107754,0.2812030497227774,0.38503040426794805,1.2074687253211907,-0.04800419162198794,2.2981925062866697
8,1.003063000099958,0.30289860441183464,-2.106973984641363,-1.5093379488246699,-0.28672517097413774,4.508471306353035,-0.07960175201518821,0.28262689995829826,0.3854708578067875,1.2022563074061325,-0.04791623335145464,2.285828015493715
9,0.990815754866994,0.30116433345012206,-2.1034902424692157,-1.5097436032357419,-0.2884507963583879,4.501190146237929,-0.07568143088913024,0.2841898185067253,0.385969103642301,1.1963481079841203,-0.04781220542741564,2.2718147248399836
10,0.9771276572536814,0.2992260306105609,-2.099596648276816,-1.510196981695175,-0.2903794364937263,4.493052379050456,-0.07126896551238224,0.2858722707594737,0.38652478961748094,1.1897438151155115,-0.04769048184305142,2.256152570532363
11,0.96199870726002,0.29708369589315126,-2.0952932020641635,-1.5106980842029698,-0.2925110913801529,4.484058004790619,-0.06635527157495372,0.28765215195358307,0.3871375212186764,1.1824430714845504,-0.04754924667099718,2.2388414880742307
12,0.9454289048860101,0.29473732929789304,-2.0905799038312582,-1.5112469107591258,-0.29484576101766785,4.474207023458416,-0.06093096896121815,0.28950471066820066,0.38780686127432074,1.1744454715165913,-0.047386494583864715,2.219881414507495
13,0.9274182501316514,0.2921869308247863,-2.0854567535781006,-1.5118434613636433,-0.297383445406271,4.463499435053848,-0.054986589961453,0.29140247194733954,0.38853232962590756,1.1657505581979577,-0.04720003146221113,2.199272290876272
14,0.9079667429969439,0.289432500473831,-2.0799237513046904,-1.512487736016522,-0.30012414454596237,4.451935239576914,-0.04851281153998084,0.2933151625025592,0.3893134027724214,1.1563578196009725,-0.046987475099649886,2.1770140649071164
15,0.8870743834818877,0.2864740382450272,-2.073980897011028,-1.5131797347177625,-0.30306785843674205,4.439514437027614,-0.04150071243749068,0.2952096407438047,0.3901495134895304,1.1462666851172099,-0.04674625601561906,2.153106693899866
16,0.8647411715864829,0.28331154413837484,-2.0676281906971123,-1.513919457467364,-0.30621458707860993,4.42623702740595,-0.03394205578205318,0.2970498346909886,0.3910400504249665,1.1354765214027123,-0.046473618387151396,2.1275501478222227
17,0.8409671073107294,0.2799450181538739,-2.060865632362944,-1.5147069042653272,-0.3095643304715661,4.4121030107119195,-0.025829597733771567,0.2987966911306877,0.3919843576716439,1.1239866280396165,-0.04616662111180344,2.1003444126001227
18,0.8157521906546272,0.27637446029152446,-2.053693222008523,-1.5155420751116517,-0.3131170886156105,4.3971123869455235,-0.01715742248717215,0.30040813969841335,0.3929817343201743,1.1117962329194866,-0.04582213901463435,2.0714894935948225
19,0.7890964216181762,0.2725998705513265,-2.04611095963385,-1.5164249700063375,-0.3168728615107432,4.381265156106762,-0.007921303698470165,0.3018390758831667,0.39403143399255935,1.0989044873545115,-0.04543686421287181,2.0409854192563506
20,0.7609998002013766,0.26862124893328,-2.038118845238924,-1.5173555889493848,-0.3208316491569641,4.364561318195635,0.0018809079129294692,0.30304136726229314,0.3951326643589587,1.0853104609238027,-0.04500730765255583,2.0088322449415745
21,0.7314623264042284,0.2644385954373849,-2.0297168788237454,-1.5183339319407934,-0.3249934515542732,4.347000873212143,0.012248871422461532,0.30396388757469917,0.3962845866395519,1.0710131360630921,-0.04452980083206795,1.9750300568836814
22,0.7004840002267312,0.2600519100636413,-2.0209050603883143,-1.5193599989805635,-0.32935826870267065,4.328583821156285,0.02317931810434363,0.3045525835218383,0.39748631509362525,1.0560114024073293,-0.04400049772803131,1.9395789762982052
23,0.6680648216688856,0.25546119281204915,-2.0116833899326307,-1.5204337900686948,-0.33392610060215633,4.309310162028063,0.03466559099356952,0.3047505794397796,0.39873691649813964,1.0403040508970056,-0.04341537693952324,1.9024791636090272
24,0.6342047907306911,0.2506664436826085,-2.0020518674566943,-1.5215553052051878,-0.33869694725273025,4.289179895827474,0.04669716381990311,0.304498325202088,0.4000354096181484,1.0238897676603549,-0.04277024406696064,1.8637308227759306
25,0.5989039074121479,0.24566766267531925,-1.9920104929605051,-1.5227245443900421,-0.3436708086543924,4.26819302255452,0.05925914220766855,0.30373379288079483,0.4013807646715553,1.0067671276850982,-0.042060734342347667,1.8233342057033122
26,0.5621621717132562,0.2404648497901815,-1.9815592664440635,-1.5239415076232576,-0.34884768480714284,4.246349542209201,0.07233175079382653,0.3023927277986804,0.40277190279081887,0.9889345882948797,-0.041282315527776836,1.7812896167076053
27,0.5239795836340158,0.2350580050271952,-1.9706981879073693,-1.5252061949048348,-0.3542275757109815,4.2236494547915155,0.0858898107536665,0.3004089596363875,0.4042076954843225,0.9703904824471505,-0.040430291099210994,1.7375974170187913
28,0.48435614317442643,0.22944712838636036,-1.9594272573504226,-1.526518606234773,-0.3598104813659085,4.200092760301465,0.09990221313602095,0.29771477919722233,0.4056869641002562,0.9511330118708795,-0.03949980373254545,1.6922580292891505
29,0.4432918503344886,0.223632219867677,-1.947746474773223,-1.527878741613073,-0.36559640177192365,4.175679458739049,0.11433139439368047,0.2942413862644646,0.40720847929595383,0.9311602400641366,-0.038485839108858215,1.6452719420800506
30,0.400786705114202,0.2176132794711451,-1.9356558401757709,-1.5292866010397344,-0.37158533692902707,4.150409550104268,0.1291328215427112,0.289919413693183,0.40877096051575673,0.9104700851732448,-0.03738323005546058,1.5966397142952249
31,0.35684070751356667,0.2113903071967646,-1.9231553535580663,-1.5307421845147569,-0.3777772868372188,4.124283034397121,0.1442544954869061,0.2846795324427934,0.41037307548057966,0.8890603127768577,-0.03618666103896763,1.5463619795265404
32,0.3114538575325826,0.2049633030445356,-1.910245014920109,-1.532245492038141,-0.3841722514964987,4.097299911617608,0.15963648218778972,0.2784531416593324,0.41201343969246096,0.8669285285999071,-0.03489067302606558,1.4944394502758471
33,0.26462615517125,0.1983322670144581,-1.896924824261899,-1.5337965236098865,-0.3907702309068669,4.069460181765731,0.17521048253006918,0.2711731471389938,0.4136906159574952,0.8440721711839365,-0.033489668726889237,1.4408729220140475
34,0.21635760042956842,0.19149719910653198,-1.8831947815834365,-1.5353952792299932,-0.3975712250683234,4.040763844841487,0.1908994529070317,0.2627748305286211,0.4154031139306325,0.8204885045416994,-0.03197791823509615,1.385663277036135
35,0.16664819330753844,0.1844580993207574,-1.8690548868847214,-1.5370417588984615,-0.40457523398086803,4.011210900844878,0.2066172897058333,0.2531968104272921,0.4171493896859514,0.7961746108252857,-0.030349565077612325,1.328811488068602
36,0.11549793380515971,0.17721496765713424,-1.8545051401657537,-1.538735962615291,-0.41178225764450094,3.980801349775904,0.2222685919802439,0.24238209513009745,0.4189278453160839,0.7711273830380504,-0.02859863268582549,1.2703186215833537
37,0.06290682192243213,0.16976780411566253,-1.8395455414265334,-1.540477890380482,-0.41919229605922215,3.9495351916345642,0.23774851762499447,0.2302792250873696,0.42073682856458317,0.745343517821592,-0.026719031298591777,1.2101858407701616
38,0.008874857659355806,0.16211660869634228,-1.8241760906670603,-1.5422675421940346,-0.42680534922503166,3.9174124264208587,0.2529427492735042,0.21684350122969773,0.4225746324950995,0.7188195083496258,-0.02470456530581128,1.1484144081176808
39,-0.046597958984069265,0.1542613813991735,-1.8083967878873346,-1.5441049180559483,-0.43462141714192937,3.8844330541347882,0.2677275868869237,0.20203829312498162,0.42443949520131047,0.6915516373609306,-0.022548941039619467,1.085005687551281
40,-0.10351162800784275,0.1462021222241562,-1.7922076330873566,-1.5459900179662236,-0.44264049980991527,3.850597074776352,0.28197018454001865,0.18583641848754454,0.42632959956163724,0.6635359703635265,-0.02024577501826885,1.019961146074376
41,-0.16186614941196487,0.13793883117129035,-1.7756086262671258,-1.5479228419248603,-0.45086259722898947,3.8159044883455504,0.29552894918717443,0.16822158285618025,0.4282430730428364,0.6347683490418297,-0.01778860264574935,0.9532823548586135
42,-0.22166152319643584,0.129471508240576,-1.7585997674266425,-1.5499033899318582,-0.459287709399152,3.7803552948423835,0.30825411915468376,0.14918986531060602,0.4301779875566209,0.6052443848976569,-0.015170887367943734,0.8849709897272918
43,-0.28289774936125545,0.12080015343201306,-1.7411810565659063,-1.5519316619872177,-0.4679158363204027,3.7439494942668508,0.3199885396954837,0.12875123292533888,0.43213235937352046,0.5749594531546074,-0.012386030283778202,0.8150288309756228
44,-0.34557482790642435,0.11192476674560153,-1.7233524936849176,-1.5540076580909385,-0.4767469779927417,3.7066870866189525,0.3305686520994856,0.1069310632975463,0.4341041490982341,0.5439086869534793,-0.009427380207397187,0.7434577624711387
45,-0.40969275883194123,0.10284534818134153,-1.7051140787836765,-1.5561313782430206,-0.4857811344161689,3.668568071898689,0.3398257115156493,0.0837716509729382,0.4360912617107586,0.5120869718639048,-0.006288244174830736,0.670259769977523
46,-0.47525154213780696,0.09356189773923299,-1.6864658118621825,-1.5583028224434643,-0.4950183055906843,3.62959245010606,0.3475872467506688,0.059333669985349946,0.4380915466776109,0.47948894073435017,-0.0029618983860620167,0.5954369386455316
47,-0.5422511778240213,0.0840744154192759,-1.667407692920436,-1.5605219906922694,-0.504458491516288,3.5897602212410655,0.3536787728056834,0.033697561088497544,0.4401027981374674,0.4461089688989075,0.0005584004292053291,0.5189914496154454
48,-0.6106916658905843,0.07438290122147029,-1.647939721958437,-1.5627888829894356,-0.51410169219298,3.549071385303706,0.35792576374358426,0.006964808673489007,0.4421227551655513,0.4119411697549584,0.00427940323638989,0.4409255756766753
49,-0.6805730063374962,0.06448735514581616,-1.6280618989761855,-1.5651034993349635,-0.5239479076207602,3.5075259422939804,0.36015588959900624,-0.020740931071456373,0.44414910212108677,0.37697939072070413,0.008207856528298902,0.36124167593166123
50,-0.7518151518102933,0.0543991122966383,-1.6077969935303615,-1.5674631883928327,-0.5339858592023461,3.4651714814936874,0.3602027380732338,-0.049240792183124805,0.4461772117541115,0.3412573924030181,0.012345765468419305,0.2800334188181566
51,-0.8233774867009451,0.0442655290301609,-1.5874410098578153,-1.569833482794782,-0.5440689251730625,3.422626663566202,0.35796348593054905,-0.07794714604167245,0.4481760111069234,0.3052923643267977,0.01663600767456628,0.19848877385859792
52,-0.8949398215915974,0.03413194576368339,-1.567085026185269,-1.5722037771967314,-0.554151991143779,3.380081845638717,0.35342423000218093,-0.10654803356385499,0.4501361959313661,0.26924292297586794,0.021058833576263335,0.11697353899351415
53,-0.9665021564822491,0.023998362497205994,-1.5467290425127225,-1.574574071598681,-0.5642350571144955,3.337537027711232,0.3465912532728126,-0.1348584886169719,0.45205766959054666,0.23310735879161928,0.02561276130055934,0.03548840243140777
54,-1.038064491372901,0.013864779230728486,-1.526373058840176,-1.5769443660006304,-0.574318123085212,3.294992209783747,0.33748575229694455,-0.1626941017345024,0.45394034194245686,0.19688400186952418,0.030296282650116326,-0.04596601392959145
55,-1.1096268262635531,0.0037311959642510883,-1.5060170751676296,-1.5793146604025798,-0.5844011890559285,3.2524473918562617,0.32614377447144044,-0.18987222478507793,0.45578412931596435,0.16057122151458122,0.035107864417601775,-0.12738915483332972
56,-1.1811891611542054,-0.00640238730222642,-1.4856610914950832,-1.5816849548045293,-0.5944842550266451,3.2099025739287765,0.3126160578690643,-0.21621316830310924,0.45758895448530323,0.12416742568428954,0.04004594968271313,-0.2087805319117481
57,-1.2527514960448576,-0.016535970568703928,-1.4653051078225368,-1.5840552492064788,-0.6045673209973617,3.1673577560012913,0.29696777446084643,-0.24154138359181793,0.45935474664307346,0.08767106032276444,0.0451089590887964,-0.2901397238500707
58,-1.324313830935509,-0.026669553835181325,-1.4449491241499903,-1.586425543608428,-0.6146503869680782,3.124812938073806,0.27927817819438105,-0.265686621798539,0.4610814413717639,0.051080608589746467,0.05029529209614436,-0.3714663764758449
59,-1.3958761658261611,-0.036803137101658834,-1.424593140477444,-1.5887958380103775,-0.6247334529387947,3.0822681201463213,0.2596401600252269,-0.28848506230311793,0.4627689806138144,0.014394589988439257,0.055603328209226685,-0.45276020277679146
60,-1.4674385007168134,-0.04693672036813623,-1.4042371568048977,-1.591166132412327,-0.6348165189095112,3.039723302218836,0.23815971261523158,-0.3097804029520735,0.4644173126402346,-0.0223884406038248,0.06103142817526226,-0.5340209828525551
61,-1.5390008356074647,-0.05707030363461374,-1.3838811731323513,-1.5935364268142764,-0.6448995848802277,2.997178484291351,0.21495530801071944,-0.32942490491274146,0.4660263920177859,-0.05926989399795635,0.06657793515171459,-0.6152485638056017
62,-1.6105631704981178,-0.06720388690109125,-1.3635251894598046,-1.595906721216226,-0.6549826508509442,2.9546336663638657,0.19015719219107582,-0.3472803852111657,0.4675961795747522,-0.09625114784438635,0.07224117584043302,-0.6964428595765649
63,-1.6821255053887691,-0.07733747016756864,-1.3431692057872582,-1.5982770156181754,-0.6650657168216607,2.9120888484363805,0.1639066009304823,-0.36321915035323094,0.46912664236531143,-0.13333354786905696,0.07801946158633649,-0.77760385072941
64,-1.7536878402794214,-0.08747105343404615,-1.322813222114712,-1.6006473100201246,-0.6751487827923772,2.8695440305088953,0.13635490193868,-0.37712486480816926,0.4706177536325219,-0.1705184091899583,0.08391108943870132,-0.858731584191875
65,-1.8252501751700736,-0.09760463670052355,-1.3024572384421655,-1.603017604422074,-0.6852318487630937,2.8269992125814105,0.1076626687372627,-0.3888933485545844,0.47206949276994425,-0.20780701771005552,0.0899143431732447,-0.9398261729565539
66,-1.896812510060725,-0.10773821996700106,-1.2821012547696191,-1.6053878988240236,-0.6953149147338102,2.7844543946539253,0.07799869218273296,-0.39843329834877933,0.4734818452819144,-0.245200631582529,0.09602749427337573,-1.020887795748113
67,-1.968374844951378,-0.11787180323347857,-1.2617452710970725,-1.607758193225973,-0.7053979807045269,2.74190957672644,0.04753893596349346,-0.40566692787033676,0.474854802742486,-0.2827004827442912,0.10224880286911237,-1.1019166966619844
68,-2.0399371798420294,-0.12800538649995608,-1.2413892874245263,-1.6101284876279225,-0.7154810466752434,2.699364758798955,0.01646544277222317,-0.41053052242732124,0.476188362753058,-0.32030777851387515,0.10857651863232386,-1.182913184779893
69,-2.1114995147326816,-0.13813896976643347,-1.2210333037519798,-1.612498782029872,-0.7255641126459599,2.6568199408714697,-0.015034801814747513,-0.41297490445965035,0.4774825288987095,-0.35802370324986976,0.11500888162706849,-1.2638776337675122
70,-2.183061849623334,-0.14827255303291098,-1.2006773200794334,-1.6148690764318214,-0.7356471786166764,2.6142751229439845,-0.04677104043555519,-0.41296580666038935,0.47873731070325853,-0.3958494200662314,0.12154412311395746,-1.344810481459403
71,-2.254624184513985,-0.15840613629938838,-1.180321336406887,-1.617239370833771,-0.7457302445873928,2.5717303050164997,-0.07854994246726456,-0.4104841501371241,0.4799527235830593,-0.4337860726009268,0.12818046630758137,-1.4257122294363702
72,-2.3261865194046374,-0.1685397195658659,-1.1599653527343405,-1.6196096652357201,-0.7558133105581093,2.5291854870890145,-0.11017682223957515,-0.40552622565514923,0.481128788799569,-0.47183478683453056,0.13491612708614226,-1.5065834426001965
73,-2.3977488542952896,-0.1786733028323434,-1.139609369061794,-1.6219799596376696,-0.7658963765288259,2.4866406691615293,-0.1414568690657386,-0.39810377663684027,0.4822655334106915,-0.509996672955566,0.1417493146525834,-1.5874247487506339
74,-2.469311189185942,-0.1888068860988208,-1.1192533853892477,-1.624350254039619,-0.7759794424995424,2.444095851234044,-0.17219638113557373,-0.3882439832330708,0.48336299022092316,-0.5482728272695508,0.14867823214655015,-1.6682368381693795
75,-2.540873524076593,-0.1989404693652982,-1.0988974017167015,-1.6267205484415685,-0.7860625084702588,2.4015510333065593,-0.20220399528479008,-0.37598934742864043,0.48442119773032416,-0.5866643341488949,0.15570107720667392,-1.749020463215639
76,-2.6124358589672463,-0.2090740526317758,-1.0785414180441548,-1.629090842843518,-0.7961455744409756,2.3590062153790736,-0.23129190467673766,-0.3613974797900566,0.4854402000823287,-0.6251722680209946,0.16281604248269932,-1.829776437937734
77,-2.6839981938578985,-0.2192076358982532,-1.0581854343716084,-1.6314611372454675,-0.8062286404116921,2.3164613974515884,-0.2592770565070523,-0.3445407891064585,0.4864200470104235,-0.6637976953920462,0.17002131609709403,-1.9105056377050351
78,-2.7555605287485507,-0.22934121916473071,-1.037829450699062,-1.6338314316474167,-0.8163117063824086,2.273916579524103,-0.28598232196792095,-0.32550607680862687,0.4873607937837071,-0.7025416769043246,0.177315082055823,-1.9912089988644055
79,-2.827122863639202,-0.2394748024312081,-1.0174734670265155,-1.6362017260493662,-0.826394772353125,2.2313717615966184,-0.3112376308860009,-0.30439403867278486,0.48826250115136066,-0.7414052694248435,0.18469552060803565,-2.071887518425119
80,-2.8986851985298543,-0.24960838569768562,-0.9971174833539691,-1.6385720204513157,-0.8364778383238415,2.188826943669133,-0.33488106367520065,-0.281318676921071,0.48912523528604085,-0.7803895281635255,0.1921608085544919,-2.1525422537760823
81,-2.9702475334205065,-0.259741968964163,-0.9767614996814227,-1.6409423148532651,-0.846560904294558,2.146282125741648,-0.3567598935210136,-0.25640662641519957,0.4899490677262333,-0.8194955088192161,0.19970911950453832,-2.2331743224390572
82,-3.041809868311158,-0.2698755522306405,-0.9564055160088765,-1.6433126092552146,-0.8566439702652745,2.103737307814163,-0.3767315720350681,-0.2297963992000381,0.4907340753175668,-0.8587242697520525,0.20733862408155873,-2.3137849018613657
83,-3.11337220320181,-0.2800091354971179,-0.93604953233633,-1.645682903657164,-0.866727036235991,2.061192489886678,-0.394664651984819,-0.2016375521859384,0.49148034015313397,-0.8980768741808959,0.21504749007677837,-2.3943752292514424
84,-3.1849345380924623,-0.29014271876359543,-0.9156935486637836,-1.6480531980591135,-0.8768101022067075,2.018647671959193,-0.41043964111143216,-0.1720897832591532,0.4921879495128236,-0.9375543924047265,0.2228338825513808,-2.474946601460409
85,-3.2564968729831136,-0.30027630203007283,-0.8953375649912372,-1.6504234924610628,-0.886893168177424,1.9761028540317076,-0.42394978149616164,-0.14132196157525106,0.4928569958016987,-0.9771579040470684,0.23069596388686073,-2.5555003749126937
86,-3.328059207873766,-0.31040988529655034,-0.8749815813186907,-1.6527937868630123,-0.8969762341481405,1.9335580361042228,-0.4351017494188942,-0.10951109821808355,0.49348757648743796,-1.0168885003226913,0.23863189378358546,-2.6360379655885775
87,-3.399621542764418,-0.32054346856302773,-0.8546255976461445,-1.6551640812649617,-0.907059300118857,1.8910132181767376,-0.44381627116881617,-0.07684126379374771,0.4940797940368638,-1.056747286325995,0.24663982920749722,-2.716560849061335
88,-3.471183877655071,-0.33067705182950535,-0.8342696139735977,-1.6575343756669112,-0.9171423660895737,1.848468400249252,-0.4500286508129014,-0.043502459872576955,0.49463375585158775,-1.0967353833406261,0.2547179242849121,-2.7970705605915485
89,-3.5427462125457225,-0.34081063509598286,-0.8139136303010512,-1.6599046700688607,-0.9272254320602902,1.8059235823217668,-0.4536892064994802,-0.009689451490326228,0.49514957420278816,-1.1368539311700518,0.26286433014532634,-2.8775686952809485
90,-3.6143085474363748,-0.35094421836246026,-0.793557646628505,-1.6622749644708101,-0.9373084980310067,1.7633787643942815,-0.45476361246774494,0.02439943182963945,0.4956273661651507,-1.1771040904888823,0.2710771947121538,-2.9580569082880306
91,-3.685870882327027,-0.36107780162893777,-0.7732016629559586,-1.6646452588727596,-0.9473915640017232,1.7208339464667968,-0.45323314454569325,0.05856351886965773,0.49606725354999115,-1.2174870452149256,0.279354662441257,-3.038536915107472
92,-3.7574332172176783,-0.37121138489541516,-0.7528456792834122,-1.6670155532747089,-0.9574746299724397,1.6782891285393116,-0.44909482754470664,0.0926010355118015,0.4964693628375929,-1.2580040049020114,0.28769487400711335,-3.11901049191529
93,-3.8289955521083305,-0.3813449681618927,-0.7324896956108657,-1.6693858476766583,-0.9675576959431562,1.6357443106118263,-0.44236148359448946,0.12631035161773618,0.4968338251087756,-1.2986562071537036,0.29609596593644055,3.083705831198152
94,-3.9005578869989828,-0.39147855142837007,-0.7121337119383193,-1.6717561420786078,-0.9776407619138727,1.5931994926843411,-0.433061681103298,0.1594912280312915,0.4971607759757223,-1.3394449200581326,0.3045560701890193,3.003239541028189
95,-3.972120221889634,-0.4016121346948476,-0.6917777282657731,-1.6741264364805573,-0.9877238278845892,1.5506546747568564,-0.42123958467101424,0.19194605574450557,0.4974503555120935,-1.3803714446441941,0.3130733136854403,2.9227739837813687
96,-4.043682556780286,-0.411745717961325,-0.6714217445932267,-1.6764967308825067,-0.9978068938553057,1.5081098568293712,-0.40695470692241115,0.22348107932377648,0.4977027081824514,-1.4214371173594054,0.3216458177814221,2.842307135733501
97,-4.1152448916709385,-0.4218793012278025,-0.6510657609206802,-1.6788670252844562,-1.0078899598260223,1.465565038901886,-0.3902815638607012,0.25390759680019026,0.497917982771017,-1.4626433125697083,0.3302716976883114,2.7618369097130318
98,-4.18680722656159,-0.4320128844942799,-0.6307097772481338,-1.6812373196864054,-1.0179730257967388,1.4230202209744007,-0.3713092359630293,0.283043128386324,0.49809633230979056,-1.5039914450815361,0.3389490618392938,2.681361154331404
99,-4.258369561452243,-0.4421464677607575,-0.610353793575587,-1.6836076140883551,-1.0280560917674553,1.3804754030469155,-0.35014083784580635,0.3107125465896935,0.4982379140060582,-1.5454829726863528,0.34767601120079356,2.6008776531394044
100,-4.329611706925041,-0.45223471060993514,-0.5900888881297632,-1.6859673031462241,-1.038094043349041,1.338120942246623,-0.3270013620286651,0.33663653875223376,0.4983425007657166,-1.586932781006786,0.35641127510131804,2.5207442995184324
101,-4.399493047371953,-0.4621302566855896,-0.5702110651475114,-1.688281919491752,-1.0479402587768216,1.296575499236897,-0.3024245862472772,0.36034337620616885,0.49841000041219563,-1.627731845138463,0.3650237676246756,2.4421296900616527
102,-4.467933535438514,-0.47182177088339494,-0.5507430941855125,-1.6905488117889185,-1.0575834594535132,1.2558866632995365,-0.2766776520360337,0.3817757301852829,0.4984425773157739,-1.6678264810703267,0.37349926140666584,2.365122404450271
103,-4.534933171124728,-0.48130925320335205,-0.531684975243766,-1.6927679800377233,-1.067023645379117,1.2160544344345423,-0.24999383903986633,0.4009298461465866,0.4984424737023976,-1.7072095395124909,0.38183357968822973,2.2897211890085014
104,-4.600491954430597,-0.4905927036454607,-0.513036708322272,-1.694939424238167,-1.0762608165536325,1.1770788126419145,-0.22259568868375948,0.417823296601213,0.49841187203330356,-1.7458739162598222,0.39002279757057934,2.215924985037267
105,-4.664609885356112,-0.49967212220972046,-0.49479829342103043,-1.6970631443902493,-1.0852949729770598,1.1389597979216504,-0.19469359736600073,0.43249276553622695,0.49835289533126254,-1.7838125543994026,0.3980632321966267,2.1437329250984436
106,-4.72728696390128,-0.5085475088961322,-0.47696973054004266,-1.69913914049397,-1.0941261146493986,1.1016973902737526,-0.1664847226426112,0.4449918338685611,0.49826760756012434,-1.8210184466337997,0.4059514331698733,2.073144328742957
107,-4.788523190066098,-0.5172188637046946,-0.4595510196793069,-1.7011674125493292,-1.1027542415706495,1.0652915896982194,-0.13815218026785284,0.4553887985228912,0.49815801405240523,-1.8574846377554963,0.4136841732017269,2.004158697715646
108,-4.848318563850572,-0.5256861866354092,-0.44254216083882314,-1.7031479605563273,-1.1111793537408117,1.0297423961950543,-0.10986450812534697,0.4637645528111735,0.4980260619799014,-1.8932042273026102,0.4212584389778774,1.9367757106678416
109,-4.906673085254694,-0.5339494776882754,-0.42594315401859184,-1.7050807845149643,-1.119401451159886,0.9950498097642511,-0.0817753719565949,0.4702105510771517,0.4978736408625305,-1.928170372421106,0.42867142223431387,1.8709952174073519
110,-4.963586754278465,-0.5420087368632924,-0.4097539992186139,-1.706965884425239,-1.127420533827872,0.9612138304058151,-0.05402348728336429,0.4748268761180141,0.4977025831108763,-1.9623762909538836,0.4359205110336029,1.8068172327143057
111,-5.0190595709218915,-0.5498639641604615,-0.39397469643888794,-1.7088032602871532,-1.1352366017447695,0.9282344581197437,-0.026732731943207674,0.47772042375502777,0.49751466459810145,-1.995815264772686,0.4430032812323739,1.7442419297506615
112,-5.07309153518497,-0.5575151595797818,-0.3786052456794149,-1.7105929121007053,-1.1428496549105793,0.8961116929060378,-1.2424130687263557e-05,0.4790032151286901,0.49731160525714296,-2.0284806433642935,0.44991748813134647,1.6832696330905887
113,-5.125682647067697,-0.5649623231212533,-0.3636456469401943,-1.7123348398658966,-1.1502596933253004,0.8648455347646982,0.02604225831764541,0.4787908438620495,0.4970950696993069,-2.0603658476784523,0.45666105829982045,1.6239008113986615
114,-5.176832906570073,-0.5722054547848765,-0.3490959002212275,-1.7140290435827263,-1.1574667169889334,0.8344359836957258,0.051349740512527234,0.47720106217786296,0.4968666678505928,-2.0914643742409926,0.4632320815671871,1.5661360697827398
115,-5.226542313692104,-0.5792445545706513,-0.33495600552251226,-1.7156755232511942,-1.164470725901478,0.8048830396991162,0.07584141671901488,0.4743525073712485,0.49662795560227563,-2.121769799531871,0.46962880317483713,1.5099761418485924
116,-5.2748108684337875,-0.5860796224785771,-0.3212259628440495,-1.7172742788713011,-1.1712717200629346,0.7761867027748721,0.09946094038124566,0.4703635677217467,0.4963804354724779,-2.1512757846243766,0.47584961608261717,1.455421881483458
117,-5.32163857079512,-0.5927106585086548,-0.3079057721858396,-1.7188253104430467,-1.1778696994733027,0.7483469729229935,0.12216345650734607,0.4653513849633382,0.4961255572756355,-2.179976080078448,0.4818930534249635,1.4024742543961541
118,-5.367025420776102,-0.5991376626608835,-0.29499543354788216,-1.7203286179664308,-1.1842646641325827,0.7213638501434829,0.14391479323364764,0.45943098879911404,0.49586471879696087,-2.2078645310779117,0.4877577811127689,1.3511343294418008
119,-5.410971418376738,-0.6053606349352643,-0.2824949469301772,-1.7217842014414535,-1.1904566140407742,0.6952373344363352,0.16469062764012354,0.45271455762651286,0.4955992664691613,-2.2349350827986556,0.49344259057800555,1.3014032697597073
120,-5.453476563597025,-0.6113795753317963,-0.2704043123327251,-1.7231920608681144,-1.1964455491978778,0.6699674258015538,0.18447563915317855,0.44531079860441264,0.49533049604885326,-2.261181785992026,0.4989463916591981,1.2532823237534794
121,-5.494540856436963,-0.6171944838504795,-0.25872352975552637,-1.7245521962464143,-1.202231469603893,0.6455541242391369,0.20326266217691966,0.4373244394182668,0.49505965329026047,-2.286598802765427,0.504268205626795,1.2067728159429294
122,-5.5341642968965505,-0.6228053604913144,-0.24745259919857965,-1.7258646075763528,-1.2078143752588197,0.6219974297490882,0.22105184796360483,0.42885582355677854,0.4947879346139407,-2.311180412539801,0.5094071583485704,1.1618761377178632
123,-5.572346884975792,-0.6282122052543009,-0.23659152066188494,-1.72712929485793,-1.2131942661626587,0.5992973423314032,0.23784984418676441,0.42000060057596245,0.4945164877684301,-2.33492101816183,0.5143624735961163,1.1185937380242854
124,-5.609088620674687,-0.6334150181394382,-0.22614029414544357,-1.7283462580911457,-1.2183711423154089,0.5774538619860827,0.253668999230548,0.4108495026672143,0.49424641248283585,-2.357815152146871,0.519133466494524,1.0769271140139212
125,-5.644389503993228,-0.6384137991467276,-0.21609891964925465,-1.7295154972759996,-1.223345003717071,0.5564669887131295,0.26852659686605174,0.40148819883943276,0.4939787611085316,-2.3798574830272825,0.5237195371182601,1.036877801688261
126,-5.678249534931421,-0.643208548276168,-0.20646739717331775,-1.7306370124124926,-1.2281158503676448,0.5363367225125417,0.28244412575604916,0.39199721814706445,0.49371453924824216,-2.4010428217794617,0.5281201642371391,0.9984473665685174
127,-5.710668713489266,-0.6477992655277605,-0.19724572671763374,-1.7317108035006243,-1.232683682267131,0.5170630633843176,0.29544658711685307,0.3824519336234459,0.4934547063709269,-2.4213661283019468,0.532334899217134,0.9616373944230572
128,-5.7416470396667645,-0.652185950901504,-0.18843390828220308,-1.7327368705403938,-1.237048499415528,0.49864601132846076,0.30756184287069466,0.37292259889106116,0.49320017641096436,-2.4408225179161653,0.5363633600815569,0.9264494820837275
129,-5.771184513463913,-0.6563686043973991,-0.18003194186702398,-1.7337152135318026,-1.2412103018128375,0.4810855663449676,0.318820005742252,0.3634744297984479,0.4929518183502781,-2.459407267860885,0.5402052257388437,0.8928852283824597
130,-5.799281134880712,-0.6603472260154455,-0.17203982747209912,-1.73464583247485,-1.245169089459058,0.46438172843384073,0.32925287198565595,0.3541677238603638,0.4927104567821161,-2.4771158237510282,0.5438602303837917,0.8609462252391707
131,-5.825936903917162,-0.6641218157556439,-0.16445756509742537,-1.7355287273695361,-1.248924862354191,0.44853449759507846,0.3388933967685951,0.34505801073848336,0.4924768724553062,-2.493943805971516,0.5473281580797186,0.8306340489316354
132,-5.851151820573266,-0.6676923736179929,-0.15728515474300453,-1.7363638982158607,-1.252477620498235,0.43354387382868254,0.347775211682399,0.33619622748118033,0.4922518027979049,-2.509887015976791,0.5506088375293827,0.8019502515774576
133,-5.874925884849018,-0.671058899602494,-0.15052259640883658,-1.7371513450138234,-1.255827363891191,0.41940985713465206,0.35593218338465177,0.3276289127315818,0.4920359424192266,-2.5249414424670777,0.5537021370430026,0.7748963528575431
134,-5.897259096744422,-0.6742213937091461,-0.14416989009492154,-1.7378910677634254,-1.2589740925330593,0.4061324475129888,0.3633980120070724,0.3193984146035483,0.49182994358933435,-2.5391032674128224,0.556607959711916,0.7494738320097339
135,-5.918151456259478,-0.67717985593795,-0.1382270358012585,-1.7385830664646653,-1.2619178064238388,0.39371164496368927,0.37020586766879293,0.31154310740766666,0.4916344166951444,-2.552368871899506,0.5593262387966783,0.7256841201203629
136,-5.937602963394188,-0.6799342862889053,-0.13269403352784837,-1.7392273411175443,-1.2646585055635298,0.38214744948675516,0.37638806321664126,0.30409761287729675,0.49144993067236936,-2.5647348417657803,0.5618569333384736,0.7035285927403815
137,-5.955613618148545,-0.6824846847620123,-0.12757088327469068,-1.7398238917220619,-1.2671961899521338,0.37143986108218563,0.3819757611622018,0.2970930219933118,0.4912770134125886,-2.5761979730089113,0.5642000240027748,0.6830085628516515
138,-5.972183420522557,-0.6848310513572708,-0.12285758504178501,-1.7403727182782176,-1.2695308595896486,0.36158887974998244,0.38699871269346514,0.2905571139315581,0.4911161521448036,-2.586755276932595,0.5663555091640562,0.664125274207673
139,-5.987312370516214,-0.6869733860746796,-0.11855413882913313,-1.7408738207860124,-1.271662514476075,0.3525945054901456,0.3914850265999588,0.28451456905676065,0.49096779379089545,-2.5964039850134806,0.5683234012402514,0.6468798950717987
140,-6.001000468129531,-0.688911688914241,-0.11466054463673281,-1.741327199245446,-1.2735911546114131,0.3444567383026751,0.3954609659581873,0.27898717325878836,0.4908323452944521,-2.605141553464077,0.5701037232853864,0.6312735123743862
141,-6.013247713362494,-0.6906459598759538,-0.11117680246458583,-1.7417328536565173,-1.2753167799956637,0.33717557818756916,0.3989507704729474,0.27399401127142875,0.4907101739224954,-2.612965667471188,0.5716965058484467,0.617307126309129
142,-6.024054106215107,-0.6921761989598179,-0.10810291231269087,-1.7420907840192283,-1.2768393906288256,0.3307510251448278,0.40197650245438443,0.269551646929685,0.490601607539681,-2.6198742450905836,0.5731017841061928,0.6049816453868865
143,-6.033419646687374,-0.6935024061658335,-0.1054388741810488,-1.7424009903335773,-1.278158986510899,0.325183079174451,0.40455791452527634,0.26567428861028325,0.4905069348546016,-2.6258654407802293,0.5743195952770767,0.5942978819640674
144,-6.041344334779295,-0.6946245814939997,-0.10318468806965964,-1.742663472599565,-1.2792755676418843,0.32047174027644054,0.4067123372937134,0.26237393836229256,0.4904264056378557,-2.6309376485560994,0.5753499763229091,0.585256548260749
145,-6.047828170490863,-0.6955427249443185,-0.10134035397852248,-1.7428782308171913,-1.2801891340217821,0.31661700845079643,0.40845458538879914,0.2596605234725576,0.49036023091160535,-2.6350895047563756,0.5761929619442738,0.5778582528820576
146,-6.052871153822084,-0.6962568365167892,-0.09990587190763911,-1.7430452649864558,-1.2808996856505903,0.31361888369751867,0.4097968804377193,0.25754200942594396,0.49030858311037234,-2.638319890401585,0.5768485828750168,0.5721034978546077
147,-6.056473284772954,-0.6967669162114096,-0.09888124185700775,-1.74316457510736,-1.2814072225283115,0.3114773660166037,0.41074878975809964,0.25602449341569794,0.49027159621286776,-2.6406279331401534,0.5773168644804104,0.5679926761880364
148,-6.05863456334348,-0.6970729640281825,-0.0982664638266284,-1.7432361611799017,-1.281711744654944,0.31019245540805507,0.411317179747283,0.25511227773711576,0.4902493658447045,-2.6420130087706504,0.577597825662796,0.5655260699698489
149,-6.059354989533652,-0.697174979967107,-0.09806153781650195,-1.7432600232040825,-1.2818132520304877,0.3097641518718728,0.4115061831671537,0.2548079225612169,0.49024194935184445,-2.6424747423339823,0.5776914780777276,0.5647038490000165
