nimar13/UR3e_dataset_trayectorias/data/trayectorias_completas_UR3e_TRAPEZOIDAL_FUNC/trayectoria_257.csv
Punto,shoulder_pan_joint,shoulder_lift_joint,elbow_joint,wrist_1_joint,wrist_2_joint,wrist_3_joint,Posicion_X,Posicion_Y,Posicion_Z,Roll,Pitch,Yaw
0,6.081019873199793,-1.024322994225059,-1.335554532735842,-6.145583505625874,0.4582845739051349,-5.0990701947293555,0.061785369259110816,0.20484282231252035,0.6052480495294168,-1.0927449882513307,-0.3615326649700879,1.6561341307092077
1,6.079908266015746,-1.0243537665355822,-1.3354538691038156,-6.144370525339643,0.45833240158683647,-5.098506475546523,0.06212010650004485,0.20474968252870887,0.6052101689505841,-1.0908791588227682,-0.36193730010729824,1.654593872211943
2,6.076573444463605,-1.024446083467152,-1.3351518782077363,-6.140731584480951,0.4584758846319413,-5.096815317998023,0.06312316335762429,0.2044673966437378,0.6050957269686162,-1.085279428542378,-0.36314828218382367,1.649969053781395
3,6.071015408543372,-1.0245999450197685,-1.334648560047604,-6.134666683049798,0.45871502304044925,-5.0939967220838565,0.06479102751710485,0.20398739007721964,0.6049023274108922,-1.0759390603103276,-0.3651567844213469,1.642247563146447
4,6.063234158255044,-1.0248153511934313,-1.3339439146234189,-6.126175821046183,0.4590498168123604,-5.090050687804024,0.06711768684345581,0.20329545652178216,0.6046259920437287,-1.0628467906723573,-0.36794790628817753,1.6314092702758245
5,6.053229693598623,-1.0250923019881408,-1.3330379419351808,-6.115258998470107,0.45948026594767477,-5.084977215158526,0.07009439476530575,0.20237188930768307,0.6042611842632966,-1.0459867848314712,-0.37150038972926724,1.6174261198917448
6,6.041002014574108,-1.025430797403897,-1.3319306419828898,-6.10191621532157,0.4600063704463923,-5.078776304147361,0.0737093475793317,0.20119167394339757,0.603800843476634,-1.0253385889124964,-0.3757862222399181,1.6002622751270468
7,6.026551121181499,-1.0258308374406995,-1.330622014766546,-6.0861474716005715,0.4606281303085131,-5.071447954770529,0.0779472798267789,0.19972475017574268,0.6032364313719751,-1.0008770955606507,-0.3807701275918012,1.5798743273247584
8,6.009877013420797,-1.0262924220985488,-1.3291120602861493,-6.067952767307111,0.461345545534037,-5.062992167028032,0.08278898618466606,0.19793635386675845,0.6025579915984988,-0.9725725447091305,-0.38640894595032227,1.5562115924674873
9,5.990979691292002,-1.0268155513774444,-1.3274007785416997,-6.04733210244119,0.46215861612296416,-5.0534089409198675,0.08821078097479826,0.19578745058021707,0.6017542246784207,-0.9403905879048378,-0.3926509066581072,1.5292165210517439
10,5.969859154795112,-1.0274002252773868,-1.3254881695331973,-6.024285477002807,0.4630673420752945,-5.042698276446036,0.09418390946995732,0.19323527389168507,0.6008125802531442,-0.904292452003084,-0.3994347993236666,1.4988252554717592
11,5.946515403930129,-1.0280464437983756,-1.3233742332606417,-5.998812890991963,0.464071723391028,-5.0308601736065395,0.10067392868947755,0.19023398194718238,0.5997193690129248,-0.8642352462826314,-0.4066890523181666,1.4649683771175896
12,5.920948438697053,-1.028754206940411,-1.3210589697240334,-5.970914344408658,0.4651717600701647,-5.017894632401376,0.10764007931419828,0.18673544554251964,0.5984598968678148,-0.8201724658549182,-0.41433073266628545,1.427571894207364
13,5.893158259095882,-1.029523514703493,-1.3185423789233721,-5.940589837252891,0.4663674521127046,-5.003801652830546,0.11503467466120688,0.18269017980743651,0.597018624076892,-0.7720547531206927,-0.42226448797676136,1.3865585303616659
14,5.8631448651266185,-1.0303543670876214,-1.315824460858658,-5.907839369524663,0.46765879951864764,-4.98858123489405,0.12280253723952828,0.17804842927277192,0.5953793521516643,-0.7198309870202394,-0.4303814598621276,1.34184938217181
15,5.830908256789261,-1.0312467640927965,-1.312905215529891,-5.8726629412239735,0.4690458022879939,-4.972233378591888,0.13088051809747175,0.172761412487743,0.5935254413754216,-0.6634497754125472,-0.43855820956951785,1.2933660200233197
16,5.7964484340838105,-1.0322007057190181,-1.3097846429370712,-5.835060552350823,0.4705284604207434,-4.954758083924059,0.13919713874054113,0.1667827272579407,0.5914400617188849,-0.6028614268524579,-0.44665571047451363,1.2410331079892867
17,5.759765397010265,-1.0332161919662863,-1.3064627430801985,-5.795032202905211,0.47210677391689604,-4.936155350890564,0.14767239953902858,0.16006991083572353,0.5891064797681956,-0.5380204712060783,-0.4545184785918828,1.1847816126296458
18,5.720859145568627,-1.0342932228346011,-1.3029395159592727,-5.752577892887138,0.47378074277645194,-4.9164251794914025,0.15621780186767825,0.152586140899518,0.5865083839971741,-0.4688887799907799,-0.46197393077464727,1.1245526530928547
19,5.679729679758895,-1.0354317983239625,-1.299214961574294,-5.707697622296603,0.47555036699941095,-4.895567569726574,0.16473663325309623,0.14430205286176842,0.5836302502940504,-0.3954393024725952,-0.4688320795354209,1.060302011478495
20,5.63637699958107,-1.0366319184343702,-1.2952890799252625,-5.660391391133607,0.4774156465857732,-4.87358252159608,0.1731245649946393,0.13519763699980963,0.5804577490752005,-0.31766037787013096,-0.47488569118369783,0.9920052684941574
21,5.590801105035151,-1.0378935831658247,-1.2911618710121782,-5.61065919939815,0.47937658153553864,-4.850470035099919,0.1812706094494416,0.12526416529441609,0.5769781945664276,-0.235560504247787,-0.4799110467960484,0.9196634518241479
22,5.543001996121138,-1.0392167925183255,-1.286833334835041,-5.558501047090231,0.48143317184870726,-4.826230110238091,0.1890584787632254,0.11450608303976892,0.5731810358884672,-0.14917334076714664,-0.4836694487717916,0.8433089833153002
23,5.4929796728390325,-1.0406015464918732,-1.2823034713938508,-5.503916934209851,0.48358541752527906,-4.800862747010598,0.19636837760383935,0.10294278481299501,0.5690583884315881,-0.0585625974772864,-0.48590960382525844,0.7630115917237235
24,5.4407341351888325,-1.0420478450864672,-1.2775722806886076,-5.44690686075701,0.485833318565254,-4.774367945417438,0.20307924876796354,0.09061017905594099,0.5646056026311888,0.03617366056697788,-0.4863709806394215,0.6788837341188662
25,5.386265383170539,-1.0435556883021078,-1.2726397627193116,-5.387470826731707,0.48817687496863227,-4.746745705458612,0.20907147183698227,0.07756193138550627,0.5598218656526899,0.13489987721448696,-0.4847881829423524,0.5910849643771129
26,5.329573416784152,-1.0451250761387951,-1.2675059174859629,-5.325608832133943,0.4906160867354136,-4.717996027134119,0.21422999099105638,0.06387026514845551,0.5547108296558884,0.237441679012554,-0.4808962959071877,0.49982463306138136
27,5.2706582360296705,-1.0467560085965288,-1.262170744988561,-5.261320876963717,0.4931509538655982,-4.6881189104439605,0.21844781856492396,0.04962619028173115,0.5492812582393265,0.3435869763201242,-0.4744370606921571,0.40536233385077897
28,5.209519840907096,-1.0484484856753091,-1.2566342452271064,-5.194606961221031,0.49578147635918596,-4.657114355388135,0.22162982624838665,0.0349390300796505,0.5435476803760854,0.4530899735820935,-0.46516562097008674,0.3080056550302668
29,5.146158231416429,-1.050202507375136,-1.250896418201599,-5.125467084905883,0.49850765421617693,-4.624982361966643,0.2236966968105933,0.01993512202870533,0.5375310386665312,0.5656783164066401,-0.45285748554323435,0.2081050581117326
30,5.080573407557667,-1.0520180736960094,-1.2449572639120383,-5.053901248018273,0.501329487436571,-4.591722930179484,0.22458886729886923,0.004755585537491109,0.5312593160865547,0.6810632536324405,-0.43731528537283554,0.10604606642702816
31,5.012765369330811,-1.0538951846379294,-1.238816782358425,-4.979909450558202,0.5042469760203684,-4.55733606002666,0.22427025200235587,-0.01044692184099896,0.5247681226523317,0.7989523050746413,-0.41837489237079933,0.002239347703095387
32,4.9427341167358625,-1.055833840200896,-1.2324749735407587,-4.90349169252567,0.5072601199675689,-4.52182175150817,0.22273149306274392,-0.025512495533364862,0.518101220622085,0.9190635814348708,-0.3959105231702369,-0.10289036469841709
33,4.87047964977282,-1.057834040384909,-1.2259318374590396,-4.824647973920677,0.5103689192781726,-4.485180004624012,0.2199924522868438,-0.040279300772872284,0.5113109640980122,1.0411406852608176,-0.3698385718936416,-0.20891532990082712
34,4.796001968441685,-1.0598957851899686,-1.2191873741132675,-4.743378294743223,0.5135733739521796,-4.447410819374188,0.21610363410056202,-0.054589820843445096,0.5044586262838384,1.164967088806507,-0.34012008463292415,-0.31541459874583677
35,4.7193010727424545,-1.062019074616075,-1.2122415835034426,-4.659682654993307,0.5168734839895897,-4.408514195758698,0.21114622198259222,-0.06829785563281576,0.49761458532302993,1.290379047937273,-0.30676197690594526,-0.42198145241149976
36,4.6403769626751314,-1.0642039086632276,-1.2050944656295648,-4.573561054670929,0.520269249390403,-4.3684901337775415,0.20523042484582274,-0.08127599095202356,0.4908583377386272,1.4172764318538678,-0.2698172728600184,-0.5282276696906069
37,4.559229638239715,-1.066450287331427,-1.197746020491634,-4.485013493776091,0.5237606701546195,-4.327338633430719,0.19849187143267602,-0.09342315351163737,0.4842783071878433,1.5456312504675889,-0.22938478666429798,-0.6337841838732431
38,4.475859099436204,-1.0687582106206728,-1.1901962480896504,-4.39403997230879,0.5273477462822391,-4.285059694718229,0.1910858650655841,-0.10467176040865128,0.477971415722039,1.675494057101945,-0.1856087599950849,-0.738298059594325
39,4.3902653462645995,-1.0711276785309651,-1.1824451484236138,-4.3006404902690285,0.5310304777732621,-4.241653317640074,0.18317942201824747,-0.11499387445162274,0.4720423852103075,1.806998719088715,-0.13867901638664906,-0.8414260220196218
40,4.302448378724902,-1.0735586910623043,-1.1744927214935243,-4.2048150476568065,0.5348088646276881,-4.1971195021962515,0.1749411662382775,-0.1244056988748942,0.46660273825861626,1.9403662348274608,-0.08883220606555071,-0.9428249756914364
41,4.212408196817111,-1.0760512482146898,-1.166338967299382,-4.106563644472122,0.5386829068455173,-4.1514582483867635,0.1665293400213056,-0.13296970014166784,0.461769471056612,2.0759083109538987,-0.03635471130441167,-1.0421400697156153
42,4.120144800541226,-1.0786053499881219,-1.1579838858411868,-4.005886280714977,0.5426526044267498,-4.104669556211609,0.15807840937277998,-0.14079365006317693,0.4576633753266467,2.2140312877120065,0.01841222192730836,-1.1389909495940327
43,4.025658189897247,-1.0812209963826005,-1.1494274771189388,-3.90278295638537,0.5467179573713854,-4.056753425670788,0.1496849841553646,-0.14802594304463335,0.4544069931347727,2.3552406958540133,0.07506455814677124,-1.2329569680048293
44,3.9289483648851746,-1.0838981873981257,-1.1406697411326376,-3.7972536714833014,0.5508789656794243,-4.0077098567643,0.14139402107191892,-0.1548466843331031,0.4521221969229896,2.5001461927645683,0.13312418540619278,-1.323562426565647
45,3.8300153255050087,-1.0866369230346975,-1.1317106778822836,-3.6892984260087722,0.5551356293508664,-3.9575388494921464,0.1331865105342173,-0.16145427096877715,0.45092739786310254,2.649465751023429,0.1920237406818195,-1.4102635510633488
46,3.72885907175675,-1.0894372032923159,-1.122550287367877,-3.578917219961782,0.5594879483857116,-3.906240403854326,0.12497003931982711,-0.1680475036259066,0.4509343985802462,2.8040265792422683,0.2510871824948261,-1.4924400802173596
47,3.6254796036403967,-1.0922990281709808,-1.1131885695894173,-3.4661100533423297,0.56393592278396,-3.8538145198508396,0.11657373778601494,-0.17480367173802713,0.4522449214320379,2.964758103220093,0.30950618182162787,-1.5693963309006638
48,3.51987692115595,-1.095222397670692,-1.1036255245469047,-3.3508769261504168,0.5684795525456116,-3.8002611974816864,0.10774912875260587,-0.1818535330388459,0.45494686073884877,3.1326692224128614,0.36631337377276135,-1.6403795989282273
49,3.4120510243034103,-1.0982073117914501,-1.0938611522403392,-3.233217838386042,0.5731188376706663,-3.7455804367468675,0.0981782607373777,-0.18925463636698414,0.4591103264003382,-2.9743871922185354,0.42035540440727587,-1.7046276284711663
50,3.3021254249921146,-1.101250351387641,-1.0839066375177238,-3.1132675656365656,0.5778484639722685,-3.6898348731111406,0.087502843399024,-0.19695628380500357,0.4647764144363458,-2.7892773847968266,0.4702193451788746,-1.7614016365888736
51,3.191705778043465,-1.1043070675662867,-1.0739073834030965,-2.9927781905376527,0.5825993470212938,-3.633838767616377,0.07551444389461458,-0.20468280755899465,0.4718501520365652,-2.5972849436076095,0.5137793661706176,-1.8096464961506322
52,3.0812861310948154,-1.1073637837449322,-1.0639081292884693,-2.87228881543874,0.587350230070319,-3.5778426621216135,0.06196753999376793,-0.21211980316844462,0.48022409080115097,-2.399256440470124,0.5495503038006653,-1.8495798006866793
53,2.9708664841461667,-1.1104204999235778,-1.0539088751738421,-2.751799440339827,0.5921011131193441,-3.5218465566268504,0.04664429114340497,-0.21888994903398118,0.48979237666561704,-2.195796496014683,0.5763378877013619,-1.8822441994328403
54,2.860446837197517,-1.1134772161022235,-1.043909621059215,-2.631310065240914,0.5968519961683693,-3.465850451132087,0.029425111884620193,-0.22453854238122076,0.5004300182255751,-1.9881574660384214,0.5931075450424119,-1.9093098803778639
55,2.7500271902488675,-1.1165339322808692,-1.0339103669445877,-2.510820690142001,0.6016028792173944,-3.4098543456373234,0.010308285788444593,-0.22855915297934407,0.5119947236495408,-1.7781887523133229,0.5991019930664936,-1.93303071365294
56,2.639607543300218,-1.1195906484595148,-1.0239111128299605,-2.3903313150430874,0.6063537622664197,-3.3538582401425594,-0.010577012270816036,-0.23042365821987987,0.5243290158734828,-1.5681349440869783,0.5939413712419276,-1.956049340221799
57,2.5291878963515684,-1.1226473646381605,-1.0139118587153333,-2.2698419399441745,0.6111046453154448,-3.297862134647796,-0.032965192841810265,-0.22961499646215106,0.5372625949388649,-1.3603156870765374,0.5776741545846111,-1.9810842191906455
58,2.418768249402919,-1.1257040808168062,-1.003912604600706,-2.1493525648452616,0.61585552836447,-3.241866029153033,-0.05645672226676508,-0.22566079970963557,0.5506149122940988,-1.1567811956006433,0.5507608910579176,-2.010592715325794
59,2.30834860245427,-1.1287607969954518,-0.9939133504860788,-2.0288631897463496,0.6206064114134952,-3.1858699236582693,-0.08052863722980744,-0.2181659917658377,0.5641979183563715,-0.959050799441185,0.5139971814385736,-2.0465178293400688
60,2.1979289555056205,-1.1318175131740973,-0.9839140963714517,-1.9083738146474367,0.6253572944625203,-3.1298738181635057,-0.10455270284998452,-0.20684246894017375,0.5778189416856219,-0.7679967308831753,0.46840267091581295,-2.0901810325238244
61,2.087509308556971,-1.134874229352743,-0.9739148422568245,-1.7878844395485238,0.6301081775115456,-3.073877712668742,-0.1278203803850066,-0.19153411623225766,0.5912836558053157,-0.5838674629258771,0.4151081433700845,-2.142315820474284
62,1.9770896616083213,-1.1379309455313886,-0.9639155881421971,-1.66739506444961,0.6348590605605707,-3.0178816071739782,-0.14957337928038708,-0.17223564601412458,0.604399088056518,-0.4063992838795671,0.35526408123084163,-2.203191024630577
63,1.8666700146596718,-1.1409876617100343,-0.9539163340275699,-1.5469056893506972,0.6396099436095959,-2.961885501679215,-0.16903824089003786,-0.14910406638213397,0.616976623923324,-0.23495718624558046,0.289980247382198,-2.272765360181517
64,1.7562503677110222,-1.14404437788868,-0.9439170799129427,-1.4264163142517843,0.6443608266586212,-2.9058893961844516,-0.18546315628483656,-0.12246197555748568,0.6288349600391022,-0.06866336728388031,0.2202949468475452,-2.350831940830757
65,1.6458307207623735,-1.1471010940673256,-0.9339178257983155,-1.3059269391528714,0.6491117097076462,-2.849893290689688,-0.19815507230750787,-0.09279231604296516,0.6398029595831044,0.09350599777674498,0.14716737165052415,-2.4371338461225776
66,1.5354110738137239,-1.1501578102459713,-0.9239185716836883,-1.1854375640539585,0.6538625927566715,-2.7938971851949246,-0.20651509734362708,-0.06072468396213666,0.6497223650034727,0.2526587713666264,0.07148566367124577,-2.5314480045293823
67,1.4249914268650734,-1.153214526424617,-0.913919317569061,-1.0649481889550447,0.6586134758056966,-2.7379010797001606,-0.2100702843174964,-0.027013749877129397,0.6584503249416837,0.4099544847649051,-0.005915182289713881,-2.6336426028466113
68,1.3145717799164247,-1.1562712426032626,-0.9039200634544338,-0.9444588138561318,0.6633643588547218,-2.6819049742053975,-0.20850004037363334,0.007489217960534461,0.6658616948599234,0.5665937845865456,-0.08422939496062046,-2.7437152117867036
69,1.2041521329677751,-1.1593279587819083,-0.8939208093398066,-0.823969438757219,0.668115241903747,-2.625908868710634,-0.20165568189949684,0.04187035261351151,0.6718510741507127,0.7238218616686934,-0.16265252441106484,-2.861817541824337
70,1.0937324860191255,-1.162384674960554,-0.8839215552251795,-0.7034800636583061,0.6728661249527721,-2.5699127632158705,-0.1895720058975821,0.07519102182313214,0.6763345463906941,0.8829384045560805,-0.24035040693095588,-2.9882699035176477
71,0.9833128390704768,-1.1654413911391994,-0.8739223011105522,-0.5829906885593932,0.6776170080017974,-2.513916657721107,-0.17247016546727204,0.10652758470141822,0.6792510938313893,1.0453060623868433,-0.31642532386983674,-3.123564634893448
72,0.8728931921218273,-1.168498107317845,-0.863923046995925,-0.4625013134604803,0.6823678910508225,-2.4579205522263434,-0.15075159588375614,0.13501103986980198,0.6805636621334079,1.2123470898447826,-0.3898799719626482,3.014832458850025
73,0.7624735451731777,-1.1715548234964908,-0.8539237928812977,-0.3420119383615674,0.6871187740998477,-2.40192444673158,-0.12498321358491211,0.15986452190917663,0.6802598566734106,1.385513377940271,-0.4595812726047199,2.8597827738906516
74,0.6520538982245281,-1.1746115396751364,-0.8439245387666705,-0.22152256326265451,0.6918696571488729,-2.3459283412368164,-0.09587457732401172,0.18043670263564676,0.6783522574044603,1.5662089960669465,-0.5242290917387806,2.693676558286972
75,0.5416342512758803,-1.177668255853782,-0.8339252846520434,-0.1010331881637434,0.696620540197898,-2.2899322357420537,-0.06424813317443737,0.19622935948408562,0.6748783451437931,1.7556397566201316,-0.5823401098649782,2.515854053405102
76,0.4312146043272289,-1.1807249720324278,-0.823926030537416,0.01945618693517126,0.7013714232469233,-2.2339361302472893,-0.031004039088816347,0.206917674510296,0.6699000382066044,1.9545693682976597,-0.6322640025215545,2.3260458008304115
77,0.3207949573785793,-1.1837816882110734,-0.8139267764227888,0.13994556203408415,0.7061223062959484,-2.177940024752526,0.0029186404964786986,0.21236220823762292,0.6635028444061807,2.1629909842518464,-0.6722547548677689,2.1247113743804267
78,0.21037531042992974,-1.186838404389719,-0.8039275223081616,0.26043493713299704,0.7108731893449736,-2.1219439192577623,0.036582380530047615,0.21261193233363165,0.6557946395040023,2.3797890048954273,-0.7006167300879118,1.913387051330409
79,0.09995566348128015,-1.1898951205683646,-0.7939282681935343,0.3809243122319099,0.7156240723939988,-2.0659478137629987,0.06909120039882771,0.2078981801008391,0.6469040891225778,2.6025524962269593,-0.7159226267797335,1.6948812178489783
80,-0.010463983467369431,-1.1929518367470102,-0.7839290140789072,0.5014136873308228,0.7203749554430239,-2.009951708268235,0.09962816779556184,0.19861985812757776,0.6369787368344159,2.827733273703911,-0.7172569948203523,1.473124666329725
81,-0.12088363041601724,-1.1960085529256559,-0.77392975996428,0.6219030624297357,0.7251258384920491,-1.9539556027734717,0.12748847403173438,0.1853207296446385,0.6261827865212594,3.051221553927052,-0.7043981623264826,1.252603124645587
82,-0.23130327736466683,-1.1990652691043016,-0.7639305058496528,0.7423924375286486,0.7298767215410743,-1.8979594972787082,0.15210639168986897,0.1686600044551771,0.6146946120714375,-3.014023742113579,-0.6778558670444095,1.0375498989675076
83,-0.3417229243133164,-1.2021219852829472,-0.7539312517350256,0.8628818126275615,0.7346276045900995,-1.8419633917839446,0.1730747563698245,0.14937782827110474,0.6027040319686762,-2.8045295965401307,-0.6387465061668693,0.831250343031695
84,-0.452142571261966,-1.205178701461593,-0.7439319976203984,0.9833711877264744,0.7393784876391246,-1.785967286289181,0.1901560199094647,0.12825753596772543,0.590409390248755,-2.605096310456989,-0.5885668662093279,0.6357267977100796
85,-0.5625622182106156,-1.2082354176402386,-0.7339327435057712,1.1038605628253872,0.7441293706881498,-1.7299711807944185,0.20328438080530567,0.10608670339756225,0.578014488595238,-2.4161285277727775,-0.5289585898683931,0.4518213619346649
86,-0.6729818651592652,-1.2112921338188842,-0.723933489391144,1.2243499379243001,0.748880253737175,-1.673975075299655,0.2125589835631803,0.08361909126023719,0.5657254169557603,-2.2371216978749344,-0.4615292892927906,0.27950922338801015
87,-0.783401512107913,-1.21434884999753,-0.7139342352765168,1.344839313023213,0.7536311367862001,-1.6179789698048914,0.218228665668764,0.06153951848989772,0.5537473319401331,-2.0670057674202194,-0.38774988050138554,0.11825680402038519
88,-0.8938211590565643,-1.2174055661761756,-0.7039349811618894,1.4653286881221277,0.7583820198352254,-1.561982864310127,0.22066919190593035,0.04043353441508442,0.5422812333760982,-1.9044223653991041,-0.30891585259970444,-0.03268355030052901
89,-1.004240806005214,-1.2204622823548212,-0.6939357270472621,1.5858180632210406,0.7631329028842506,-1.5059867588153635,0.2203543253052906,0.02076348750852211,0.5315207897252053,-1.7479050670090999,-0.22615006703451843,-0.17407179206693657
90,-1.1146604529538635,-1.2235189985334667,-0.683936472932635,1.7063074383199535,0.7678837859332758,-1.4499906533206,0.2178224192523589,0.0028522285732292124,0.5216492625894069,-1.595974910255717,-0.1404276954464224,-0.3065579609760407
91,-1.225080099902513,-1.2265757147121124,-0.6739372188180078,1.8267968134188663,0.7726346689823009,-1.3939945478258364,0.21364045741933657,-0.013124742624829645,0.5128365792707809,-1.447175513751522,-0.05261080789574325,-0.43061381190631975
92,-1.3354997468511627,-1.229632430890758,-0.6639379647033806,1.9472861885177792,0.7773855520313261,-1.337998442331073,0.20836760348322397,-0.02713835239462566,0.5052366002969806,-1.3000695629858026,0.03651375990963888,-0.546495019998101
93,-1.4459193937998105,-1.2326891470694037,-0.6539387105887534,2.067775563616692,0.7821364350803512,-1.2820023368363094,0.2025203432021527,-0.03929640817291149,0.4989846260209093,-1.153211912712098,0.12619547506494577,-0.6542173976009396
94,-1.55633904074846,-1.2357458632480494,-0.6439394564741262,2.188264938715605,0.7868873181293765,-1.2260062313415458,0.19654120582319137,-0.0498260768969003,0.4941951828840903,-1.0051089650847473,0.2156798329019826,-0.7535370537077996
95,-1.6667586876971097,-1.238802579426695,-0.633940202359499,2.308754313814518,0.7916382011784016,-1.1700101258467832,0.19077284492217014,-0.0590494796664753,0.49096012575042375,-0.8541709712432647,0.3041650672601587,-0.8439299805927281
96,-1.7771783346457593,-1.2418592956053405,-0.6239409482448718,2.429243688913429,0.7963890842274268,-1.1140140203520197,0.18543895177361497,-0.06735388484836316,0.48934708793235465,-0.6986641942447563,0.3907535330777082,-0.9245722038137534
97,-1.8875979815944088,-1.2449160117839861,-0.6139416941302446,2.549733064012342,0.801139967276452,-1.0580179148572562,0.18063308398370734,-0.07515828854063349,0.4893983052170068,-0.5366745826117654,0.47439563201529067,-0.9943294449797581
98,-1.9980176285430584,-1.2479727279626318,-0.6039424400156174,2.670222439111255,0.8058908503254771,-1.0020218093624926,0.17631603987713912,-0.08287837821889794,0.4911298344363831,-0.3661057883506419,0.5538258616325281,-1.0517781185039445
99,-2.108437275491708,-1.2510294441412775,-0.5939431859009899,2.7907118142101695,0.8106417333745024,-0.9460257038677282,0.172321920043269,-0.09089197046167888,0.4945311810019413,-0.1847543283022835,0.6274954699264095,-1.0953003105738257
100,-2.218362874803006,-1.2540724837374684,-0.5839886711783744,2.9106620869596487,0.8153713596761047,-0.8902801402319991,0.1683906081533932,-0.09946675234317223,0.499539266603305,0.008567845415871016,0.693241906812772,-1.123234030536529
101,-2.3261887716555414,-1.2570573978582262,-0.5742242988718087,3.0283211747240237,0.8200106448011594,-0.8355993794971823,0.1642268593050112,-0.10865816087100208,0.505963999589686,0.21204294837912535,0.7482424443149951,-1.1346956070763616
102,-2.4317914541399883,-1.2599807673579377,-0.5646612538292961,3.1435543019159375,0.824554274562811,-0.7820460571280297,0.15946586616785438,-0.11849494686234567,0.5136289681865508,0.4248512401726581,0.7907598319485588,-1.1307593048691977
103,-2.5351709222563414,-1.262842592236603,-0.5552995360508366,3.2563614685353883,0.8290022489610595,-0.7296201731245429,0.15376040966032611,-0.12889709572879604,0.522354551214905,0.6446307558669443,0.8194011838723758,-1.1142152704797128
104,-2.6363271760046025,-1.2656428724942212,-0.5461391455364297,3.3667426745823796,0.8333545679959046,-0.6783217274867219,0.14681342899418182,-0.13968526310339163,0.5319579451774095,0.8672314583634889,0.8333442151145869,-1.0895804769178232
105,-2.735260215384768,-1.2683816081307928,-0.5371800822860757,3.4746979200569097,0.8376112316673466,-0.6281507202145677,0.1383982561664949,-0.15060409877188283,0.5422573912268045,1.0873565853641007,0.8325896567397743,-1.0624691694142532
106,-2.8319700403968415,-1.2710587991463178,-0.5284223462997748,3.5802272049589785,0.8417722399753855,-0.5791071513080803,0.12837081927290317,-0.16134770458571274,0.5530758368480232,1.299743368575047,0.8180263679401205,-1.0384214216825596
107,-2.9264566510408194,-1.2736744455407965,-0.5198659375775267,3.6833305292885843,0.8458375929200211,-0.5311910207672597,0.116674344303106,-0.1715850517300405,0.564244015995692,1.5003139613055299,0.7912611329152195,-1.0217595390805394
108,-3.0187200473167053,-1.2762285473142287,-0.5115108561193313,3.784007893045729,0.8498072905012535,-0.48440232859210397,0.10333752373735361,-0.18098360818877654,0.5756029508897103,1.6867520243115108,0.7542992317564282,-1.0150172878511483
109,-3.108760229224492,-1.2787211044666145,-0.5033571019251895,3.8822592962304086,0.8536813327190829,-0.43874107478261504,0.08846739391238444,-0.18922989359180914,0.5870058947670803,1.8584107688709173,0.7092214728014677,-1.0190364732806
110,-3.1965771967641885,-1.2811521169979532,-0.4954046749951002,3.978084738842629,0.8574597195735089,-0.39420725933879375,0.07223828776355157,-0.19604614029675688,0.5983197476692442,2.015838087659906,0.6579571461741764,-1.033445477742755
111,-3.2821709499357983,-1.2835215849082457,-0.48765357532906295,4.071484220882395,0.8611424510645317,-0.35080088226063566,0.05487822945295034,-0.201202662291416,0.6094259869734483,2.1602476179314754,0.6021722903601638,-1.0571910952348764
112,-3.365541488739309,-1.2858295081974918,-0.4801038029270792,4.162457742349696,0.8647295271921515,-0.30852194354814966,0.036654040970003424,-0.2045258943994832,0.6202211610998938,2.2931126203495893,0.5432440076317555,-1.0889469143629797
113,-3.4466888131747275,-1.288075886865691,-0.472755357789149,4.2510053032445345,0.868220947956368,-0.26737044320132686,0.01785626716429335,-0.20590235081949532,0.6306169989465379,2.4159161128273245,0.48228223851811525,-1.1273649107778334
114,-3.525612923242049,-1.2902607209128436,-0.4656082399152712,4.3371269035669116,0.8716167133571813,-0.2273463812201708,-0.001215177898078121,-0.20527896049460065,0.6405401894575358,2.530023816482372,0.4201703000705769,-1.171203765423353
115,-3.6023138189412798,-1.29238401033895,-0.4586624493054463,4.420822543316827,0.8749168233945912,-0.18844975760468063,-0.020263960205262586,-0.2026603703117331,0.6499318856714548,2.636634672794024,0.3576080434025729,-1.2193792022474035
116,-3.6767915002724116,-1.2944457551440096,-0.45191798595967403,4.502092222494284,0.8781212780685983,-0.15068057235485544,-0.03900840465372252,-0.19810387362025897,0.6587469859720071,2.7367735832718205,0.29515044145753017,-1.2709717308299406
117,-3.749045967235455,-1.2964459553280228,-0.44537484987795484,4.580935941099277,0.8812300773792021,-0.11403882547069788,-0.057190437387561605,-0.19171263197613064,0.666953242413734,2.831304001545845,0.23323939842000577,-1.3252141886829791
118,-3.819077219830403,-1.2983846108909893,-0.43903304106028873,4.657353699131807,0.8842432213264027,-0.07852451695220708,-0.0745822989127419,-0.18362782465787147,0.6745302422309634,2.920947887195169,0.17222887927681968,-1.381471589787146
119,-3.8868852580572604,-1.3002617218329091,-0.43289255950667527,4.7313454965918815,0.8871607099101998,-0.044137646799382146,-0.09099107683212342,-0.174020295744086,0.6814683042434204,3.0063067175379117,0.1124043119290584,-1.4392195932900718
120,-3.9524700819160223,-1.3020772881537825,-0.4269534052171149,4.802911333479489,0.889982543130594,-0.010878215012224857,-0.1062612150227003,-0.16308218390076462,0.6877673270952084,3.087880732255418,0.05399738597030153,-1.4980244249179775
121,-4.015831691406692,-1.3038313098536096,-0.4212155781916074,4.872051209794638,0.892708720987585,0.02125377840926923,-0.12027523145809077,-0.15101892552432325,0.6934356213185047,-3.1170999114983213,-0.0028027295445446133,-1.5575252741083356
122,-4.076970086529265,-1.3055237869323897,-0.4156790784301527,4.938765125537326,0.8953392434811727,0.0522583334650939,-0.1329529226053206,-0.13804192572161111,0.6984887522761711,-3.0419203721564063,-0.05784090980756228,-1.6174193202356175
123,-4.135885267283744,-1.3071547193901236,-0.41034390593275094,5.003053080707552,0.8978741106113574,0.08213545015525092,-0.1442493525655708,-0.12436210004717255,0.7029484162508,-2.969482114080218,-0.11098968305325467,-1.6774491684728776
124,-4.192577233670132,-1.3087241072268108,-0.405210060699402,5.064915075305311,0.9003133223781388,0.11088512847974386,-0.15415192467041863,-0.11018440736243042,0.7068413674209374,-2.899553137836404,-0.1621444234999161,-1.737392352074398
125,-4.247045985688423,-1.3102319504424513,-0.4002775427301062,5.124351109330611,0.9026568787815169,0.13850736843856915,-0.1626768169996023,-0.09570342335438724,0.7101984092783488,-2.831946662627249,-0.21121974980795663,-1.7970525515738232
126,-4.299291523338624,-1.3116782490370453,-0.395546352024863,5.181361182783455,0.9049047798214918,0.16500217003173034,-0.169865035923139,-0.08109994645537637,0.7130534602468938,-2.7665160471005934,-0.2581468426913037,-1.8562522253943563
127,-4.349313846620735,-1.313063003010593,-0.39101648858367266,5.235945295663836,0.9070570254980638,0.1903695332592239,-0.17577830747003498,-0.06653858331025819,0.715442699895051,-2.703150923990473,-0.3028714630341643,-1.9148264076509072
128,-4.397112955534745,-1.314386212363094,-0.38668795240653564,5.2881034479717535,0.9091136158112323,0.2146094581210516,-0.18049498863379376,-0.052166228869055864,0.717403799202442,-2.641774255748268,-0.34535250053050315,-1.9726174918941206
129,-4.442688850080668,-1.3156478770945483,-0.38256074349345104,5.337835639707212,0.9110745507609976,0.2377219446172134,-0.18410614249216944,-0.03811133539069611,0.7189752358427518,-2.582340052089956,-0.38556091720743835,-2.0294708770870074
130,-4.48604153025849,-1.316847997204956,-0.37863486184441975,5.385141870870207,0.9129398303473599,0.2597069927477058,-0.18671188440453623,-0.024483853532546767,0.7201956933658116,-2.524831518609048,-0.4234789740789645,-2.085231400958653
131,-4.527170996068225,-1.3179865726943176,-0.3749103074594409,5.430022141460743,0.914709454570319,0.2805646025125359,-0.18841807307207686,-0.011375725523261852,0.7211035414758615,-2.469259430091052,-0.45909964573008494,-2.139740524373077
132,-4.566077247509856,-1.3190636035626322,-0.3713870803385153,5.472476451478816,0.9163834234298749,0.30029477391169657,-0.18933339085705111,0.0011381865788728882,0.7217363932803784,-2.415660545622924,-0.49242613941672675,-2.1928342574064073
133,-4.6027602845834,-1.3200790898099004,-0.3680651804816426,5.512504800924425,0.9179617369260274,0.31889750694519137,-0.18956683294062254,0.012998847003547564,0.7221307343893543,-2.36409590781457,-0.5234714444176528,-2.244341832692383
134,-4.637220107288854,-1.321033031436122,-0.36494460788882255,5.550107189797579,0.919444395058777,0.3363728016130185,-0.18922560476396935,0.024161565632037793,0.7223216180415275,-2.314648897715399,-0.5522578456637668,-2.2940851339714388
135,-4.669456715626215,-1.3219254284412971,-0.36202536256005513,5.58528361809827,0.9208313978281233,0.3527206579151816,-0.18841341157580005,0.03459437709527614,0.7223424199842272,-2.2674229515806337,-0.5788163445136297,-2.341878878121926
136,-4.699470109595477,-1.3227562808254256,-0.35930744449534147,5.618034085826498,0.9221227452340665,0.367941075851677,-0.1872291124382514,0.0442763529593096,0.7222246466004097,-2.2225388854097767,-0.6031859399534698,-2.3875315287984007
137,-4.727260289196646,-1.3235255885885076,-0.3567908536946798,5.648358592982266,0.9233184372766061,0.38203405542250835,-0.18576570323931124,0.05319590727356556,0.7219977897250747,-2.1801318164960604,-0.6254127360150117,-2.4308468919465986
138,-4.752827254429722,-1.3242333517305431,-0.35447559015807184,5.676257139565571,0.924418473955743,0.39499959662767203,-0.18410958857984341,0.06134914334051295,0.7216892216910409,-2.140347715031695,-0.6455488558401032,-2.4716263118739628
139,-4.776171005294703,-1.3248795702515317,-0.3523616538855161,5.701729725576413,0.9254228552714765,0.4068376994671681,-0.1823401002898568,0.06873827822677939,0.7213241243613838,-2.1033396590871773,-0.6636511590647551,-2.5096713559605024
140,-4.797291541791594,-1.3254642441514741,-0.3504490448770139,5.7247763510148,0.9263315812238068,0.41754836394100003,-0.18052922024582874,0.07537017153573145,0.7209254462163815,-2.069263898773477,-0.6797797760816722,-2.5447868513008487
141,-4.816188863920388,-1.3259873734303698,-0.3487377631325641,5.7453970158807195,0.9271446518127341,0.42713159004916434,-0.17874146661743906,0.08125497643220936,0.7205138819436916,-2.0382758565015338,-0.6939964890077177,-2.576784121605795
142,-4.832862971681092,-1.326448958088219,-0.3472278086521676,5.763591720174173,0.9278620670382576,0.4355873777916628,-0.17703390523625112,0.0864049238833483,0.7201078694120668,-2.010526197838285,-0.7063630034889474,-2.605484270029803
143,-4.847313865073701,-1.3268489981250218,-0.3459191814358231,5.779360463895173,0.9284838269003785,0.4429157271684936,-0.175456251085928,0.09083324551259335,0.7197235993751295,-1.986157101386113,-0.7169391666336773,-2.6307213636255793
144,-4.859541544098217,-1.3271874935407775,-0.3448118814835328,5.792703247043711,0.929009931399096,0.4491166381796603,-0.17405102866724412,0.0945532362619843,0.7193750337393366,-1.9652988383469947,-0.7257811935425634,-2.6523453960969645
145,-4.869546008754639,-1.3274644443354873,-0.3439059087952949,5.803620069619786,0.9294403805344105,0.45419011082515937,-0.1728537639617672,0.09757745509135946,0.7190739287292104,-1.948066746669607,-0.7329399677488475,-2.6702249338900064
146,-4.877327259042964,-1.32767985050915,-0.343201263371109,5.812110931623405,0.9297751743063216,0.458136145104989,-0.1718931847372043,0.09991706006363622,0.7188298597855836,-1.9345586556051546,-0.7384594795269392,-2.684249381868202
147,-4.882885294963199,-1.3278337120617665,-0.3426979452109773,5.818175833054557,0.9300143127148295,0.46095474101915457,-0.1711914098913393,0.10158127321572287,0.7186502455338067,-1.924852788875504,-0.7423754610140956,-2.694330834202551
148,-4.886220116515339,-1.327926028993336,-0.34239595431489755,5.82181477391325,0.9301577957599345,0.46264589856765426,-0.1707641123535987,0.10257697043692857,0.7185403686554025,-1.9190061524457136,-0.7447142692057531,-2.700405499792475
149,-4.887331723699386,-1.3279568013038598,-0.34229529068287157,5.8230277541994795,0.930205623441636,0.4632096177504881,-0.17062064372611147,0.10290839201702207,0.7185033919871042,-1.9170533986053577,-0.74549205798575,-2.702434707075441
